flxalr/sts-optimization-reemc/input/498_166/acc.csv
time;base_link_tx;base_link_ty;base_link_tz;base_link_rz;base_link_ry;base_link_rx;leg_left_1_joint;leg_left_2_joint;leg_left_3_joint;leg_left_4_joint;leg_left_5_joint;leg_left_6_joint;leg_right_1_joint;leg_right_2_joint;leg_right_3_joint;leg_right_4_joint;leg_right_5_joint;leg_right_6_joint;torso_1_joint;torso_2_joint;arm_left_1_joint;arm_left_2_joint;arm_left_3_joint;arm_left_4_joint;arm_left_5_joint;arm_left_6_joint;arm_left_7_joint;arm_right_1_joint;arm_right_2_joint;arm_right_3_joint;arm_right_4_joint;arm_right_5_joint;arm_right_6_joint;arm_right_7_joint;head_1_joint;head_2_joint
0.0;0.0;0.0;0.0;0.0;0.0;0.0;-5.126546174207748e-21;-1.2493205860439912e-20;3.793307104079538e-18;-2.543888616514338e-18;3.558947643581522e-18;-5.815509350797025e-23;5.808476548865758e-21;-1.1843443524820239e-07;3.5115656374412385e-18;-2.5201352716720092e-18;3.567212647422932e-18;4.96300906747572e-22;-7.862454895993563e-05;1.6546342200358436e-05;3.3185496130353386e-06;-0.0011750963054310592;5.7926056892905095e-06;1.3299681095503635e-07;0.0;-1.8194996388453098e-22;-4.472572658235271e-22;0.00010260150821821323;-4.1134783503408e-05;-5.580560451636206e-07;-0.0009017664987485919;2.3635425014844817e-05;-2.848956072436916e-06;1.0835068570868795e-05;0.0010424694915090672;-0.013880613930951299
0.019866466522216797;-0.00018666412993308224;0.00011831427440681206;-3.266686114575726e-05;-0.0002604883093170081;-0.0002252470434335129;-0.00010086722934148648;-5.114735044748459e-21;-1.2499138103660402e-20;3.713029889695617e-18;-2.5401334041558304e-18;3.555299120526285e-18;-6.041886448655487e-23;5.8142036384148065e-21;-1.1863423322547396e-07;3.4382848841139796e-18;-2.5163709519101204e-18;3.563566989888963e-18;4.95002258649857e-22;-7.882615653295302e-05;1.657884092357208e-05;3.3109091663611375e-06;-0.001164605781297797;5.798162197124213e-06;1.3268060470366528e-07;0.0;-1.8118753611316636e-22;-4.46955197209564e-22;0.00010698438415020434;-4.11855289591966e-05;-5.593973631675072e-07;-0.0009027193169499267;2.2942485395740462e-05;-2.9133714783586566e-06;1.093028843990153e-05;0.0010440644236454385;-0.013838771043985676
0.039989471435546875;-0.0004718795880722114;0.00026246008165699676;-8.601844727127502e-05;-0.0004686392097211818;-0.000587257190197862;-0.0002506303332288714;-5.064531602447457e-21;-1.2518352982031708e-20;3.3841746013694466e-18;-2.523807851073772e-18;3.5390044061983034e-18;-6.962664315493563e-23;5.8352438809515695e-21;-1.1940178365344032e-07;3.138071114276152e-18;-2.500017720560938e-18;3.547280669056755e-18;4.895091537547214e-22;-7.954816975935436e-05;1.6636002571114018e-05;3.283060813022692e-06;-0.0011213671579774057;5.818513185683261e-06;1.3152571097509466e-07;0.0;-1.780061457748947e-22;-4.455453377322137e-22;0.00012528832009953546;-4.1370085712228946e-05;-5.646446055692204e-07;-0.0009062455124877068;2.025395428387332e-05;-3.186124428658581e-06;1.1325868853000615e-05;0.0010501521786135802;-0.013677227865061503
0.0598454475402832;-0.0007008245498674676;0.0003384610945546691;-0.00013257755918999145;-0.0007430414781232664;-0.0008670365698968923;-0.00028981996861155823;-4.947698214255892e-21;-1.254759151939463e-20;2.650758865027005e-18;-2.484876197836405e-18;3.499054257283384e-18;-8.998590711807186e-23;5.875688603458698e-21;-1.209772850333884e-07;2.4684798483652016e-18;-2.4610501151868286e-18;3.50734028581185e-18;4.767948102883912e-22;-8.089367151098747e-05;1.6573429914411558e-05;3.229295260117001e-06;-0.0010242275633712435;5.857446236658346e-06;1.2928975848612432e-07;0.0;-1.7075545108242157e-22;-4.419395720332264e-22;0.0001669540461801111;-4.172041895214476e-05;-5.756846919817471e-07;-0.0009131005283034059;1.6386540959566864e-05;-3.791806696719316e-06;1.2196404117127358e-05;0.0010625358443746378;-0.013340538881406589
0.08004927635192871;-0.0010867063681534045;0.00034488128596319936;-0.00022251279231233143;-0.0009872454631995073;-0.001358119064482795;-0.00024076334839583975;-4.725539400766906e-21;-1.257487023571754e-20;1.3145233148423492e-18;-2.4091299473847188e-18;3.4193766396824503e-18;-1.2674315635997505e-22;5.9370062945220436e-21;-1.235875404189804e-07;1.2484288920443078e-18;-2.3852875720790027e-18;3.427663367198745e-18;4.527450839763869e-22;-8.286794236885311e-05;1.6124860043428385e-05;3.1453611766914328e-06;-0.0008486474416625508;5.916058457892865e-06;1.2578746505275208e-07;0.0;-1.5724822953510164e-22;-4.344890466508674e-22;0.0002442834567891505;-4.224419881698397e-05;-5.945344898054952e-07;-0.0009236633602405304;1.3664139574102267e-05;-4.856243218193136e-06;1.3725891697429589e-05;0.0010828202369962529;-0.012766137249595338
0.09981584548950195;-0.001683266572274195;0.0004906982153593193;-0.0003487404469233908;-0.0010731218118467986;-0.002147009312291427;-0.0004239434053689975;-4.370299634111825e-21;-1.2576999438816237e-20;-7.366657265769348e-19;-2.285492397976721e-18;3.2865301851970435e-18;-1.8265360076601135e-22;6.012216847035405e-21;-1.271965279355821e-07;-6.24562958285857e-19;-2.261700260558752e-18;3.2947918476903753e-18;4.144742301731926e-22;-8.52089901814136e-05;1.4964745892765417e-05;3.035265385393444e-06;-0.0005912803352402488;5.98719043760845e-06;1.2117591948291132e-07;0.0;-1.3605991992923417e-22;-4.21704883378247e-22;0.00035047155212245066;-4.287662300052009e-05;-6.215362742415561e-07;-0.0009395412922996602;1.236477979841824e-05;-5.539048529801195e-06;1.5095592486004604e-05;0.0011104751402046243;-0.011935565893444756
0.11984515190124512;-0.002153499641091304;0.0007510061748375745;-0.00043451371740620343;-0.0010599444362169397;-0.0027783988268037857;-0.0007891358386254167;-3.829383312455455e-21;-1.2521624072168492e-20;-3.739177214292598e-18;-2.093676553755513e-18;3.0765632214612046e-18;-2.637386624697436e-22;6.094472157098262e-21;-1.318937675591036e-07;-3.3664547868568594e-18;-2.0700686952529077e-18;3.0847497271465438e-18;3.5646205862360333e-22;-8.76751377749697e-05;1.2626782903343347e-05;2.8980534299474527e-06;-0.00025312320875510647;6.063585158851916e-06;1.1540328990517736e-07;0.0;-1.043764619354415e-22;-4.010088377151447e-22;0.0004733701738516407;-4.355452673147813e-05;-6.58215577260682e-07;-0.000964777448706718;1.0787256848664369e-05;-5.108884091711579e-06;1.5630878679121953e-05;0.00114583133877877;-0.010783578638387588
0.13994932174682617;-0.0023364910587193323;0.001282662593839259;-0.00042731505827950215;-0.0008782872031598372;-0.0030463188433042035;-0.001569546701092011;-3.0579357589868235e-21;-1.2365017178276493e-20;-7.861344972231031e-18;-1.815402612996181e-18;2.766934191102601e-18;-3.740191891677854e-22;6.169051067790892e-21;-1.3753593730963605e-07;-7.131124331596661e-18;-1.7922003149412336e-18;2.774964519580513e-18;2.7407297397720295e-22;-8.980358818203097e-05;8.601668512186608e-06;2.7382129717627642e-06;0.00013085034515266443;6.130268993637963e-06;1.0864474299622496e-07;0.0;-5.99574779461609e-23;-3.698636242066279e-22;0.0005991816460355726;-4.4149553083130625e-05;-7.046525076975408e-07;-0.001001269233086414;7.6124779748731905e-06;-3.7284212950652618e-06;1.5520373441709292e-05;0.0011873126366469641;-0.009275854221515193
0.16000032424926758;-0.0023531751662687088;0.0019329709469728847;-0.00036988282046982574;-0.00038062211888375674;-0.003124385709731464;-0.0025903989827866744;-2.012203047711288e-21;-1.2055317954926757e-20;-1.3248399295282085e-17;-1.4322809152666613e-18;2.3344477440875644e-18;-5.1678145512414645e-22;6.216525676176673e-21;-1.4385787778281988e-07;-1.2051383942849766e-17;-1.4098074879852207e-18;2.342204895282634e-18;1.6282630304637203e-22;-9.102463437981475e-05;2.35711196724179e-06;2.561248006161061e-06;0.0005189307091927228;6.1676227165536934e-06;1.0111942256037058e-07;0.0;-7.08598291889632e-25;-3.256010559046592e-22;0.0007159645571774164;-4.449644372734163e-05;-7.602284923719129e-07;-0.0010491971851584012;3.5277627530262676e-06;-1.5781526918459502e-06;1.4895260934627457e-05;0.0012323213715212315;-0.007683724590759324
0.1799452304840088;-0.00230139778958783;0.0026293853323804506;-0.0002920086020555754;0.0004574757261955521;-0.003144547495911253;-0.0037577064845198097;-6.4795038590488465e-22;-1.1533146785888006e-20;-2.0032847207765782e-17;-9.252982060304347e-19;1.754742655917982e-18;-6.948678929961315e-22;6.213429548489518e-21;-1.5049690500014325e-07;-1.8248456744802096e-17;-9.039928871490829e-19;1.7620688695420424e-18;1.8223191251785355e-23;-9.068802757339484e-05;-6.656830027789145e-06;2.3725649434823467e-06;0.0008828694694548628;6.152027917225896e-06;9.304448110676994e-08;0.0;7.541886148500239e-23;-2.6537781945077045e-22;0.0008163827716064935;-4.439919983338463e-05;-8.237923186606492e-07;-0.0011073016380835693;8.313929887330258e-07;1.106547776737271e-06;1.3883490912864795e-05;0.0012774313572687592;-0.0062425742327102554
0.19996094703674316;-0.0022253692555470666;0.0032608457305612418;-0.00021454989505176883;0.0014650459478495136;-0.0031479439157364925;-0.004876374866254715;1.0981800093140399e-21;-1.0722528021685127e-20;-2.842317834640031e-17;-2.6777207748809705e-19;9.941157544435805e-19;-9.129764867466723e-22;6.131146462620014e-21;-1.5705709136926278e-07;-2.5913011261843673e-17;-2.482234629688001e-19;1.0008006153878589e-18;-1.662206712475651e-22;-8.803202418696747e-05;-1.9139819755042643e-05;2.1752267168659517e-06;0.001208037650640227;6.054596562768321e-06;8.453876046233822e-08;0.0;1.714489609438444e-22;-1.8531181214335513e-22;0.0008972368551053205;-4.362118310625787e-05;-8.943817664812047e-07;-0.0011737469800834836;-3.5796135831507827e-07;4.115860480951969e-06;1.2618715864353673e-05;0.0013187806804952757;-0.004847141612508888
0.21991753578186035;-0.0021249561417474422;0.0036950963014108075;-0.00014997670614305485;0.0025886273430016714;-0.0031276676203571816;-0.005750442051001324;3.2674211616177383e-21;-9.547978309617357e-21;-3.850141959856824e-17;5.592416812755934e-19;2.721962305322272e-20;-1.1723662145578823e-21;5.9367199790892594e-21;-1.629262455237821e-07;-3.5120237344036934e-17;5.762999150638524e-19;3.300201682406515e-20;-3.9460881782256843e-22;-8.221898189721016e-05;-3.5654980332626635e-05;1.9749121094644194e-06;0.0014817298272304465;5.842350689411884e-06;7.58363691238238e-08;0.0;2.890923050448965e-22;-8.233025322793227e-23;0.0009561542275099009;-4.189447229583285e-05;-9.69400200664526e-07;-0.0012445330623519551;-1.6197175034422859e-06;7.20718992855546e-06;1.1163563005922988e-05;0.001350857674763697;-0.0037245257284225374
0.23987460136413574;-0.00189241415463246;0.003989720467036055;-6.75685912494561e-05;0.0033984862747978885;-0.002899225359128811;-0.006354396323655864;5.915732474769128e-21;-7.918628582138283e-21;-5.040274240239861e-17;1.580751229363822e-18;-1.1788288151974033e-18;-1.4755450315487969e-21;5.591793771776665e-21;-1.674311035705e-07;-4.599391151791682e-17;1.5944097902873152e-18;-1.1742715064879994e-18;-6.725621253393813e-22;-7.378484429925683e-05;-5.5397860238438044e-05;1.7750365405704698e-06;0.0016999326782645061;5.4768356997227264e-06;6.707788156432086e-08;0.0;4.307848646059577e-22;4.749426594622647e-23;0.000993245461759666;-3.8909522325814914e-05;-1.0461993746179818e-06;-0.0013150252650041515;-4.240988456952023e-06;1.0169283533274637e-05;9.49807445698938e-06;0.0013675152573433588;-0.0030444578307089916
0.2598731517791748;-0.001516445686904465;0.004157619537418311;3.654265259260085e-05;0.0037274281847498657;-0.002431546175678591;-0.00666528907382539;9.098938921980541e-21;-5.7329769118190995e-21;-6.423963266664762e-17;2.8223628318175336e-18;-2.658256160935902e-18;-1.8242654055208494e-21;5.052130577386571e-21;-1.6975227774725146e-07;-5.863713616891747e-17;2.8315172813439005e-18;-2.6553147584716367e-18;-1.0056394450841348e-21;-6.437637323014042e-05;-7.635627063073973e-05;1.578705655501463e-06;0.0018619712320025697;4.913781055748107e-06;5.839444771638372e-08;0.0;5.988494737427384e-22;2.0830738400379296e-22;0.0010095460174334137;-3.431243510304788e-05;-1.121316263130911e-06;-0.001379281473708563;-7.515190554546907e-06;1.276097666078407e-05;7.652861502707633e-06;0.001361371900642154;-0.0026454560529346575
0.2798309326171875;-0.0010408313710054311;0.004120460256619432;0.00014467470182910874;0.003852588868099491;-0.0018088565240812421;-0.0066424616345257675;1.2847942535008894e-20;-2.897446646905531e-21;-7.99973081615208e-17;4.3005188086164976e-18;-4.434910226312956e-18;-2.216914931999622e-21;4.272661257831776e-21;-1.6892711925360232e-07;-7.303677115231916e-17;4.3038879336495675e-18;-4.4340369005220176e-18;-1.3967507106793757e-21;-5.5129319978243344e-05;-9.685599874406397e-05;1.389695761063841e-06;0.001969183712079374;4.10832228986826e-06;4.995275754757773e-08;0.0;7.942022693687222e-22;4.031884105910421e-22;0.0010068076186405853;-2.7747914245729673e-05;-1.1900044816052469e-06;-0.0014297249109113679;-9.088603217500335e-06;1.4701101052295697e-05;5.711265284819033e-06;0.0013240366105888805;-0.002391937759819899
0.2998659610748291;-0.000484561593683273;0.00399848689879604;0.00026374168648898486;0.0037297615121518754;-0.0010536520303232662;-0.006441519845697607;1.722347508968683e-20;7.14276720738927e-22;-9.776539563785881e-17;6.044039992971851e-18;-6.548109204675702e-18;-2.6543025397334524e-21;3.1965130165594516e-21;-1.6384785986859183e-07;-8.927514040544642e-17;6.040101061941676e-18;-6.549840352151894e-18;-1.8518723359116947e-21;-4.66236656477465e-05;-0.00011577663924553138;1.2093539191362156e-06;0.00202612301006846;3.00364522437371e-06;4.181778810910558e-08;0.0;1.0192131409021826e-21;6.369807913256148e-22;0.0009872891327316995;-1.8766970195048333e-05;-1.2472941002741768e-06;-0.0014579830869375125;-8.764951374394523e-06;1.577147125478256e-05;3.7034945515165804e-06;0.0012456499015753104;-0.0021638658850577815
0.319913387298584;0.0001632436814812888;0.003840314548285526;0.00040089090914805333;0.003393258843514234;-0.00015533119538396674;-0.0061380168282838005;2.2242195722576228e-20;5.205652214621111e-21;-1.174266844631227e-16;8.065005854643517e-18;-9.01765892168495e-18;-3.1318975005467828e-21;1.770208427000159e-21;-1.5327376420189193e-07;-1.072456112494854e-16;8.05204336143443e-18;-9.02259746575635e-18;-2.3723360318501235e-21;-3.914079859552871e-05;-0.00013206988145720336;1.0402467803765903e-06;0.002037642295309208;1.5466990949328484e-06;3.4116177921754236e-08;0.0;1.2738518439717808e-21;9.12456818355232e-22;0.0009535251328980085;-6.9551566722220136e-06;-1.2866147613212925e-06;-0.0014538998802651546;-8.084831731498438e-06;1.5767658540690942e-05;1.6500591854123782e-06;0.001115584997649672;-0.001858711059272036
0.33997130393981934;0.0009443983974944093;0.003644800321856791;0.000565825669643804;0.0031022039976191743;0.0009168298271842105;-0.005793351631007384;2.7917658907152315e-20;1.068728352732565e-20;-1.3883135277916114e-16;1.0374847551348195e-17;-1.1863138355533251e-17;-3.644188266122484e-21;-6.43098228610679e-23;-1.3583553241081365e-07;-1.2681180008181344e-16;1.0350940551317493e-17;-1.1871958024142162e-17;-2.9591071866911363e-21;-3.26160263330849e-05;-0.00014493882529314174;8.83838762095679e-07;0.0020097776616288436;-3.2006858527519103e-07;2.6933311149129772e-08;0.0;1.557832501000547e-21;1.232426580647984e-21;0.0009081569198226995;8.134701079362852e-06;-1.3006208694231631e-06;-0.0014062124261661159;-8.293034072254351e-06;1.446757385137277e-05;-4.075633566284188e-07;0.0009221533594386774;-0.0013852543308296057
0.3598661422729492;0.0017014373119532012;0.0035097486581459406;0.0007308281683783638;0.002700567905071712;0.0019668010329640644;-0.005505420096336441;3.418848520425105e-20;1.7204261671880633e-20;-1.6153282950162304e-16;1.2954915309315879e-17;-1.506745680492354e-17;-4.1784254829547135e-21;-2.344654908003644e-21;-1.1030067558379169e-07;-1.4756610241496344e-16;1.2918069303558436e-17;-1.508085521792296e-17;-3.6053732825385116e-21;-2.677383156985501e-05;-0.0001536519350584968;7.423054154254986e-07;0.001949526495522545;-2.63329941189451e-06;2.03965499818377e-08;0.0;1.867051954796023e-21;1.5956195261224484e-21;0.0008542753759509487;2.6777557924265772e-05;-1.2812626329246736e-06;-0.0013035481600367365;-8.669981878608045e-06;1.1657888564831095e-05;-2.3880608998255456e-06;0.0006554305642582787;-0.0009653240293051026
0.3799021244049072;0.0023421940889676437;0.003351238814798343;0.0008663249545754297;0.0024897852469774615;0.002843575627786389;-0.005232070601738352;4.1122367568635147e-20;2.4950911532594672e-20;-1.855207020483037e-16;1.5840580471601217e-17;-1.868145689493656e-17;-4.731813419733142e-21;-5.163685393228485e-21;-7.470559950701413e-08;-1.6949975352402753e-16;1.578843332766373e-17;-1.8700259334101414e-17;-4.31755640871928e-21;-2.0987719934833632e-05;-0.0001577520236634305;6.140477365139076e-07;0.00186236573862375;-5.485467209236127e-06;1.4468173990310466e-08;0.0;2.203622468166264e-21;2.0085574184968937e-21;0.0007935190657441682;4.9694256541339816e-05;-1.2189495289041454e-06;-0.0011308053828693384;-6.900585062904513e-06;7.991945834338448e-06;-3.37908415729325e-06;0.0003252985198801935;-0.0007860984270441295
0.3999483585357666;0.0027417693468979763;0.0030514122736864085;0.0009318290202434082;0.0022445875638771404;0.003403744496431446;-0.0047558831596982995;4.8626688366493175e-20;3.397257234231766e-20;-2.101679012823103e-16;1.90023248319619e-17;-2.2676373998031938e-17;-5.286682002895434e-21;-8.565661700320364e-21;-2.7499626680366567e-08;-1.9204033188268316e-16;1.8932445168667133e-17;-2.2701427471444255e-17;-5.085478406812647e-21;-1.4589313585597443e-05;-0.00015659199110084682;5.003166924159464e-07;0.0017546190095825373;-8.919501809047725e-06;9.25153355154133e-09;0.0;2.561577075935837e-21;2.46884680947305e-21;0.0007284429189892502;7.720190162321442e-05;-1.1032527332649157e-06;-0.0008825744179126501;-2.702806854623982e-06;5.061259822761758e-06;-3.3874808674271607e-06;-3.147674427217309e-05;-0.0006974246084820544
0.4199495315551758;0.0030980791934748153;0.0026724122177239295;0.0009797019649442097;0.002078536571530574;0.003899487901606084;-0.004189667793534062;5.659234878661305e-20;4.4303417232780524e-20;-2.3477540748181777e-16;2.240421079880215e-17;-2.701580338008707e-17;-5.8235452650842145e-21;-1.2592132797803744e-20;3.288198335424375e-08;-2.145496730951032e-16;2.231412103030266e-17;-2.7047968350480596e-17;-5.8972359306342e-21;-6.75346429541691e-06;-0.00014962035700890906;4.013560672925347e-07;0.0016322271672784459;-1.2975499585138493e-05;4.813019926969866e-09;0.0;2.9340771664315874e-21;2.9732647796151136e-21;0.0006612117632160656;0.00010959180828454485;-9.233431349316926e-07;-0.0005794431271445773;2.5150489616401694e-06;3.487513293728821e-06;-3.3495013307241224e-06;-0.00038792540779858734;-0.0005404746281516065
0.44002485275268555;0.0033774634558713886;0.002295028211224189;0.0010096746951243304;0.0019378137461919765;0.00429018931138358;-0.003632198227595211;6.494146948635178e-20;5.604339908634258e-20;-2.586885283120437e-16;2.6025167658458048e-17;-3.1683663076775926e-17;-6.3232745690103415e-21;-1.7314349700285017e-20;1.0858495893613067e-07;-2.3643034099529177e-16;2.5912218282760887e-17;-3.172385729302954e-17;-6.743994043891293e-21;2.0221371524979196e-06;-0.00013769591732150678;3.1634320145541897e-07;0.0014994953549606034;-1.7723223783379563e-05;1.1814331022955787e-09;0.0;3.3154940058772153e-21;3.521095985968038e-21;0.0005931340993886328;0.00014738737300834146;-6.657726993667459e-07;-0.0002512714810174785;7.669017739463021e-06;2.9479853197524865e-06;-3.2926361668855803e-06;-0.0007275006410359746;-0.0001773414013598896
0.4599332809448242;0.003568935306481541;0.0019368543445261303;0.001020827289118045;0.0020028283882776434;0.004543583193450277;-0.003151882923011153;7.340228832785933e-20;6.904198004913457e-20;-2.806516502543884e-16;2.9761381626237594e-17;-3.655837604594265e-17;-6.7536077927557635e-21;-2.2706088389822836e-20;2.0029842436941263e-07;-2.565352227745084e-16;2.962324137003894e-17;-3.660740205643227e-17;-7.59715547859709e-21;9.961876378791648e-06;-0.00012306866885462617;2.4575766374338903e-07;0.0013624671437326306;-2.313423820457542e-05;-1.550929926981479e-09;0.0;3.69112277903473e-21;4.09936777762218e-21;0.0005264474004809576;0.0001903262216007255;-3.213996961588411e-07;7.319217918270177e-05;1.3495206076751838e-05;3.147531460365756e-06;-3.280316015744156e-06;-0.0010335191390025264;0.0002301128200505145
0.4798123836517334;0.0035896538765258813;0.0015029103574470749;0.0009847224066481303;0.0019618036019822573;0.004580399893726648;-0.0025416717962907457;8.181093366303903e-20;8.332482757483831e-20;-2.996676938987686e-16;3.3557316157999423e-17;-4.158189647232315e-17;-7.087048539178998e-21;-2.8815631513718886e-20;3.1002329712020204e-07;-2.7395395458669257e-16;3.339163153270713e-17;-4.164056084070888e-17;-8.438955571228265e-21;1.6033681493673096e-05;-0.00010720686095620535;1.8832827999914233e-07;0.0012240223078566958;-2.9254796760226387e-05;-3.3580552989907222e-09;0.0;4.05094528404709e-21;4.702700763128898e-21;0.00046182841919810663;0.00023873623258979768;1.2409977923355006e-07;0.0003768492716405669;2.072554459426962e-05;3.796529933009259e-06;-3.34736631151447e-06;-0.0013001232889832295;0.0005661519240665292
0.4999251365661621;0.003365837513056288;0.0010122369638533944;0.0008858246638421573;0.0019695845259289054;0.004287094788674095;-0.00186604312714111;8.999582291260267e-20;9.900092735721149e-20;-3.145234588893112e-16;3.735980191681498e-17;-4.670421138705378e-17;-7.289135320564248e-21;-3.573873172580428e-20;4.409726020323216e-07;-2.8757914500150316e-16;3.716404519282265e-17;-4.6773376697387316e-17;-9.250426629321406e-21;1.9632561180825768e-05;-9.097873834757764e-05;1.4279992803774007e-07;0.0010854910412195972;-3.617803795679324e-05;-4.185970838798565e-09;0.0;4.383660094860153e-21;5.327185187510118e-21;0.0003993716244055521;0.0002933050077956986;6.919371899917132e-07;0.0006505168725746326;2.839363766009715e-05;4.63602751867737e-06;-3.509178744551888e-06;-0.001524872312988838;0.001024209483097894
0.5199875831604004;0.002928653082842344;0.0005684739954143974;0.000741248049587229;0.0018134103843415565;0.003724568357300903;-0.0012162920559023135;9.749108879884441e-20;1.156996048596555e-19;-3.2329857927397764e-16;4.098404572482305e-17;-5.170214457559489e-17;-7.312341112719093e-21;-4.336844483804399e-20;5.927943784865228e-07;-2.956558345148953e-16;4.075644176646724e-17;-5.17824048633316e-17;-9.983049394857109e-21;2.0386603378852823e-05;-7.532640934389495e-05;1.0921671649539096e-07;0.0009514176322359445;-4.379389736101762e-05;-3.94041815108996e-09;0.0;4.665172957198609e-21;5.948219940313965e-21;0.0003406814836632181;0.00035310969633839374;1.3892617483540222e-06;0.0008823156143033485;3.551815263778087e-05;5.41933085195342e-06;-3.7869124573623233e-06;-0.0017008710568894257;0.0017592598495033993
0.5398294925689697;0.002376075397599306;4.279736262523711e-05;0.0005618351978027004;0.0016576051136453797;0.0030090573972825314;-0.00045390952945869516;1.0383595772123145e-19;1.3301665649671845e-19;-3.2417113037854284e-16;4.4244995331129985e-17;-5.635003321784111e-17;-7.112254281692161e-21;-5.1578308826506567e-20;7.646288265481429e-07;-2.9651882494786334e-16;4.3984582471696505e-17;-5.644169318982476e-17;-1.0589003135143189e-20;1.8353421218090533e-05;-6.077116472388218e-05;8.68126410361302e-08;0.0008248256697898811;-5.1973051059470425e-05;-2.5717900271846157e-09;0.0;4.872024627529438e-21;6.540684376998641e-21;0.0002866495573448408;0.0004170789515028407;2.2203005582808057e-06;0.0010676197852104298;3.9608310589005196e-05;5.9348663469053234e-06;-4.204183548689353e-06;-0.0018259614761751925;0.002892753835898803
0.5599544048309326;0.0016416114219212144;-0.0006085574251334942;0.000327831578451898;0.0016145034182605115;0.0020415607149318195;0.0004538925928776192;1.0868776142445846e-19;1.51055645232715e-19;-3.149533341139304e-16;4.702954567190982e-17;-6.053303935560173e-17;-6.627931882642849e-21;-6.049674878836511e-20;9.613392884770642e-07;-2.881707890336044e-16;4.673522405506873e-17;-6.063644359847939e-17;-1.1030917508044616e-20;1.3713751443264854e-05;-4.710095026449351e-05;7.419884989169653e-08;0.0007040312415956048;-6.0839384217662885e-05;4.009381068435447e-11;0.0;4.982773011164033e-21;7.094376524705876e-21;0.00023621844867850094;0.00048610916846497356;3.2187813635354665e-06;0.001210379169042707;4.017694278830863e-05;6.0052035936046506e-06;-4.806003796748606e-06;-0.0019022408513060891;0.004250000653563914
0.5798273086547852;0.0008136605054100282;-0.0011634513154932398;8.098498458963405e-05;0.0017187992147834588;0.0009341206166112384;0.0011918225714611691;1.1134655306036797e-19;1.6890270536472453e-19;-2.9349546284722755e-16;4.903840188107024e-17;-6.386905679440122e-17;-5.812620002880024e-21;-6.976660492783008e-20;1.1775370989452723e-06;-2.6864525274841955e-16;4.8710858719102845e-17;-6.398392116135955e-17;-1.123749016685203e-20;7.012178143768142e-06;-3.46283900437784e-05;7.085434741434417e-08;0.000593277873829908;-7.003317884685108e-05;3.910208833778991e-09;0.0;4.964746525131287e-21;7.564845154868607e-21;0.0001908743139327481;0.0005573167836508766;4.3684346522967735e-06;0.0013082905818888255;3.9891117305694145e-05;5.45886966712756e-06;-5.612568772334092e-06;-0.0019270531494298354;0.005587994994284728
0.5998485088348389;-0.00015930326255639838;-0.0015463238226639002;-0.0001836790461050226;0.002203582733542582;-0.0004052108925782138;0.0015982349250265523;1.1121981510217866e-19;1.8635455231386846e-19;-2.56802486193024e-16;5.0052798561043983e-17;-6.610939111291305e-17;-4.587349426784443e-21;-7.939946989255849e-20;1.4164256970017818e-06;-2.3520658971252474e-16;4.96931851789319e-17;-6.623525912552204e-17;-1.1145812503295487e-20;-1.279086489906436e-06;-2.2874127732527156e-05;7.571859866261197e-08;0.0004909006865654738;-7.956045896991259e-05;9.190489219692588e-09;0.0;4.784649379904983e-21;7.926427439090126e-21;0.0001496776565976169;0.0006306507152676732;5.6986458023390485e-06;0.0013667784084196517;3.935451321212646e-05;4.130724614153689e-06;-6.676110496774323e-06;-0.0019007045444987107;0.00672203983159644
0.6198313236236572;-0.0010598351836346258;-0.0015920425738061089;-0.0003995385708164334;0.0022772647383944456;-0.0016121721517662192;0.0016388749400793536;1.0753970558597551e-19;2.02552074697543e-19;-2.0222065081653554e-16;4.9753107126561724e-17;-6.685367047852541e-17;-2.890926672121496e-21;-8.90824742428826e-20;1.6740461374227153e-06;-1.8542829490583816e-16;4.936427158850166e-17;-6.698948643052255e-17;-1.067702467552022e-20;-1.0378584975881802e-05;-1.160439414608758e-05;8.786779679816933e-08;0.00039822143020141267;-8.91046931523371e-05;1.592441880740793e-08;0.0;4.4052230535295395e-21;8.133369045800393e-21;0.00011295558279240467;0.0007062192048092011;7.202418646462914e-06;0.0013890187847461692;3.7433421681756745e-05;1.8543466299845824e-06;-8.0500047072891e-06;-0.001822082596838928;0.007426213499090681
0.6398367881774902;-0.0019619833624823623;-0.001192631321037018;-0.0005738131059387237;0.0024688790926568273;-0.0028375182397997996;0.0010350395500754752;9.946277860431496e-20;2.1670405977043793e-19;-1.2652067488495803e-16;4.779747676146252e-17;-6.568209168071249e-17;-6.45600730960619e-22;-9.855588093135637e-20;1.948125846141525e-06;-1.1635859131993443e-16;4.7383850547483966e-17;-6.582623786533953e-17;-9.743820294244512e-21;-1.9481983894424672e-05;-3.297651923969126e-07;1.0634118002875278e-07;0.00031495526511763223;-9.840121188247155e-05;2.420589273711221e-08;0.0;3.7840327892592795e-21;8.138609936953926e-21;8.041662253047437e-05;0.0007867095793315401;8.883607489057916e-06;0.0013797313447236194;3.3150540121627246e-05;-1.6131060443991412e-06;-9.764827908783185e-06;-0.0016895206887871336;0.007835022641852908
0.659914493560791;-0.0028291457727864545;-0.0005729195274777905;-0.0007190923275329081;0.0021930081509698163;-0.003973644300411579;0.00024063117840528604;8.601124264140967e-20;2.278225527974435e-19;-2.61046343971323e-17;4.3785316693348553e-17;-6.209871403230805e-17;2.2338794536864675e-21;-1.0747965546441393e-19;2.2350674502728707e-06;-2.4708331578185233e-17;4.335329693788523e-17;-6.224887660006408e-17;-8.245302824532702e-21;-2.767689249363396e-05;1.1513648814502134e-05;1.301812727772753e-07;0.0002407422043828195;-0.00010710468450907057;3.4129714825404355e-08;0.0;2.872583911571371e-21;7.886110558871426e-21;5.177676984908607e-05;0.000873358591196435;1.0741329242090786e-05;0.0013435288442442681;2.720006211922676e-05;-5.650741447804332e-06;-1.0896132760966426e-05;-0.0015001421756722976;0.008092817983814619
0.6798152923583984;-0.0036887446757749042;5.6872893176918115e-05;-0.0008616451359826193;0.0013967236572345629;-0.005049644246694515;-0.00044080454333072377;6.640377597730409e-20;2.3463061687488354e-19;1.0089788450444681e-16;3.736695847918826e-17;-5.564333984046563e-17;5.781964678049356e-21;-1.1531374383278037e-19;2.5253590479284004e-06;9.12352976323978e-17;3.692540938639857e-17;-5.579634104124817e-17;-6.103028675530396e-21;-3.38603995775268e-05;2.4358604519216152e-05;1.5794838805291924e-07;0.0001760339001941761;-0.0001146737338884048;4.560383789921787e-08;0.0;1.6369457115204539e-21;7.320863340691616e-21;2.7092356852271376e-05;0.0009646875076040138;1.273798807175779e-05;0.0012858403112077329;2.17382197389056e-05;-9.575237207750811e-06;-1.0555210776086849e-05;-0.0012539081810430907;0.008014305428039787
0.700031042098999;-0.004504693463913748;0.0006567791308159083;-0.0009967798566036551;0.0005952188259394724;-0.006066610695630296;-0.001079455955658222;3.90030340296003e-20;2.358723906486625e-19;2.613329123854293e-16;2.789577085762229e-17;-4.553774097747519e-17;1.0168934685370515e-20;-1.2170810412782037e-19;2.8184024234083664e-06;2.3772840842471854e-16;2.745611544130571e-17;-4.568948882333329e-17;-3.14626151726201e-21;-3.7044419337460724e-05;3.9172209177397826e-05;1.891439613790548e-07;0.0001187788193676466;-0.00012074707168262666;5.894659317022218e-08;0.0;-8.027730494121068e-24;6.357389191002847e-21;5.495812562654177e-06;0.0010613255667751514;1.490226108913519e-05;0.0012097296868423199;1.6700658405470328e-05;-1.2801111806499306e-05;-9.704860218091156e-06;-0.0009405298168667027;0.007408859345314378
0.7198562622070312;-0.0051389495339123886;0.001340197738709748;-0.001081386398333347;-3.6776180931732805e-06;-0.00686173455453091;-0.0018821011638393051;3.7079499213900526e-21;2.300230243254019e-19;4.526405371038894e-16;1.5244051087629506e-17;-3.15441444033015e-17;1.5305334979006782e-20;-1.2584443987828638e-19;3.0944548767128858e-06;4.1243930368431005e-16;1.4820531582093582e-17;-3.168957712952052e-17;6.290665131014787e-22;-3.598069072946785e-05;5.6060324319607644e-05;2.213639802007854e-07;7.031069683254597e-05;-0.00012451434336499553;7.366443807528616e-08;0.0;-2.053282470705626e-21;4.960045215704078e-21;-1.2568630284255249e-05;0.0011570223952173334;1.7126394449751597e-05;0.0011221992667226153;1.0709524638513275e-05;-1.4546119265333882e-05;-9.296177798799081e-06;-0.0005672747779933643;0.006456768569275751
0.7399294376373291;-0.005547062943503575;0.0021499048700841868;-0.0011010077991619738;-0.00025689147011142405;-0.00738995685715957;-0.00294252149422442;-4.168519919513912e-20;2.152302027385618e-19;6.837010141714573e-16;-1.4683384087500838e-18;-1.2593881164173888e-17;2.1409155648622217e-20;-1.2716243207245738e-19;3.3505051076252297e-06;6.234838865859701e-16;-1.857737892561051e-18;-1.2726604268515189e-17;5.452027150656248e-21;-3.098157238891835e-05;7.463479681924122e-05;2.541527327675379e-07;2.8294929069533482e-05;-0.00012540106007093548;9.0147845579768e-08;0.0;-4.611815447786791e-21;3.0103843351344846e-21;-2.800465522962899e-05;0.0012506714840369005;1.9436723317641458e-05;0.0010245471851668241;4.248965844487562e-06;-1.5107509531527898e-05;-9.290676646598457e-06;-0.00011830475822372104;0.005295529480270268
0.7597775459289551;-0.005871441320233713;0.0029674247896349683;-0.001100230171963173;-0.00038965357603417295;-0.007818214661193725;-0.004042686751640454;-9.725450736420147e-20;1.8995151527525753e-19;9.517858805313041e-16;-2.2362161725484506e-17;1.1544514859992085e-17;2.83861231562088e-20;-1.2482932984275628e-19;3.5663398079655504e-06;8.683766184741906e-16;-2.269660906820243e-17;1.1431875030554974e-17;1.1324135442775e-20;-2.3633418080636024e-05;9.231598165633306e-05;2.851315828095064e-07;-6.964890771275016e-06;-0.00012258278059716252;1.078894131191681e-07;0.0;-7.673030239958854e-21;4.732248339260819e-22;-4.070408106344508e-05;0.0013375904375715565;2.1722429220379253e-05;0.0009225342687355066;-7.760874290190507e-08;-1.4650773833368349e-05;-9.667523645727635e-06;0.0004004982904596211;0.004089909563483791
0.7799296379089355;-0.006067518826223726;0.0037123619380692915;-0.0010761866430254226;-0.0006798514685578637;-0.00805947394234283;-0.005003388010895013;-1.6567586223017338e-19;1.5134572746137861e-19;1.266458035082225e-15;-4.854204371311147e-17;4.2246296887787445e-17;3.646004181317406e-20;-1.1783886679640942e-19;3.730241620049295e-06;1.155860526608418e-15;-4.8795074568748495e-17;4.216310588672669e-17;1.8520896481080038e-20;-1.466742039373471e-05;0.00010784982091967549;3.1326465635638264e-07;-3.708848688005763e-05;-0.00011503956540081413;1.2717312435846924e-07;0.0;-1.1368280733854068e-20;-2.807680366003693e-21;-5.1226810500895674e-05;0.001418618083618042;2.3970687856096788e-05;0.0008165578800506684;-2.251851175775366e-06;-1.339914620337475e-05;-1.0323214536601326e-05;0.001007983589121647;0.002930355426099392
0.7997877597808838;-0.006236384793417354;0.004340215928232928;-0.0010567934075321444;-0.001304547076445125;-0.008230994560564996;-0.005720392488715746;-2.4594910104008736e-19;9.835785683174707e-20;1.6197808081071305e-15;-7.972351501260523e-17;7.927495707719106e-17;4.540104588541357e-20;-1.0540187054788958e-19;3.817767352332096e-06;1.478692443866933e-15;-7.986687765410103e-17;7.923117185700926e-17;2.6929870241579447e-20;-4.807252717404184e-06;0.0001194620707873316;3.3569573634583864e-07;-6.184974737967636e-05;-0.00010199998440334192;1.4715143942514243e-07;0.0;-1.562754084850861e-20;-6.818346918191931e-21;-5.9449878621568485e-05;0.0014877354473043006;2.602609663963992e-05;0.0007124113306292443;-3.986680122301615e-06;-1.1665580119918968e-05;-1.1050398841577504e-05;0.0017208093424326163;0.0019409514639673656
0.8198368549346924;-0.006411647162586298;0.004832171746039884;-0.0010517173397600011;-0.0022845610382151646;-0.008375390408452572;-0.006162756210850091;-3.4084355514918157e-19;2.745509663948738e-20;2.0204303854800166e-15;-1.1708570431754554e-16;1.2413142739058824e-16;5.539984192296903e-20;-8.615087091932737e-20;3.808725410531346e-06;1.844808359526439e-15;-1.1708422891981385e-16;1.2413944017072948e-16;3.683353421263523e-20;6.0873258240861515e-06;0.00012640104285113345;3.5070766938864594e-07;-8.253184884564892e-05;-8.208595135159095e-05;1.6792143412640378e-07;0.0;-2.058089485931082e-20;-1.1732906405934662e-20;-6.573908962148673e-05;0.0015409351438603976;2.7830558135148334e-05;0.0006098604330519988;-6.845991929316929e-06;-9.637245596236007e-06;-1.1699516119124416e-05;0.002309643653427922;0.0011633235899552341
0.8399274349212646;-0.006273623596411551;0.004970996519359061;-0.0010064453248413603;-0.003284974076410177;-0.008096444225144096;-0.00610997240528913;-4.506039817035111e-19;-6.356815916806858e-20;2.465271938263871e-15;-1.6084766821837834e-16;1.771965715148892e-16;6.634251211995069e-20;-5.892279368621935e-20;3.6755524902820787e-06;2.251354207265321e-15;-1.6066209209283667e-16;1.7727018456782537e-16;4.824838885157679e-20;1.8159897134515243e-05;0.00012766705446404732;3.5548571372569196e-07;-9.948278390769082e-05;-5.668579931166444e-05;1.8883822680111154e-07;0.0;-2.6221120130709723e-20;-1.7606473859550898e-20;-7.010850896318963e-05;0.0015697804452892445;2.9235660298912966e-05;0.0005116685760088956;-1.0240403304915602e-05;-7.501738538108304e-06;-1.2114626046460198e-05;0.002545389136060611;0.0006544455545342716
0.859933614730835;-0.005741204753137251;0.004912397995260805;-0.0008872095311886555;-0.004274935579514958;-0.007290640217439097;-0.005784443259002065;-5.74930236834748e-19;-1.765155098206057e-19;2.948859465307958e-15;-2.1101423404236665e-16;2.3859435168335364e-16;7.805736949919493e-20;-2.2662283740997033e-20;3.3906673674239996e-06;2.693363984920355e-15;-2.1060202389072787e-16;2.3874848313832944e-16;6.113404307085494e-20;3.1773568738196873e-05;0.00012254785134085817;3.472008422896227e-07;-0.00011310672550932898;-2.9308772807267796e-05;2.091391052279836e-07;0.0;-3.2512500263381647e-20;-2.4466051652399722e-20;-7.257642715263111e-05;0.0015645983960559204;3.0082241375757744e-05;0.0004200646359472179;-1.186345065452895e-05;-5.432146091983995e-06;-1.213453915493085e-05;0.0025278208985834646;0.00044816262990955095
0.8799722194671631;-0.00487050480515261;0.004698073082210995;-0.0007032161006300689;-0.005213713078805458;-0.006037155655054665;-0.0052540558420309524;-7.145646662036195e-19;-3.14352172691551e-19;3.4693597974669716e-15;-2.6802389454345735e-16;3.0899168249243326e-16;9.045613932838547e-20;2.4108158106434714e-20;2.921178979758612e-06;3.169175114904247e-15;-2.673369516179794e-16;3.092431768787136e-16;7.555719419821508e-20;4.628358559690875e-05;0.00011175070060450054;3.2273415193043234e-07;-0.00012390784742797765;-2.2505874383441305e-06;2.2816083159820142e-07;0.0;-3.946995161793209e-20;-3.240066181311766e-20;-7.314518335878893e-05;0.0015141192559293781;3.0202003229141174e-05;0.0003358529651519611;-1.1709570875759643e-05;-3.563879994875224e-06;-1.1591971918207975e-05;0.0023375036963945565;0.0005612088728507143
0.9000847339630127;-0.0037944213901124277;0.004266835442015108;-0.0004914131847286302;-0.006017781023614327;-0.0045205968515763095;-0.004455297795748242;-8.695291138464909e-19;-4.798210864580652e-19;4.021246464267717e-15;-3.320506349045887e-16;3.887563322592207e-16;1.0335279940599289e-19;8.289384252250795e-20;2.2299616513268274e-06;3.673751709221307e-15;-3.3103581355588906e-16;3.8912376667412196e-16;9.150793127952297e-20;6.003877789675676e-05;9.708780481456482e-05;2.7849326625802883e-07;-0.000132202178703043;2.280258023702605e-05;2.4497682991298346e-07;0.0;-4.70676565206644e-20;-4.146864310436969e-20;-7.17205827953683e-05;0.0014074094982197908;2.9389029659219138e-05;0.00026006604789599407;-1.1599857243924172e-05;-2.0666482236158844e-06;-1.0379800296387796e-05;0.002035390057843348;0.0010053772790744044
0.9198324680328369;-0.002762583595838219;0.003946213053503485;-0.0002795138649985307;-0.00667810380175054;-0.003077980784013564;-0.0038448021720105694;-1.0351917485732706e-18;-6.706706068295439e-19;4.582471957070883e-15;-4.0134413509559305e-16;4.75857352419883e-16;1.161757910493692e-19;1.5342070049212778e-19;1.3009939167603013e-06;4.186952937862757e-15;-3.9995313595858393e-16;4.763575387180173e-16;1.0849744695467002e-19;7.165163806120601e-05;8.038205492998987e-05;2.1231450459695394e-07;-0.00013806850966669704;4.421539877417882e-05;2.581669189577e-07;0.0;-5.505188531165185e-20;-5.145548337128523e-20;-6.824036919566826e-05;0.0012384391083024235;2.7463744605973716e-05;0.00019510723665339935;-1.3010524067139786e-05;-1.1506611149556948e-06;-8.492989182847254e-06;0.0016773357089213826;0.001764388499542518
0.9399123191833496;-0.0018340780902236713;0.003647617024332415;-8.975956255970873e-05;-0.006867198263538061;-0.0018186168948168754;-0.0033803939710743405;-1.2157109155157134e-18;-8.951824042446237e-19;5.15992969853976e-15;-4.778555060288968e-16;5.729387524613344e-16;1.2900586202803887e-19;2.393807402389604e-19;6.342524120317703e-08;4.715105062193985e-15;-4.760241679370989e-16;5.735940378161832e-16;1.2693659118374452e-19;8.082810422529931e-05;6.217118607681541e-05;1.1803874280353544e-07;-0.00014182052747498613;6.202766198989092e-05;2.6687399343166666e-07;0.0;-6.358853608358701e-20;-6.268511234719542e-20;-6.238760860786129e-05;0.0009923926609003327;2.4113638438809528e-05;0.00013949424938626196;-1.5449111996228457e-05;-9.129911676898224e-07;-5.8298868763990255e-06;0.0012873382392993577;0.0028574479598402944
0.95981764793396;-0.0010094940108401063;0.003430314315495794;8.330664595786992e-05;-0.006828073469476999;-0.0007205497636321062;-0.003084703238187679;-1.4042414856823912e-18;-1.1491067917636286e-18;5.722937054437498e-15;-5.589421149619158e-16;6.768782226959349e-16;1.4106202575819713e-19;3.3986135295998267e-19;-1.4938669167438703e-06;5.230174626823104e-15;-5.5661513432558235e-16;6.777077636271455e-16;1.4610710514595158e-19;8.693641783356669e-05;4.372573431100055e-05;-6.237776907814854e-09;-0.0001433250374570464;7.536882324248085e-05;2.6931736753905464e-07;0.0;-7.231175250551268e-20;-7.482116748937834e-20;-5.403296429260856e-05;0.0006867252187113046;1.914310413438644e-05;9.547727952458109e-05;-1.6691269635536592e-05;-1.4480281735478003e-06;-2.421250920321289e-06;0.0009012517463188859;0.00395081021366331
0.9798059463500977;-0.0001806957944218827;0.003226937910538692;0.00025875599190133353;-0.006583853378266915;0.00036329971180513174;-0.0028582877770093654;-1.5997340475742027e-18;-1.435869916457266e-18;6.258387374874517e-15;-6.444461585685323e-16;7.877316443961059e-16;1.5194291253479986e-19;4.569671939839944e-19;-3.428106076641127e-06;5.720206676169715e-15;-6.415620919513322e-16;7.887566814952782e-16;1.6588064296043391e-19;8.995233816945867e-05;2.5421799294141757e-05;-1.6600948944676963e-07;-0.00014248909214552167;8.431735814397666e-05;2.6383829084494406e-07;0.0;-8.112513040705528e-20;-8.789763559477806e-20;-4.278312271704131e-05;0.0003469313210828666;1.2213584680019772e-05;6.308025861043192e-05;-1.6657452501051653e-05;-2.821005210909986e-06;1.8138680929384092e-06;0.0005329928689374419;0.004768576239127028
0.9999208450317383;0.000605113276680949;0.0031184106881877805;0.00043311437386898976;-0.006292986239833801;0.001384396081694532;-0.0027746596709056267;-1.7981377492857956e-18;-1.7560377136519147e-18;6.7417744648094845e-15;-7.329906339452358e-16;9.040551573927895e-16;1.6097355577716528e-19;5.918540573221119e-19;-5.787820841104817e-06;6.1628260600328465e-15;-7.294876148128762e-16;9.052969872458768e-16;1.8581837462691739e-19;8.989746795071504e-05;7.66208625788442e-06;-3.6630230251986105e-07;-0.00013902821234957211;8.888818510423212e-05;2.4833725515400627e-07;0.0;-8.978170102508988e-20;-1.0178010146785632e-19;-2.821913467574039e-05;-2.964102596152515e-06;2.976185807275476e-06;4.3057598277230374e-05;-1.6945785092385957e-05;-4.158664157638977e-06;6.0112450507919604e-06;0.00019491061167675532;0.005335988247211975
1.0198109149932861;0.001316167055850095;0.002841961570043627;0.0005741710605549643;-0.00566250935517547;0.0022748703447159953;-0.002542187977944718;-1.9902272737194864e-18;-2.1021030545447294e-18;7.13541420876308e-15;-8.20906060865288e-16;1.0214074495291197e-15;1.6722432862052989e-19;7.423123352347269e-19;-8.563769653964878e-06;6.523593608230928e-15;-8.16737432710645e-16;1.022881945500225e-15;2.0496024561416828e-19;8.699377037238264e-05;-8.950981791115604e-06;-6.072412770157343e-07;-0.00013266726608472722;8.923177214402016e-05;2.210261075925232e-07;0.0;-9.78059886629081e-20;-1.1597790164028104e-19;-1.0242397096455271e-05;-0.0003349879874672352;-8.698037482457927e-06;3.627576901204357e-05;-1.8855179476357626e-05;-4.567018367784346e-06;9.248269288532064e-06;-9.953096736035465e-05;0.005655927360131476
1.03995943069458;0.001958191687463206;0.00249063597539928;0.000692039029391531;-0.004592306857091981;0.003031872534233557;-0.00231402111653503;-2.1733274549251276e-18;-2.479410761345888e-18;7.412878988649561e-15;-9.075845962621124e-16;1.1394866794322453e-15;1.6990613992160955e-19;9.118416639442178e-19;-1.185568314549945e-05;6.778397943190567e-15;-9.02694282603287e-16;1.1412128888874004e-15;2.2299422866676877e-19;8.146688432343117e-05;-2.461631871940997e-05;-8.984985963603084e-07;-0.00012276758394344075;8.564442045090961e-05;1.7882853126381144e-07;0.0;-1.049857473878565e-19;-1.3050656767977351e-19;1.2001870046203275e-05;-0.0006399821271790319;-2.3415670603293502e-05;4.3217212980731877e-05;-2.1785210690752634e-05;-4.103240520500884e-06;1.168555677224096e-05;-0.0003532387133219929;0.0057318460879755406
1.0598464012145996;0.0025404396548342474;0.002137953514518268;0.0007958155164631969;-0.003077549616214313;0.0036665869279804398;-0.002192985684858024;-2.3340101890531966e-18;-2.8735054784692543e-18;7.526587398779324e-15;-9.874710462448103e-16;1.2513656772446517e-15;1.6790953966795386e-19;1.0952836902229445e-18;-1.5602072271086607e-05;6.8837358156005204e-15;-9.818315973368911e-16;1.2533525271811025e-15;2.3853867085237496e-19;7.382441019570713e-05;-3.880150893795833e-05;-1.2356780064718885e-06;-0.0001090159841184567;7.857339944598479e-05;1.203438794272838e-07;0.0;-1.10663771642806e-19;-1.44577878583529e-19;3.8345125562823295e-05;-0.0008997862323417571;-4.1097412584832005e-05;6.4289485777926e-05;-2.3443981770280435e-05;-2.847352280814113e-06;1.3299912465151345e-05;-0.0005584756730529029;0.005585086907123795
1.0799672603607178;0.0030485483859086964;0.001650326698837897;0.0008695515273095674;-0.001204324156268039;0.0041694025544763095;-0.001973405970820153;-2.46566597625798e-18;-3.287344650033494e-18;7.432362819414438e-15;-1.0584420250404287e-15;1.3549552452545164e-15;1.5999274190042457e-19;1.2956438946569903e-18;-1.9909811911197984e-05;6.799279589647244e-15;-1.0520215607015034e-15;1.357213037625467e-15;2.508684688448791e-19;6.430232496003755e-05;-5.177482160916312e-05;-1.629555756571006e-06;-9.039584839117738e-05;6.825417709163812e-05;4.1456058231357047e-08;0.0;-1.144169887862491e-19;-1.5801519475856079e-19;6.984102902865281e-05;-0.0011155129878239669;-6.24664530501337e-05;0.00010057328970062237;-2.3727776729213616e-05;-9.400544748151862e-07;1.4219656001650955e-05;-0.0007213761872001532;0.005257765364316706
1.0998508930206299;0.003436327279131345;0.001033839190582371;0.0009029494084181304;0.0007487787413293014;0.004505363093290729;-0.0015958883139558905;-2.5529939058909744e-18;-3.702327345967437e-18;7.080375926856562e-15;-1.1140383943480413e-15;1.4420829228406262e-15;1.450386440998503e-19;1.5058723007315295e-18;-2.4679843536367857e-05;6.479457520040102e-15;-1.1068415692897469e-15;1.4446090839220036e-15;2.58418792676209e-19;5.356880100617991e-05;-6.316712634289033e-05;-2.0723413112881022e-06;-6.659253376531919e-05;5.535043588416165e-05;-5.8704635326482386e-08;0.0;-1.1551758754818971e-19;-1.6987568341681884e-19;0.00010611738843476352;-0.0012805641097297649;-8.727128530395231e-05;0.00015174877866667638;-2.4169910624588456e-05;1.3619021095126857e-06;1.457646015320313e-05;-0.000840543775978963;0.0047785107802857775
1.119922399520874;0.0036760005409459616;0.0001726400835850969;0.0008785729888659383;0.002589661484711637;0.0046569667942969505;-0.0008534095055165807;-2.583593855546497e-18;-4.115599308784602e-18;6.405062084577103e-15;-1.1497667841768701e-15;1.5077276068780488e-15;1.2129789004240497e-19;1.72698218339048e-18;-2.9998270344598114e-05;5.864389724581952e-15;-1.1418053916514434e-15;1.5105168399236204e-15;2.5986684029171595e-19;4.187673379083003e-05;-7.31609619024459e-05;-2.5734690296468767e-06;-3.627847642994731e-05;4.004455334873931e-05;-1.850023113578124e-07;0.0;-1.1325491614764597e-19;-1.7965165118956284e-19;0.00014824823140776577;-0.0013998754111536945;-0.00011623282869391245;0.0002193265779706327;-2.604995624821198e-05;3.85395488954744e-06;1.4424185561333553e-05;-0.0009221717184535831;0.0041390701293999
1.1398415565490723;0.0037527388931548845;-0.0007692714668419517;0.0008083483491488511;0.0037601584535693422;0.004656252256735483;0.0001636371927675428;-2.540604822603686e-18;-4.5057193699710605e-18;5.353455949065296e-15;-1.1584522386516327e-15;1.5427598568830138e-15;8.760465494791218e-20;1.9506852955841612e-18;-3.5743085361995304e-05;4.905630003567858e-15;-1.1497800671076398e-15;1.5457920811460601e-15;2.534924496968499e-19;2.9910135260295247e-05;-8.150170249959812e-05;-3.1231176617861654e-06;9.263699793881137e-07;2.3046143164408008e-05;-3.380733374144015e-07;0.0;-1.0683628519722524e-19;-1.86284334041214e-19;0.00019576265344578285;-0.001474474834129608;-0.00014900252198015015;0.00030255752377832893;-2.855206180121462e-05;6.2154844405887806e-06;1.3715448623302497e-05;-0.00096883960810538;0.0033518023178996433
1.1598179340362549;0.0036688331499690387;-0.0017900187201405338;0.000692985178378072;0.004399015694032605;0.004492929591711221;0.0014187418730664026;-2.4057584459311382e-18;-4.859159221102705e-18;3.848177428599993e-15;-1.132909433022712e-15;1.5385601538526315e-15;4.2025664653971225e-20;2.1733423804257165e-18;-4.191420016309142e-05;3.532468612281783e-15;-1.1236079308915565e-15;1.5418053934087107e-15;2.3738849999672926e-19;1.805371800366937e-05;-8.817640600628402e-05;-3.723174968915444e-06;4.6274496793057075e-05;4.665299925116804e-06;-5.219105748499197e-07;0.0;-9.530691270675333e-20;-1.8883016435262939e-19;0.00024923244631702436;-0.0015099916222109534;-0.00018593692961841034;0.00040239080886293825;-2.922853667763243e-05;8.24490105140331e-06;1.2401285190773529e-05;-0.0009857112640291464;0.0024117202260014545
1.1798949241638184;0.0035186583976607017;-0.002905326690374962;0.0005532181420543323;0.004666952652903889;0.004277586594493394;0.0028948882227844536;-2.157194694482255e-18;-5.1547578441565694e-18;1.8068807443248583e-15;-1.0642387262513611e-15;1.4841624047538364e-15;-1.740897240325565e-20;2.3878612907547656e-18;-4.844380077613212e-05;1.669632297974263e-15;-1.0544315840894865e-15;1.4875757048387503e-15;2.0929515294409592e-19;6.811763199309308e-06;-9.30246343676056e-05;-4.3694871947436545e-06;0.00010087678759730144;-1.4653274499279517e-05;-7.395991404947649e-07;0.0;-7.757346817299274e-20;-1.860557251389551e-19;0.00030879993091915275;-0.0015114288869608195;-0.0002270863993134103;0.0005191916053085288;-2.7731218117030472e-05;9.755467203482482e-06;1.0427184708751827e-05;-0.0009770256541922527;0.001323855055141398
1.199899435043335;0.0033709135799718853;-0.004050774676964535;0.0004112544915281062;0.0046559334476949914;0.00409237800356845;0.004480897899981126;-1.7745649160444643e-18;-5.364638183447508e-18;-8.302320687131516e-16;-9.436596812014021e-16;1.368286472553081e-15;-9.196803285960205e-20;2.583138005965758e-18;-5.5157401440123934e-05;-7.375888208265066e-16;-9.335249503923768e-16;1.3718037737327384e-15;1.6714538180034092e-19;-3.1735991025182316e-06;-9.579524497539235e-05;-5.047611832776604e-06;0.00016515561279087018;-3.4218899230570557e-05;-9.912255668926164e-07;0.0;-5.269907892228966e-20;-1.7664127015075134e-19;0.0003737228063472954;-0.001484487505776243;-0.00027187886091961053;0.0006516255954033962;-2.547901334379397e-05;1.0491055459392422e-05;7.851732166062299e-06;-0.0009472589818092103;0.00014330430524469066
1.2198801040649414;0.0031853082480192063;-0.005130897495069212;0.00026655068431252055;0.0046530194471278985;0.0038552345332046453;0.005974292838776416;-1.2339849192838091e-18;-5.4606658006372025e-18;-4.142799470656769e-15;-7.611444556302078e-16;1.1782935408603349e-15;-1.8345750375498031e-19;2.7486636995510188e-18;-6.191264214652042e-05;-3.762022539680468e-15;-7.509155606057181e-16;1.1818312537751993e-15;1.0849251298842228e-19;-1.1370956461337606e-05;-9.624596006854071e-05;-5.746531495350814e-06;0.00023998857411621231;-5.3513902814805134e-05;-1.2784533677654085e-06;0.0;-1.953874895551651e-20;-1.5913397341161513e-19;0.000443632704004931;-0.0014352077429045618;-0.0003199899003107203;0.0007991281758147423;-2.3589877239855573e-05;1.016938554973377e-05;4.786611586575941e-06;-0.0009007416351338822;-0.0010786845446423825
1.2398526668548584;0.003130939316200609;-0.005923707186565434;0.0001796726377300184;0.004680269919926169;0.003787404807423682;0.007063726704947655;-5.101379861865641e-19;-5.409756507115313e-18;-8.208513904973986e-15;-5.058658801395189e-16;9.003590743785873e-16;-2.9356636876814827e-19;2.8715034969120625e-18;-6.85142073337759e-05;-7.474738623168561e-15;-4.958409380963733e-16;9.03810849687112e-16;3.0757712024680714e-20;-1.720346553367387e-05;-9.405591686523083e-05;-6.450354276660737e-06;0.000326068778882875;-7.194397466573615e-05;-1.601935082109755e-06;0.0;2.308893814281259e-20;-1.3192542455776592e-19;0.0005177914625736029;-0.0013693961559516441;-0.0003708287771395431;0.0009604961333191974;-2.1308644239209892e-05;8.515935405159823e-06;1.3487755581437755e-06;-0.0008414388798930151;-0.0022888003147962773
1.2598204612731934;0.0030833289343524884;-0.0064839907630755735;0.0001161804181197137;0.004756979558919318;0.0037216105616139834;0.007819474889131674;4.231215131030788e-19;-5.1743477749243034e-18;-1.3100615351907299e-14;-1.6643635328098547e-16;5.197608217299314e-16;-4.2380441615283593e-19;2.93643016120778e-18;-7.471416122194881e-05;-1.1942758292952995e-14;-1.5698653507503063e-16;5.229946624095732e-16;-6.870711138879572e-20;-2.006090379943222e-05;-8.883501649455973e-05;-7.1382808769814134e-06;0.00042386833234692124;-8.884413396030007e-05;-1.9611885741640044e-06;0.0;7.637051312200211e-20;-9.328331804453055e-20;0.0005950764336826836;-0.001292586310926912;-0.00042352849093741935;0.0011338317107557892;-1.6358553160386374e-05;5.2639140884918695e-06;-2.3386679886746436e-06;-0.000772981064600449;-0.0034314801385671436
1.2798359394073486;0.0028167903629737925;-0.006807202338052025;2.3329612230435842e-05;0.004875737491370194;0.0033575982400142843;0.008235647535406492;1.5956065966298893e-18;-4.7111164398058715e-18;-1.890160350015386e-14;2.7015887141115446e-16;1.9646999423425885e-17;-5.758592389922491e-19;2.925809837881679e-18;-8.02230943086391e-05;-1.724158011289286e-14;2.7857818984910966e-16;2.250135286025209e-17;-1.9291929023122842e-19;-1.929750090217731e-05;-8.009982737331834e-05;-7.785964417834685e-06;0.0005338929398757328;-0.00010351144626611409;-2.3554968319129645e-06;0.0;1.416540760568813e-19;-4.122204270540023e-20;0.0006741548583371233;-0.0012097213932643293;-0.0004770632110737317;0.0013169499928992548;-8.458797260445336e-06;1.0860453207821508e-06;-5.275542263241738e-06;-0.0006984454203102873;-0.004476773761277823
1.2998430728912354;0.0024029056287071136;-0.006913414301241187;-8.391219987901456e-05;0.004961316264602522;0.0027981758640829428;0.008358860533635281;3.0310308230966757e-18;-3.974545959044892e-18;-2.5654314640646894e-14;8.149425095311495e-16;-6.148359509636839e-16;-7.503094804480259e-19;2.819530077130224e-18;-8.466026519313464e-05;-2.3410493241855948e-14;8.21788643933641e-16;-6.125531236797055e-16;-3.44229404526696e-19;-1.423434442139488e-05;-6.734156314106315e-05;-8.35973820985884e-06;0.0006557435287249929;-0.00011507485956464132;-2.7805241002188353e-06;0.0;2.199025998410396e-19;2.6069761273494917e-20;0.0007527939703388549;-0.0011257493046140023;-0.0005297802733823928;0.0015057917737754504;9.875601926004457e-07;-2.4088209419749436e-06;-7.392358923619319e-06;-0.0006209474336624124;-0.0053769278905612386
1.3198294639587402;0.0017461766777949334;-0.006892693979126358;-0.00023648181471549686;0.005200430749964836;0.0018990910454587044;0.008267348621650223;4.752898004027233e-18;-2.9159101480443976e-18;-3.3393762496100816e-14;1.4790588828929805e-15;-1.3988837496093408e-15;-9.474791731438268e-19;2.5956679516458728e-18;-8.759911860947374e-05;-3.048165610266697e-14;1.4836959709050155e-15;-1.3973969835511814e-15;-5.249510930381227e-19;-5.555053310698699e-06;-5.1362009845869393e-05;-8.821564329036242e-06;0.0007887684898293708;-0.00012262089942207565;-3.230742944845832e-06;0.0;3.120348258719734e-19;1.1046322093277962e-19;0.0008283988605816734;-0.0010449661870258452;-0.0005797682824002533;0.0016956161490732915;9.057181276795957e-06;-4.552492905786268e-06;-9.546933760450525e-06;-0.0005431145456673686;-0.006076300248411733
1.3398308753967285;0.0010590937339461563;-0.006740974772145824;-0.0003839542783590414;0.005254610219642947;0.0009758633298090106;0.008039681160600852;6.7867249800931424e-18;-1.4805079626659369e-18;-4.215424705409812e-14;2.27471606806207e-15;-2.349229763523955e-15;-1.1675956671356707e-18;2.2294311972752257e-18;-8.855203673972067e-05;-3.848659824019095e-14;2.2764037761192794e-15;-2.3488000100403895e-15;-7.375880955387259e-19;4.987036874196866e-06;-3.3985428926135834e-05;-9.127820979229663e-06;0.0009321293101719981;-0.00012515243106648552;-3.699539151006063e-06;0.0;4.1903037049453e-19;2.1402751941180212e-19;0.0008979600602247351;-0.0009709652365817742;-0.0006248158039872616;0.0018809537985433132;1.4593782667121628e-05;-5.619503045336739e-06;-1.1718358853486557e-05;-0.00046705865350594815;-0.00653999414595806
1.359833002090454;0.00044064778280772756;-0.006493569363608698;-0.0005063304084192897;0.005287460348320621;0.00014525621154602415;0.007685296199232465;9.150173536685304e-18;3.8627177060609334e-19;-5.192499466119695e-14;3.211379963474773e-15;-3.4796519078309896e-15;-1.4096594807850363e-18;1.6944398811287062e-18;-8.695346452977292e-05;-4.7415690811237975e-14;3.2092748494813308e-15;-3.480575893883161e-15;-9.837985196671859e-19;1.6090220659326467e-05;-1.6576665829349357e-05;-9.226652699854408e-06;0.0010840381238824144;-0.00012154695864896059;-4.176630701584274e-06;0.0;5.414016885678598e-19;3.3854628322164705e-19;0.0009576200318848022;-0.0009070305735216114;-0.000662124704308309;0.002054518202442181;1.9653485253822943e-05;-5.874033263081089e-06;-1.392441044058e-05;-0.00039479243836540993;-0.0067119005598911905
1.379948616027832;-0.00026891870993153694;-0.006195488194139925;-0.0006454477251418575;0.005041068862442026;-0.000780774541081311;0.007328543785754259;1.1872858190056726e-17;2.7555360278540945e-18;-6.273010762807278e-14;4.303681401262953e-15;-4.810569863634593e-15;-1.6734080563712059e-18;9.5772504858511e-19;-8.213370831395119e-05;-5.729121432089496e-14;4.296804760892539e-15;-4.8131913901183214e-15;-1.2664540971013638e-18;2.6892271137583766e-05;-2.0890859622112735e-09;-9.057582316279724e-06;0.001242962659881371;-0.00011050097729264152;-4.6517459667669815e-06;0.0;6.802103554005061e-19;4.865808903385798e-19;0.0010030734303677477;-0.000855623003162274;-0.0006911605133201782;0.0022084622638748525;2.4418530568798757e-05;-5.564455774820142e-06;-1.6148840057356033e-05;-0.00032765438722541555;-0.006824952063016062
1.3999927043914795;-0.001086852077310185;-0.006022584527472156;-0.0008218321231068051;0.0047669914270744365;-0.001847537918836899;0.007150936241160977;1.4936851265619923e-17;5.6631815809357674e-18;-7.439231933210552e-14;5.547551661878387e-15;-6.339971106003599e-15;-1.9535478736178983e-18;-4.209303730553333e-21;-7.342335470996864e-05;-6.795143880026897e-14;5.5348615186098866e-15;-6.344655293889947e-15;-1.5834634211052617e-18;3.666647052245345e-05;1.4941291870078124e-05;-8.555119885767018e-06;0.0014041484879929297;-9.077001370803766e-05;-5.1042191732795405e-06;0.0;8.340332263075371e-19;6.582370696709784e-19;0.0010285667830512626;-0.0008194574486951047;-0.0007125335210705904;0.0023339993514076363;2.743996551195006e-05;-4.930925025380747e-06;-1.8299745069236283e-05;-0.0002677572724612847;-0.00707759547657021
1.4198660850524902;-0.0018749611998135312;-0.005904927916347046;-0.000996388189572286;0.004384822916660744;-0.0028637455014080483;0.007076352226492343;1.8317227887059307e-17;9.138103490791771e-18;-8.670847536410104e-14;6.936059484671363e-15;-8.062303037971357e-15;-2.2441706328743617e-18;-1.2124634007611088e-18;-6.017780476369713e-05;-7.921096861244212e-14;6.91646453082546e-15;-8.06943138965695e-15;-1.9320127513427154e-18;4.4992716857502014e-05;2.7819058903772863e-05;-7.655393819740088e-06;0.0015625024040896998;-6.411722474547997e-05;-5.512474501234344e-06;0.0;1.0010994479865967e-18;8.532209552361992e-19;0.0010283270075475879;-0.0008001055757116698;-0.0007257657219820196;0.0024244804258147347;2.760596141453597e-05;-4.172226310550622e-06;-2.0293965019930465e-05;-0.0002165430122213372;-0.007334624075051025
1.439932107925415;-0.0026434766313647327;-0.005692029754763398;-0.0011574472699464374;0.003866605865228729;-0.0038417571414731937;0.00690346128443412;2.2060949275824243e-17;1.3294255864391777e-17;-9.971433094557781e-14;8.492478269939921e-15;-1.0010102986701093e-14;-2.5447773622861397e-18;-2.7199762264740553e-18;-4.302047514385416e-05;-9.110288876507693e-14;8.464670506210906e-15;-1.0020132406967102e-14;-2.3166505882765225e-18;5.1803035512168095e-05;3.8659263486212704e-05;-6.2609651780403225e-06;0.0017154864347194928;-3.391949276982297e-05;-5.859816742499422e-06;0.0;1.183080586669375e-18;1.0756193502433002e-18;0.0009953900586397123;-0.0007984162843828866;-0.0007292895238890239;0.002471999877057954;2.5561974179507636e-05;-3.4285216590947175e-06;-2.2086161198559436e-05;-0.00017422697475838534;-0.0074949893486870945
1.4598760604858398;-0.003259000752925909;-0.005461343078785566;-0.0012808379617958044;0.0029930649159950456;-0.004582106213342749;0.006793919549460953;2.6081374652606123e-17;1.811139683988209e-17;-1.129523959685644e-13;1.0185394303899623e-14;-1.2148248864767844e-14;-2.843165796306128e-18;-4.533663090586985e-18;-2.4383134567407768e-05;-1.032093743923986e-13;1.0148116158223658e-14;-1.2161617043758898e-14;-2.7281357304361417e-18;5.6897998027176704e-05;4.721990581072399e-05;-4.305892898160694e-06;0.0018540754917981477;-3.4245448974815396e-06;-6.11234514903543e-06;0.0;1.3750142092068314e-18;1.3218786837562458e-18;0.0009224670398605518;-0.0008151510007627145;-0.0007200829346721026;0.002463485749218575;2.3403917151835956e-05;-2.861054958510133e-06;-2.352862603437899e-05;-0.00014252323050061334;-0.007472326196331047
1.479832410812378;-0.0037791388133989468;-0.005198221291119268;-0.0013787486536836868;0.0017637639461237176;-0.005161687100805475;0.006727228103791719;3.035593621591103e-17;2.3647454890207155e-17;-1.2617326819877954e-13;1.2010458578097182e-14;-1.4475877486241094e-14;-3.131792335179515e-18;-6.690114537002873e-18;-5.743034069802876e-06;-1.1530291068637858e-13;1.1962349402828576e-14;-1.4493056992429054e-14;-3.1637784993082974e-18;6.033624901260345e-05;5.361871847930262e-05;-1.6912700061527364e-06;0.0019713513054633387;2.5599040843780537e-05;-6.239706756321726e-06;0.0;1.5749828589771137e-18;1.5923993645828214e-18;0.0008009575369324726;-0.0008503725814346132;-0.0006942227372635819;0.0023845956865014635;2.1255121784649862e-05;-2.6122065230379363e-06;-2.447972673396715e-05;-0.00012203763428667381;-0.007200379698831659
1.499854326248169;-0.004007068365401202;-0.004942951522396835;-0.0014086044617463201;0.0004972552320213433;-0.005347998204164232;0.00668250726838677;3.482940449929677e-17;2.9938178915220834e-17;-1.3898506226880716e-13;1.3950597337347785e-14;-1.6976978149480087e-14;-3.3995182628352583e-18;-9.220519553881887e-18;1.1836730913397238e-05;-1.270257925340092e-13;1.3890239170843956e-14;-1.6998460005068784e-14;-3.6174705349307555e-18;6.219409795009421e-05;5.7973700677677915e-05;1.687852509990098e-06;0.002058038014898511;5.1903538449866035e-05;-6.203723344329501e-06;0.0;1.7793421948672e-18;1.885936932772781e-18;0.000630390731680539;-0.0009038121548568885;-0.0006466087096979644;0.0022174143028335603;1.7649308846098855e-05;-2.8008938341392374e-06;-2.4779568611916115e-05;-0.00011360836257362591;-0.006621148912195424
1.5199215412139893;-0.004054884800017912;-0.004693963928805348;-0.001396636110597889;-0.0008188781968210251;-0.005289321607187199;0.006659885131150371;3.9406220136851065e-17;3.698126477291323e-17;-1.5084193746188494e-13;1.5972377626623315e-14;-1.961543806396701e-14;-3.631502393463145e-18;-1.214352615035218e-17;2.7595963814091446e-05;-1.378795881881231e-13;1.589837131111042e-14;-1.964170473319162e-14;-4.078929853908896e-18;6.257664721113835e-05;6.0423900742862365e-05;5.930090056782926e-06;0.002102723367193265;7.463578655270934e-05;-5.960186569781608e-06;0.0;1.982421013141606e-18;2.1989920922014144e-18;0.0004254152979394515;-0.0009744747680171997;-0.0005712923638335184;0.0019440584624787626;1.3196133624416466e-05;-3.712135719270044e-06;-2.4442676588315136e-05;-0.00011810274143895173;-0.00568560986696054
1.540039300918579;-0.003969895005840909;-0.00446952116813091;-0.0013556826842911324;-0.0020230362160843013;-0.005063939059768789;0.006644760480679409;4.396723875789378e-17;4.475765369323271e-17;-1.6109668824332947e-13;1.803313313569249e-14;-2.2344109565249122e-14;-3.810358530233442e-18;-1.5473475222606254e-17;4.108990268219748e-05;-1.4727324266925462e-13;1.7944132720092206e-14;-2.237562262798984e-14;-4.535409144173586e-18;6.161889365564473e-05;6.11442184281095e-05;1.113746469277891e-05;0.0020923462875127204;9.336805145581471e-05;-5.4594890826854e-06;0.0;2.1773084298495164e-18;2.526862286440087e-18;0.0002062276315987576;-0.001060727023665122;-0.0004614381922400361;0.0015520645411860926;1.0211164923747013e-05;-5.828078815074108e-06;-2.356706879517536e-05;-0.00013630552479635186;-0.004350409613931714
1.5599477291107178;-0.0035135208202097777;-0.004268797422792213;-0.0012294837217689091;-0.0028285819039547424;-0.004380991135280401;0.006567584335833593;4.830390198554666e-17;5.310344485853954e-17;-1.6888540197044557e-13;2.005025993767313e-14;-2.5063349325148822e-14;-3.9146688566830535e-18;-1.9163614215662413e-17;5.197033197507605e-05;-1.5441726544478645e-13;1.9945252635893514e-14;-2.5100451426613695e-14;-4.965178287800519e-18;5.9502229136020745e-05;6.034125366702931e-05;1.731974813473117e-05;0.0020163704651161287;0.00010779976221787777;-4.659249082357849e-06;0.0;2.353197797370671e-18;2.85857698734468e-18;-7.185026962581602e-06;-0.0011587987002192037;-0.0003232855767201236;0.0010728720815369817;8.84741288992669e-06;-8.687499054602427e-06;-2.1292123861865045e-05;-0.00016842085634971322;-0.002602801772356829
1.5798389911651611;-0.0030433751187905825;-0.0039814753431175595;-0.0010919185036252204;-0.0036045316504984;-0.003683155061627021;0.0063635527120921055;5.227674810553444e-17;6.199795123366189e-17;-1.7344716506885964e-13;2.197391432989209e-14;-2.7718182329121236e-14;-3.923970344695164e-18;-2.3231622248833884e-17;6.035385839358026e-05;-1.5861676520976433e-13;2.185194665369338e-14;-2.7761192692228994e-14;-5.353308959666576e-18;5.637932375460401e-05;5.822785235222593e-05;2.4598455600567866e-05;0.0018675224242814294;0.00011824812746548437;-3.5008476044173783e-06;0.0;2.5019837044219828e-18;3.1886657517673855e-18;-0.0002052335006363925;-0.001266145675534894;-0.00017203959204009308;0.000555256548753488;7.439592770212714e-06;-1.1898365721966786e-05;-1.6800015360753138e-05;-0.00021502423698000167;-0.0006967732625193118
1.5999338626861572;-0.0026443493635435224;-0.0035260061806727467;-0.0009553561098678135;-0.004293394867022119;-0.003089775536441677;0.0059052019744223125;5.569924529544553e-17;7.141385797196874e-17;-1.7376351576747938e-13;2.373745121591506e-14;-3.023512524376789e-14;-3.8108689601602925e-18;-2.7701340410682378e-17;6.639418364649669e-05;-1.5894165060568788e-13;2.359764833718835e-14;-3.028433198743831e-14;-5.6798327502304e-18;5.2349777527027954e-05;5.4951290846198447e-05;3.3136574732070694e-05;0.0016378260719416649;0.00012503559918135564;-1.9057603208385189e-06;0.0;2.6128215567765076e-18;3.509819226368023e-18;-0.00038224498214124264;-0.0013798707184823143;-1.999540879802431e-05;3.3051956825344466e-05;4.613057452232085e-06;-1.5067881205087197e-05;-1.1004267569348834e-05;-0.00027722687880054117;0.001136971732365279
1.6197831630706787;-0.002304969611906465;-0.002925261341314424;-0.0008192191052836071;-0.004878275522296335;-0.002586944628580887;0.005220104160361085;5.823536905427662e-17;8.095994758219949e-17;-1.6870454182088077e-13;2.520006902019334e-14;-3.243696718867896e-14;-3.549638489719861e-18;-3.242745491641356e-17;7.014397441139636e-05;-1.5435866967460213e-13;2.5042326684782836e-14;-3.2492386572055305e-14;-5.910307051299907e-18;4.7639754389273695e-05;5.0759520491450104e-05;4.278542343808553e-05;0.0013320501972405572;0.00012837638527878178;1.509991125069982e-07;0.0;2.6695569975609055e-18;3.8016943187205505e-18;-0.0005300462447468754;-0.0014923190125751737;0.00011988848912123173;-0.00045541660051921014;1.0805405582963586e-06;-1.7632948789304155e-05;-4.916444901929271e-06;-0.00035381150510596117;0.002633328665096003
1.6397888660430908;-0.0020113229996724918;-0.0021492768198907134;-0.0006774155259849868;-0.0053897690118208524;-0.002153446839324045;0.004274412500866017;5.963253103929739e-17;9.058900192923155e-17;-1.569121949359787e-13;2.627090109209685e-14;-3.4222861048672005e-14;-3.1038904410728443e-18;-3.7436618394238674e-17;7.193528190476624e-05;-1.4362756865917295e-13;2.6095240372790012e-14;-3.428446075616195e-14;-6.0177377794423324e-18;4.227936832408747e-05;4.573048870320345e-05;5.3752478352324565e-05;0.0009539945436977579;0.0001287788913626163;2.772278991436891e-06;0.0;2.6576061822136046e-18;4.0541785712581146e-18;-0.0006499420261004296;-0.0015995126383685481;0.0002442618131760251;-0.0009005395421352001;-9.308648971067802e-07;-1.9052633589688734e-05;7.334311555269007e-07;-0.00044623745064491444;0.0036279877741255376
1.6598362922668457;-0.001601748316839785;-0.0014242234258049326;-0.0005130134169083935;-0.005810725968807185;-0.0015734557308031032;0.003377890050321557;5.950965452607762e-17;9.994273579003959e-17;-1.3692912038069408e-13;2.6795447041124366e-14;-3.540302990555613e-14;-2.4385519877180572e-18;-4.2611034494321174e-17;7.200435923083087e-05;-1.2541622437155304e-13;2.6602605898326936e-14;-3.5470523194656325e-14;-5.962682706413858e-18;3.639478947528545e-05;4.001855604332098e-05;6.597954300611875e-05;0.0005323914463646971;0.0001266415833631992;6.015492825022259e-06;0.0;2.557804680142512e-18;4.2459928681476805e-18;-0.0007407991327874309;-0.0016933202397387281;0.0003486307829579968;-0.0012850297412138937;-1.3538131024587293e-06;-1.863057467661453e-05;5.094035308768454e-06;-0.0005539358674383956;0.004218118794140541
1.6801424026489258;-0.0012324224249314064;-0.0007986144866591871;-0.0003673782209405843;-0.0062068211012035815;-0.0010485803342924682;0.002612559863997467;5.741801239095215e-17;1.0873120106239094e-16;-1.0676735776078276e-13;2.6599781886693018e-14;-3.5771303527390586e-14;-1.5032109989978407e-18;-4.788462294449141e-17;7.06126423475717e-05;-9.790826365250342e-14;2.6391099826382247e-14;-3.584418732397793e-14;-5.698107737112524e-18;3.0001506851594237e-05;3.366805428677871e-05;7.956871901062119e-05;9.884837533986756e-05;0.0001223418652127522;9.99317831439421e-06;0.0;2.3462814102102657e-18;4.354848811396542e-18;-0.0008042963010179714;-0.0017655508065918862;0.0004321967709815578;-0.0016043635166134722;-1.9998296168256934e-06;-1.6682699161034972e-05;8.333748691750523e-06;-0.000677779718260062;0.004489400897890158
1.6998469829559326;-0.0008226882501792094;-0.0002335797951011526;-0.0002178358254001785;-0.006411990664608087;-0.0004874037281800436;0.001884562788079309;5.305767885372388e-17;1.1615684121890394e-16;-6.63423229204249e-14;2.5531034219493223e-14;-3.511073044214186e-14;-3.058731203983384e-19;-5.28808751056326e-17;6.814243928648607e-05;-6.10233995615349e-14;2.5309362973587706e-14;-3.5187976073817e-14;-5.1952750433643275e-18;2.3453075273295705e-05;2.705997957657755e-05;9.380745816994604e-05;-0.00030100884043351614;0.00011653432300650114;1.457494870700651e-05;0.0;2.013050437516117e-18;4.353181502481414e-18;-0.0008406370743252036;-0.0018064509280934081;0.0004921190541879201;-0.0018448748186509348;-4.27195274618717e-06;-1.373484029821002e-05;1.0496759771114904e-05;-0.0008111227243082463;0.004502462894170963
1.719775676727295;-0.0005189701936166756;0.00025004869589239644;-0.00010088282769272172;-0.006225893349481251;-0.00010413105546515826;0.0011724512530818297;4.5819612854448887e-17;1.2202402912259338e-16;-1.2548001511922308e-14;2.3365146255459363e-14;-3.316742790125283e-14;1.2355535129183887e-18;-5.761904250215094e-17;6.480836822656796e-05;-1.1924692345405444e-14;2.313379010735581e-14;-3.3247837967875755e-14;-4.389462101308154e-18;1.6546340692716213e-05;2.0014986999927784e-05;0.00010909027961318081;-0.000666199110999622;0.00010942320908878627;1.9980944087517573e-05;0.0;1.5237556954096796e-18;4.214892056190433e-18;-0.0008548867469399126;-0.0018118466037101678;0.0005328364479075884;-0.0020204663170863076;-7.657201792614983e-06;-1.00017665493912e-05;1.1861455526290783e-05;-0.0009575890494318865;0.004346305047750716
1.7399420738220215;-0.0003016371189438166;0.0006514253316506039;-1.1968946012130746e-05;-0.005827531689333083;0.0001444680914295457;0.0005214237125232494;3.505827522235043e-17;1.2564127808801667e-16;5.691010374847203e-14;1.9835267480819163e-14;-2.960883142330685e-14;3.1746416538579447e-18;-6.185303534022392e-17;6.0854686473285135e-05;5.148567475804933e-14;1.9598900589705282e-14;-2.9690724169272454e-14;-3.214232323454862e-18;9.319812976079841e-06;1.2589416752683007e-05;0.0001252092504209077;-0.0009845016338797452;0.00010133068832779347;2.627962718545521e-05;0.0;8.467688802577739e-19;3.902159838616992e-18;-0.0008494691739749882;-0.0017745343185558147;0.0005558839044417568;-0.0021334631543037177;-9.935404941538576e-06;-5.68624252998306e-06;1.2554406800994305e-05;-0.0011154317892321203;0.004109889910798086
1.7598028182983398;-3.2710696775499464e-05;0.0009859064809310514;8.289920031494982e-05;-0.00518864623611366;0.00043956603156370874;-9.564045078165349e-05;2.051672549873701e-17;1.2620482573289862e-16;1.4185611819137164e-13;1.4803126292988282e-14;-2.4233284673050353e-14;5.496209451586228e-18;-6.519397000496479e-17;5.6641213654168646e-05;1.2905017994653854e-13;1.4567939902280903e-14;-2.4314452023809506e-14;-1.6455053907491116e-18;2.0160086052203205e-06;5.0487470917586996e-06;0.00014139809607061638;-0.001242329902236242;9.28004796400061e-05;3.3318258730966104e-05;0.0;-2.5273269635840062e-20;3.3888420821680357e-18;-0.0008278895217170372;-0.0016903211594059481;0.000563457241011738;-0.00218733061205467;-1.0986138785397301e-05;-1.1501299326407937e-06;1.2782144814614416e-05;-0.0012774024677133186;0.0038969021942282735
1.7798361778259277;0.00039663525538816764;0.0013012194651776101;0.00021387440841657852;-0.004395918817710614;0.0009341582221922912;-0.0007226630716653175;1.2824455310730758e-18;1.2292766722254543e-16;2.4592597153093547e-13;7.903062114510892e-15;-1.6595651350006906e-14;8.28914108839425e-18;-6.739882163772466e-17;5.2302542148383636e-05;2.2409190606566612e-13;7.676833675601156e-15;-1.667332075104922e-14;4.1148337157572902e-19;-5.4927554029375485e-06;-2.7251145331893886e-06;0.00015760919991449754;-0.0014453751945205455;8.391654315533481e-05;4.1258477231020195e-05;0.0;-1.1389628413901617e-18;2.625472615502503e-18;-0.0007931007424707813;-0.0015491126784541983;0.0005590482819965218;-0.002191288128589635;-1.2558988853587187e-05;3.457640647662371e-06;1.284500195242137e-05;-0.001443448986550118;0.0038036903325932357
1.7998218536376953;0.001060688460916269;0.0016454531623068818;0.00040299668077229257;-0.003628888795948764;0.0017440315370244675;-0.0013815727928570543;-2.3088514509268492e-17;1.1488668907375262e-16;3.6977534472450136e-13;-1.0755906488193841e-15;-6.408547441671859e-15;1.1559366887550625e-17;-6.805198545705561e-17;4.8093214318627287e-05;3.3721310531400137e-13;-1.2833186359540263e-15;-6.479330800142814e-15;3.0004226322737657e-18;-1.3075721683868648e-05;-1.05864711556792e-05;0.00017312076171738385;-0.0015929275933373075;7.501256875424337e-05;4.999495026804483e-05;0.0;-2.5116261890988974e-18;1.5766510487622273e-18;-0.0007485335178421891;-0.001343839275675924;0.000545948284773721;-0.0021526056713552263;-1.602330623942289e-05;7.774603383167144e-06;1.2989670027376206e-05;-0.0016069072553144398;0.003906951071041647
1.8199703693389893;0.0017608057409450421;0.0021060920788338496;0.0006116224346784951;-0.0029739678558988467;0.002611813835183473;-0.0021736779294671492;-5.35209432155996e-17;1.0091938870885347e-16;5.163370844000421e-13;-1.2525543684687647e-14;6.826987113428201e-15;1.5371762037579756e-17;-6.67062995090936e-17;4.415661486332627e-05;4.710962913540299e-13;-1.2702950196026998e-14;6.767280242090167e-15;6.2157198104179715e-18;-2.0754599181966103e-05;-1.8549922893095595e-05;0.00018741260861069908;-0.0016903891361482687;6.619458728618358e-05;5.9567220166588906e-05;0.0;-4.1868740208178575e-18;1.8458972491617674e-19;-0.0006966645621931484;-0.0010664716996220927;0.0005274575636604293;-0.002078498487946469;-2.0683383424845844e-05;1.1474676520781174e-05;1.3437189657601322e-05;-0.001763379223795717;0.00394780931296122
1.8398115634918213;0.002285984845198882;0.0025950518175551556;0.0007816571564278166;-0.0024194912860819482;0.003255697180490632;-0.0029816451705168595;-8.982925409655209e-17;8.031705518965216e-17;6.830814588641395e-13;-2.6425125353512447e-14;2.3134311670872543e-14;1.9648244567903982e-17;-6.293297090845812e-17;4.073924112839523e-05;6.234342039285058e-13;-2.655911451550154e-14;2.3090305169887868e-14;1.0034217540168369e-17;-2.8278876623828052e-05;-2.6350406184455235e-05;0.0001993709101960183;-0.0017416826574806867;5.782253653360579e-05;6.964655824730349e-05;0.0;-6.146641028124595e-18;-1.5588787826693742e-18;-0.0006414954894617787;-0.0007325890152297847;0.0005074919343551788;-0.001978618282516895;-2.3983250302311142e-05;1.4202556641614813e-05;1.4366223770310937e-05;-0.0019021118827205552;0.003667072436072252
1.859795331954956;0.0026724708562445294;0.0031284460122952564;0.0009231674631420319;-0.0016436850735298617;0.0036931980728875;-0.003906471321368208;-1.333107504343362e-16;5.150516115246302e-17;8.742385969337527e-13;-4.33218242988296e-14;4.320599952436435e-14;2.4483706756482743e-17;-5.613567567253972e-17;3.7894609050903535e-05;7.980955185796564e-13;-4.339620731795443e-14;4.318340733169408e-14;1.4588603019320766e-17;-3.5728488473019656e-05;-3.4067990750865806e-05;0.0002083386985122318;-0.0017551440422376222;4.982470930611095e-05;8.030758836915293e-05;0.0;-8.452660853809257e-18;-3.7336395604299916e-18;-0.0005843227563615989;-0.00036070028509546057;0.0004890414140398692;-0.0018582490442868452;-2.574684947612621e-05;1.5816394209567833e-05;1.5967652827785623e-05;-0.0020177531218956817;0.003134805488563476
1.8799793720245361;0.0028679952124109564;0.003575398492172671;0.0010114889168556078;-0.000716889629622665;0.0038623299453116053;-0.0047503173890378675;-1.8475710499537005e-16;1.2919827277187822e-17;1.0911472549119779e-12;-6.35863199736937e-14;6.754374378329565e-14;2.9894405514990295e-17;-4.5618568356012445e-17;3.574535307722116e-05;9.963086743148857e-13;-6.358191179419446e-14;6.754932558327064e-14;1.995715178124057e-17;-4.300423914771144e-05;-4.1599323984825275e-05;0.00021313520766745592;-0.0017369769688465673;4.2280073422012754e-05;9.139049030431065e-05;0.0;-1.1136644000529151e-17;-6.401094360755081e-18;-0.0005271975469470978;2.359752129903344e-05;0.00047256795511984814;-0.0017232546091491673;-2.748833303553394e-05;1.605413420342789e-05;1.8492155438165413e-05;-0.002099683370885321;0.0024555424861605543
1.8998024463653564;0.002974941561458792;0.0038743819835388273;0.0010650028149078003;4.8552398718250425e-05;0.003929940765291134;-0.005350624806773529;-2.4301619191725075e-16;-3.552704424159642e-17;1.3269876340888556e-12;-8.682255158368091e-14;9.572733605346263e-14;3.569340231215305e-17;-3.1093030826365744e-17;3.443250039037869e-05;1.211846652814291e-12;-8.672018079090748e-14;9.576782147546269e-14;2.6015379456112344e-17;-4.976316147630197e-05;-4.859131646270109e-05;0.0002124216083357577;-0.0016950845552453284;3.5451975570851814e-05;0.00010232279784520406;0.0;-1.412906906860156e-17;-9.521484644214705e-18;-0.0004736261651509619;0.00038632921891774735;0.0004565534326484877;-0.0015834063711851344;-3.0360563077950698e-05;1.5536006442662106e-05;2.125786345271234e-05;-0.0021344414046495478;0.0017621142967666724
1.9199528694152832;0.002999284605330511;0.004199590288128434;0.0011015069732839536;0.0006810178409878468;0.0038999042881107983;-0.005955208673619055;-3.103213994558006e-16;-9.681413524091209e-17;1.5884898285514736e-12;-1.1398931270137853e-13;1.2898422206064574e-13;4.202554727446947e-17;-1.138491310962441e-17;3.397858166545683e-05;1.4508662911370592e-12;-1.1376399037784444e-13;1.2906838647576916e-13;3.299051691849384e-17;-5.6056744135889294e-05;-5.5101467236685004e-05;0.00020472026098473017;-0.0016351384264295746;2.913845784468725e-05;0.00011314170282601556;0.0;-1.753356431539807e-17;-1.3237961228519078e-17;-0.0004234628949373657;0.0007215842651483502;0.00043921627385299435;-0.001439181877848326;-3.380175996608878e-05;1.4837051187194022e-05;2.378676435357488e-05;-0.002109702845645895;0.0011149280971183546
1.9398415088653564;0.002875865933705655;0.0045653388337926915;0.0011069394957695354;0.0012341361826668537;0.0036800671387225833;-0.006597551068590599;-3.8477667839596526e-16;-1.7046617472551736e-16;1.8657086671110304e-12;-1.4439718571736066e-13;1.665415550641796e-13;4.8626036432355305e-17;1.3639341297793699e-17;3.444738243167843e-05;1.7042845481069207e-12;-1.4402508588382286e-13;1.6667773296848171e-13;4.068047386167067e-17;-6.147885289268977e-05;-6.071608408615708e-05;0.00019159307682640485;-0.0015653216937320147;2.3542135112912557e-05;0.0001231163234297872;0.0;-2.1241851040148954e-17;-1.7472080030564008e-17;-0.0003796255365791878;0.0010082343332674408;0.00042043428881390933;-0.0012992432080356378;-3.556239337345836e-05;1.4524290884927153e-05;2.5473077853829423e-05;-0.0020109571041775115;0.0005906396883186393
1.9599742889404297;0.002547956097684233;0.004902270771125328;0.0010613615218272817;0.0015995306875183943;0.003205674885092707;-0.007155548262320988;-4.680485577447011e-16;-2.5955030786052846e-16;2.1619258496785518e-12;-1.7881283438452474e-13;2.0942594811549087e-13;5.55446277392141e-17;4.5320721346275995e-17;3.5873799010829905e-05;1.9751097707774275e-12;-1.7826423730954052e-13;2.096245334314308e-13;4.925103168699131e-17;-6.589761017339136e-05;-6.530785096313438e-05;0.00017642705849781396;-0.0014900488208442263;1.8517588916708452e-05;0.00013198682676934174;0.0;-2.5322906086725386e-17;-2.2348376836719176e-17;-0.00034222321515862595;0.00124759788417923;0.00039951134720559686;-0.0011638765818972412;-3.545839636345503e-05;1.5123403587107042e-05;2.581433451992339e-05;-0.0018187808186464474;-5.666535809714109e-05
1.9798753261566162;0.002155967002879802;0.005275361374922724;0.001004059729372018;0.0017172651163728419;0.002669186150202459;-0.007703256622446921;-5.576609818092723e-16;-3.6302117448840814e-16;2.4650291285812845e-12;-2.1631018582648864e-13;2.565724627370902e-13;6.246484663077305e-17;8.359985935544821e-17;3.8224802192393436e-05;2.252277917177437e-12;-2.1555767138332366e-13;2.568430056368474e-13;5.84401789738892e-17;-6.889410303857439e-05;-6.845400735387889e-05;0.0001620575538403358;-0.0014165413347770996;1.4168218842955409e-05;0.00013894338234384047;0.0;-2.9639527021003755e-17;-2.775550057925992e-17;-0.0003131352461623094;0.0014320621363409411;0.00037700989761080115;-0.0010393744417592588;-3.483132858798336e-05;1.6247330651897195e-05;2.5132595996928933e-05;-0.0015194515402874296;-0.000991507875243438
1.999964714050293;0.001939895862967819;0.0055959889200047006;0.0009833862818001877;0.0015999130430994959;0.0023901910173948202;-0.008119334648762657;-6.545815318176588e-16;-4.838708520176599e-16;2.7744277348698054e-12;-2.574078348209661e-13;3.0873594141036733e-13;6.933191930684013e-17;1.299220964913281e-16;4.15206996026325e-05;2.5352609839883344e-12;-2.564183337094051e-13;3.0908995216057776e-13;6.833875211535293e-17;-7.016323858640545e-05;-6.985344620890679e-05;0.00014973642846384985;-0.0013481384108956465;1.0372932302895337e-05;0.00014342262977339772;0.0;-3.4219785489932345e-17;-3.379117081188614e-17;-0.00029252502744393197;0.001566715583502003;0.0003527227395338767;-0.0009255810941453786;-3.472750299849256e-05;1.7602425840367182e-05;2.367975180469563e-05;-0.0010870290891598154;-0.002106228696196157
2.0199661254882812;0.0019112464936632896;0.005814137735860518;0.0009973446755480427;0.0013353331283515522;0.0023760160415097656;-0.008356079382779522;-7.561921344124392e-16;-6.211193547342769e-16;3.0770564350305914e-12;-3.011341943996466e-13;3.648067949320164e-13;7.58025628047314e-17;1.8429364984186607e-16;4.566895152127081e-05;2.8121249803870315e-12;-2.998768383663689e-13;3.6525497074625993e-13;7.866915129415581e-17;-6.925063390303418e-05;-6.905094720005447e-05;0.00014039295574777886;-0.0012899743032747158;7.153314270207013e-06;0.00014452560831909692;0.0;-3.891737046499913e-17;-4.0340279385938855e-17;-0.0002813439019124526;0.001652400163404979;0.0003273447798915068;-0.0008260358691761707;-3.428839336567498e-05;1.889286853338156e-05;2.1682774056667525e-05;-0.0005055313226060332;-0.0032746056216003344
2.0399515628814697;0.0018666804540009478;0.005785541975054173;0.0009842974312603133;0.0008762582428328044;0.002361118661984905;-0.008203952766303677;-8.609647380279199e-16;-7.753032692227462e-16;3.3630052480882752e-12;-3.4698943338776483e-13;4.242827314084703e-13;8.159985152803981e-17;2.4732836012884674e-16;5.059236585039143e-05;3.0738228688160837e-12;-3.454326004692652e-13;4.2483599451971453e-13;8.926439761709433e-17;-6.56900165200064e-05;-6.558215635802e-05;0.00013405159596112417;-0.0012451954630998013;4.452584189812033e-06;0.00014135012131701296;0.0;-4.3635926517943526e-17;-4.735890168341392e-17;-0.0002798944609644008;0.0016942485383382331;0.0003012224452332225;-0.0007416135102046625;-3.109141439608602e-05;1.9868446814055133e-05;1.9310472413421814e-05;0.0002477755814912836;-0.004397615726779564
2.059969425201416;0.0017555881781650155;0.0055866484512610655;0.0009394880427627141;0.00045126537483745113;0.002255524653849282;-0.007825227759901247;-9.666993656502228e-16;-9.464965979983285e-16;3.6194459687469726e-12;-3.942115612612667e-13;4.863490139629976e-13;8.637333516813881e-17;3.1952547817856204e-16;5.6183447157458265e-05;3.3086411273388404e-12;-3.9232382878785104e-13;4.870181697568184e-13;9.98872102274112e-17;-5.89337579186254e-05;-5.890118520732977e-05;0.00013022494770003538;-0.001216409314384827;2.2202944418102804e-06;0.0001328351342007935;0.0;-4.8243634522111066e-17;-5.4769142191924075e-17;-0.0002884144567814262;0.0016975828724348906;0.0002747349093974345;-0.000672967640402365;-2.469748086262432e-05;2.0307594039465693e-05;1.6676761523737767e-05;0.0011971615970915279;-0.005399691409345127
2.0798308849334717;0.0016292131902595165;0.005209858819719962;0.000874309352077962;0.000166329750378935;0.0021174896832762665;-0.007235019181943761;-1.0692944301891847e-15;-1.132004877313649e-15;3.8282987314280406e-12;-4.4120813728343477e-13;5.491153513393246e-13;8.966527450488295e-17;4.0025667029156415e-16;6.22261831417111e-05;3.500060201681395e-12;-4.389636622722486e-13;5.499091999339536e-13;1.1010787190933471e-16;-4.849561159262687e-05;-4.852284307254689e-05;0.0001279946155408065;-0.0012056542600764513;4.2734120501048854e-07;0.00011796704674776395;0.0;-5.252273798478244e-17;-6.23663467037466e-17;-0.00030676718720582295;0.0016683162429173748;0.00024855648985563325;-0.000620968391189489;-1.637789894956229e-05;2.0013069388099656e-05;1.3884428081746162e-05;0.0020630312166854603;-0.006213847952800213
2.0999276638031006;0.0013283745965848189;0.004712234868978905;0.0007565077178905787;2.156791020193649e-05;0.0017342637293910202;-0.006513565328912497;-1.1668266265844053e-15;-1.333880116080857e-15;3.974253397986761e-12;-4.874335415491786e-13;6.121299934712775e-13;9.103203122612537e-17;4.910523265882014e-16;6.863835686392954e-05;3.6341078112913184e-12;-4.848030010807557e-13;6.130584869354026e-13;1.1971005726995758e-16;-3.485373688181065e-05;-3.492805857950839e-05;0.0001259736049190014;-0.0012139994712295735;-1.0062907616394066e-06;9.514149348976781e-05;0.0;-5.633834707888133e-17;-7.012411198891025e-17;-0.0003352044180983781;0.0016114534998046572;0.00022256577807050197;-0.0005846286895851984;-8.684121076446732e-06;1.878784154513045e-05;1.0917991077976584e-05;0.002613385326655952;-0.006809128476902758
2.1197807788848877;0.0008418590459847034;0.004104060932984071;0.0005843930885615364;-3.548450658904541e-05;0.0010958087035036154;-0.005662290403409978;-1.2523000666910261e-15;-1.5447561059218425e-15;4.032180864554066e-12;-5.300035817929575e-13;6.718055772184643e-13;8.988420751225203e-17;5.893157555156186e-16;7.501954043827396e-05;3.687809668968984e-12;-5.269722640024945e-13;6.728734990642122e-13;1.2797320385479182e-16;-2.0055663185893744e-05;-2.0164871502267832e-05;0.000122552744427989;-0.001241591590337184;-2.0920110496610374e-06;6.639983057300768e-05;0.0;-5.934643522274713e-17;-7.763524301471047e-17;-0.0003726562801892415;0.0015338424502713477;0.00019771889830157114;-0.0005643443576663405;-2.6806661238968275e-06;1.6488706871459914e-05;7.858739945373115e-06;0.0029023579816699367;-0.007118673365301248
2.140089273452759;0.000428255635683494;0.003308699102286919;0.00041189026137035373;-1.7167728434727563e-05;0.0005487807062634267;-0.0045700571128518995;-1.3227218397043493e-15;-1.768498010905467e-15;3.9768718558941636e-12;-5.681099620180102e-13;7.275272127615075e-13;8.548503259484432e-17;6.977983324650506e-16;8.1281756437897e-05;3.638161241422214e-12;-5.646565042208462e-13;7.287415631363832e-13;1.3455767704811255e-16;-4.864458599272013e-06;-4.9990310081735195e-06;0.00011555566713922186;-0.001289224137434624;-2.9083274613116104e-06;3.4513105939684386e-05;0.0;-6.133045268183566e-17;-8.487275170107202e-17;-0.0004199320207659386;0.001437770552360917;0.0001734482550905154;-0.0005587634926184159;4.259589879533791e-06;1.2825283823521136e-05;4.600808999106006e-06;0.002994625517193988;-0.007045105151905454
2.1598098278045654;8.408278475834015e-05;0.002522744626846941;0.00025668608420277453;0.00028005670754958255;6.761246891800313e-05;-0.0035587851109001125;-1.3681547527848907e-15;-1.988790907265214e-15;3.784690692714837e-12;-5.973009398941626e-13;7.734321661207219e-13;7.740147642965499e-17;8.095905259825082e-16;8.675159164785148e-05;3.4635177011998885e-12;-5.934354932625737e-13;7.747889108304249e-13;1.3846612894927114e-16;9.073089739722881e-06;8.92240618938298e-06;0.0001032017911265041;-0.0013529348551788785;-3.4570250274855904e-06;3.831488523029905e-06;0.0;-6.18595881862634e-17;-9.113546912731585e-17;-0.0004736141759481567;0.0013329725006380449;0.0001512103886244094;-0.0005667992221134379;1.221886881466736e-05;7.80717401047807e-06;1.3119081285597557e-06;0.0029335668255991536;-0.006476483185438069
2.1798152923583984;-4.7401380679768364e-05;0.0016485809202122048;0.0001434538639288637;0.0008965222173524204;-0.00015974266607351892;-0.0025021678046828377;-1.3834034074680714e-15;-2.2090212244364618e-15;3.4187244454714813e-12;-6.159718275689463e-13;8.080174093182139e-13;6.458410065853143e-17;9.276392288126795e-16;9.125585257890595e-05;3.13018573882566e-12;-6.116991084760205e-13;8.095142649622859e-13;1.3912384496472646e-16;2.1802541352478465e-05;2.1642675525833287e-05;8.533413259054223e-05;-0.001432830325978058;-3.807256803373338e-06;-2.5054968090509305e-05;0.0;-6.059078815474573e-17;-9.630682399230691e-17;-0.0005346466165528675;0.001219334656231804;0.0001301597452841819;-0.0005868320042764104;2.0403641462815148e-05;1.9973646867453087e-06;-1.2539290234110997e-06;0.00275916936430277;-0.005608781776698875
2.1997928619384766;0.00010107027783246697;0.0008155177128888059;0.00010025636887713843;0.0015744139689627405;-1.9930507425581358e-05;-0.0015151524831785372;-1.3589036671067574e-15;-2.417887775246241e-15;2.8471551624088613e-12;-6.201049680131634e-13;8.262172804871727e-13;4.6312143171988787e-17;1.0477169923674624e-15;9.421109553718242e-05;2.609068235244024e-12;-6.154519308243108e-13;8.278441209978493e-13;1.3555124102624668e-16;3.274814412565954e-05;3.258502144410647e-05;6.44171589391795e-05;-0.0015246706888246539;-3.9852358526648645e-06;-5.035824483441522e-05;0.0;-5.70658996710394e-17;-9.980431340129371e-17;-0.000600597111353268;0.0011021690747656456;0.00011076839540474076;-0.0006167190867982698;2.603865511333289e-05;-3.762182914860702e-06;-2.1745524626018466e-06;0.0025036779065750266;-0.004657301726413313
2.2200183868408203;0.00043923231396989274;-4.281409830740074e-06;0.00010315308421290245;0.0023151537328921796;0.00036673964217650987;-0.0005603230119529752;-1.2835939477855001e-15;-2.6083155169153675e-15;2.0208282316382454e-12;-6.054173280772956e-13;8.229589729888726e-13;2.1337887456410674e-17;1.1682347645607652e-15;9.505395194626609e-05;1.8552536312522243e-12;-6.004256226094707e-13;8.247003852379722e-13;1.2658855440296195e-16;4.185716106664232e-05;4.169556873722754e-05;4.136707227903574e-05;-0.001625452907152557;-4.0236892593157165e-06;-7.155490539885187e-05;0.0;-5.069575953781564e-17;-1.0108002609390642e-16;-0.0006703885826161627;0.0009830022011610396;9.286099421510059e-05;-0.0006544810292880826;2.8274556141066112e-05;-9.699763647267356e-06;-1.4940760706556971e-06;0.0021884537119808245;-0.0038210486860888234
2.2398412227630615;0.0008318119590172653;-0.0006169774670824427;0.00013838793401397173;0.0031400248905261337;0.0008164015146044474;8.790244566579947e-05;-1.1497054515834264e-15;-2.76309606565436e-15;9.304428542510939e-13;-5.681584479464154e-13;7.930752285661869e-13;-1.0369604942003226e-17;1.281339271202098e-15;9.315032688564559e-05;8.60183275426702e-13;-5.629025501694284e-13;7.949043624612237e-13;1.1147598027764876e-16;4.882309000794663e-05;4.866668686078549e-05;1.730703611706321e-05;-0.0017263815595690163;-3.951537974550088e-06;-8.760631634984965e-05;0.0;-4.118759569321921e-17;-9.949235500036969e-17;-0.0007392785296909797;0.0008682349038527446;7.701261748714232e-05;-0.0006958912028886663;2.94105185358191e-05;-1.4876894133608641e-05;-1.9460444343469173e-07;0.0018444847594504769;-0.0033355131583117344
2.259859323501587;0.0014151357100757565;-0.001129220842253772;0.00022816493322113572;0.0036977209268591596;0.0015451372555136053;0.000664467779753335;-9.421392875519815e-16;-2.8737736134199127e-15;-4.935721995018867e-13;-5.025549323126319e-13;7.297992559256969e-13;-5.0596434882563516e-17;1.3855228608045446e-15;8.776609046598648e-05;-4.397026767719217e-13;-4.971271679761008e-13;7.316828028404963e-13;8.86250884796221e-17;5.394863760471509e-05;5.380026342502575e-05;-8.799044062013075e-06;-0.001823634837308181;-3.7939901290380264e-06;-9.894669830425945e-05;0.0;-2.7725330170450352e-17;-9.431861886784564e-17;-0.000806295878057316;0.0007564764294039927;6.26985136878144e-05;-0.0007386423908050275;2.984700200672042e-05;-1.8757909118097328e-05;8.610782737233522e-07;0.00147817485494396;-0.0030475380970455324
2.2799527645111084;0.0020435186406295835;-0.001536427395150772;0.00033847564112082134;0.004135004237883898;0.002344628710728035;0.0011257906611417449;-6.47740841684867e-16;-2.922917536797916e-15;-2.2910914689093457e-12;-4.029664053264076e-13;6.259163359177108e-13;-1.002036237750982e-16;1.4739324297764165e-15;7.806891483794399e-05;-2.080881492794596e-12;-3.9749315599198554e-13;6.278090096328229e-13;5.669698491307451e-17;5.729514795516518e-05;5.715685531993996e-05;-3.772550122108593e-05;-0.0019083482131879248;-3.5726126391680866e-06;-0.00010550010951981112;0.0;-9.697469826658335e-18;-8.471804884166879e-17;-0.0008673566424724254;0.0006501195467909388;4.998620790568211e-05;-0.0007784668263889757;2.824899849953329e-05;-2.151903081072934e-05;1.7102811109222912e-06;0.0011039618270655815;-0.002813438848857182
2.2999801635742188;0.0026445577768877786;-0.0018591380433099366;0.00045026686957173856;0.004409505604398898;0.003122499245655892;0.001510096066677774;-2.5490090647417854e-16;-2.8920751198866465e-15;-4.4909790432431624e-12;-2.642289201663827e-13;4.746568982008871e-13;-1.5973900990947746e-16;1.5388301677303144e-15;6.326343197441373e-05;-4.0897803895374826e-12;-2.588722669959849e-13;4.765009047934356e-13;1.4523794298575665e-17;5.901255302884954e-05;5.888564882183934e-05;-7.059590115861851e-05;-0.0019703328431567857;-3.308003690746402e-06;-0.00010745957910863267;0.0;1.3405288776999334e-17;-6.988424097223053e-17;-0.0009177711391290769;0.0005511292783214109;3.888714411742263e-05;-0.0008104911095553034;2.5336090624092614e-05;-2.3304854167623614e-05;2.348828433367106e-06;0.000734140509013535;-0.0025098403015450803
2.319946050643921;0.003401552875641034;-0.0021548735624834737;0.0006014740535661432;0.004594100284043262;0.004116702327791405;0.0018805502213602953;2.495823326303223e-16;-2.7617117517882204e-15;-7.129045765657008e-12;-8.05580374932088e-14;2.6851271554680284e-13;-2.2992570431427857e-16;1.5722146588291233e-15;4.433560520073938e-05;-6.499174003952484e-12;-7.551799335761013e-14;2.702369522608584e-13;-3.9229054290509234e-17;5.931603154112753e-05;5.9201248161500875e-05;-0.00010603492562183124;-0.0019987864433580835;-3.0165517286683406e-06;-0.00010521416210711508;0.0;4.217644926986262e-17;-4.8930577841329675e-17;-0.0009527304146199162;0.00046025423991418666;2.928411556282669e-05;-0.0008296199388855816;2.3464731534976147e-05;-2.425510990193217e-05;2.7627735552066307e-06;0.0003759266003626709;-0.0020320473109467514
2.3397812843322754;0.004042405492318424;-0.0024265365785512147;0.0007274753141251951;0.004668952073207993;0.004966242680326619;0.0022437653777112533;8.7641130558510675e-16;-2.5114280529036726e-15;-1.0224919644139145e-11;1.5301234134104938e-13;7.988355979383611e-16;-3.11034751346878e-16;1.5650875534162389e-15;2.379210459314938e-05;-9.327063266291984e-12;1.5749662277771643e-13;2.3185309335046827e-15;-1.0562306751262497e-16;5.8432678264639426e-05;5.833023625753008e-05;-0.0001403700334723737;-0.001981677615714749;-2.7128011724091687e-06;-9.923972667342773e-05;0.0;7.705203744634155e-17;-2.1042558947581576e-17;-0.0009667618000434126;0.0003782112329772979;2.10755138720735e-05;-0.0008302367199731598;2.2805604701141224e-05;-2.447517420435883e-05;2.922777323616997e-06;3.593288348994035e-05;-0.0012823332330760015
2.359809398651123;0.004497046656362651;-0.0025743003063967776;0.0008210616960079087;0.004760854326692179;0.005564884705090811;0.0024299146007309516;1.650494059599284e-15;-2.1117549190884455e-15;-1.3861388011958272e-11;4.4694772829915033e-13;-3.416822129490201e-13;-4.0494067313331233e-16;1.5064187424315785e-15;3.0448342028185322e-06;-1.2649156404349525e-11;4.505791101337834e-13;-3.404722787786702e-13;-1.8720922673523715e-16;5.6554109461583184e-05;5.6464056212856554e-05;-0.00017175838732239098;-0.0019073237852290632;-2.402599370709815e-06;-8.987726160815149e-05;0.0;1.1922486085274462e-16;1.5297619160998893e-17;-0.0009535848459333649;0.00030395651713083563;1.4007328510545892e-05;-0.0008057901682233358;2.1756557093496242e-05;-2.403304320066906e-05;2.785356555652986e-06;-0.0002869457034626056;-0.00041366584145556806
2.3799543380737305;0.004721125566770044;-0.002715866604571864;0.0008606816743672104;0.004981681760351947;0.005843663254314303;0.002573851683390479;2.5856667815734614e-15;-1.5337738773485225e-15;-1.8058579628815187e-11;8.078227640993613e-13;-7.679065537028052e-13;-5.118180296668932e-16;1.383173634344478e-15;-1.6593387526451062e-05;-1.648394418529513e-11;8.102488264619715e-13;-7.671308782049884e-13;-2.853484731021139e-16;5.387006727967659e-05;5.379210385043961e-05;-0.00019850256892678917;-0.0017671352968301078;-2.0957596028397803e-06;-7.756827974490905e-05;0.0;1.6923344504649574e-16;6.119636698865832e-17;-0.0009053790487109028;0.00023800733253251597;8.00073406848325e-06;-0.0007514802724163124;1.9009940870055498e-05;-2.295452002047695e-05;2.2873374513597117e-06;-0.0005874119176696352;0.00045802349169888625
2.399791955947876;0.004823000796717433;-0.0028601451623366638;0.0008711424548253554;0.0053564571671713915;0.005944794652574619;0.0026826556789756447;3.671878407387483e-15;-7.641504715029083e-16;-2.273110471019261e-11;1.2329444348127922e-12;-1.2758556298959785e-12;-6.29168072567794e-16;1.1859173884518605e-15;-3.393388412224201e-05;-2.0753505734195317e-11;1.2337897713263691e-12;-1.2756463781478387e-12;-3.988986316509971e-16;5.06353928359898e-05;5.056875079936138e-05;-0.00021932280779719313;-0.0015603248688210204;-1.8052333485117067e-06;-6.309562534522546e-05;0.0;2.2634705201154167e-16;1.165704803880033e-16;-0.000815854021602053;0.00018148837468955444;3.032918006780488e-06;-0.0006688883137515485;1.5347440746630257e-05;-2.1367364424136654e-05;1.4631285626773408e-06;-0.0008563670838188612;0.001504839931118245
