flxalr/sts-optimization-reemc/input/498_166/augmented.txt
time, StatePelvisPosX, StatePelvisPosZ, StatePelvisRotY, StateHipRotY, StateKneeRotY, StateAnkleRotY, StateMiddleTrunkRotY, StateLShoulderRotY, StateLElbowRotY, StateRShoulderRotY, StateRElbowRotY, StateHeadRotY, StatePelvisVelX, StatePelvisVelZ, StatePelvisRotVelY, StateHipRotVelY, StateKneeRotVelY, StateAnkleRotVelY, StateMiddleTrunkRotVelY, StateLShoulderRotVelY, StateLElbowRotVelY, StateRShoulderRotVelY, StateRElbowRotVelY, StateHeadRotVelY, StateHipTorque, StateKneeTorque, StateAnkleTorque, StateMiddleTrunkTorque, StateShoulderTorque, StateElbowTorque, StateHeadTorque, ControlHipDTorque, ControlKneeDTorque, ControlAnkleDTorque, ControlMiddleTrunkDTorque, ControlShoulderDTorque, ControlElbowDTorque, ControlHeadDTorque, TauPelvisPosX, TauPelvisPosZ, TauPelvisRotY, Tauleg_3_joint, Tauleg_4_joint, Tauleg_5_joint, Tautorso_2_joint, Tauarm_1_joint, Tauarm_4_joint, Tauarm_1_joint, Tauarm_4_joint, Tauhead_2_joint, Heel_Fx, Heel_Fy, Heel_Fz, Toe_Fx, Toe_Fy, Toe_Fz, CoP, Hand_x, Hand_y, Hand_z, Box_Hand_Fx, Box_Hand_Fz, Box_Hand_Ty, Phase
0, -0.0268833, 0.742555, 0.1, -1.00966, 1.00841, -0.0987482, 0.1, 0.23, 1, 0.23, 1, 0.03, 6.50651e-17, 1.31731e-18, 1.14145e-16, 4.05285e-17, -2.29754e-17, 1.02753e-16, 2.38052e-17, -8.47607e-18, -6.78228e-17, 2.23844e-17, -7.28121e-18, 1.18755e-17, 38.001, -2.32041, 0.855946, -33.124, 43.7697, 24.6036, -0.665399, -150, -14.4231, -35.0523, -100, 26.6437, -10.7407, -13.744, 4.66558e-310, 0, 0, 38.001, -2.32041, 0.855946, -33.124, 21.8849, 12.3018, 21.8849, 0, 0, 3.07418, 0, 165.321, 0, 0, 83.8447, 0.000475353, 0, 0, 0, 0, 0, 0, 0
0.000159483, -0.0268833, 0.742555, 0.0999998, -1.00966, 1.00841, -0.0987482, 0.100001, 0.230001, 1, 0.230001, 1, 0.0299989, -0.000424609, 4.26029e-05, -0.00297319, 0.00297319, -1.98096e-17, 9.5711e-17, 0.00715126, 0.00697482, 0.00052163, 0.00697962, 0.000520232, -0.012866, 37.9771, -2.32264, 0.850394, -33.14, 43.7739, 24.6018, -0.667563, -150, -13.5792, -34.5858, -100, 26.1005, -10.7219, -13.4066, 4.66558e-310, 0, 0, 37.9771, -2.32264, 0.850394, -33.14, 21.887, 12.3009, 21.887, 0, 0, 3.06514, 0, 165.215, 0, 0, 83.7469, 0.00045769, 0, 0, 0, 0, 0, 0, 0
0.000318966, -0.0268834, 0.742555, 0.099999, -1.00966, 1.00841, -0.0987482, 0.100002, 0.230002, 1, 0.230002, 1, 0.0299959, -0.000848398, 8.51229e-05, -0.00594062, 0.00594062, -1.91131e-17, 9.34755e-17, 0.0142893, 0.013946, 0.00103687, 0.0139556, 0.00103407, -0.0257317, 37.9532, -2.32474, 0.844915, -33.1559, 43.7781, 24.6001, -0.669674, -150, -12.7353, -34.1193, -100, 25.5574, -10.7031, -13.0692, 4.66558e-310, 0, 0, 37.9532, -2.32474, 0.844915, -33.1559, 21.889, 12.3001, 21.889, 0, 0, 3.05624, 0, 165.108, 0, 0, 83.6493, 0.000440224, 0, 0, 0, 0, 0, 0, 0
0.000478449, -0.0268836, 0.742556, 0.0999979, -1.00966, 1.00841, -0.0987482, 0.100005, 0.230005, 1, 0.230005, 1, 0.0299907, -0.00127135, 0.000127558, -0.00890222, 0.00890222, -1.54385e-17, 8.90769e-17, 0.0214139, 0.0209134, 0.00154565, 0.0209279, 0.00154144, -0.0385964, 37.9293, -2.32671, 0.839511, -33.1719, 43.7821, 24.5984, -0.671732, -150, -11.8913, -33.6528, -100, 25.0142, -10.6843, -12.7317, 4.66558e-310, 0, 0, 37.9293, -2.32671, 0.839511, -33.1719, 21.891, 12.2992, 21.891, 0, 0, 3.0475, 0, 165.001, 0, 0, 83.5519, 0.000422961, 0, 0, 0, 0, 0, 0, 0
0.000637932, -0.0268838, 0.742556, 0.0999962, -1.00966, 1.00841, -0.0987482, 0.100009, 0.230009, 1, 0.230009, 1, 0.0299836, -0.00169347, 0.000169907, -0.011858, 0.011858, -9.71507e-18, 9.51628e-17, 0.028525, 0.0278771, 0.00204799, 0.0278963, 0.00204238, -0.0514597, 37.9054, -2.32853, 0.834181, -33.1878, 43.786, 24.5967, -0.673735, -150, -11.0474, -33.1863, -100, 24.471, -10.6654, -12.3943, 4.66558e-310, 0, 0, 37.9054, -2.32853, 0.834181, -33.1878, 21.893, 12.2984, 21.893, 0, 0, 3.0389, 0, 164.893, 0, 0, 83.4547, 0.000405898, 0, 0, 0, 0, 0, 0, 0
0.000797415, -0.0268841, 0.742556, 0.0999941, -1.00966, 1.00841, -0.0987482, 0.100014, 0.230014, 1, 0.230014, 1, 0.0299743, -0.00211475, 0.00021217, -0.0148078, 0.0148078, -8.27978e-18, 9.69876e-17, 0.0356226, 0.034837, 0.00254394, 0.034861, 0.0025369, -0.0643212, 37.8814, -2.33023, 0.828925, -33.2038, 43.7899, 24.595, -0.675685, -150, -10.2035, -32.7198, -100, 23.9279, -10.6466, -12.0568, 4.66558e-310, 0, 0, 37.8814, -2.33023, 0.828925, -33.2038, 21.8949, 12.2975, 21.8949, 0, 0, 3.03046, 0, 164.785, 0, 0, 83.3577, 0.000389039, 0, 0, 0, 0, 0, 0, 0
0.000956898, -0.0268845, 0.742556, 0.0999915, -1.00965, 1.00841, -0.0987482, 0.10002, 0.23002, 1, 0.23002, 1, 0.029963, -0.00253519, 0.000254346, -0.0177518, 0.0177518, -7.00304e-18, 9.37363e-17, 0.0427067, 0.041793, 0.0030335, 0.0418218, 0.00302504, -0.0771801, 37.8575, -2.33179, 0.823744, -33.2197, 43.7937, 24.5933, -0.677581, -150, -9.35955, -32.2533, -100, 23.3847, -10.6278, -11.7194, 4.66558e-310, 0, 0, 37.8575, -2.33179, 0.823744, -33.2197, 21.8968, 12.2967, 21.8968, 0, 0, 3.02216, 0, 164.675, 0, 0, 83.2609, 0.000372381, 0, 0, 0, 0, 0, 0, 0
0.00111638, -0.0268849, 0.742556, 0.0999884, -1.00965, 1.00841, -0.0987482, 0.100028, 0.230027, 1, 0.230027, 1, 0.0299497, -0.00295479, 0.000296433, -0.0206899, 0.0206899, -5.34511e-18, 9.09214e-17, 0.0497771, 0.048745, 0.00351671, 0.0487787, 0.00350683, -0.0900359, 37.8336, -2.33321, 0.818638, -33.2356, 43.7974, 24.5916, -0.679423, -150, -8.51562, -31.7868, -100, 22.8415, -10.609, -11.382, 4.66558e-310, 0, 0, 37.8336, -2.33321, 0.818638, -33.2356, 21.8987, 12.2958, 21.8987, 0, 0, 3.01401, 0, 164.565, 0, 0, 83.1643, 0.000355928, 0, 0, 0, 0, 0, 0, 0
0.00127586, -0.0268854, 0.742556, 0.0999849, -1.00965, 1.00841, -0.0987482, 0.100036, 0.230036, 1, 0.230036, 1, 0.0299343, -0.00337355, 0.000338432, -0.0236221, 0.0236221, -2.07931e-18, 8.93013e-17, 0.0568338, 0.0556932, 0.0039936, 0.0557316, 0.0039823, -0.102888, 37.8097, -2.33451, 0.813605, -33.2516, 43.801, 24.59, -0.681212, -150, -7.67169, -31.3203, -100, 22.2984, -10.5902, -11.0445, 4.66558e-310, 0, 0, 37.8097, -2.33451, 0.813605, -33.2516, 21.9005, 12.295, 21.9005, 0, 0, 3.00601, 0, 164.454, 0, 0, 83.0679, 0.000339677, 0, 0, 0, 0, 0, 0, 0
0.00143535, -0.026886, 0.742556, 0.0999809, -1.00964, 1.00841, -0.0987482, 0.100046, 0.230045, 1, 0.230045, 1, 0.0299169, -0.00379146, 0.000380341, -0.0265484, 0.0265484, 2.62441e-18, 8.62575e-17, 0.0638768, 0.0626373, 0.0044642, 0.0626806, 0.00445146, -0.115736, 37.7857, -2.33566, 0.808648, -33.2675, 43.8045, 24.5883, -0.682946, -150, -6.82776, -30.8538, -100, 21.7552, -10.5714, -10.7071, 4.66558e-310, 0, 0, 37.7857, -2.33566, 0.808648, -33.2675, 21.9022, 12.2941, 21.9022, 0, 0, 2.99815, 0, 164.343, 0, 0, 82.9717, 0.000323631, 0, 0, 0, 0, 0, 0, 0
0.00159483, -0.0268866, 0.742556, 0.0999764, -1.00964, 1.00841, -0.0987482, 0.100057, 0.230056, 1, 0.230056, 1, 0.0298974, -0.00420852, 0.00042216, -0.0294687, 0.0294687, 8.74325e-18, 7.96268e-17, 0.0709061, 0.0695774, 0.00492853, 0.0696255, 0.00491436, -0.128579, 37.7618, -2.33668, 0.803764, -33.2835, 43.8079, 24.5866, -0.684627, -150, -5.98383, -30.3873, -100, 21.2121, -10.5526, -10.3696, 4.66558e-310, 0, 0, 37.7618, -2.33668, 0.803764, -33.2835, 21.9039, 12.2933, 21.9039, 0, 0, 2.99045, 0, 164.23, 0, 0, 82.8757, 0.000307789, 0, 0, 0, 0, 0, 0, 0
0.00175431, -0.0268873, 0.742556, 0.0999715, -1.00963, 1.00841, -0.0987482, 0.100069, 0.230067, 1, 0.230067, 1, 0.0298759, -0.00462473, 0.000463888, -0.032383, 0.032383, 1.46124e-17, 7.00108e-17, 0.0779215, 0.0765134, 0.00538662, 0.0765663, 0.005371, -0.141417, 37.7379, -2.33757, 0.798955, -33.2994, 43.8112, 24.5849, -0.686254, -150, -5.1399, -29.9208, -100, 20.6689, -10.5338, -10.0322, 4.66558e-310, 0, 0, 37.7379, -2.33757, 0.798955, -33.2994, 21.9056, 12.2924, 21.9056, 0, 0, 2.98289, 0, 164.117, 0, 0, 82.7799, 0.000292153, 0, 0, 0, 0, 0, 0, 0
0.0019138, -0.0268881, 0.742556, 0.0999661, -1.00963, 1.00841, -0.0987482, 0.100082, 0.23008, 1.00001, 0.23008, 1.00001, 0.0298523, -0.00504009, 0.000505523, -0.0352914, 0.0352914, 1.91026e-17, 5.70408e-17, 0.0849231, 0.0834453, 0.0058385, 0.0835031, 0.00582144, -0.154248, 37.714, -2.33832, 0.79422, -33.3154, 43.8145, 24.5832, -0.687827, -150, -4.29597, -29.4543, -100, 20.1257, -10.515, -9.69475, 4.66558e-310, 0, 0, 37.714, -2.33832, 0.79422, -33.3154, 21.9072, 12.2916, 21.9072, 0, 0, 2.97548, 0, 164.003, 0, 0, 82.6843, 0.000276722, 0, 0, 0, 0, 0, 0, 0
0.00207328, -0.0268889, 0.742556, 0.0999602, -1.00962, 1.00841, -0.0987482, 0.100096, 0.230094, 1.00001, 0.230094, 1.00001, 0.0298267, -0.0054546, 0.000547066, -0.0381939, 0.0381939, 2.18819e-17, 4.40092e-17, 0.0919108, 0.090373, 0.00628419, 0.0904356, 0.00626568, -0.167074, 37.6901, -2.33894, 0.78956, -33.3313, 43.8177, 24.5815, -0.689346, -150, -3.45203, -28.9878, -100, 19.5826, -10.4962, -9.35731, 4.66558e-310, 0, 0, 37.6901, -2.33894, 0.78956, -33.3313, 21.9088, 12.2908, 21.9088, 0, 0, 2.96822, 0, 163.889, 0, 0, 82.5889, 0.000261497, 0, 0, 0, 0, 0, 0, 0
0.00223276, -0.0268898, 0.742556, 0.0999539, -1.00961, 1.00841, -0.0987482, 0.100111, 0.230109, 1.00001, 0.230109, 1.00001, 0.029799, -0.00586825, 0.000588516, -0.0410903, 0.0410903, 2.22561e-17, 3.29277e-17, 0.0988846, 0.0972965, 0.00672373, 0.0973639, 0.00670375, -0.179892, 37.6661, -2.33942, 0.784974, -33.3473, 43.8207, 24.5799, -0.690811, -150, -2.6081, -28.5213, -100, 19.0394, -10.4773, -9.01987, 4.66558e-310, 0, 0, 37.6661, -2.33942, 0.784974, -33.3473, 21.9104, 12.2899, 21.9104, 0, 0, 2.96111, 0, 163.773, 0, 0, 82.4937, 0.000246479, 0, 0, 0, 0, 0, 0, 0
0.00239225, -0.0268908, 0.742556, 0.0999471, -1.00961, 1.00841, -0.0987482, 0.100127, 0.230125, 1.00001, 0.230125, 1.00001, 0.0297693, -0.00628105, 0.000629871, -0.0439807, 0.0439807, 2.10722e-17, 2.40093e-17, 0.105844, 0.104216, 0.00715713, 0.104288, 0.0071357, -0.192703, 37.6422, -2.33977, 0.780463, -33.3632, 43.8237, 24.5782, -0.692223, -150, -1.76417, -28.0548, -100, 18.4962, -10.4585, -8.68243, 4.66558e-310, 0, 0, 37.6422, -2.33977, 0.780463, -33.3632, 21.9119, 12.2891, 21.9119, 0, 0, 2.95414, 0, 163.657, 0, 0, 82.3987, 0.000231668, 0, 0, 0, 0, 0, 0, 0
0.00255173, -0.0268918, 0.742556, 0.0999399, -1.0096, 1.00841, -0.0987482, 0.100145, 0.230142, 1.00001, 0.230142, 1.00001, 0.0297375, -0.00669298, 0.000671132, -0.0468651, 0.0468651, 1.83226e-17, 1.8455e-17, 0.11279, 0.111131, 0.00758443, 0.111208, 0.00756153, -0.205505, 37.6183, -2.33999, 0.776026, -33.3792, 43.8266, 24.5765, -0.693581, -150, -0.920241, -27.5883, -100, 17.9531, -10.4397, -8.34499, 4.66558e-310, 0, 0, 37.6183, -2.33999, 0.776026, -33.3792, 21.9133, 12.2883, 21.9133, 0, 0, 2.94732, 0, 163.541, 0, 0, 82.3039, 0.000217064, 0, 0, 0, 0, 0, 0, 0
0.00271121, -0.0268929, 0.742556, 0.0999322, -1.00959, 1.00841, -0.0987482, 0.100163, 0.23016, 1.00001, 0.23016, 1.00001, 0.0297037, -0.00710406, 0.000712296, -0.0497434, 0.0497434, 1.3981e-17, 1.74764e-17, 0.119722, 0.118041, 0.00800565, 0.118123, 0.00798128, -0.218299, 37.5944, -2.34007, 0.771663, -33.3951, 43.8295, 24.5749, -0.694885, -150, -0.0763096, -27.1218, -100, 17.4099, -10.4209, -8.00755, 4.66558e-310, 0, 0, 37.5944, -2.34007, 0.771663, -33.3951, 21.9147, 12.2874, 21.9147, 0, 0, 2.94065, 0, 163.423, 0, 0, 82.2093, 0.000202669, 0, 0, 0, 0, 0, 0, 0
0.0028707, -0.0268941, 0.742557, 0.099924, -1.00958, 1.00841, -0.0987482, 0.100183, 0.23018, 1.00001, 0.23018, 1.00001, 0.0296679, -0.00751427, 0.000753365, -0.0526157, 0.0526157, 9.80876e-18, 1.70445e-17, 0.126639, 0.124948, 0.00842081, 0.125034, 0.00839497, -0.231083, 37.5704, -2.34001, 0.767375, -33.4111, 43.8322, 24.5732, -0.696135, -150, 0.767622, -26.6553, -100, 16.8667, -10.4021, -7.67011, 0, 0, 0, 37.5704, -2.34001, 0.767375, -33.4111, 21.9161, 12.2866, 21.9161, 0, 0, 2.93412, 0, 163.305, 0, 0, 82.1149, 0.000188482, 0, 0, 0, 0, 0, 0, 0
0.00303018, -0.0268953, 0.742557, 0.0999154, -1.00958, 1.00841, -0.0987482, 0.100204, 0.2302, 1.00001, 0.2302, 1.00001, 0.02963, -0.00792361, 0.000794336, -0.055482, 0.055482, 6.88986e-18, 1.52009e-17, 0.133543, 0.131849, 0.00882996, 0.131941, 0.00880263, -0.243858, 37.5465, -2.33982, 0.763161, -33.427, 43.8348, 24.5716, -0.697331, -150, 1.61155, -26.1888, -100, 16.3236, -10.3833, -7.33267, 0, 0, 0, 37.5465, -2.33982, 0.763161, -33.427, 21.9174, 12.2858, 21.9174, 0, 0, 2.92775, 0, 163.186, 0, 0, 82.0207, 0.000174504, 0, 0, 0, 0, 0, 0, 0
0.00318966, -0.0268966, 0.742557, 0.0999063, -1.00957, 1.00841, -0.0987482, 0.100225, 0.230222, 1.00002, 0.230222, 1.00002, 0.0295901, -0.00833209, 0.000835209, -0.0583421, 0.0583421, 5.46924e-18, 1.25506e-17, 0.140432, 0.138747, 0.0092331, 0.138843, 0.00920429, -0.256622, 37.5226, -2.3395, 0.759021, -33.443, 43.8374, 24.5699, -0.698474, -150, 2.45548, -25.7223, -100, 15.7804, -10.3645, -6.99523, 0, 0, 0, 37.5226, -2.3395, 0.759021, -33.443, 21.9187, 12.2849, 21.9187, 0, 0, 2.92151, 0, 163.066, 0, 0, 81.9267, 0.000160736, 0, 0, 0, 0, 0, 0, 0
0.00334914, -0.026898, 0.742557, 0.0998968, -1.00956, 1.00841, -0.0987482, 0.100248, 0.230244, 1.00002, 0.230245, 1.00002, 0.0295482, -0.0087397, 0.000875984, -0.0611962, 0.0611962, 6.25878e-18, 8.27219e-18, 0.147306, 0.145639, 0.00963028, 0.145741, 0.00959998, -0.269375, 37.4987, -2.33904, 0.754956, -33.4589, 43.8399, 24.5682, -0.699562, -150, 3.29942, -25.2558, -100, 15.2373, -10.3457, -6.65779, 0, 0, 0, 37.4987, -2.33904, 0.754956, -33.4589, 21.9199, 12.2841, 21.9199, 0, 0, 2.91543, 0, 162.945, 0, 0, 81.8329, 0.000147178, 0, 0, 0, 0, 0, 0, 0
0.00350863, -0.0268994, 0.742557, 0.0998868, -1.00955, 1.00841, -0.0987482, 0.100272, 0.230268, 1.00002, 0.230268, 1.00002, 0.0295042, -0.00914644, 0.000916659, -0.0640441, 0.0640441, 9.67853e-18, 1.77706e-18, 0.154167, 0.152528, 0.0100215, 0.152634, 0.00998972, -0.282117, 37.4747, -2.33844, 0.750966, -33.4749, 43.8423, 24.5666, -0.700597, -150, 4.14335, -24.7893, -100, 14.6941, -10.3269, -6.32035, 0, 0, 0, 37.4747, -2.33844, 0.750966, -33.4749, 21.9211, 12.2833, 21.9211, 0, 0, 2.90949, 0, 162.824, 0, 0, 81.7393, 0.00013383, 0, 0, 0, 0, 0, 0, 0
0.00366811, -0.0269009, 0.742557, 0.0998764, -1.00954, 1.00841, -0.0987482, 0.100298, 0.230293, 1.00002, 0.230293, 1.00002, 0.0294582, -0.0095523, 0.000957234, -0.066886, 0.066886, 1.11549e-17, -3.53306e-18, 0.161013, 0.159411, 0.0104068, 0.159522, 0.0103735, -0.294846, 37.4508, -2.33772, 0.747049, -33.4908, 43.8446, 24.565, -0.701578, -150, 4.98728, -24.3228, -100, 14.1509, -10.3081, -5.98291, 0, 0, 0, 37.4508, -2.33772, 0.747049, -33.4908, 21.9223, 12.2825, 21.9223, 0, 0, 2.9037, 0, 162.702, 0, 0, 81.6458, 0.000120694, 0, 0, 0, 0, 0, 0, 0
0.00382759, -0.0269025, 0.742557, 0.0998655, -1.00953, 1.00841, -0.0987482, 0.100324, 0.230319, 1.00002, 0.230319, 1.00002, 0.0294102, -0.00995729, 0.000997709, -0.0697217, 0.0697217, 1.34149e-17, -1.00899e-17, 0.167845, 0.16629, 0.0107862, 0.166406, 0.0107514, -0.307563, 37.4269, -2.33685, 0.743208, -33.5068, 43.8468, 24.5633, -0.702506, -150, 5.83121, -23.8563, -100, 13.6078, -10.2892, -5.64547, 0, 0, 0, 37.4269, -2.33685, 0.743208, -33.5068, 21.9234, 12.2817, 21.9234, 0, 0, 2.89805, 0, 162.579, 0, 0, 81.5526, 0.00010777, 0, 0, 0, 0, 0, 0, 0
0.00398708, -0.0269041, 0.742558, 0.0998541, -1.00952, 1.00841, -0.0987482, 0.100351, 0.230346, 1.00002, 0.230346, 1.00002, 0.0293601, -0.0103614, 0.00103808, -0.0725512, 0.0725512, 1.64882e-17, -1.81701e-17, 0.174662, 0.173164, 0.0111598, 0.173285, 0.0111235, -0.320267, 37.403, -2.33586, 0.73944, -33.5227, 43.8489, 24.5617, -0.703379, -150, 6.67514, -23.3898, -100, 13.0646, -10.2704, -5.30803, 0, 0, 0, 37.403, -2.33586, 0.73944, -33.5227, 21.9244, 12.2808, 21.9244, 0, 0, 2.89255, 0, 162.455, 0, 0, 81.4596, 9.50579e-05, 0, 0, 0, 0, 0, 0, 0
0.00414656, -0.0269058, 0.742558, 0.0998423, -1.0095, 1.00841, -0.0987482, 0.10038, 0.230374, 1.00003, 0.230375, 1.00003, 0.029308, -0.0107646, 0.00107835, -0.0753746, 0.0753746, 2.04044e-17, -2.80501e-17, 0.181465, 0.180034, 0.0115275, 0.180159, 0.0114897, -0.332957, 37.3791, -2.33472, 0.735747, -33.5387, 43.8509, 24.56, -0.704199, -150, 7.51907, -22.9233, -100, 12.5214, -10.2516, -4.97059, 4.66558e-310, 0, 0, 37.3791, -2.33472, 0.735747, -33.5387, 21.9255, 12.28, 21.9255, 0, 0, 2.8872, 0, 162.331, 0, 0, 81.3667, 8.25587e-05, 0, 0, 0, 0, 0, 0, 0
0.00430604, -0.0269075, 0.742558, 0.0998301, -1.00949, 1.00841, -0.0987482, 0.100409, 0.230404, 1.00003, 0.230404, 1.00003, 0.0292539, -0.011167, 0.00111852, -0.0781918, 0.0781918, 2.5167e-17, -3.99262e-17, 0.188253, 0.186899, 0.0118894, 0.187029, 0.0118501, -0.345632, 37.3551, -2.33346, 0.732128, -33.5546, 43.8529, 24.5584, -0.704965, -150, 8.363, -22.4568, -100, 11.9783, -10.2328, -4.63315, 4.66558e-310, 0, 0, 37.3551, -2.33346, 0.732128, -33.5546, 21.9264, 12.2792, 21.9264, 0, 0, 2.88199, 0, 162.206, 0, 0, 81.2741, 7.02731e-05, 0, 0, 0, 0, 0, 0, 0
0.00446553, -0.0269093, 0.742558, 0.0998174, -1.00948, 1.00841, -0.0987482, 0.10044, 0.230434, 1.00003, 0.230434, 1.00003, 0.0291978, -0.0115685, 0.00115858, -0.0810028, 0.0810028, 2.94178e-17, -4.98214e-17, 0.195027, 0.193759, 0.0122456, 0.193894, 0.0122047, -0.358292, 37.3312, -2.33206, 0.728584, -33.5706, 43.8548, 24.5568, -0.705677, -150, 9.20693, -21.9903, -100, 11.4351, -10.214, -4.29571, 4.66558e-310, 0, 0, 37.3312, -2.33206, 0.728584, -33.5706, 21.9274, 12.2784, 21.9274, 0, 0, 2.87693, 0, 162.08, 0, 0, 81.1816, 5.82014e-05, 0, 0, 0, 0, 0, 0, 0
0.00462501, -0.0269112, 0.742558, 0.0998042, -1.00947, 1.00841, -0.0987482, 0.100471, 0.230465, 1.00003, 0.230466, 1.00003, 0.0291396, -0.011969, 0.00119854, -0.0838076, 0.0838076, 3.38156e-17, -5.99406e-17, 0.201786, 0.200614, 0.0125959, 0.200754, 0.0125535, -0.370937, 37.3073, -2.33052, 0.725114, -33.5865, 43.8565, 24.5551, -0.706335, -150, 10.0509, -21.5238, -100, 10.8919, -10.1952, -3.95827, 4.66558e-310, 0, 0, 37.3073, -2.33052, 0.725114, -33.5865, 21.9283, 12.2776, 21.9283, 0, 0, 2.87201, 0, 161.954, 0, 0, 81.0894, 4.63442e-05, 0, 0, 0, 0, 0, 0, 0
0.00478449, -0.0269132, 0.742558, 0.0997906, -1.00945, 1.00841, -0.0987482, 0.100504, 0.230498, 1.00003, 0.230498, 1.00003, 0.0290795, -0.0123687, 0.0012384, -0.0866062, 0.0866062, 3.82577e-17, -7.01544e-17, 0.20853, 0.207464, 0.0129406, 0.207608, 0.0128966, -0.383566, 37.2834, -2.32885, 0.721719, -33.6025, 43.8582, 24.5535, -0.706939, -150, 10.8948, -21.0574, -100, 10.3488, -10.1764, -3.62083, 4.66558e-310, 0, 0, 37.2834, -2.32885, 0.721719, -33.6025, 21.9291, 12.2768, 21.9291, 0, 0, 2.86724, 0, 161.826, 0, 0, 80.9973, 3.47022e-05, 0, 0, 0, 0, 0, 0, 0
0.00494398, -0.0269152, 0.742559, 0.0997766, -1.00944, 1.00841, -0.0987482, 0.100538, 0.230531, 1.00004, 0.230532, 1.00004, 0.0290173, -0.0127675, 0.00127815, -0.0893985, 0.0893985, 4.26414e-17, -8.03337e-17, 0.21526, 0.214309, 0.0132795, 0.214458, 0.013234, -0.396179, 37.2594, -2.32705, 0.718398, -33.6184, 43.8598, 24.5519, -0.70749, -150, 11.7387, -20.5909, -100, 9.80561, -10.1576, -3.28339, 4.66558e-310, 0, 0, 37.2594, -2.32705, 0.718398, -33.6184, 21.9299, 12.2759, 21.9299, 0, 0, 2.86261, 0, 161.698, 0, 0, 80.9055, 2.32759e-05, 0, 0, 0, 0, 0, 0, 0
0.00510346, -0.0269172, 0.742559, 0.0997621, -1.00942, 1.00841, -0.0987482, 0.100573, 0.230566, 1.00004, 0.230567, 1.00004, 0.0289531, -0.0131655, 0.00131779, -0.0921846, 0.0921846, 4.6864e-17, -9.03493e-17, 0.221975, 0.221149, 0.0136127, 0.221303, 0.0135657, -0.408774, 37.2355, -2.32511, 0.715151, -33.6344, 43.8614, 24.5503, -0.707986, -150, 12.5827, -20.1244, -100, 9.26245, -10.1388, -2.94595, 4.66558e-310, 0, 0, 37.2355, -2.32511, 0.715151, -33.6344, 21.9307, 12.2751, 21.9307, 0, 0, 2.85813, 0, 161.569, 0, 0, 80.8138, 1.20659e-05, 0, 0, 0, 0, 0, 0, 0
0.00526294, -0.0269194, 0.742559, 0.0997472, -1.00941, 1.00841, -0.0987482, 0.100609, 0.230602, 1.00004, 0.230602, 1.00004, 0.0288869, -0.0135625, 0.00135733, -0.0949644, 0.0949644, 5.09254e-17, -9.997e-17, 0.228675, 0.227984, 0.0139403, 0.228143, 0.0138917, -0.421351, 37.2116, -2.32303, 0.711979, -33.6503, 43.8628, 24.5487, -0.708429, -150, 13.4266, -19.6579, -100, 8.71928, -10.12, -2.60851, 4.66558e-310, 0, 0, 37.2116, -2.32303, 0.711979, -33.6503, 21.9314, 12.2743, 21.9314, 0, 0, 2.85379, 0, 161.439, 0, 0, 80.7223, 1.07281e-06, 0, 0, 0, 0, 0, 0, 0
0.00542242, -0.0269215, 0.742559, 0.0997318, -1.00939, 1.00841, -0.0987482, 0.100646, 0.230639, 1.00004, 0.230639, 1.00004, 0.0288187, -0.0139586, 0.00139675, -0.0977379, 0.0977379, 5.53542e-17, -1.08442e-16, 0.23536, 0.234814, 0.0142623, 0.234978, 0.0142121, -0.43391, 37.1877, -2.32082, 0.708881, -33.6663, 43.8641, 24.5471, -0.708818, -150, 14.2705, -19.1914, -100, 8.17612, -10.1011, -2.27107, 4.66558e-310, 0, 0, 37.1877, -2.32082, 0.708881, -33.6663, 21.9321, 12.2735, 21.9321, 0, 0, 2.8496, 0, 161.309, 0, 0, 80.631, -9.70283e-06, 0, 0, 0, 0, 0, 0, 0
0.00558191, -0.0269238, 0.74256, 0.099716, -1.00938, 1.00841, -0.0987482, 0.100684, 0.230677, 1.00004, 0.230677, 1.00004, 0.0287485, -0.0143538, 0.00143607, -0.100505, 0.100505, 5.98187e-17, -1.15862e-16, 0.24203, 0.241639, 0.0145786, 0.241808, 0.0145269, -0.44645, 37.1638, -2.31848, 0.705857, -33.6822, 43.8654, 24.5454, -0.709154, -150, 15.1145, -18.7249, -100, 7.63296, -10.0823, -1.93363, 4.66558e-310, 0, 0, 37.1638, -2.31848, 0.705857, -33.6822, 21.9327, 12.2727, 21.9327, 0, 0, 2.84555, 0, 161.178, 0, 0, 80.5399, -2.02604e-05, 0, 0, 0, 0, 0, 0, 0
0.00574139, -0.0269261, 0.74256, 0.0996998, -1.00936, 1.00841, -0.0987482, 0.100723, 0.230716, 1.00005, 0.230717, 1.00005, 0.0286763, -0.0147482, 0.00147528, -0.103266, 0.103266, 6.43485e-17, -1.21971e-16, 0.248685, 0.248458, 0.0148894, 0.248632, 0.0148361, -0.458971, 37.1398, -2.316, 0.702908, -33.6981, 43.8666, 24.5438, -0.709435, -150, 15.9584, -18.2584, -100, 7.08979, -10.0635, -1.59619, 4.66558e-310, 0, 0, 37.1398, -2.316, 0.702908, -33.6981, 21.9333, 12.2719, 21.9333, 0, 0, 2.84164, 0, 161.046, 0, 0, 80.449, -3.05993e-05, 0, 0, 0, 0, 0, 0, 0
0.00590087, -0.0269285, 0.74256, 0.0996831, -1.00934, 1.00841, -0.0987482, 0.100763, 0.230756, 1.00005, 0.230757, 1.00005, 0.0286021, -0.0151416, 0.00151438, -0.106021, 0.106021, 6.89866e-17, -1.26494e-16, 0.255326, 0.255273, 0.0151947, 0.255452, 0.0151398, -0.471472, 37.1159, -2.31339, 0.700033, -33.7141, 43.8677, 24.5422, -0.709663, -150, 16.8023, -17.7919, -100, 6.54663, -10.0447, -1.25874, 4.66558e-310, 0, 0, 37.1159, -2.31339, 0.700033, -33.7141, 21.9338, 12.2711, 21.9338, 0, 0, 2.83788, 0, 160.913, 0, 0, 80.3582, -4.07189e-05, 0, 0, 0, 0, 0, 0, 0
0.00606036, -0.026931, 0.74256, 0.099666, -1.00933, 1.00841, -0.0987482, 0.100804, 0.230797, 1.00005, 0.230798, 1.00005, 0.0285259, -0.0155341, 0.00155337, -0.108769, 0.108769, 7.37897e-17, -1.29146e-16, 0.261951, 0.262082, 0.0154944, 0.262266, 0.0154379, -0.483952, 37.092, -2.31064, 0.697233, -33.73, 43.8687, 24.5406, -0.709837, -150, 17.6462, -17.3254, -100, 6.00346, -10.0259, -0.921304, 4.66558e-310, 0, 0, 37.092, -2.31064, 0.697233, -33.73, 21.9343, 12.2703, 21.9343, 0, 0, 2.83427, 0, 160.779, 0, 0, 80.2677, -5.06186e-05, 0, 0, 0, 0, 0, 0, 0
0.00621984, -0.0269335, 0.742561, 0.0996484, -1.00931, 1.00841, -0.0987482, 0.100846, 0.23084, 1.00005, 0.23084, 1.00005, 0.0284478, -0.0159258, 0.00159225, -0.111511, 0.111511, 7.88281e-17, -1.29624e-16, 0.268561, 0.268886, 0.0157886, 0.269074, 0.0157306, -0.496411, 37.0681, -2.30776, 0.694507, -33.746, 43.8696, 24.539, -0.709957, -150, 18.4902, -16.8589, -100, 5.4603, -10.0071, -0.583864, 4.66558e-310, 0, 0, 37.0681, -2.30776, 0.694507, -33.746, 21.9348, 12.2695, 21.9348, 0, 0, 2.83079, 0, 160.645, 0, 0, 80.1774, -6.02978e-05, 0, 0, 0, 0, 0, 0, 0
0.00637932, -0.026936, 0.742561, 0.0996304, -1.00929, 1.00841, -0.0987482, 0.10089, 0.230883, 1.00006, 0.230884, 1.00006, 0.0283676, -0.0163165, 0.00163102, -0.114246, 0.114246, 8.41855e-17, -1.27616e-16, 0.275156, 0.275684, 0.0160773, 0.275878, 0.0160177, -0.508848, 37.0441, -2.30475, 0.691856, -33.7619, 43.8704, 24.5374, -0.710023, -150, 19.3341, -16.3924, -100, 4.91714, -9.98829, -0.246424, 4.66558e-310, 0, 0, 37.0441, -2.30475, 0.691856, -33.7619, 21.9352, 12.2687, 21.9352, 0, 0, 2.82747, 0, 160.51, 0, 0, 80.0872, -6.97559e-05, 0, 0, 0, 0, 0, 0, 0
0.00653881, -0.0269387, 0.742561, 0.099612, -1.00927, 1.00841, -0.0987482, 0.100934, 0.230928, 1.00006, 0.230928, 1.00006, 0.0282855, -0.0167063, 0.00166967, -0.116976, 0.116976, 8.95418e-17, -1.2393e-16, 0.281736, 0.282477, 0.0163606, 0.282676, 0.0162994, -0.521264, 37.0202, -2.3016, 0.689279, -33.7779, 43.8711, 24.5358, -0.710035, -150, 20.178, -15.9259, -100, 4.37397, -9.96948, 0.0910167, 4.66558e-310, 0, 0, 37.0202, -2.3016, 0.689279, -33.7779, 21.9356, 12.2679, 21.9356, 0, 0, 2.82428, 0, 160.374, 0, 0, 79.9972, -7.89922e-05, 0, 0, 0, 0, 0, 0, 0
0.00669829, -0.0269414, 0.742561, 0.0995931, -1.00925, 1.00841, -0.0987482, 0.10098, 0.230973, 1.00006, 0.230974, 1.00006, 0.0282014, -0.0170952, 0.00170822, -0.119698, 0.119698, 9.36768e-17, -1.21848e-16, 0.2883, 0.289265, 0.0166385, 0.289468, 0.0165756, -0.533656, 36.9963, -2.29831, 0.686776, -33.7938, 43.8718, 24.5343, -0.709994, -150, 21.022, -15.4594, -100, 3.83081, -9.95067, 0.428457, 4.66558e-310, 0, 0, 36.9963, -2.29831, 0.686776, -33.7938, 21.9359, 12.2671, 21.9359, 0, 0, 2.82124, 0, 160.238, 0, 0, 79.9075, -8.8006e-05, 0, 0, 0, 0, 0, 0, 0
0.00685777, -0.0269441, 0.742562, 0.0995738, -1.00923, 1.00841, -0.0987482, 0.101026, 0.23102, 1.00006, 0.231021, 1.00006, 0.0281153, -0.0174832, 0.00174664, -0.122415, 0.122415, 9.74529e-17, -1.19008e-16, 0.294849, 0.296047, 0.0169109, 0.296255, 0.0168465, -0.546025, 36.9724, -2.29489, 0.684348, -33.8098, 43.8724, 24.5327, -0.709899, -150, 21.8659, -14.9929, -100, 3.28764, -9.93186, 0.765897, 4.66558e-310, 0, 0, 36.9724, -2.29489, 0.684348, -33.8098, 21.9362, 12.2663, 21.9362, 0, 0, 2.81834, 0, 160.1, 0, 0, 79.8179, -9.67969e-05, 0, 0, 0, 0, 0, 0, 0
0.00701726, -0.0269469, 0.742562, 0.099554, -1.00921, 1.00841, -0.0987482, 0.101074, 0.231068, 1.00007, 0.231068, 1.00007, 0.0280272, -0.0178702, 0.00178496, -0.125125, 0.125125, 1.00796e-16, -1.1562e-16, 0.301383, 0.302824, 0.017178, 0.303037, 0.017112, -0.55837, 36.9485, -2.29134, 0.681994, -33.8257, 43.8728, 24.5311, -0.70975, -150, 22.7098, -14.5264, -100, 2.74448, -9.91305, 1.10334, 4.66558e-310, 0, 0, 36.9485, -2.29134, 0.681994, -33.8257, 21.9364, 12.2655, 21.9364, 0, 0, 2.81558, 0, 159.962, 0, 0, 79.7285, -0.000105364, 0, 0, 0, 0, 0, 0, 0
0.00717674, -0.0269498, 0.742562, 0.0995339, -1.00919, 1.00841, -0.0987482, 0.101122, 0.231117, 1.00007, 0.231117, 1.00007, 0.0279372, -0.0182564, 0.00182316, -0.127828, 0.127828, 1.03629e-16, -1.11926e-16, 0.307901, 0.309595, 0.0174398, 0.309812, 0.0173721, -0.57069, 36.9245, -2.28765, 0.679714, -33.8417, 43.8732, 24.5295, -0.709547, -150, 23.5538, -14.0599, -100, 2.20132, -9.89424, 1.44078, 4.66558e-310, 0, 0, 36.9245, -2.28765, 0.679714, -33.8417, 21.9366, 12.2648, 21.9366, 0, 0, 2.81297, 0, 159.823, 0, 0, 79.6392, -0.000113707, 0, 0, 0, 0, 0, 0, 0
0.00733622, -0.0269528, 0.742562, 0.0995133, -1.00917, 1.00841, -0.0987482, 0.101172, 0.231166, 1.00007, 0.231167, 1.00007, 0.0278452, -0.0186416, 0.00186124, -0.130525, 0.130525, 1.05869e-16, -1.08206e-16, 0.314404, 0.31636, 0.0176962, 0.316583, 0.0176269, -0.582985, 36.9006, -2.28382, 0.677509, -33.8576, 43.8736, 24.5279, -0.70929, -150, 24.3977, -13.5934, -100, 1.65815, -9.87543, 1.77822, 0, 0, 0, 36.9006, -2.28382, 0.677509, -33.8576, 21.9368, 12.264, 21.9368, 0, 0, 2.8105, 0, 159.683, 0, 0, 79.5502, -0.000121825, 0, 0, 0, 0, 0, 0, 0
0.0074957, -0.0269558, 0.742563, 0.0994922, -1.00915, 1.00841, -0.0987482, 0.101223, 0.231217, 1.00008, 0.231218, 1.00008, 0.0277512, -0.0190259, 0.00189921, -0.133216, 0.133216, 1.0743e-16, -1.04774e-16, 0.320892, 0.32312, 0.0179473, 0.323347, 0.0178764, -0.595255, 36.8767, -2.27986, 0.675378, -33.8736, 43.8738, 24.5264, -0.70898, -150, 25.2416, -13.1269, -100, 1.11499, -9.85662, 2.11566, 0, 0, 0, 36.8767, -2.27986, 0.675378, -33.8736, 21.9369, 12.2632, 21.9369, 0, 0, 2.80817, 0, 159.543, 0, 0, 79.4614, -0.000129717, 0, 0, 0, 0, 0, 0, 0
0.00765519, -0.0269588, 0.742563, 0.0994708, -1.00913, 1.00841, -0.0987482, 0.101274, 0.23127, 1.00008, 0.23127, 1.00008, 0.0276553, -0.0194093, 0.00193706, -0.1359, 0.1359, 1.0822e-16, -1.01981e-16, 0.327364, 0.329874, 0.0181932, 0.330106, 0.0181206, -0.607498, 36.8528, -2.27577, 0.673322, -33.8895, 43.8739, 24.5248, -0.708615, -150, 26.0856, -12.6604, -100, 0.571825, -9.83781, 2.4531, 0, 0, 0, 36.8528, -2.27577, 0.673322, -33.8895, 21.937, 12.2624, 21.937, 0, 0, 2.80598, 0, 159.401, 0, 0, 79.3727, -0.000137382, 0, 0, 0, 0, 0, 0, 0
0.00781467, -0.026962, 0.742563, 0.0994489, -1.00911, 1.00841, -0.0987482, 0.101327, 0.231323, 1.00008, 0.231324, 1.00008, 0.0275575, -0.0197918, 0.00197479, -0.138578, 0.138578, 1.08145e-16, -1.00209e-16, 0.33382, 0.336622, 0.0184338, 0.336859, 0.0183596, -0.619715, 36.8288, -2.27154, 0.67134, -33.9055, 43.874, 24.5232, -0.708197, -150, 26.9295, -12.1939, -100, 0.0286609, -9.819, 2.79054, 0, 0, 0, 36.8288, -2.27154, 0.67134, -33.9055, 21.937, 12.2616, 21.937, 0, 0, 2.80394, 0, 159.259, 0, 0, 79.2842, -0.000144821, 0, 0, 0, 0, 0, 0, 0
0.00797415, -0.0269651, 0.742564, 0.0994266, -1.00909, 1.00841, -0.0987482, 0.101381, 0.231377, 1.00008, 0.231378, 1.00008, 0.0274577, -0.0201733, 0.0020124, -0.141249, 0.141249, 1.07105e-16, -9.98795e-17, 0.340261, 0.343364, 0.0186692, 0.343606, 0.0185933, -0.631904, 36.8049, -2.26718, 0.669433, -33.9214, 43.8739, 24.5217, -0.707725, -150, 27.7734, -11.7274, -100, -0.514503, -9.80019, 3.12798, 0, 0, 0, 36.8049, -2.26718, 0.669433, -33.9214, 21.937, 12.2608, 21.937, 0, 0, 2.80204, 0, 159.116, 0, 0, 79.1959, -0.000152032, 0, 0, 0, 0, 0, 0, 0
0.00813364, -0.0269684, 0.742564, 0.0994038, -1.00906, 1.00841, -0.0987482, 0.101436, 0.231432, 1.00009, 0.231433, 1.00009, 0.0273559, -0.0205539, 0.0020499, -0.143913, 0.143913, 1.06418e-16, -9.81921e-17, 0.346686, 0.350101, 0.0188994, 0.350348, 0.0188219, -0.644066, 36.781, -2.26268, 0.667599, -33.9374, 43.8738, 24.5201, -0.707199, -150, 28.6174, -11.2609, -100, -1.05767, -9.78138, 3.46542, 0, 0, 0, 36.781, -2.26268, 0.667599, -33.9374, 21.9369, 12.26, 21.9369, 0, 0, 2.80028, 0, 158.973, 0, 0, 79.1078, -0.000159015, 0, 0, 0, 0, 0, 0, 0
0.00829312, -0.0269717, 0.742564, 0.0993807, -1.00904, 1.00841, -0.0987482, 0.101491, 0.231489, 1.00009, 0.23149, 1.00009, 0.0272522, -0.0209336, 0.00208727, -0.146571, 0.146571, 1.06068e-16, -9.54257e-17, 0.353096, 0.356832, 0.0191244, 0.357083, 0.0190452, -0.656199, 36.7571, -2.25805, 0.665841, -33.9533, 43.8736, 24.5185, -0.70662, -150, 29.4613, -10.7944, -100, -1.60083, -9.76257, 3.80286, 0, 0, 0, 36.7571, -2.25805, 0.665841, -33.9533, 21.9368, 12.2593, 21.9368, 0, 0, 2.79866, 0, 158.828, 0, 0, 79.0199, -0.000165768, 0, 0, 0, 0, 0, 0, 0
0.0084526, -0.0269751, 0.742565, 0.0993571, -1.00902, 1.00841, -0.0987482, 0.101548, 0.231546, 1.00009, 0.231547, 1.00009, 0.0271466, -0.0213123, 0.00212453, -0.149223, 0.149223, 1.05476e-16, -9.31742e-17, 0.359489, 0.363556, 0.0193443, 0.363813, 0.0192634, -0.668302, 36.7332, -2.25329, 0.664156, -33.9693, 43.8733, 24.517, -0.705986, -150, 30.3052, -10.3279, -100, -2.144, -9.74376, 4.1403, 0, 0, 0, 36.7332, -2.25329, 0.664156, -33.9693, 21.9366, 12.2585, 21.9366, 0, 0, 2.79718, 0, 158.683, 0, 0, 78.9321, -0.000172292, 0, 0, 0, 0, 0, 0, 0
0.00861209, -0.0269785, 0.742565, 0.0993331, -1.00899, 1.00841, -0.0987482, 0.101606, 0.231605, 1.0001, 0.231606, 1.0001, 0.0270391, -0.0216901, 0.00216166, -0.151868, 0.151868, 1.047e-16, -9.16005e-17, 0.365867, 0.370275, 0.019559, 0.370537, 0.0194765, -0.680377, 36.7092, -2.24839, 0.662546, -33.9852, 43.8729, 24.5154, -0.705299, -150, 31.1491, -9.86138, -100, -2.68716, -9.72495, 4.47774, 0, 0, 0, 36.7092, -2.24839, 0.662546, -33.9852, 21.9364, 12.2577, 21.9364, 0, 0, 2.79585, 0, 158.537, 0, 0, 78.8446, -0.000178585, 0, 0, 0, 0, 0, 0, 0
0.00877157, -0.026982, 0.742565, 0.0993087, -1.00897, 1.00841, -0.0987482, 0.101665, 0.231664, 1.0001, 0.231665, 1.0001, 0.0269296, -0.022067, 0.00219868, -0.154506, 0.154506, 1.03803e-16, -9.08756e-17, 0.372229, 0.376988, 0.0197687, 0.377254, 0.0196845, -0.692421, 36.6853, -2.24335, 0.661011, -34.0012, 43.8724, 24.5139, -0.704558, -150, 31.9931, -9.39489, -100, -3.23032, -9.70614, 4.81518, 0, 0, 0, 36.6853, -2.24335, 0.661011, -34.0012, 21.9362, 12.2569, 21.9362, 0, 0, 2.79465, 0, 158.39, 0, 0, 78.7572, -0.000184647, 0, 0, 0, 0, 0, 0, 0
0.00893105, -0.0269855, 0.742566, 0.0992838, -1.00894, 1.00841, -0.0987482, 0.101725, 0.231725, 1.0001, 0.231726, 1.0001, 0.0268182, -0.0224429, 0.00223557, -0.157138, 0.157138, 1.02859e-16, -9.11787e-17, 0.378575, 0.383694, 0.0199733, 0.383966, 0.0198874, -0.704434, 36.6614, -2.23818, 0.65955, -34.0171, 43.8719, 24.5123, -0.703763, -150, 32.837, -8.92839, -100, -3.77349, -9.68733, 5.15262, 0, 0, 0, 36.6614, -2.23818, 0.65955, -34.0171, 21.9359, 12.2562, 21.9359, 0, 0, 2.7936, 0, 158.243, 0, 0, 78.67, -0.000190477, 0, 0, 0, 0, 0, 0, 0
0.00909054, -0.0269891, 0.742566, 0.0992585, -1.00892, 1.00841, -0.0987482, 0.101786, 0.231787, 1.00011, 0.231788, 1.00011, 0.0267049, -0.0228179, 0.00227234, -0.159763, 0.159763, 1.01945e-16, -9.26974e-17, 0.384905, 0.390395, 0.0201728, 0.390671, 0.0200852, -0.716416, 36.6375, -2.23288, 0.658163, -34.0331, 43.8712, 24.5108, -0.702915, -150, 33.6809, -8.46189, -100, -4.31665, -9.66852, 5.49006, 0, 0, 0, 36.6375, -2.23288, 0.658163, -34.0331, 21.9356, 12.2554, 21.9356, 0, 0, 2.79269, 0, 158.094, 0, 0, 78.583, -0.000196074, 0, 0, 0, 0, 0, 0, 0
0.00925002, -0.0269928, 0.742566, 0.0992328, -1.00889, 1.00841, -0.0987482, 0.101847, 0.231849, 1.00011, 0.231851, 1.00011, 0.0265897, -0.0231919, 0.00230899, -0.162381, 0.162381, 1.0115e-16, -9.56272e-17, 0.391219, 0.397089, 0.0203674, 0.39737, 0.020278, -0.728366, 36.6135, -2.22744, 0.656851, -34.049, 43.8705, 24.5093, -0.702012, -150, 34.5249, -7.99539, -100, -4.85982, -9.64971, 5.8275, 0, 0, 0, 36.6135, -2.22744, 0.656851, -34.049, 21.9352, 12.2546, 21.9352, 0, 0, 2.79191, 0, 157.945, 0, 0, 78.4962, -0.000201438, 0, 0, 0, 0, 0, 0, 0
0.0094095, -0.0269965, 0.742567, 0.0992067, -1.00887, 1.00841, -0.0987482, 0.10191, 0.231913, 1.00011, 0.231915, 1.00011, 0.0264726, -0.023565, 0.00234551, -0.164993, 0.164993, 1.00568e-16, -1.00172e-16, 0.397517, 0.403777, 0.0205569, 0.404063, 0.0204659, -0.740284, 36.5896, -2.22187, 0.655613, -34.065, 43.8697, 24.5077, -0.701056, -150, 35.3688, -7.52889, -100, -5.40298, -9.6309, 6.16494, 0, 0, 0, 36.5896, -2.22187, 0.655613, -34.065, 21.9348, 12.2539, 21.9348, 0, 0, 2.79128, 0, 157.795, 0, 0, 78.4095, -0.000206568, 0, 0, 0, 0, 0, 0, 0
0.00956898, -0.0270003, 0.742567, 0.0991802, -1.00884, 1.00841, -0.0987482, 0.101974, 0.231978, 1.00012, 0.231979, 1.00012, 0.0263536, -0.0239371, 0.00238191, -0.167598, 0.167598, 1.00188e-16, -1.05237e-16, 0.403799, 0.410459, 0.0207414, 0.41075, 0.0206487, -0.752169, 36.5657, -2.21616, 0.654449, -34.0809, 43.8688, 24.5062, -0.700046, -150, 36.2127, -7.06239, -100, -5.94614, -9.61209, 6.50238, 0, 0, 0, 36.5657, -2.21616, 0.654449, -34.0809, 21.9344, 12.2531, 21.9344, 0, 0, 2.79079, 0, 157.644, 0, 0, 78.323, -0.000211463, 0, 0, 0, 0, 0, 0, 0
0.00972847, -0.0270042, 0.742568, 0.0991533, -1.00881, 1.00841, -0.0987482, 0.102039, 0.232044, 1.00012, 0.232046, 1.00012, 0.0262327, -0.0243083, 0.00241819, -0.170197, 0.170197, 9.97557e-17, -1.06868e-16, 0.410065, 0.417134, 0.020921, 0.41743, 0.0208266, -0.76402, 36.5418, -2.21032, 0.65336, -34.0969, 43.8678, 24.5046, -0.698982, -150, 37.0567, -6.59589, -100, -6.48931, -9.59328, 6.83982, 0, 0, 0, 36.5418, -2.21032, 0.65336, -34.0969, 21.9339, 12.2523, 21.9339, 0, 0, 2.79044, 0, 157.492, 0, 0, 78.2368, -0.000216122, 0, 0, 0, 0, 0, 0, 0
0.00988795, -0.0270081, 0.742568, 0.0991259, -1.00879, 1.00841, -0.0987482, 0.102105, 0.232111, 1.00012, 0.232113, 1.00012, 0.0261099, -0.0246786, 0.00245434, -0.172788, 0.172788, 9.96488e-17, -1.08284e-16, 0.416315, 0.423804, 0.0210957, 0.424104, 0.0209995, -0.775837, 36.5179, -2.20434, 0.652345, -34.1128, 43.8667, 24.5031, -0.697864, -150, 37.9006, -6.12939, -100, -7.03247, -9.57447, 7.17726, 0, 0, 0, 36.5179, -2.20434, 0.652345, -34.1128, 21.9333, 12.2516, 21.9333, 0, 0, 2.79023, 0, 157.34, 0, 0, 78.1506, -0.000220545, 0, 0, 0, 0, 0, 0, 0
0.0100474, -0.0270121, 0.742568, 0.0990982, -1.00876, 1.00841, -0.0987482, 0.102172, 0.232179, 1.00013, 0.232181, 1.00013, 0.0259852, -0.0250479, 0.00249036, -0.175373, 0.175373, 9.99565e-17, -1.09319e-16, 0.422548, 0.430466, 0.0212655, 0.430772, 0.0211675, -0.787619, 36.4939, -2.19823, 0.651405, -34.1288, 43.8655, 24.5016, -0.696693, -150, 38.7445, -5.6629, -100, -7.57564, -9.55566, 7.51471, 0, 0, 0, 36.4939, -2.19823, 0.651405, -34.1288, 21.9328, 12.2508, 21.9328, 0, 0, 2.79016, 0, 157.187, 0, 0, 78.0647, -0.000224731, 0, 0, 0, 0, 0, 0, 0
0.0102069, -0.0270161, 0.742569, 0.09907, -1.00873, 1.00841, -0.0987482, 0.10224, 0.232248, 1.00013, 0.23225, 1.00013, 0.0258587, -0.0254162, 0.00252626, -0.177952, 0.177952, 1.00774e-16, -1.09792e-16, 0.428765, 0.437123, 0.0214303, 0.437433, 0.0213307, -0.799366, 36.47, -2.19198, 0.650539, -34.1447, 43.8643, 24.5001, -0.695467, -150, 39.5885, -5.1964, -100, -8.1188, -9.53685, 7.85215, 0, 0, 0, 36.47, -2.19198, 0.650539, -34.1447, 21.9321, 12.25, 21.9321, 0, 0, 2.79022, 0, 157.033, 0, 0, 77.979, -0.000228679, 0, 0, 0, 0, 0, 0, 0
0.0103664, -0.0270202, 0.742569, 0.0990414, -1.0087, 1.00841, -0.0987482, 0.102309, 0.232319, 1.00013, 0.23232, 1.00013, 0.0257303, -0.0257836, 0.00256203, -0.180523, 0.180523, 1.022e-16, -1.09503e-16, 0.434966, 0.443773, 0.0215904, 0.444088, 0.021489, -0.811077, 36.4461, -2.1856, 0.649748, -34.1606, 43.8629, 24.4986, -0.694188, -150, 40.4324, -4.7299, -100, -8.66196, -9.51804, 8.18959, 4.66558e-310, 0, 0, 36.4461, -2.1856, 0.649748, -34.1606, 21.9315, 12.2493, 21.9315, 0, 0, 2.79043, 0, 156.878, 0, 0, 77.8934, -0.000232388, 0, 0, 0, 0, 0, 0, 0
0.0105259, -0.0270243, 0.74257, 0.0990124, -1.00867, 1.00841, -0.0987482, 0.102379, 0.23239, 1.00014, 0.232392, 1.00014, 0.0256, -0.02615, 0.00259767, -0.183088, 0.183088, 1.04342e-16, -1.08235e-16, 0.44115, 0.450416, 0.0217456, 0.450736, 0.0216424, -0.822752, 36.4222, -2.17908, 0.64903, -34.1766, 43.8615, 24.497, -0.692855, -150, 41.2763, -4.2634, -100, -9.20513, -9.49923, 8.52703, 4.66558e-310, 0, 0, 36.4222, -2.17908, 0.64903, -34.1766, 21.9308, 12.2485, 21.9308, 0, 0, 2.79078, 0, 156.722, 0, 0, 77.808, -0.000235857, 0, 0, 0, 0, 0, 0, 0
0.0106854, -0.0270285, 0.74257, 0.098983, -1.00864, 1.00841, -0.0987482, 0.102449, 0.232462, 1.00014, 0.232464, 1.00014, 0.0254678, -0.0265154, 0.00263318, -0.185646, 0.185646, 1.07309e-16, -1.05754e-16, 0.447318, 0.457053, 0.021896, 0.457378, 0.021791, -0.834389, 36.3982, -2.17243, 0.648388, -34.1925, 43.86, 24.4955, -0.691468, -150, 42.1203, -3.7969, -100, -9.74829, -9.48042, 8.86447, 4.66558e-310, 0, 0, 36.3982, -2.17243, 0.648388, -34.1925, 21.93, 12.2478, 21.93, 0, 0, 2.79126, 0, 156.566, 0, 0, 77.7228, -0.000239086, 0, 0, 0, 0, 0, 0, 0
0.0108448, -0.0270328, 0.74257, 0.0989532, -1.00861, 1.00841, -0.0987482, 0.102521, 0.232536, 1.00014, 0.232538, 1.00014, 0.0253338, -0.0268799, 0.00266857, -0.188198, 0.188198, 1.11217e-16, -1.01807e-16, 0.453469, 0.463683, 0.0220416, 0.464013, 0.0219349, -0.84599, 36.3743, -2.16565, 0.647819, -34.2085, 43.8584, 24.494, -0.690027, -150, 42.9642, -3.3304, -100, -10.2915, -9.46161, 9.20191, 4.66558e-310, 0, 0, 36.3743, -2.16565, 0.647819, -34.2085, 21.9292, 12.247, 21.9292, 0, 0, 2.79189, 0, 156.409, 0, 0, 77.6377, -0.000242074, 0, 0, 0, 0, 0, 0, 0
0.0110043, -0.0270371, 0.742571, 0.098923, -1.00858, 1.00841, -0.0987482, 0.102594, 0.23261, 1.00015, 0.232612, 1.00015, 0.025198, -0.0272434, 0.00270383, -0.190742, 0.190742, 1.15279e-16, -9.79781e-17, 0.459604, 0.470306, 0.0221825, 0.470642, 0.022074, -0.857552, 36.3504, -2.15873, 0.647325, -34.2244, 43.8567, 24.4925, -0.688533, -150, 43.8081, -2.8639, -100, -10.8346, -9.4428, 9.53935, 4.66558e-310, 0, 0, 36.3504, -2.15873, 0.647325, -34.2244, 21.9284, 12.2463, 21.9284, 0, 0, 2.79265, 0, 156.25, 0, 0, 77.5528, -0.00024482, 0, 0, 0, 0, 0, 0, 0
0.0111638, -0.0270414, 0.742571, 0.0988924, -1.00855, 1.00841, -0.0987482, 0.102668, 0.232686, 1.00015, 0.232688, 1.00015, 0.0250603, -0.0276059, 0.00273896, -0.19328, 0.19328, 1.18002e-16, -9.72906e-17, 0.465722, 0.476923, 0.0223186, 0.477263, 0.0222083, -0.869075, 36.3265, -2.15168, 0.646906, -34.2404, 43.8549, 24.491, -0.686985, -150, 44.652, -2.39741, -100, -11.3778, -9.42399, 9.87679, 4.66558e-310, 0, 0, 36.3265, -2.15168, 0.646906, -34.2404, 21.9275, 12.2455, 21.9275, 0, 0, 2.79355, 0, 156.092, 0, 0, 77.4681, -0.000247323, 0, 0, 0, 0, 0, 0, 0
0.0113233, -0.0270459, 0.742572, 0.0988613, -1.00852, 1.00841, -0.0987482, 0.102743, 0.232762, 1.00015, 0.232764, 1.00015, 0.0249208, -0.0279675, 0.00277395, -0.195811, 0.195811, 1.2077e-16, -9.6879e-17, 0.471824, 0.483533, 0.02245, 0.483878, 0.0223379, -0.880559, 36.3025, -2.14449, 0.646561, -34.2563, 43.8531, 24.4895, -0.685383, -150, 45.496, -1.93091, -100, -11.9209, -9.40518, 10.2142, 4.66558e-310, 0, 0, 36.3025, -2.14449, 0.646561, -34.2563, 21.9265, 12.2447, 21.9265, 0, 0, 2.79459, 0, 155.932, 0, 0, 77.3836, -0.000249583, 0, 0, 0, 0, 0, 0, 0
0.0114828, -0.0270504, 0.742572, 0.0988299, -1.00849, 1.00841, -0.0987482, 0.102818, 0.23284, 1.00016, 0.232842, 1.00016, 0.0247794, -0.0283281, 0.00280882, -0.198335, 0.198335, 1.23513e-16, -9.68432e-17, 0.477909, 0.490137, 0.0225767, 0.490486, 0.0224628, -0.892003, 36.2786, -2.13716, 0.64629, -34.2723, 43.8511, 24.488, -0.683727, -150, 46.3399, -1.46441, -100, -12.4641, -9.38637, 10.5517, 4.66558e-310, 0, 0, 36.2786, -2.13716, 0.64629, -34.2723, 21.9256, 12.244, 21.9256, 0, 0, 2.79577, 0, 155.771, 0, 0, 77.2993, -0.000251598, 0, 0, 0, 0, 0, 0, 0
0.0116423, -0.0270549, 0.742573, 0.0987981, -1.00846, 1.00841, -0.0987482, 0.102895, 0.232919, 1.00016, 0.232921, 1.00016, 0.0246363, -0.0286877, 0.00284355, -0.200852, 0.200852, 1.26154e-16, -9.72925e-17, 0.483977, 0.496733, 0.0226988, 0.497088, 0.0225831, -0.903407, 36.2547, -2.12971, 0.646094, -34.2882, 43.8491, 24.4865, -0.682017, -150, 47.1838, -0.99791, -100, -13.0073, -9.36756, 10.8891, 4.66558e-310, 0, 0, 36.2547, -2.12971, 0.646094, -34.2882, 21.9246, 12.2433, 21.9246, 0, 0, 2.79709, 0, 155.61, 0, 0, 77.2151, -0.000253368, 0, 0, 0, 0, 0, 0, 0
0.0118017, -0.0270595, 0.742573, 0.0987658, -1.00843, 1.00841, -0.0987482, 0.102973, 0.232998, 1.00016, 0.233001, 1.00016, 0.0244913, -0.0290464, 0.00287816, -0.203362, 0.203362, 1.28606e-16, -9.83457e-17, 0.490029, 0.503322, 0.0228162, 0.503682, 0.0226987, -0.91477, 36.2308, -2.12211, 0.645972, -34.3042, 43.847, 24.485, -0.680254, -150, 48.0278, -0.531411, -100, -13.5504, -9.34875, 11.2265, 4.66558e-310, 0, 0, 36.2308, -2.12211, 0.645972, -34.3042, 21.9235, 12.2425, 21.9235, 0, 0, 2.79854, 0, 155.448, 0, 0, 77.1311, -0.000254892, 0, 0, 0, 0, 0, 0, 0
0.0119612, -0.0270642, 0.742574, 0.0987332, -1.00839, 1.00841, -0.0987482, 0.103051, 0.233079, 1.00017, 0.233081, 1.00017, 0.0243445, -0.029404, 0.00291263, -0.205866, 0.205866, 1.30776e-16, -1.00131e-16, 0.496063, 0.509905, 0.022929, 0.51027, 0.0228097, -0.926092, 36.2069, -2.11439, 0.645924, -34.3201, 43.8448, 24.4835, -0.678436, -150, 48.8717, -0.0649129, -100, -14.0936, -9.32994, 11.564, 4.66558e-310, 0, 0, 36.2069, -2.11439, 0.645924, -34.3201, 21.9224, 12.2418, 21.9224, 0, 0, 2.80013, 0, 155.285, 0, 0, 77.0473, -0.000256169, 0, 0, 0, 0, 0, 0, 0
0.0121207, -0.0270689, 0.742574, 0.0987002, -1.00836, 1.00841, -0.0987482, 0.103131, 0.233161, 1.00017, 0.233163, 1.00017, 0.0241959, -0.0297607, 0.00294697, -0.208362, 0.208362, 1.32562e-16, -1.02787e-16, 0.502081, 0.516481, 0.0230372, 0.51685, 0.022916, -0.937371, 36.1829, -2.10652, 0.645951, -34.3361, 43.8425, 24.482, -0.676565, -150, 49.7156, 0.401586, -100, -14.6368, -9.31114, 11.9014, 4.66558e-310, 0, 0, 36.1829, -2.10652, 0.645951, -34.3361, 21.9213, 12.241, 21.9213, 0, 0, 2.80186, 0, 155.121, 0, 0, 76.9636, -0.000257198, 0, 0, 0, 0, 0, 0, 0
0.0122802, -0.0270737, 0.742574, 0.0986667, -1.00833, 1.00841, -0.0987482, 0.103212, 0.233244, 1.00018, 0.233246, 1.00017, 0.0240455, -0.0301164, 0.00298117, -0.210852, 0.210852, 1.33853e-16, -1.0646e-16, 0.508082, 0.523049, 0.0231408, 0.523424, 0.0230178, -0.948608, 36.159, -2.09853, 0.646052, -34.352, 43.8401, 24.4806, -0.67464, -150, 50.5596, 0.868084, -100, -15.1799, -9.29233, 12.2389, 4.66558e-310, 0, 0, 36.159, -2.09853, 0.646052, -34.352, 21.9201, 12.2403, 21.9201, 0, 0, 2.80373, 0, 154.956, 0, 0, 76.8802, -0.000257979, 0, 0, 0, 0, 0, 0, 0
0.0124397, -0.0270785, 0.742575, 0.0986329, -1.00829, 1.00841, -0.0987482, 0.103293, 0.233328, 1.00018, 0.23333, 1.00018, 0.0238933, -0.0304711, 0.00301524, -0.213335, 0.213335, 1.34532e-16, -1.11307e-16, 0.514066, 0.529611, 0.0232398, 0.52999, 0.0231151, -0.959801, 36.1351, -2.0904, 0.646228, -34.368, 43.8377, 24.4791, -0.672661, -150, 51.4035, 1.33458, -100, -15.7231, -9.27352, 12.5763, 4.66558e-310, 0, 0, 36.1351, -2.0904, 0.646228, -34.368, 21.9188, 12.2395, 21.9188, 0, 0, 2.80573, 0, 154.791, 0, 0, 76.7968, -0.00025851, 0, 0, 0, 0, 0, 0, 0
0.0125992, -0.0270834, 0.742575, 0.0985987, -1.00826, 1.00841, -0.0987482, 0.103375, 0.233413, 1.00018, 0.233415, 1.00018, 0.0237394, -0.0308248, 0.00304918, -0.21581, 0.21581, 1.34473e-16, -1.17495e-16, 0.520033, 0.536165, 0.0233344, 0.536549, 0.0232078, -0.970951, 36.1112, -2.08213, 0.646478, -34.3839, 43.8351, 24.4776, -0.670629, -150, 52.2474, 1.80108, -100, -16.2663, -9.25471, 12.9138, 4.66558e-310, 0, 0, 36.1112, -2.08213, 0.646478, -34.3839, 21.9176, 12.2388, 21.9176, 0, 0, 2.80787, 0, 154.625, 0, 0, 76.7137, -0.00025879, 0, 0, 0, 0, 0, 0, 0
0.0127586, -0.0270883, 0.742576, 0.0985641, -1.00823, 1.00841, -0.0987482, 0.103459, 0.233499, 1.00019, 0.233501, 1.00019, 0.0235836, -0.0311776, 0.00308298, -0.218279, 0.218279, 1.33542e-16, -1.252e-16, 0.525983, 0.542712, 0.0234244, 0.543101, 0.0232959, -0.982056, 36.0872, -2.07373, 0.646802, -34.3999, 43.8325, 24.4761, -0.668542, -150, 53.0914, 2.26758, -100, -16.8094, -9.2359, 13.2512, 4.66558e-310, 0, 0, 36.0872, -2.07373, 0.646802, -34.3999, 21.9162, 12.2381, 21.9162, 0, 0, 2.81015, 0, 154.458, 0, 0, 76.6308, -0.000258819, 0, 0, 0, 0, 0, 0, 0
0.0129181, -0.0270933, 0.742576, 0.0985291, -1.00819, 1.00841, -0.0987482, 0.103543, 0.233586, 1.00019, 0.233589, 1.00019, 0.0234261, -0.0315293, 0.00311665, -0.220741, 0.220741, 1.32408e-16, -1.33384e-16, 0.531915, 0.549252, 0.02351, 0.549646, 0.0233796, -0.993116, 36.0633, -2.0652, 0.647201, -34.4158, 43.8297, 24.4746, -0.666402, -150, 53.9353, 2.73408, -100, -17.3526, -9.21709, 13.5886, 4.66558e-310, 0, 0, 36.0633, -2.0652, 0.647201, -34.4158, 21.9149, 12.2373, 21.9149, 0, 0, 2.81256, 0, 154.29, 0, 0, 76.548, -0.000258595, 0, 0, 0, 0, 0, 0, 0
0.0130776, -0.0270984, 0.742577, 0.0984937, -1.00815, 1.00841, -0.0987482, 0.103629, 0.233674, 1.00019, 0.233677, 1.00019, 0.0232669, -0.03188, 0.00315018, -0.223196, 0.223196, 1.32327e-16, -1.40121e-16, 0.537831, 0.555785, 0.0235911, 0.556184, 0.0234589, -1.00413, 36.0394, -2.05653, 0.647674, -34.4318, 43.8269, 24.4732, -0.664208, -150, 54.7792, 3.20058, -100, -17.8958, -9.19828, 13.9261, 4.66558e-310, 0, 0, 36.0394, -2.05653, 0.647674, -34.4318, 21.9135, 12.2366, 21.9135, 0, 0, 2.81511, 0, 154.121, 0, 0, 76.4653, -0.000258119, 0, 0, 0, 0, 0, 0, 0
0.0132371, -0.0271035, 0.742577, 0.0984579, -1.00812, 1.00841, -0.0987482, 0.103715, 0.233763, 1.0002, 0.233766, 1.0002, 0.0231058, -0.0322298, 0.00318357, -0.225644, 0.225644, 1.32016e-16, -1.47311e-16, 0.543729, 0.56231, 0.0236678, 0.562714, 0.0235337, -1.0151, 36.0155, -2.04773, 0.648222, -34.4477, 43.824, 24.4717, -0.66196, -150, 55.6232, 3.66708, -100, -18.4389, -9.17947, 14.2635, 4.66558e-310, 0, 0, 36.0155, -2.04773, 0.648222, -34.4477, 21.912, 12.2359, 21.912, 0, 0, 2.8178, 0, 153.951, 0, 0, 76.3829, -0.000257388, 0, 0, 0, 0, 0, 0, 0
0.0133966, -0.0271087, 0.742578, 0.0984217, -1.00808, 1.00841, -0.0987482, 0.103802, 0.233854, 1.0002, 0.233856, 1.0002, 0.0229431, -0.0325785, 0.00321683, -0.228084, 0.228084, 1.31513e-16, -1.54862e-16, 0.54961, 0.568828, 0.02374, 0.569237, 0.023604, -1.02602, 35.9916, -2.03879, 0.648844, -34.4637, 43.8211, 24.4703, -0.659658, -150, 56.4671, 4.13357, -100, -18.9821, -9.16066, 14.601, 4.66558e-310, 0, 0, 35.9916, -2.03879, 0.648844, -34.4637, 21.9105, 12.2351, 21.9105, 0, 0, 2.82062, 0, 153.781, 0, 0, 76.3006, -0.000256402, 0, 0, 0, 0, 0, 0, 0
0.0135561, -0.0271139, 0.742578, 0.0983851, -1.00805, 1.00841, -0.0987482, 0.10389, 0.233945, 1.00021, 0.233948, 1.0002, 0.0227786, -0.0329263, 0.00324995, -0.230518, 0.230518, 1.30867e-16, -1.6266e-16, 0.555474, 0.575339, 0.0238079, 0.575753, 0.02367, -1.0369, 35.9676, -2.02971, 0.649541, -34.4796, 43.818, 24.4688, -0.657303, -150, 57.311, 4.60007, -100, -19.5252, -9.14185, 14.9384, 4.66558e-310, 0, 0, 35.9676, -2.02971, 0.649541, -34.4796, 21.909, 12.2344, 21.909, 0, 0, 2.82358, 0, 153.61, 0, 0, 76.2185, -0.000255161, 0, 0, 0, 0, 0, 0, 0
0.0137155, -0.0271192, 0.742579, 0.0983482, -1.00801, 1.00841, -0.0987482, 0.103979, 0.234037, 1.00021, 0.23404, 1.00021, 0.0226123, -0.033273, 0.00328294, -0.232945, 0.232945, 1.30141e-16, -1.7057e-16, 0.56132, 0.581842, 0.0238714, 0.582261, 0.0237316, -1.04772, 35.9437, -2.02051, 0.650311, -34.4956, 43.8148, 24.4673, -0.654893, -150, 58.155, 5.06657, -100, -20.0684, -9.12304, 15.2758, 4.66558e-310, 0, 0, 35.9437, -2.02051, 0.650311, -34.4956, 21.9074, 12.2337, 21.9074, 0, 0, 2.82667, 0, 153.438, 0, 0, 76.1365, -0.000253662, 0, 0, 0, 0, 0, 0, 0
0.013875, -0.0271245, 0.742579, 0.0983108, -1.00797, 1.00841, -0.0987482, 0.104069, 0.23413, 1.00021, 0.234133, 1.00021, 0.0224444, -0.0336187, 0.00331578, -0.235365, 0.235365, 1.29411e-16, -1.78432e-16, 0.567149, 0.588338, 0.0239305, 0.588762, 0.0237888, -1.0585, 35.9198, -2.01117, 0.651157, -34.5115, 43.8116, 24.4659, -0.65243, -150, 58.9989, 5.53307, -100, -20.6116, -9.10423, 15.6133, 4.66558e-310, 0, 0, 35.9198, -2.01117, 0.651157, -34.5115, 21.9058, 12.2329, 21.9058, 0, 0, 2.8299, 0, 153.265, 0, 0, 76.0547, -0.000251905, 0, 0, 0, 0, 0, 0, 0
0.0140345, -0.0271299, 0.74258, 0.0982731, -1.00793, 1.00841, -0.0987482, 0.10416, 0.234225, 1.00022, 0.234228, 1.00022, 0.0222747, -0.0339635, 0.00334849, -0.237777, 0.237777, 1.28769e-16, -1.86061e-16, 0.572961, 0.594827, 0.0239853, 0.595255, 0.0238417, -1.06923, 35.8959, -2.00169, 0.652076, -34.5275, 43.8083, 24.4644, -0.649913, -150, 59.8428, 5.99957, -100, -21.1547, -9.08542, 15.9507, 4.66558e-310, 0, 0, 35.8959, -2.00169, 0.652076, -34.5275, 21.9041, 12.2322, 21.9041, 0, 0, 2.83326, 0, 153.091, 0, 0, 75.9731, -0.00024989, 0, 0, 0, 0, 0, 0, 0
0.014194, -0.0271353, 0.742581, 0.098235, -1.0079, 1.00841, -0.0987482, 0.104252, 0.23432, 1.00022, 0.234323, 1.00022, 0.0221033, -0.0343072, 0.00338105, -0.240182, 0.240182, 1.28324e-16, -1.93245e-16, 0.578755, 0.601307, 0.0240358, 0.601741, 0.0238903, -1.07991, 35.8719, -1.99208, 0.65307, -34.5434, 43.8048, 24.463, -0.647343, -150, 60.6867, 6.46607, -100, -21.6979, -9.06661, 16.2882, 4.66558e-310, 0, 0, 35.8719, -1.99208, 0.65307, -34.5434, 21.9024, 12.2315, 21.9024, 0, 0, 2.83676, 0, 152.917, 0, 0, 75.8917, -0.000247615, 0, 0, 0, 0, 0, 0, 0
0.0143535, -0.0271408, 0.742581, 0.0981965, -1.00786, 1.00841, -0.0987482, 0.104345, 0.234416, 1.00022, 0.23442, 1.00022, 0.0219303, -0.0346499, 0.00341348, -0.242581, 0.242581, 1.28199e-16, -1.99744e-16, 0.584531, 0.60778, 0.0240821, 0.608219, 0.0239346, -1.09054, 35.848, -1.98233, 0.654139, -34.5594, 43.8013, 24.4615, -0.644718, -150, 61.5307, 6.93257, -100, -22.2411, -9.0478, 16.6256, 4.66558e-310, 0, 0, 35.848, -1.98233, 0.654139, -34.5594, 21.9007, 12.2308, 21.9007, 0, 0, 2.8404, 0, 152.741, 0, 0, 75.8104, -0.000245078, 0, 0, 0, 0, 0, 0, 0
0.014513, -0.0271464, 0.742582, 0.0981576, -1.00782, 1.00841, -0.0987482, 0.104438, 0.234514, 1.00023, 0.234517, 1.00023, 0.0217555, -0.0349916, 0.00344577, -0.244972, 0.244972, 1.28537e-16, -2.05289e-16, 0.59029, 0.614246, 0.0241241, 0.614689, 0.0239747, -1.10112, 35.8241, -1.97245, 0.655282, -34.5753, 43.7977, 24.4601, -0.64204, -150, 62.3746, 7.39907, -100, -22.7842, -9.02899, 16.963, 4.66558e-310, 0, 0, 35.8241, -1.97245, 0.655282, -34.5753, 21.8989, 12.23, 21.8989, 0, 0, 2.84417, 0, 152.565, 0, 0, 75.7293, -0.00024228, 0, 0, 0, 0, 0, 0, 0
0.0146724, -0.027152, 0.742582, 0.0981184, -1.00778, 1.00841, -0.0987482, 0.104533, 0.234612, 1.00023, 0.234616, 1.00023, 0.021579, -0.0353322, 0.00347791, -0.247356, 0.247356, 1.29499e-16, -2.09581e-16, 0.596032, 0.620703, 0.0241618, 0.621152, 0.0240105, -1.11165, 35.8002, -1.96244, 0.656499, -34.5913, 43.7941, 24.4587, -0.639307, -150, 63.2185, 7.86556, -100, -23.3274, -9.01018, 17.3005, 4.66558e-310, 0, 0, 35.8002, -1.96244, 0.656499, -34.5913, 21.897, 12.2293, 21.897, 0, 0, 2.84807, 0, 152.388, 0, 0, 75.6483, -0.00023922, 0, 0, 0, 0, 0, 0, 0
0.0148319, -0.0271577, 0.742583, 0.0980787, -1.00774, 1.00841, -0.0987482, 0.104628, 0.234712, 1.00024, 0.234715, 1.00023, 0.0214009, -0.0356719, 0.00350992, -0.249733, 0.249733, 1.31265e-16, -2.12288e-16, 0.601755, 0.627153, 0.0241953, 0.627607, 0.024042, -1.12213, 35.7763, -1.95229, 0.65779, -34.6072, 43.7903, 24.4572, -0.636521, -150, 64.0625, 8.33206, -100, -23.8706, -8.99137, 17.6379, 4.66558e-310, 0, 0, 35.7763, -1.95229, 0.65779, -34.6072, 21.8952, 12.2286, 21.8952, 0, 0, 2.85211, 0, 152.21, 0, 0, 75.5676, -0.000235895, 0, 0, 0, 0, 0, 0, 0
0.0149914, -0.0271634, 0.742583, 0.0980387, -1.0077, 1.00841, -0.0987482, 0.104725, 0.234812, 1.00024, 0.234816, 1.00024, 0.0212211, -0.0360105, 0.00354178, -0.252103, 0.252103, 1.34037e-16, -2.13044e-16, 0.607461, 0.633596, 0.0242247, 0.634054, 0.0240694, -1.13255, 35.7523, -1.942, 0.659156, -34.6232, 43.7865, 24.4558, -0.633681, -150, 64.9064, 8.79856, -100, -24.4137, -8.97256, 17.9754, 4.66558e-310, 0, 0, 35.7523, -1.942, 0.659156, -34.6232, 21.8932, 12.2279, 21.8932, 0, 0, 2.85628, 0, 152.031, 0, 0, 75.4869, -0.000232306, 0, 0, 0, 0, 0, 0, 0
0.0151509, -0.0271691, 0.742584, 0.0979983, -1.00766, 1.00841, -0.0987482, 0.104822, 0.234914, 1.00024, 0.234917, 1.00024, 0.0210397, -0.0363481, 0.00357351, -0.254465, 0.254465, 1.37299e-16, -2.13736e-16, 0.613149, 0.64003, 0.0242498, 0.640493, 0.0240926, -1.14292, 35.7284, -1.93158, 0.660597, -34.6391, 43.7825, 24.4544, -0.630788, -150, 65.7503, 9.26506, -100, -24.9569, -8.95375, 18.3128, 4.66558e-310, 0, 0, 35.7284, -1.93158, 0.660597, -34.6391, 21.8913, 12.2272, 21.8913, 0, 0, 2.86059, 0, 151.851, 0, 0, 75.4065, -0.00022845, 0, 0, 0, 0, 0, 0, 0
0.0153104, -0.027175, 0.742584, 0.0979575, -1.00762, 1.00841, -0.0987482, 0.10492, 0.235017, 1.00025, 0.23502, 1.00025, 0.0208566, -0.0366847, 0.00360509, -0.25682, 0.25682, 1.39746e-16, -2.18739e-16, 0.618819, 0.646456, 0.0242708, 0.646924, 0.0241116, -1.15324, 35.7045, -1.92103, 0.662112, -34.655, 43.7785, 24.4529, -0.62784, -150, 66.5943, 9.73156, -100, -25.5, -8.93494, 18.6502, 4.66558e-310, 0, 0, 35.7045, -1.92103, 0.662112, -34.655, 21.8892, 12.2265, 21.8892, 0, 0, 2.86503, 0, 151.671, 0, 0, 75.3262, -0.000224328, 0, 0, 0, 0, 0, 0, 0
0.0154699, -0.0271809, 0.742585, 0.0979164, -1.00758, 1.00841, -0.0987482, 0.10502, 0.23512, 1.00025, 0.235124, 1.00025, 0.0206718, -0.0370203, 0.00363652, -0.259168, 0.259168, 1.42992e-16, -2.23398e-16, 0.624471, 0.652875, 0.0242877, 0.653348, 0.0241265, -1.1635, 35.6806, -1.91034, 0.663701, -34.671, 43.7744, 24.4515, -0.624839, -150, 67.4382, 10.1981, -100, -26.0432, -8.91613, 18.9877, 4.66558e-310, 0, 0, 35.6806, -1.91034, 0.663701, -34.671, 21.8872, 12.2258, 21.8872, 0, 0, 2.8696, 0, 151.489, 0, 0, 75.2461, -0.000219937, 0, 0, 0, 0, 0, 0, 0
0.0156293, -0.0271868, 0.742586, 0.0978749, -1.00754, 1.00841, -0.0987482, 0.10512, 0.235225, 1.00026, 0.235229, 1.00025, 0.0204855, -0.0373548, 0.00366782, -0.261509, 0.261509, 1.4718e-16, -2.27666e-16, 0.630105, 0.659285, 0.0243005, 0.659763, 0.0241373, -1.17371, 35.6566, -1.89952, 0.665364, -34.6869, 43.7702, 24.4501, -0.621784, -150, 68.2821, 10.6646, -100, -26.5864, -8.89732, 19.3251, 4.66558e-310, 0, 0, 35.6566, -1.89952, 0.665364, -34.6869, 21.8851, 12.225, 21.8851, 0, 0, 2.87431, 0, 151.307, 0, 0, 75.1661, -0.000215278, 0, 0, 0, 0, 0, 0, 0
0.0157888, -0.0271928, 0.742586, 0.097833, -1.00749, 1.00841, -0.0987482, 0.105221, 0.23533, 1.00026, 0.235334, 1.00026, 0.0202975, -0.0376883, 0.00369897, -0.263843, 0.263843, 1.52462e-16, -2.31499e-16, 0.635722, 0.665688, 0.0243092, 0.666171, 0.024144, -1.18387, 35.6327, -1.88856, 0.667102, -34.7029, 43.7659, 24.4487, -0.618675, -150, 69.1261, 11.1311, -100, -27.1295, -8.87851, 19.6626, 4.66558e-310, 0, 0, 35.6327, -1.88856, 0.667102, -34.7029, 21.883, 12.2243, 21.883, 0, 0, 2.87915, 0, 151.124, 0, 0, 75.0863, -0.000210348, 0, 0, 0, 0, 0, 0, 0
0.0159483, -0.0271988, 0.742587, 0.0977907, -1.00745, 1.00841, -0.0987482, 0.105322, 0.235437, 1.00026, 0.235441, 1.00026, 0.0201079, -0.0380207, 0.00372998, -0.266169, 0.266169, 1.59003e-16, -2.34852e-16, 0.64132, 0.672082, 0.0243138, 0.67257, 0.0241466, -1.19396, 35.6088, -1.87747, 0.668915, -34.7188, 43.7615, 24.4473, -0.615512, -150, 69.97, 11.5976, -100, -27.6727, -8.8597, 20, 4.66558e-310, 0, 0, 35.6088, -1.87747, 0.668915, -34.7188, 21.8808, 12.2236, 21.8808, 0, 0, 2.88412, 0, 150.94, 0, 0, 75.0067, -0.000205148, 0, 0, 0, 0, 0, 0, 0
0.0159483, -0.0271988, 0.742587, 0.0977907, -1.00745, 1.00841, -0.0987482, 0.105322, 0.235437, 1.00026, 0.235441, 1.00026, 0.0201079, -0.0380207, 0.00372998, -0.266169, 0.266169, 1.59003e-16, -2.34852e-16, 0.64132, 0.672082, 0.0243138, 0.67257, 0.0241466, -1.19396, 35.6088, -1.87747, 0.668915, -34.7188, 43.7615, 24.4473, -0.615512, -150, 69.97, 11.5976, -100, -27.6727, -8.8597, 20, 4.66558e-310, 0, 0, 35.6088, -1.87747, 0.668915, -34.7188, 21.8808, 12.2236, 21.8808, 0, 0, 2.88412, 0, 150.94, 0, 0, 75.0067, -0.000205148, 0, 0, 0, 0, 0, 0, 0
0.0159483, -0.0271988, 0.742587, 0.0977907, -1.00745, 1.00841, -0.0987482, 0.105322, 0.235437, 1.00026, 0.235441, 1.00026, 0.0201079, -0.0380207, 0.00372998, -0.266169, 0.266169, 3.47427e-11, -2.55592e-11, 0.64132, 0.672082, 0.0243142, 0.67257, 0.024147, -1.19396, 35.6088, -1.87747, 0.668915, -34.7188, 43.7615, 24.4473, -0.615512, -150, 69.97, 11.5976, -100, -27.6727, -8.8597, 20, 4.66558e-310, 0, 0, 35.6088, -1.87747, 0.668915, -34.7188, 21.8808, 12.2236, 21.8808, 0, 0, 2.88412, 0, 150.94, 0, 0, 75.0067, -0.000205147, 0, 0, 0, 0, 0, 0, 0
0.0161078, -0.0272049, 0.742587, 0.0977481, -1.00741, 1.00841, -0.0987482, 0.105425, 0.235545, 1.00027, 0.235549, 1.00027, 0.0199166, -0.0383521, 0.00376084, -0.268488, 0.268488, 3.47427e-11, -2.55592e-11, 0.6469, 0.678468, 0.0243147, 0.678961, 0.0241455, -1.204, 35.5849, -1.86642, 0.670734, -34.7348, 43.7571, 24.4458, -0.612323, -150, 68.6508, 11.2242, -100, -28.396, -8.86305, 20, 4.66558e-310, 0, 0, 35.5849, -1.86642, 0.670734, -34.7348, 21.8785, 12.2229, 21.8785, 0, 0, 2.88897, 0, 150.757, 0, 0, 74.9273, -0.000199839, 0, 0, 0, 0, 0, 0, 0
0.0162673, -0.027211, 0.742588, 0.0977051, -1.00737, 1.00841, -0.0987482, 0.105529, 0.235654, 1.00027, 0.235658, 1.00027, 0.0197238, -0.0386825, 0.00379156, -0.2708, 0.2708, 3.47427e-11, -2.55592e-11, 0.652462, 0.684846, 0.0243114, 0.685344, 0.0241401, -1.21399, 35.561, -1.85558, 0.672495, -34.7507, 43.7525, 24.4444, -0.609133, -150, 67.3316, 10.8508, -100, -29.1192, -8.86641, 20, 4.66558e-310, 0, 0, 35.561, -1.85558, 0.672495, -34.7507, 21.8762, 12.2222, 21.8762, 0, 0, 2.89345, 0, 150.574, 0, 0, 74.8482, -0.000194589, 0, 0, 0, 0, 0, 0, 0
0.0164268, -0.0272172, 0.742589, 0.0976617, -1.00732, 1.00841, -0.0987482, 0.105633, 0.235763, 1.00027, 0.235767, 1.00027, 0.0195294, -0.0390118, 0.00382213, -0.273104, 0.273104, 3.47427e-11, -2.55592e-11, 0.658006, 0.691216, 0.0243041, 0.691719, 0.0241308, -1.22392, 35.537, -1.84494, 0.674195, -34.7667, 43.7478, 24.443, -0.605943, -150, 66.0124, 10.4774, -100, -29.8425, -8.86977, 20, 4.66558e-310, 0, 0, 35.537, -1.84494, 0.674195, -34.7667, 21.8739, 12.2215, 21.8739, 0, 0, 2.89757, 0, 150.392, 0, 0, 74.7695, -0.000189397, 0, 0, 0, 0, 0, 0, 0
0.0165862, -0.0272235, 0.742589, 0.097618, -1.00728, 1.00841, -0.0987482, 0.105739, 0.235874, 1.00028, 0.235878, 1.00028, 0.0193334, -0.0393402, 0.00385256, -0.275401, 0.275401, 3.47427e-11, -2.55592e-11, 0.663532, 0.697578, 0.0242931, 0.698085, 0.0241177, -1.23379, 35.5131, -1.83452, 0.675837, -34.7826, 43.743, 24.4416, -0.602754, -150, 64.6932, 10.1041, -100, -30.5658, -8.87312, 20, 4.66558e-310, 0, 0, 35.5131, -1.83452, 0.675837, -34.7826, 21.8715, 12.2208, 21.8715, 0, 0, 2.9013, 0, 150.211, 0, 0, 74.6911, -0.000184263, 0, 0, 0, 0, 0, 0, 0
0.0167457, -0.0272298, 0.74259, 0.0975739, -1.00723, 1.00841, -0.0987482, 0.105845, 0.235986, 1.00028, 0.23599, 1.00028, 0.0191359, -0.0396674, 0.00388284, -0.277691, 0.277691, 3.47427e-11, -2.55592e-11, 0.66904, 0.703931, 0.0242783, 0.704444, 0.0241009, -1.24361, 35.4892, -1.82431, 0.677418, -34.7986, 43.738, 24.4402, -0.599564, -150, 63.374, 9.73068, -100, -31.2891, -8.87648, 20, 4.66558e-310, 0, 0, 35.4892, -1.82431, 0.677418, -34.7986, 21.869, 12.2201, 21.869, 0, 0, 2.90467, 0, 150.031, 0, 0, 74.6131, -0.000179187, 0, 0, 0, 0, 0, 0, 0
0.0169052, -0.0272361, 0.74259, 0.0975294, -1.00719, 1.00841, -0.0987482, 0.105952, 0.236099, 1.00029, 0.236103, 1.00029, 0.0189368, -0.0399936, 0.00391297, -0.279974, 0.279974, 3.47427e-11, -2.55592e-11, 0.674529, 0.710276, 0.0242598, 0.710794, 0.0240804, -1.25337, 35.4653, -1.81431, 0.67894, -34.8145, 43.733, 24.4388, -0.596374, -150, 62.0548, 9.3573, -100, -32.0123, -8.87983, 20, 4.66558e-310, 0, 0, 35.4653, -1.81431, 0.67894, -34.8145, 21.8665, 12.2194, 21.8665, 0, 0, 2.90767, 0, 149.853, 0, 0, 74.5354, -0.00017417, 0, 0, 0, 0, 0, 0, 0
0.0170647, -0.0272425, 0.742591, 0.0974846, -1.00715, 1.00841, -0.0987482, 0.10606, 0.236212, 1.00029, 0.236217, 1.00029, 0.0187361, -0.0403188, 0.00394297, -0.282249, 0.282249, 3.47427e-11, -2.55591e-11, 0.680001, 0.716612, 0.0242377, 0.717135, 0.0240562, -1.26307, 35.4413, -1.80451, 0.680403, -34.8305, 43.7278, 24.4374, -0.593185, -150, 60.7355, 8.98393, -100, -32.7356, -8.88319, 20, 4.66558e-310, 0, 0, 35.4413, -1.80451, 0.680403, -34.8305, 21.8639, 12.2187, 21.8639, 0, 0, 2.91029, 0, 149.675, 0, 0, 74.4581, -0.000169211, 0, 0, 0, 0, 0, 0, 0
0.0172242, -0.027249, 0.742592, 0.0974394, -1.0071, 1.00841, -0.0987482, 0.106169, 0.236327, 1.00029, 0.236332, 1.00029, 0.0185339, -0.040643, 0.00397281, -0.284517, 0.284517, 3.47427e-11, -2.55591e-11, 0.685454, 0.72294, 0.0242121, 0.723468, 0.0240285, -1.27272, 35.4174, -1.79493, 0.681806, -34.8464, 43.7225, 24.4359, -0.589995, -150, 59.4163, 8.61055, -100, -33.4589, -8.88654, 20, 4.66558e-310, 0, 0, 35.4174, -1.79493, 0.681806, -34.8464, 21.8613, 12.218, 21.8613, 0, 0, 2.91254, 0, 149.498, 0, 0, 74.3811, -0.000164312, 0, 0, 0, 0, 0, 0, 0
0.0173837, -0.0272555, 0.742592, 0.0973938, -1.00705, 1.00841, -0.0987482, 0.106279, 0.236443, 1.0003, 0.236448, 1.0003, 0.0183302, -0.0409661, 0.00400251, -0.286777, 0.286777, 3.47427e-11, -2.55591e-11, 0.69089, 0.72926, 0.0241831, 0.729793, 0.0239974, -1.28231, 35.3935, -1.78556, 0.683149, -34.8624, 43.7171, 24.4345, -0.586805, -150, 58.0971, 8.23718, -100, -34.1822, -8.8899, 20, 4.66558e-310, 0, 0, 35.3935, -1.78556, 0.683149, -34.8624, 21.8586, 12.2173, 21.8586, 0, 0, 2.91441, 0, 149.322, 0, 0, 74.3044, -0.000159471, 0, 0, 0, 0, 0, 0, 0
0.0175431, -0.0272621, 0.742593, 0.0973479, -1.00701, 1.00841, -0.0987482, 0.106389, 0.23656, 1.0003, 0.236564, 1.0003, 0.0181249, -0.0412881, 0.00403206, -0.28903, 0.28903, 3.47427e-11, -2.55591e-11, 0.696307, 0.735571, 0.0241506, 0.736108, 0.0239629, -1.29185, 35.3696, -1.7764, 0.684433, -34.8783, 43.7116, 24.4331, -0.583616, -150, 56.7779, 7.8638, -100, -34.9054, -8.89325, 20, 4.66558e-310, 0, 0, 35.3696, -1.7764, 0.684433, -34.8783, 21.8558, 12.2166, 21.8558, 0, 0, 2.91592, 0, 149.147, 0, 0, 74.2281, -0.000154691, 0, 0, 0, 0, 0, 0, 0
0.0177026, -0.0272687, 0.742594, 0.0973016, -1.00696, 1.00841, -0.0987482, 0.106501, 0.236678, 1.00031, 0.236682, 1.0003, 0.0179181, -0.0416091, 0.00406147, -0.291276, 0.291276, 3.47427e-11, -2.55591e-11, 0.701707, 0.741873, 0.0241149, 0.742416, 0.0239251, -1.30133, 35.3457, -1.76745, 0.685658, -34.8943, 43.706, 24.4317, -0.580426, -150, 55.4587, 7.49043, -100, -35.6287, -8.89661, 20, 4.66558e-310, 0, 0, 35.3457, -1.76745, 0.685658, -34.8943, 21.853, 12.2158, 21.853, 0, 0, 2.91705, 0, 148.973, 0, 0, 74.1521, -0.000149969, 0, 0, 0, 0, 0, 0, 0
0.0178621, -0.0272753, 0.742594, 0.097255, -1.00692, 1.00841, -0.0987482, 0.106613, 0.236796, 1.00031, 0.236801, 1.00031, 0.0177098, -0.0419291, 0.00409072, -0.293515, 0.293515, 3.47427e-11, -2.55591e-11, 0.707088, 0.748167, 0.024076, 0.748714, 0.0238841, -1.31076, 35.3217, -1.75871, 0.686823, -34.9102, 43.7003, 24.4303, -0.577236, -150, 54.1395, 7.11705, -100, -36.352, -8.89996, 20, 4.66558e-310, 0, 0, 35.3217, -1.75871, 0.686823, -34.9102, 21.8501, 12.2151, 21.8501, 0, 0, 2.9178, 0, 148.801, 0, 0, 74.0765, -0.000145308, 0, 0, 0, 0, 0, 0, 0
0.0180216, -0.027282, 0.742595, 0.097208, -1.00687, 1.00841, -0.0987482, 0.106726, 0.236916, 1.00031, 0.236921, 1.00031, 0.0175, -0.042248, 0.00411984, -0.295746, 0.295746, 3.47427e-11, -2.55591e-11, 0.712451, 0.754452, 0.024034, 0.755004, 0.0238399, -1.32012, 35.2978, -1.75018, 0.687928, -34.9262, 43.6944, 24.4288, -0.574047, -150, 52.8203, 6.74368, -100, -37.0753, -8.90332, 20, 4.66558e-310, 0, 0, 35.2978, -1.75018, 0.687928, -34.9262, 21.8472, 12.2144, 21.8472, 0, 0, 2.91819, 0, 148.629, 0, 0, 74.0012, -0.000140706, 0, 0, 0, 0, 0, 0, 0
0.0181811, -0.0272888, 0.742596, 0.0971606, -1.00682, 1.00841, -0.0987482, 0.10684, 0.237037, 1.00032, 0.237042, 1.00032, 0.0172888, -0.0425659, 0.0041488, -0.29797, 0.29797, 3.47427e-11, -2.55591e-11, 0.717796, 0.760728, 0.0239888, 0.761286, 0.0237926, -1.32944, 35.2739, -1.74186, 0.688974, -34.9421, 43.6884, 24.4274, -0.570857, -150, 51.5011, 6.37031, -100, -37.7985, -8.90668, 20, 4.66558e-310, 0, 0, 35.2739, -1.74186, 0.688974, -34.9421, 21.8442, 12.2137, 21.8442, 0, 0, 2.9182, 0, 148.458, 0, 0, 73.9262, -0.000136165, 0, 0, 0, 0, 0, 0, 0
0.0183406, -0.0272956, 0.742596, 0.097113, -1.00677, 1.00841, -0.0987482, 0.106955, 0.237159, 1.00032, 0.237164, 1.00032, 0.017076, -0.0428827, 0.00417762, -0.300186, 0.300186, 3.47427e-11, -2.55591e-11, 0.723123, 0.766996, 0.0239407, 0.767558, 0.0237424, -1.3387, 35.25, -1.73376, 0.68996, -34.9581, 43.6824, 24.426, -0.567667, -150, 50.1819, 5.99693, -100, -38.5218, -8.91003, 20, 4.66558e-310, 0, 0, 35.25, -1.73376, 0.68996, -34.9581, 21.8412, 12.213, 21.8412, 0, 0, 2.91784, 0, 148.288, 0, 0, 73.8516, -0.000131684, 0, 0, 0, 0, 0, 0, 0
0.0185, -0.0273025, 0.742597, 0.0970649, -1.00673, 1.00841, -0.0987482, 0.107071, 0.237282, 1.00032, 0.237287, 1.00032, 0.0168618, -0.0431985, 0.00420629, -0.302396, 0.302396, 3.47427e-11, -2.55591e-11, 0.728432, 0.773254, 0.0238897, 0.773822, 0.0236892, -1.3479, 35.226, -1.72586, 0.690886, -34.974, 43.6762, 24.4246, -0.564478, -150, 48.8627, 5.62356, -100, -39.2451, -8.91339, 20, 4.66558e-310, 0, 0, 35.226, -1.72586, 0.690886, -34.974, 21.8381, 12.2123, 21.8381, 0, 0, 2.9171, 0, 148.119, 0, 0, 73.7773, -0.000127264, 0, 0, 0, 0, 0, 0, 0
0.0186595, -0.0273094, 0.742598, 0.0970165, -1.00668, 1.00841, -0.0987482, 0.107188, 0.237406, 1.00033, 0.237411, 1.00033, 0.0166461, -0.0435133, 0.00423481, -0.304597, 0.304597, 3.47427e-11, -2.55592e-11, 0.733723, 0.779504, 0.0238358, 0.780076, 0.0236332, -1.35704, 35.2021, -1.71817, 0.691753, -34.99, 43.6698, 24.4232, -0.561288, -150, 47.5435, 5.25018, -100, -39.9683, -8.91674, 20, 4.66558e-310, 0, 0, 35.2021, -1.71817, 0.691753, -34.99, 21.8349, 12.2116, 21.8349, 0, 0, 2.91599, 0, 147.951, 0, 0, 73.7033, -0.000122905, 0, 0, 0, 0, 0, 0, 0
0.018819, -0.0273164, 0.742598, 0.0969677, -1.00663, 1.00841, -0.0987482, 0.107305, 0.23753, 1.00033, 0.237536, 1.00033, 0.0164289, -0.043827, 0.00426318, -0.306792, 0.306792, 3.47427e-11, -2.55592e-11, 0.738996, 0.785745, 0.0237791, 0.786322, 0.0235744, -1.36613, 35.1782, -1.71069, 0.692561, -35.0059, 43.6634, 24.4217, -0.558098, -150, 46.2243, 4.87681, -100, -40.6916, -8.9201, 20, 4.66558e-310, 0, 0, 35.1782, -1.71069, 0.692561, -35.0059, 21.8317, 12.2109, 21.8317, 0, 0, 2.9145, 0, 147.785, 0, 0, 73.6297, -0.000118606, 0, 0, 0, 0, 0, 0, 0
0.0189785, -0.0273234, 0.742599, 0.0969186, -1.00658, 1.00841, -0.0987482, 0.107423, 0.237656, 1.00034, 0.237662, 1.00033, 0.0162103, -0.0441396, 0.0042914, -0.308979, 0.308979, 3.47427e-11, -2.55592e-11, 0.744251, 0.791976, 0.0237198, 0.792559, 0.0235129, -1.37517, 35.1543, -1.70343, 0.693309, -35.0219, 43.6569, 24.4203, -0.554909, -150, 44.9051, 4.50343, -100, -41.4149, -8.92345, 20, 4.66558e-310, 0, 0, 35.1543, -1.70343, 0.693309, -35.0219, 21.8284, 12.2102, 21.8284, 0, 0, 2.91264, 0, 147.619, 0, 0, 73.5564, -0.000114369, 0, 0, 0, 0, 0, 0, 0
0.019138, -0.0273304, 0.7426, 0.0968692, -1.00653, 1.00841, -0.0987482, 0.107542, 0.237783, 1.00034, 0.237789, 1.00034, 0.0159903, -0.0444512, 0.00431948, -0.311159, 0.311159, 3.47427e-11, -2.55592e-11, 0.749488, 0.798199, 0.0236578, 0.798786, 0.0234487, -1.38415, 35.1303, -1.69637, 0.693997, -35.0378, 43.6502, 24.4189, -0.551719, -150, 43.5859, 4.13006, -100, -42.1382, -8.92681, 20, 4.66558e-310, 0, 0, 35.1303, -1.69637, 0.693997, -35.0378, 21.8251, 12.2094, 21.8251, 0, 0, 2.91041, 0, 147.454, 0, 0, 73.4834, -0.000110193, 0, 0, 0, 0, 0, 0, 0
0.0192975, -0.0273376, 0.7426, 0.0968194, -1.00648, 1.00841, -0.0987482, 0.107662, 0.237911, 1.00034, 0.237916, 1.00034, 0.0157688, -0.0447618, 0.00434741, -0.313331, 0.313331, 3.47427e-11, -2.55592e-11, 0.754707, 0.804413, 0.0235933, 0.805005, 0.023382, -1.39307, 35.1064, -1.68952, 0.694626, -35.0538, 43.6434, 24.4175, -0.548529, -150, 42.2667, 3.75668, -100, -42.8614, -8.93016, 20, 4.66558e-310, 0, 0, 35.1064, -1.68952, 0.694626, -35.0538, 21.8217, 12.2087, 21.8217, 0, 0, 2.9078, 0, 147.29, 0, 0, 73.4108, -0.000106079, 0, 0, 0, 0, 0, 0, 0
0.0194569, -0.0273447, 0.742601, 0.0967692, -1.00643, 1.00841, -0.0987482, 0.107783, 0.23804, 1.00035, 0.238045, 1.00035, 0.0155459, -0.0450713, 0.00437518, -0.315496, 0.315496, 3.47427e-11, -2.55592e-11, 0.759908, 0.810617, 0.0235263, 0.811214, 0.0233128, -1.40194, 35.0825, -1.68289, 0.695196, -35.0697, 43.6365, 24.416, -0.54534, -150, 40.9475, 3.38331, -100, -43.5847, -8.93352, 20, 4.66558e-310, 0, 0, 35.0825, -1.68289, 0.695196, -35.0697, 21.8183, 12.208, 21.8183, 0, 0, 2.90482, 0, 147.127, 0, 0, 73.3385, -0.000102027, 0, 0, 0, 0, 0, 0, 0
0.0196164, -0.0273519, 0.742602, 0.0967188, -1.00638, 1.00841, -0.0987482, 0.107905, 0.238169, 1.00035, 0.238175, 1.00035, 0.0153216, -0.0453797, 0.00440281, -0.317653, 0.317653, 3.47427e-11, -2.55592e-11, 0.76509, 0.816812, 0.0234569, 0.817415, 0.0232413, -1.41076, 35.0586, -1.67646, 0.695706, -35.0857, 43.6295, 24.4146, -0.54215, -150, 39.6283, 3.00993, -100, -44.308, -8.93687, 20, 4.66558e-310, 0, 0, 35.0586, -1.67646, 0.695706, -35.0857, 21.8148, 12.2073, 21.8148, 0, 0, 2.90146, 0, 146.965, 0, 0, 73.2666, -9.80361e-05, 0, 0, 0, 0, 0, 0, 0
0.0197759, -0.0273592, 0.742602, 0.0966679, -1.00633, 1.00841, -0.0987482, 0.108027, 0.2383, 1.00036, 0.238306, 1.00035, 0.015096, -0.0456871, 0.00443029, -0.319804, 0.319804, 3.47427e-11, -2.55592e-11, 0.770255, 0.822998, 0.0233852, 0.823605, 0.0231673, -1.41951, 35.0347, -1.67025, 0.696156, -35.1016, 43.6224, 24.4132, -0.53896, -150, 38.309, 2.63656, -100, -45.0313, -8.94023, 20, 4.66558e-310, 0, 0, 35.0347, -1.67025, 0.696156, -35.1016, 21.8112, 12.2066, 21.8112, 0, 0, 2.89773, 0, 146.804, 0, 0, 73.195, -9.41079e-05, 0, 0, 0, 0, 0, 0, 0
0.0199354, -0.0273665, 0.742603, 0.0966168, -1.00628, 1.00841, -0.0987482, 0.10815, 0.238432, 1.00036, 0.238438, 1.00036, 0.0148689, -0.0459935, 0.00445762, -0.321946, 0.321946, 3.47427e-11, -2.55592e-11, 0.775402, 0.829175, 0.0233113, 0.829787, 0.0230912, -1.42822, 35.0107, -1.66424, 0.696547, -35.1175, 43.6152, 24.4118, -0.535771, -150, 36.9898, 2.26318, -100, -45.7545, -8.94359, 20, 4.66558e-310, 0, 0, 35.0107, -1.66424, 0.696547, -35.1175, 21.8076, 12.2059, 21.8076, 0, 0, 2.89362, 0, 146.644, 0, 0, 73.1237, -9.0242e-05, 0, 0, 0, 0, 0, 0, 0
0.0200949, -0.0273739, 0.742604, 0.0965652, -1.00623, 1.00841, -0.0987482, 0.108275, 0.238565, 1.00036, 0.238571, 1.00036, 0.0146404, -0.0462988, 0.0044848, -0.324082, 0.324082, 3.47427e-11, -2.55592e-11, 0.78053, 0.835342, 0.0232351, 0.835959, 0.0230128, -1.43687, 34.9868, -1.65845, 0.696878, -35.1335, 43.6078, 24.4103, -0.532581, -150, 35.6706, 1.88981, -100, -46.4778, -8.94694, 20, 4.66558e-310, 0, 0, 34.9868, -1.65845, 0.696878, -35.1335, 21.8039, 12.2052, 21.8039, 0, 0, 2.88914, 0, 146.485, 0, 0, 73.0528, -8.64386e-05, 0, 0, 0, 0, 0, 0, 0
0.0202544, -0.0273813, 0.742605, 0.0965134, -1.00617, 1.00841, -0.0987482, 0.108399, 0.238698, 1.00037, 0.238705, 1.00036, 0.0144106, -0.046603, 0.00451184, -0.32621, 0.32621, 3.47427e-11, -2.55592e-11, 0.785641, 0.8415, 0.0231569, 0.842122, 0.0229324, -1.44546, 34.9629, -1.65287, 0.697149, -35.1494, 43.6003, 24.4089, -0.529391, -150, 34.3514, 1.51643, -100, -47.2011, -8.9503, 20, 4.66558e-310, 0, 0, 34.9629, -1.65287, 0.697149, -35.1494, 21.8002, 12.2045, 21.8002, 0, 0, 2.88428, 0, 146.327, 0, 0, 72.9821, -8.2698e-05, 0, 0, 0, 0, 0, 0, 0
0.0204138, -0.0273887, 0.742605, 0.0964612, -1.00612, 1.00841, -0.0987482, 0.108525, 0.238833, 1.00037, 0.238839, 1.00037, 0.0141794, -0.0469062, 0.00453872, -0.32833, 0.32833, 3.47427e-11, -2.55592e-11, 0.790733, 0.847649, 0.0230766, 0.848276, 0.0228499, -1.454, 34.939, -1.64749, 0.697361, -35.1654, 43.5927, 24.4075, -0.526202, -150, 33.0322, 1.14306, -100, -47.9243, -8.95365, 20, 4.66558e-310, 0, 0, 34.939, -1.64749, 0.697361, -35.1654, 21.7964, 12.2037, 21.7964, 0, 0, 2.87904, 0, 146.17, 0, 0, 72.9119, -7.90203e-05, 0, 0, 0, 0, 0, 0, 0
0.0205733, -0.0273962, 0.742606, 0.0964087, -1.00607, 1.00841, -0.0987482, 0.108652, 0.238969, 1.00037, 0.238975, 1.00037, 0.0139468, -0.0472083, 0.00456545, -0.330443, 0.330443, 3.47427e-11, -2.55592e-11, 0.795808, 0.853788, 0.0229944, 0.85442, 0.0227654, -1.46248, 34.915, -1.64233, 0.697514, -35.1813, 43.585, 24.4061, -0.523012, -150, 31.713, 0.769683, -100, -48.6476, -8.95701, 20, 4.66558e-310, 0, 0, 34.915, -1.64233, 0.697514, -35.1813, 21.7925, 12.203, 21.7925, 0, 0, 2.87343, 0, 146.014, 0, 0, 72.8419, -7.54057e-05, 0, 0, 0, 0, 0, 0, 0
0.0207328, -0.0274038, 0.742607, 0.0963558, -1.00602, 1.00841, -0.0987482, 0.108779, 0.239105, 1.00038, 0.239112, 1.00037, 0.0137129, -0.0475094, 0.00459203, -0.332549, 0.332549, 3.47427e-11, -2.55592e-11, 0.800864, 0.859917, 0.0229103, 0.860554, 0.022679, -1.47091, 34.8911, -1.63738, 0.697607, -35.1973, 43.5772, 24.4046, -0.519822, -150, 30.3938, 0.396309, -100, -49.3709, -8.96036, 20, 4.66558e-310, 0, 0, 34.8911, -1.63738, 0.697607, -35.1973, 21.7886, 12.2023, 21.7886, 0, 0, 2.86745, 0, 145.859, 0, 0, 72.7723, -7.18544e-05, 0, 0, 0, 0, 0, 0, 0
0.0208923, -0.0274114, 0.742607, 0.0963026, -1.00596, 1.00841, -0.0987482, 0.108907, 0.239243, 1.00038, 0.23925, 1.00038, 0.0134776, -0.0478094, 0.00461846, -0.334647, 0.334647, 3.47427e-11, -2.55593e-11, 0.805903, 0.866037, 0.0228244, 0.866679, 0.0225909, -1.47928, 34.8672, -1.63264, 0.69764, -35.2132, 43.5693, 24.4032, -0.516633, -150, 29.0746, 0.0229338, -100, -50.0942, -8.96372, 20, 4.66558e-310, 0, 0, 34.8672, -1.63264, 0.69764, -35.2132, 21.7846, 12.2016, 21.7846, 0, 0, 2.86108, 0, 145.705, 0, 0, 72.703, -6.83665e-05, 0, 0, 0, 0, 0, 0, 0
0.0210518, -0.027419, 0.742608, 0.096249, -1.00591, 1.00841, -0.0987482, 0.109036, 0.239382, 1.00038, 0.239388, 1.00038, 0.013241, -0.0481084, 0.00464474, -0.336738, 0.336738, 3.47427e-11, -2.55593e-11, 0.810923, 0.872147, 0.0227367, 0.872794, 0.0225009, -1.4876, 34.8433, -1.6281, 0.697614, -35.2292, 43.5612, 24.4018, -0.513443, -150, 27.7554, -0.350441, -100, -50.8174, -8.96707, 20, 4.66558e-310, 0, 0, 34.8433, -1.6281, 0.697614, -35.2292, 21.7806, 12.2009, 21.7806, 0, 0, 2.85435, 0, 145.551, 0, 0, 72.634, -6.49424e-05, 0, 0, 0, 0, 0, 0, 0
0.0212112, -0.0274267, 0.742609, 0.0961952, -1.00586, 1.00841, -0.0987482, 0.109166, 0.239521, 1.00039, 0.239528, 1.00039, 0.0130031, -0.0484063, 0.00467087, -0.338822, 0.338822, 3.47427e-11, -2.55593e-11, 0.815925, 0.878248, 0.0226474, 0.8789, 0.0224094, -1.49586, 34.8194, -1.62378, 0.697529, -35.2451, 43.5531, 24.4003, -0.510253, -150, 26.4362, -0.723816, -100, -51.5407, -8.97043, 20, 4.66558e-310, 0, 0, 34.8194, -1.62378, 0.697529, -35.2451, 21.7765, 12.2002, 21.7765, 0, 0, 2.84723, 0, 145.399, 0, 0, 72.5654, -6.1582e-05, 0, 0, 0, 0, 0, 0, 0
0.0213707, -0.0274345, 0.74261, 0.096141, -1.0058, 1.00841, -0.0987482, 0.109296, 0.239662, 1.00039, 0.239669, 1.00039, 0.0127639, -0.0487031, 0.00469685, -0.340898, 0.340898, 3.47427e-11, -2.55593e-11, 0.82091, 0.884339, 0.0225565, 0.884996, 0.0223162, -1.50407, 34.7954, -1.61967, 0.697383, -35.2611, 43.5448, 24.3989, -0.507064, -150, 25.117, -1.09719, -100, -52.264, -8.97379, 20, 4.66558e-310, 0, 0, 34.7954, -1.61967, 0.697383, -35.2611, 21.7724, 12.1995, 21.7724, 0, 0, 2.83974, 0, 145.248, 0, 0, 72.4971, -5.82856e-05, 0, 0, 0, 0, 0, 0, 0
0.0215302, -0.0274423, 0.74261, 0.0960864, -1.00575, 1.00841, -0.0987482, 0.109428, 0.239803, 1.0004, 0.23981, 1.00039, 0.0125234, -0.0489989, 0.00472268, -0.342966, 0.342966, 3.47427e-11, -2.55593e-11, 0.825876, 0.89042, 0.0224641, 0.891082, 0.0222215, -1.51222, 34.7715, -1.61577, 0.697179, -35.277, 43.5364, 24.3975, -0.503874, -150, 23.7978, -1.47057, -100, -52.9873, -8.97714, 20, 4.66558e-310, 0, 0, 34.7715, -1.61577, 0.697179, -35.277, 21.7682, 12.1987, 21.7682, 0, 0, 2.83187, 0, 145.098, 0, 0, 72.4291, -5.50535e-05, 0, 0, 0, 0, 0, 0, 0
0.0216897, -0.0274501, 0.742611, 0.0960316, -1.00569, 1.00841, -0.0987482, 0.10956, 0.239946, 1.0004, 0.239953, 1.0004, 0.0122816, -0.0492936, 0.00474835, -0.345027, 0.345027, 3.47427e-11, -2.55593e-11, 0.830824, 0.896491, 0.0223703, 0.897158, 0.0221253, -1.52032, 34.7476, -1.61208, 0.696914, -35.293, 43.5279, 24.396, -0.500684, -150, 22.4786, -1.84394, -100, -53.7105, -8.9805, 20, 4.66558e-310, 0, 0, 34.7476, -1.61208, 0.696914, -35.293, 21.764, 12.198, 21.764, 0, 0, 2.82363, 0, 144.949, 0, 0, 72.3615, -5.18857e-05, 0, 0, 0, 0, 0, 0, 0
0.0218492, -0.027458, 0.742612, 0.0959764, -1.00564, 1.00841, -0.0987482, 0.109693, 0.240089, 1.0004, 0.240096, 1.0004, 0.0120385, -0.0495873, 0.00477388, -0.347081, 0.347081, 3.47428e-11, -2.55593e-11, 0.835754, 0.902552, 0.0222751, 0.903224, 0.0220278, -1.52837, 34.7237, -1.6086, 0.69659, -35.3089, 43.5193, 24.3946, -0.497495, -150, 21.1594, -2.21731, -100, -54.4338, -8.98385, 20, 4.66558e-310, 0, 0, 34.7237, -1.6086, 0.69659, -35.3089, 21.7596, 12.1973, 21.7596, 0, 0, 2.815, 0, 144.8, 0, 0, 72.2942, -4.87824e-05, 0, 0, 0, 0, 0, 0, 0
0.0220087, -0.0274659, 0.742613, 0.0959209, -1.00558, 1.00841, -0.0987482, 0.109826, 0.240234, 1.00041, 0.240241, 1.0004, 0.0117941, -0.0498799, 0.00479926, -0.349127, 0.349127, 3.47428e-11, -2.55593e-11, 0.840667, 0.908603, 0.0221785, 0.90928, 0.0219289, -1.53635, 34.6997, -1.60533, 0.696207, -35.3249, 43.5105, 24.3932, -0.494305, -150, 19.8402, -2.59069, -100, -55.1571, -8.98721, 20, 4.66558e-310, 0, 0, 34.6997, -1.60533, 0.696207, -35.3249, 21.7553, 12.1966, 21.7553, 0, 0, 2.80601, 0, 144.653, 0, 0, 72.2272, -4.57438e-05, 0, 0, 0, 0, 0, 0, 0
0.0221681, -0.0274739, 0.742614, 0.095865, -1.00553, 1.00841, -0.0987482, 0.109961, 0.240379, 1.00041, 0.240386, 1.00041, 0.0115484, -0.0501714, 0.00482448, -0.351166, 0.351166, 3.47428e-11, -2.55593e-11, 0.845561, 0.914645, 0.0220808, 0.915327, 0.0218289, -1.54429, 34.6758, -1.60227, 0.695764, -35.3408, 43.5017, 24.3917, -0.491115, -150, 18.521, -2.96406, -100, -55.8803, -8.99056, 20, 4.66558e-310, 0, 0, 34.6758, -1.60227, 0.695764, -35.3408, 21.7508, 12.1959, 21.7508, 0, 0, 2.79663, 0, 144.506, 0, 0, 72.1606, -4.27701e-05, 0, 0, 0, 0, 0, 0, 0
0.0223276, -0.0274819, 0.742614, 0.0958089, -1.00547, 1.00841, -0.0987482, 0.110096, 0.240525, 1.00041, 0.240533, 1.00041, 0.0113015, -0.0504619, 0.00484955, -0.353197, 0.353197, 3.47428e-11, -2.55593e-11, 0.850437, 0.920676, 0.0219819, 0.921363, 0.0217276, -1.55217, 34.6519, -1.59942, 0.695262, -35.3568, 43.4927, 24.3903, -0.487926, -150, 17.2017, -3.33744, -100, -56.6036, -8.99392, 20, 4.66558e-310, 0, 0, 34.6519, -1.59942, 0.695262, -35.3568, 21.7464, 12.1952, 21.7464, 0, 0, 2.78688, 0, 144.361, 0, 0, 72.0942, -3.98614e-05, 0, 0, 0, 0, 0, 0, 0
0.0224871, -0.02749, 0.742615, 0.0957524, -1.00541, 1.00841, -0.0987482, 0.110232, 0.240673, 1.00042, 0.24068, 1.00041, 0.0110533, -0.0507513, 0.00487447, -0.355221, 0.355221, 3.47427e-11, -2.55593e-11, 0.855295, 0.926697, 0.0218819, 0.927389, 0.0216253, -1.56, 34.628, -1.59679, 0.6947, -35.3727, 43.4836, 24.3889, -0.484736, -150, 15.8825, -3.71081, -100, -57.3269, -8.99727, 20, 4.66558e-310, 0, 0, 34.628, -1.59679, 0.6947, -35.3727, 21.7418, 12.1944, 21.7418, 0, 0, 2.77675, 0, 144.217, 0, 0, 72.0282, -3.70179e-05, 0, 0, 0, 0, 0, 0, 0
0.0226466, -0.0274981, 0.742616, 0.0956956, -1.00536, 1.00841, -0.0987482, 0.110369, 0.240821, 1.00042, 0.240829, 1.00042, 0.0108039, -0.0510397, 0.00489924, -0.357237, 0.357237, 3.47427e-11, -2.55593e-11, 0.860135, 0.932708, 0.021781, 0.933405, 0.021522, -1.56777, 34.6041, -1.59436, 0.694078, -35.3887, 43.4744, 24.3874, -0.481546, -150, 14.5633, -4.08419, -100, -58.0502, -9.00063, 20, 4.66558e-310, 0, 0, 34.6041, -1.59436, 0.694078, -35.3887, 21.7372, 12.1937, 21.7372, 0, 0, 2.76624, 0, 144.073, 0, 0, 71.9626, -3.42399e-05, 0, 0, 0, 0, 0, 0, 0
0.0228061, -0.0275063, 0.742617, 0.0956384, -1.0053, 1.00841, -0.0987482, 0.110506, 0.24097, 1.00042, 0.240978, 1.00042, 0.0105533, -0.0513269, 0.00492386, -0.359246, 0.359246, 3.47427e-11, -2.55593e-11, 0.864958, 0.938709, 0.0216791, 0.939411, 0.0214177, -1.57548, 34.5801, -1.59214, 0.693397, -35.4046, 43.4651, 24.386, -0.478357, -150, 13.2441, -4.45756, -100, -58.7734, -9.00398, 20, 4.66558e-310, 0, 0, 34.5801, -1.59214, 0.693397, -35.4046, 21.7326, 12.193, 21.7326, 0, 0, 2.75535, 0, 143.931, 0, 0, 71.8972, -3.15273e-05, 0, 0, 0, 0, 0, 0, 0
0.0229656, -0.0275145, 0.742617, 0.095581, -1.00524, 1.00841, -0.0987482, 0.110645, 0.24112, 1.00043, 0.241128, 1.00042, 0.0103014, -0.0516132, 0.00494832, -0.361247, 0.361247, 3.47427e-11, -2.55593e-11, 0.869762, 0.9447, 0.0215763, 0.945407, 0.0213126, -1.58315, 34.5562, -1.59013, 0.692656, -35.4206, 43.4557, 24.3846, -0.475167, -150, 11.9249, -4.83094, -100, -59.4967, -9.00734, 20, 4.66558e-310, 0, 0, 34.5562, -1.59013, 0.692656, -35.4206, 21.7278, 12.1923, 21.7278, 0, 0, 2.74409, 0, 143.789, 0, 0, 71.8322, -2.88805e-05, 0, 0, 0, 0, 0, 0, 0
0.023125, -0.0275227, 0.742618, 0.0955232, -1.00518, 1.00841, -0.0987482, 0.110784, 0.241271, 1.00043, 0.24128, 1.00043, 0.0100483, -0.0518983, 0.00497263, -0.363241, 0.363241, 3.47427e-11, -2.55593e-11, 0.874548, 0.95068, 0.0214727, 0.951392, 0.0212067, -1.59075, 34.5323, -1.58834, 0.691856, -35.4365, 43.4461, 24.3831, -0.471977, -150, 10.6057, -5.20431, -100, -60.22, -9.0107, 20, 4.66558e-310, 0, 0, 34.5323, -1.58834, 0.691856, -35.4365, 21.7231, 12.1916, 21.7231, 0, 0, 2.73244, 0, 143.648, 0, 0, 71.7675, -2.62995e-05, 0, 0, 0, 0, 0, 0, 0
0.0232845, -0.027531, 0.742619, 0.0954651, -1.00513, 1.00841, -0.0987482, 0.110924, 0.241424, 1.00043, 0.241432, 1.00043, 0.00979401, -0.0521824, 0.00499679, -0.365227, 0.365227, 3.47427e-11, -2.55593e-11, 0.879316, 0.95665, 0.0213685, 0.957367, 0.0211, -1.59831, 34.5084, -1.58675, 0.690996, -35.4525, 43.4365, 24.3817, -0.468788, -150, 9.28651, -5.57769, -100, -60.9433, -9.01405, 20, 4.66558e-310, 0, 0, 34.5084, -1.58675, 0.690996, -35.4525, 21.7182, 12.1908, 21.7182, 0, 0, 2.72042, 0, 143.509, 0, 0, 71.7031, -2.37846e-05, 0, 0, 0, 0, 0, 0, 0
0.023444, -0.0275394, 0.74262, 0.0954067, -1.00507, 1.00841, -0.0987482, 0.111064, 0.241577, 1.00044, 0.241585, 1.00043, 0.0095385, -0.0524654, 0.0050208, -0.367206, 0.367206, 3.47427e-11, -2.55593e-11, 0.884066, 0.96261, 0.0212636, 0.963332, 0.0209927, -1.60581, 34.4844, -1.58538, 0.690077, -35.4684, 43.4267, 24.3803, -0.465598, -150, 7.96731, -5.95106, -100, -61.6665, -9.01741, 20, 4.66558e-310, 0, 0, 34.4844, -1.58538, 0.690077, -35.4684, 21.7134, 12.1901, 21.7134, 0, 0, 2.70803, 0, 143.37, 0, 0, 71.6391, -2.13358e-05, 0, 0, 0, 0, 0, 0, 0
0.0236035, -0.0275478, 0.742621, 0.095348, -1.00501, 1.00841, -0.0987482, 0.111206, 0.241731, 1.00044, 0.241739, 1.00044, 0.00928181, -0.0527474, 0.00504466, -0.369177, 0.369177, 3.47427e-11, -2.55593e-11, 0.888798, 0.968559, 0.0211581, 0.969286, 0.0208848, -1.61325, 34.4605, -1.58421, 0.689098, -35.4844, 43.4168, 24.3788, -0.462408, -150, 6.6481, -6.32444, -100, -62.3898, -9.02076, 20, 4.66558e-310, 0, 0, 34.4605, -1.58421, 0.689098, -35.4844, 21.7084, 12.1894, 21.7084, 0, 0, 2.69525, 0, 143.232, 0, 0, 71.5754, -1.89534e-05, 0, 0, 0, 0, 0, 0, 0
0.023763, -0.0275562, 0.742621, 0.095289, -1.00495, 1.00841, -0.0987482, 0.111348, 0.241885, 1.00044, 0.241894, 1.00044, 0.00902393, -0.0530282, 0.00506836, -0.371141, 0.371141, 3.47427e-11, -2.55593e-11, 0.893512, 0.974498, 0.0210521, 0.97523, 0.0207765, -1.62064, 34.4366, -1.58325, 0.68806, -35.5003, 43.4068, 24.3774, -0.459219, -150, 5.32889, -6.69781, -100, -63.1131, -9.02412, 20, 4.66558e-310, 0, 0, 34.4366, -1.58325, 0.68806, -35.5003, 21.7034, 12.1887, 21.7034, 0, 0, 2.68209, 0, 143.095, 0, 0, 71.512, -1.66374e-05, 0, 0, 0, 0, 0, 0, 0
0.0239225, -0.0275647, 0.742622, 0.0952296, -1.00489, 1.00841, -0.0987482, 0.111491, 0.242041, 1.00045, 0.24205, 1.00044, 0.00876488, -0.053308, 0.00509191, -0.373097, 0.373097, 3.47427e-11, -2.55593e-11, 0.898208, 0.980426, 0.0209457, 0.981163, 0.0206676, -1.62798, 34.4127, -1.58251, 0.686962, -35.5163, 43.3967, 24.3759, -0.456029, -150, 4.00969, -7.07119, -100, -63.8364, -9.02747, 20, 4.66558e-310, 0, 0, 34.4127, -1.58251, 0.686962, -35.5163, 21.6983, 12.188, 21.6983, 0, 0, 2.66856, 0, 142.96, 0, 0, 71.4489, -1.43882e-05, 0, 0, 0, 0, 0, 0, 0
0.0240819, -0.0275732, 0.742623, 0.0951699, -1.00483, 1.00841, -0.0987482, 0.111634, 0.242198, 1.00045, 0.242207, 1.00045, 0.00850467, -0.0535868, 0.00511531, -0.375046, 0.375046, 3.47427e-11, -2.55593e-11, 0.902886, 0.986344, 0.0208389, 0.987086, 0.0205584, -1.63526, 34.3888, -1.58198, 0.685804, -35.5322, 43.3864, 24.3745, -0.452839, -150, 2.69048, -7.44456, -100, -64.5596, -9.03083, 20, 4.66558e-310, 0, 0, 34.3888, -1.58198, 0.685804, -35.5322, 21.6932, 12.1873, 21.6932, 0, 0, 2.65464, 0, 142.825, 0, 0, 71.3862, -1.22057e-05, 0, 0, 0, 0, 0, 0, 0
0.0242414, -0.0275818, 0.742624, 0.09511, -1.00477, 1.00841, -0.0987482, 0.111779, 0.242356, 1.00045, 0.242365, 1.00045, 0.00824329, -0.0538644, 0.00513856, -0.376987, 0.376987, 3.47427e-11, -2.55593e-11, 0.907546, 0.992251, 0.0207319, 0.992997, 0.020449, -1.64249, 34.3648, -1.58165, 0.684587, -35.5482, 43.3761, 24.3731, -0.44965, -150, 1.37128, -7.81794, -100, -65.2829, -9.03418, 20, 4.66558e-310, 0, 0, 34.3648, -1.58165, 0.684587, -35.5482, 21.688, 12.1865, 21.688, 0, 0, 2.64035, 0, 142.691, 0, 0, 71.3237, -1.00902e-05, 0, 0, 0, 0, 0, 0, 0
0.0244009, -0.0275904, 0.742625, 0.0950497, -1.00471, 1.00841, -0.0987482, 0.111924, 0.242515, 1.00046, 0.242524, 1.00045, 0.00798077, -0.054141, 0.00516165, -0.378921, 0.378921, 3.47427e-11, -2.55593e-11, 0.912188, 0.998147, 0.0206247, 0.998899, 0.0203393, -1.64967, 34.3409, -1.58154, 0.68331, -35.5641, 43.3656, 24.3716, -0.44646, -150, 0.052071, -8.19131, -100, -66.0062, -9.03754, 20, 4.66558e-310, 0, 0, 34.3409, -1.58154, 0.68331, -35.5641, 21.6828, 12.1858, 21.6828, 0, 0, 2.62568, 0, 142.558, 0, 0, 71.2617, -8.04175e-06, 0, 0, 0, 0, 0, 0, 0
0.0245604, -0.027599, 0.742625, 0.0949891, -1.00465, 1.00841, -0.0987482, 0.11207, 0.242674, 1.00046, 0.242684, 1.00046, 0.00771711, -0.0544166, 0.00518459, -0.380847, 0.380847, 3.47427e-11, -2.55593e-11, 0.916812, 1.00403, 0.0205173, 1.00479, 0.0202295, -1.65679, 34.317, -1.58164, 0.681974, -35.58, 43.355, 24.3702, -0.443271, -150, -1.26714, -8.56469, -100, -66.7294, -9.0409, 20, 4.66558e-310, 0, 0, 34.317, -1.58164, 0.681974, -35.58, 21.6775, 12.1851, 21.6775, 0, 0, 2.61063, 0, 142.426, 0, 0, 71.1999, -6.06059e-06, 0, 0, 0, 0, 0, 0, 0
0.0247199, -0.0276077, 0.742626, 0.0949282, -1.00459, 1.00841, -0.0987482, 0.112216, 0.242835, 1.00046, 0.242844, 1.00046, 0.00745232, -0.054691, 0.00520738, -0.382766, 0.382766, 3.47427e-11, -2.55593e-11, 0.921418, 1.00991, 0.0204098, 1.01067, 0.0201195, -1.66385, 34.2931, -1.58194, 0.680579, -35.596, 43.3443, 24.3687, -0.440081, -150, -2.58634, -8.93806, -100, -67.4527, -9.04425, 20, 4.66558e-310, 0, 0, 34.2931, -1.58194, 0.680579, -35.596, 21.6722, 12.1844, 21.6722, 0, 0, 2.5952, 0, 142.295, 0, 0, 71.1384, -4.14682e-06, 0, 0, 0, 0, 0, 0, 0
0.0248794, -0.0276165, 0.742627, 0.094867, -1.00453, 1.00841, -0.0987482, 0.112363, 0.242996, 1.00047, 0.243006, 1.00046, 0.0071864, -0.0549644, 0.00523001, -0.384677, 0.384677, 3.47427e-11, -2.55593e-11, 0.926005, 1.01577, 0.0203024, 1.01654, 0.0200096, -1.67087, 34.2691, -1.58246, 0.679123, -35.6119, 43.3335, 24.3673, -0.436891, -150, -3.90555, -9.31144, -100, -68.176, -9.04761, 20, 4.66558e-310, 0, 0, 34.2691, -1.58246, 0.679123, -35.6119, 21.6668, 12.1836, 21.6668, 0, 0, 2.57939, 0, 142.164, 0, 0, 71.0773, -2.30059e-06, 0, 0, 0, 0, 0, 0, 0
0.0250388, -0.0276253, 0.742628, 0.0948055, -1.00447, 1.00841, -0.0987482, 0.112511, 0.243159, 1.00047, 0.243169, 1.00047, 0.00691937, -0.0552367, 0.00525249, -0.38658, 0.38658, 3.47427e-11, -2.55593e-11, 0.930575, 1.02162, 0.020195, 1.0224, 0.0198998, -1.67782, 34.2452, -1.58319, 0.677609, -35.6279, 43.3226, 24.3658, -0.433702, -150, -5.22475, -9.68481, -100, -68.8993, -9.05096, 20, 4.66558e-310, 0, 0, 34.2452, -1.58319, 0.677609, -35.6279, 21.6613, 12.1829, 21.6613, 0, 0, 2.5632, 0, 142.035, 0, 0, 71.0165, -5.22052e-07, 0, 0, 0, 0, 0, 0, 0
0.0251983, -0.0276341, 0.742629, 0.0947437, -1.0044, 1.00841, -0.0987482, 0.11266, 0.243322, 1.00047, 0.243332, 1.00047, 0.00665123, -0.0555079, 0.00527482, -0.388476, 0.388476, 3.47426e-11, -2.55593e-11, 0.935127, 1.02747, 0.0200878, 1.02824, 0.0197901, -1.68473, 34.2213, -1.58413, 0.676034, -35.6438, 43.3115, 24.3644, -0.430512, -150, -6.54396, -10.0582, -100, -69.6225, -9.05432, 20, 4.66558e-310, 0, 0, 34.2213, -1.58413, 0.676034, -35.6438, 21.6558, 12.1822, 21.6558, 0, 0, 2.54663, 0, 141.907, 0, 0, 70.956, 1.18866e-06, 0, 0, 0, 0, 0, 0, 0
0.0253578, -0.027643, 0.74263, 0.0946816, -1.00434, 1.00841, -0.0987482, 0.11281, 0.243487, 1.00048, 0.243497, 1.00047, 0.006382, -0.055778, 0.005297, -0.390364, 0.390364, 3.47426e-11, -2.55593e-11, 0.939661, 1.0333, 0.0199808, 1.03408, 0.0196806, -1.69158, 34.1974, -1.58528, 0.6744, -35.6598, 43.3004, 24.363, -0.427322, -150, -7.86316, -10.4316, -100, -70.3458, -9.05767, 20, 4.66558e-310, 0, 0, 34.1974, -1.58528, 0.6744, -35.6598, 21.6502, 12.1815, 21.6502, 0, 0, 2.52968, 0, 141.78, 0, 0, 70.8958, 2.83142e-06, 0, 0, 0, 0, 0, 0, 0
0.0255173, -0.0276519, 0.742631, 0.0946192, -1.00428, 1.00841, -0.0987482, 0.11296, 0.243652, 1.00048, 0.243662, 1.00048, 0.00611168, -0.0560471, 0.00531902, -0.392245, 0.392245, 3.47426e-11, -2.55593e-11, 0.944177, 1.03912, 0.0198741, 1.0399, 0.0195714, -1.69838, 34.1734, -1.58663, 0.672707, -35.6757, 43.2891, 24.3615, -0.424133, -150, -9.18237, -10.8049, -100, -71.0691, -9.06103, 20, 4.66558e-310, 0, 0, 34.1734, -1.58663, 0.672707, -35.6757, 21.6446, 12.1808, 21.6446, 0, 0, 2.51235, 0, 141.653, 0, 0, 70.836, 4.40607e-06, 0, 0, 0, 0, 0, 0, 0
0.0256768, -0.0276609, 0.742631, 0.0945565, -1.00422, 1.00841, -0.0987482, 0.113111, 0.243818, 1.00048, 0.243828, 1.00048, 0.00584028, -0.056315, 0.00534089, -0.394118, 0.394118, 3.47426e-11, -2.55593e-11, 0.948675, 1.04493, 0.0197678, 1.04572, 0.0194626, -1.70512, 34.1495, -1.5882, 0.670954, -35.6917, 43.2777, 24.3601, -0.420943, -150, -10.5016, -11.1783, -100, -71.7924, -9.06438, 20, 4.66558e-310, 0, 0, 34.1495, -1.5882, 0.670954, -35.6917, 21.6389, 12.18, 21.6389, 0, 0, 2.49464, 0, 141.528, 0, 0, 70.7765, 5.91248e-06, 0, 0, 0, 0, 0, 0, 0
0.0258363, -0.0276699, 0.742632, 0.0944935, -1.00415, 1.00841, -0.0987482, 0.113263, 0.243985, 1.00049, 0.243995, 1.00048, 0.0055678, -0.0565819, 0.0053626, -0.395983, 0.395983, 3.47426e-11, -2.55593e-11, 0.953154, 1.05072, 0.0196619, 1.05152, 0.0193541, -1.71181, 34.1256, -1.58998, 0.669141, -35.7076, 43.2662, 24.3586, -0.417753, -150, -11.8208, -11.5517, -100, -72.5156, -9.06774, 20, 4.66558e-310, 0, 0, 34.1256, -1.58998, 0.669141, -35.7076, 21.6331, 12.1793, 21.6331, 0, 0, 2.47656, 0, 141.403, 0, 0, 70.7173, 7.35052e-06, 0, 0, 0, 0, 0, 0, 0
0.0259957, -0.0276789, 0.742633, 0.0944302, -1.00409, 1.00841, -0.0987482, 0.113415, 0.244153, 1.00049, 0.244164, 1.00049, 0.00529427, -0.0568478, 0.00538416, -0.397841, 0.397841, 3.47426e-11, -2.55593e-11, 0.957616, 1.05651, 0.0195565, 1.05731, 0.0192462, -1.71845, 34.1017, -1.59197, 0.667269, -35.7236, 43.2546, 24.3572, -0.414564, -150, -13.14, -11.9251, -100, -73.2389, -9.07109, 20, 4.66558e-310, 0, 0, 34.1017, -1.59197, 0.667269, -35.7236, 21.6273, 12.1786, 21.6273, 0, 0, 2.45809, 0, 141.28, 0, 0, 70.6584, 8.72005e-06, 0, 0, 0, 0, 0, 0, 0
0.0261552, -0.027688, 0.742634, 0.0943666, -1.00403, 1.00841, -0.0987482, 0.113568, 0.244322, 1.00049, 0.244333, 1.00049, 0.00501968, -0.0571125, 0.00540557, -0.399692, 0.399692, 3.47426e-11, -2.55593e-11, 0.96206, 1.06229, 0.0194517, 1.06309, 0.0191389, -1.72503, 34.0778, -1.59418, 0.665338, -35.7395, 43.2428, 24.3557, -0.411374, -150, -14.4592, -12.2984, -100, -73.9622, -9.07445, 20, 4.66558e-310, 0, 0, 34.0778, -1.59418, 0.665338, -35.7395, 21.6214, 12.1779, 21.6214, 0, 0, 2.43923, 0, 141.157, 0, 0, 70.5998, 1.00209e-05, 0, 0, 0, 0, 0, 0, 0
0.0263147, -0.0276971, 0.742635, 0.0943027, -1.00396, 1.00841, -0.0987482, 0.113722, 0.244492, 1.0005, 0.244503, 1.00049, 0.00474405, -0.0573762, 0.00542683, -0.401534, 0.401534, 3.47426e-11, -2.55593e-11, 0.966486, 1.06805, 0.0193475, 1.06886, 0.0190322, -1.73156, 34.0538, -1.59659, 0.663347, -35.7555, 43.231, 24.3543, -0.408184, -150, -15.7784, -12.6718, -100, -74.6854, -9.07781, 20, 4.66558e-310, 0, 0, 34.0538, -1.59659, 0.663347, -35.7555, 21.6155, 12.1771, 21.6155, 0, 0, 2.42, 0, 141.036, 0, 0, 70.5416, 1.12531e-05, 0, 0, 0, 0, 0, 0, 0
0.0264742, -0.0277063, 0.742636, 0.0942385, -1.0039, 1.00841, -0.0987482, 0.113876, 0.244663, 1.0005, 0.244674, 1.00049, 0.00446737, -0.0576387, 0.00544793, -0.403369, 0.403369, 3.47426e-11, -2.55593e-11, 0.970893, 1.0738, 0.0192441, 1.07462, 0.0189262, -1.73804, 34.0299, -1.59921, 0.661296, -35.7714, 43.219, 24.3528, -0.404995, -150, -17.0976, -13.0452, -100, -75.4087, -9.08116, 20, 4.66558e-310, 0, 0, 34.0299, -1.59921, 0.661296, -35.7714, 21.6095, 12.1764, 21.6095, 0, 0, 2.40039, 0, 140.915, 0, 0, 70.4836, 1.24163e-05, 0, 0, 0, 0, 0, 0, 0
0.0266337, -0.0277155, 0.742637, 0.0941741, -1.00383, 1.00841, -0.0987482, 0.114031, 0.244835, 1.0005, 0.244845, 1.0005, 0.00418967, -0.0579002, 0.00546888, -0.405197, 0.405197, 3.47426e-11, -2.55593e-11, 0.975283, 1.07955, 0.0191414, 1.08037, 0.018821, -1.74446, 34.006, -1.60204, 0.659186, -35.7874, 43.2069, 24.3514, -0.401805, -150, -18.4168, -13.4186, -100, -76.132, -9.08452, 20, 4.66558e-310, 0, 0, 34.006, -1.60204, 0.659186, -35.7874, 21.6035, 12.1757, 21.6035, 0, 0, 2.3804, 0, 140.795, 0, 0, 70.426, 1.35105e-05, 0, 0, 0, 0, 0, 0, 0
0.0267932, -0.0277248, 0.742637, 0.0941093, -1.00377, 1.00841, -0.0987482, 0.114187, 0.245007, 1.0005, 0.245018, 1.0005, 0.00391095, -0.0581606, 0.00548967, -0.407017, 0.407017, 3.47426e-11, -2.55593e-11, 0.979655, 1.08528, 0.0190396, 1.0861, 0.0187166, -1.75083, 33.9821, -1.60508, 0.657016, -35.8033, 43.1947, 24.3499, -0.398615, -150, -19.736, -13.7919, -100, -76.8553, -9.08787, 20, 4.66558e-310, 0, 0, 33.9821, -1.60508, 0.657016, -35.8033, 21.5974, 12.175, 21.5974, 0, 0, 2.36002, 0, 140.676, 0, 0, 70.3687, 1.45356e-05, 0, 0, 0, 0, 0, 0, 0
0.0269526, -0.0277341, 0.742638, 0.0940442, -1.00371, 1.00841, -0.0987482, 0.114344, 0.245181, 1.00051, 0.245192, 1.0005, 0.00363122, -0.0584199, 0.00551032, -0.408829, 0.408829, 3.47426e-11, -2.55593e-11, 0.984008, 1.09099, 0.0189388, 1.09182, 0.0186132, -1.75714, 33.9581, -1.60834, 0.654786, -35.8193, 43.1824, 24.3485, -0.395426, -150, -21.0552, -14.1653, -100, -77.5785, -9.09123, 20, 4.66558e-310, 0, 0, 33.9581, -1.60834, 0.654786, -35.8193, 21.5912, 12.1742, 21.5912, 0, 0, 2.33927, 0, 140.558, 0, 0, 70.3118, 1.54914e-05, 0, 0, 0, 0, 0, 0, 0
0.0271121, -0.0277434, 0.742639, 0.0939789, -1.00364, 1.00841, -0.0987482, 0.114501, 0.245355, 1.00051, 0.245366, 1.00051, 0.00335049, -0.0586782, 0.0055308, -0.410634, 0.410634, 3.47426e-11, -2.55593e-11, 0.988344, 1.0967, 0.0188389, 1.09754, 0.0185108, -1.76341, 33.9342, -1.6118, 0.652497, -35.8352, 43.17, 24.347, -0.392236, -150, -22.3744, -14.5387, -100, -78.3018, -9.09458, 20, 4.66558e-310, 0, 0, 33.9342, -1.6118, 0.652497, -35.8352, 21.585, 12.1735, 21.585, 0, 0, 2.31813, 0, 140.441, 0, 0, 70.2551, 1.63779e-05, 0, 0, 0, 0, 0, 0, 0
0.0272716, -0.0277528, 0.74264, 0.0939133, -1.00357, 1.00841, -0.0987482, 0.114659, 0.245531, 1.00051, 0.245542, 1.00051, 0.00306876, -0.0589353, 0.00555114, -0.41243, 0.41243, 3.47426e-11, -2.55593e-11, 0.992661, 1.1024, 0.0187402, 1.10324, 0.0184094, -1.76962, 33.9103, -1.61547, 0.650149, -35.8512, 43.1574, 24.3456, -0.389046, -150, -23.6936, -14.9121, -100, -79.0251, -9.09794, 20, 4.66558e-310, 0, 0, 33.9103, -1.61547, 0.650149, -35.8512, 21.5787, 12.1728, 21.5787, 0, 0, 2.29661, 0, 140.325, 0, 0, 70.1988, 1.71948e-05, 0, 0, 0, 0, 0, 0, 0
0.0274311, -0.0277622, 0.742641, 0.0938473, -1.00351, 1.00841, -0.0987482, 0.114818, 0.245707, 1.00052, 0.245718, 1.00051, 0.00278604, -0.0591913, 0.00557132, -0.41422, 0.41422, 3.47426e-11, -2.55593e-11, 0.996961, 1.10808, 0.0186425, 1.10893, 0.0183092, -1.77577, 33.8864, -1.61936, 0.647741, -35.8671, 43.1448, 24.3441, -0.385857, -150, -25.0128, -15.2854, -100, -79.7484, -9.10129, 20, 0, 0, 0, 33.8864, -1.61936, 0.647741, -35.8671, 21.5724, 12.1721, 21.5724, 0, 0, 2.27472, 0, 140.21, 0, 0, 70.1428, 1.79421e-05, 0, 0, 0, 0, 0, 0, 0
0.0275906, -0.0277717, 0.742642, 0.0937811, -1.00344, 1.00841, -0.0987482, 0.114977, 0.245884, 1.00052, 0.245896, 1.00052, 0.00250235, -0.0594463, 0.00559135, -0.416001, 0.416001, 3.47426e-11, -2.55593e-11, 1.00124, 1.11375, 0.0185461, 1.1146, 0.0182101, -1.78187, 33.8625, -1.62345, 0.645273, -35.8831, 43.132, 24.3427, -0.382667, -150, -26.332, -15.6588, -100, -80.4716, -9.10465, 20, 0, 0, 0, 33.8625, -1.62345, 0.645273, -35.8831, 21.566, 12.1713, 21.566, 0, 0, 2.25243, 0, 140.096, 0, 0, 70.087, 1.86196e-05, 0, 0, 0, 0, 0, 0, 0
0.0277501, -0.0277812, 0.742643, 0.0937146, -1.00338, 1.00841, -0.0987482, 0.115137, 0.246062, 1.00052, 0.246074, 1.00052, 0.00221769, -0.0597002, 0.00561122, -0.417775, 0.417775, 3.47426e-11, -2.55593e-11, 1.00551, 1.11941, 0.018451, 1.12027, 0.0181124, -1.78792, 33.8385, -1.62776, 0.642746, -35.899, 43.1191, 24.3412, -0.379477, -150, -27.6513, -16.0322, -100, -81.1949, -9.108, 20, 0, 0, 0, 33.8385, -1.62776, 0.642746, -35.899, 21.5596, 12.1706, 21.5596, 0, 0, 2.22977, 0, 139.983, 0, 0, 70.0317, 1.92274e-05, 0, 0, 0, 0, 0, 0, 0
0.0279095, -0.0277907, 0.742644, 0.0936479, -1.00331, 1.00841, -0.0987482, 0.115298, 0.246241, 1.00053, 0.246253, 1.00052, 0.00193207, -0.059953, 0.00563094, -0.419542, 0.419542, 3.47426e-11, -2.55593e-11, 1.00975, 1.12506, 0.0183572, 1.12592, 0.018016, -1.79392, 33.8146, -1.63227, 0.64016, -35.915, 43.1061, 24.3398, -0.376288, -150, -28.9705, -16.4056, -100, -81.9182, -9.11136, 20, 0, 0, 0, 33.8146, -1.63227, 0.64016, -35.915, 21.5531, 12.1699, 21.5531, 0, 0, 2.20673, 0, 139.87, 0, 0, 69.9766, 1.97651e-05, 0, 0, 0, 0, 0, 0, 0
0.028069, -0.0278003, 0.742645, 0.0935808, -1.00324, 1.00841, -0.0987482, 0.115459, 0.246421, 1.00053, 0.246433, 1.00052, 0.00164549, -0.0602046, 0.00565051, -0.4213, 0.4213, 3.47426e-11, -2.55593e-11, 1.01398, 1.1307, 0.0182649, 1.13156, 0.017921, -1.79986, 33.7907, -1.637, 0.637514, -35.9309, 43.093, 24.3383, -0.373098, -150, -30.2897, -16.7789, -100, -82.6414, -9.11472, 20, 0, 0, 0, 33.7907, -1.637, 0.637514, -35.9309, 21.5465, 12.1692, 21.5465, 0, 0, 2.1833, 0, 139.759, 0, 0, 69.9218, 2.02328e-05, 0, 0, 0, 0, 0, 0, 0
0.0282285, -0.0278099, 0.742645, 0.0935135, -1.00317, 1.00841, -0.0987482, 0.115621, 0.246602, 1.00053, 0.246614, 1.00053, 0.00135797, -0.0604552, 0.00566992, -0.423051, 0.423051, 3.47426e-11, -2.55593e-11, 1.01819, 1.13632, 0.0181741, 1.13719, 0.0178276, -1.80575, 33.7668, -1.64193, 0.634808, -35.9469, 43.0798, 24.3369, -0.369908, -150, -31.6089, -17.1523, -100, -83.3647, -9.11807, 20, 0, 0, 0, 33.7668, -1.64193, 0.634808, -35.9469, 21.5399, 12.1684, 21.5399, 0, 0, 2.15949, 0, 139.648, 0, 0, 69.8674, 2.06303e-05, 0, 0, 0, 0, 0, 0, 0
