flxalr/sts-optimization-reemc/input/498_166/pos.csv
time;base_link_tx;base_link_ty;base_link_tz;base_link_rz;base_link_ry;base_link_rx;leg_left_1_joint;leg_left_2_joint;leg_left_3_joint;leg_left_4_joint;leg_left_5_joint;leg_left_6_joint;leg_right_1_joint;leg_right_2_joint;leg_right_3_joint;leg_right_4_joint;leg_right_5_joint;leg_right_6_joint;torso_1_joint;torso_2_joint;arm_left_1_joint;arm_left_2_joint;arm_left_3_joint;arm_left_4_joint;arm_left_5_joint;arm_left_6_joint;arm_left_7_joint;arm_right_1_joint;arm_right_2_joint;arm_right_3_joint;arm_right_4_joint;arm_right_5_joint;arm_right_6_joint;arm_right_7_joint;head_1_joint;head_2_joint
0.0;-0.1761015580284679;-0.07060417460033042;0.750083820248007;0.002559913031917744;0.12213418631814825;-0.006148128151411082;-0.0014965911258334158;-9.527892906483729e-06;-1.0096594849105114;1.0084072507818065;-0.09875854921546807;9.507952790004623e-06;-0.0015100123380749279;9.49798273176556e-06;-1.009655589981431;1.0084060407641582;-0.09875459749008776;-9.517922848244341e-06;7.670005675801395e-06;0.10000920400681096;0.22997745018331314;0.13015509825277272;2.8857629354561712e-05;0.9999607387749468;-5.4785514709910704e-05;-9.130919118318449e-06;2.739275735495535e-05;0.2300388102287196;0.12992499808249858;4.4197640706178376e-05;1.000053622543681;6.391643382822915e-05;-3.6523676473273796e-05;-2.739275735495535e-05;-0.005313147336269974;0.043710390880145056
0.019866466522216797;-0.17605472268464872;-0.07066923356864958;0.7500886878604045;0.0027413918379050224;0.12217994234995903;-0.00610221704461901;-0.0014965911258334158;-9.527892906483729e-06;-1.0096594849105114;1.0084072507818065;-0.09875854921546807;9.507952790004623e-06;-0.0015100123380749279;9.49798273176556e-06;-1.009655589981431;1.0084060407641582;-0.09875459749008776;-9.517922848244341e-06;7.670005675801395e-06;0.10000920400681096;0.22997745018331314;0.13015509825277272;2.8857629354561712e-05;0.9999607387749468;-5.4785514709910704e-05;-9.130919118318449e-06;2.739275735495535e-05;0.2300388102287196;0.12992499808249858;4.4197640706178376e-05;1.000053622543681;6.391643382822915e-05;-3.6523676473273796e-05;-2.739275735495535e-05;-0.005313147336269974;0.043710390880145056
0.039989471435546875;-0.17597965670278326;-0.07073239989655708;0.7501003490470701;0.002699569280377643;0.12228482036216422;-0.006004376758090753;-0.0014965911258334158;-9.527892906483729e-06;-1.0096594849105114;1.0084072507818065;-0.09875854921546807;9.507952790004623e-06;-0.0015100123380749279;9.49798273176556e-06;-1.009655589981431;1.0084060407641582;-0.09875459749008776;-9.517922848244341e-06;7.670005675801395e-06;0.10000920400681096;0.22997745018331314;0.13015509825277272;2.8857629354561712e-05;0.9999607387749468;-5.4785514709910704e-05;-9.130919118318449e-06;2.739275735495535e-05;0.2300388102287196;0.12992499808249858;4.4197640706178376e-05;1.000053622543681;7.304735294654759e-05;-3.6523676473273796e-05;-2.739275735495535e-05;-0.005313147336269974;0.043710390880145056
0.0598454475402832;-0.17608289129414886;-0.07075110454416729;0.7500743577860569;0.0027729519592560306;0.12214033559406876;-0.005996783083523908;-0.0014965911258334158;-9.527892906483729e-06;-1.0096594849105114;1.0084072507818065;-0.09875854921546807;9.507952790004623e-06;-0.0015100123380749279;9.49798273176556e-06;-1.009655589981431;1.0084060407641582;-0.09875459749008776;-9.517922848244341e-06;7.670005675801395e-06;0.10000920400681096;0.22997745018331314;0.1301397582414211;2.8857629354561712e-05;0.9999607387749468;-5.4785514709910704e-05;-9.130919118318449e-06;2.739275735495535e-05;0.2300388102287196;0.12992499808249858;4.4197640706178376e-05;1.000053622543681;7.304735294654759e-05;-3.6523676473273796e-05;-2.739275735495535e-05;-0.005313147336269974;0.043710390880145056
0.08004927635192871;-0.1761187367397315;-0.07066145613330052;0.7500743928406137;0.0028544961085763734;0.12208360792850681;-0.006140798324737358;-0.0014965911258334158;-9.527892906483729e-06;-1.0096594849105114;1.0084072507818065;-0.09875854921546807;9.507952790004623e-06;-0.0015100123380749279;9.49798273176556e-06;-1.009655589981431;1.0084060407641582;-0.09875459749008776;-9.517922848244341e-06;7.670005675801395e-06;0.10000920400681096;0.22997745018331314;0.13009373820736625;2.8857629354561712e-05;0.9999607387749468;-5.4785514709910704e-05;-9.130919118318449e-06;2.739275735495535e-05;0.22996211017196155;0.12992499808249858;4.4197640706178376e-05;1.000038282532329;6.391643382822915e-05;-3.195821691411457e-05;-3.195821691411457e-05;-0.005313147336269974;0.043710390880145056
0.09981584548950195;-0.1759399105925571;-0.07069259300658007;0.750113425265527;0.002846826743230956;0.12232313162901903;-0.0060951589283030775;-0.0014965911258334158;-9.527892906483729e-06;-1.0096594849105114;1.0084072507818065;-0.09875854921546807;9.507952790004623e-06;-0.0015100123380749279;9.49798273176556e-06;-1.009655589981431;1.0084060407641582;-0.09875459749008776;-9.517922848244341e-06;7.670005675801395e-06;0.10000920400681096;0.22997745018331314;0.13001703815060828;2.8857629354561712e-05;0.9999607387749468;-5.4785514709910704e-05;-9.130919118318449e-06;2.739275735495535e-05;0.22996211017196155;0.12992499808249858;4.4197640706178376e-05;1.000038282532329;6.391643382822915e-05;-3.6523676473273796e-05;-2.739275735495535e-05;-0.005313147336269974;0.043710390880145056
0.11984515190124512;-0.17586389699212807;-0.07063011993628132;0.7501371351302513;0.0029007751727810863;0.12241852657439455;-0.006194402314306915;-0.0014965911258334158;-9.527892906483729e-06;-1.0096594849105114;1.0084072507818065;-0.09875854921546807;9.507952790004623e-06;-0.0015100123380749279;9.49798273176556e-06;-1.009655589981431;1.0084060407641582;-0.09875459749008776;-9.517922848244341e-06;7.670005675801395e-06;0.10000920400681096;0.22997745018331314;0.12992499808249858;2.8857629354561712e-05;0.9999607387749468;-5.4785514709910704e-05;-9.130919118318449e-06;2.739275735495535e-05;0.2299467701606099;0.12992499808249858;4.4197640706178376e-05;1.000038282532329;6.391643382822915e-05;-3.6523676473273796e-05;-2.739275735495535e-05;-0.005313147336269974;0.043710390880145056
0.13994932174682617;-0.17592790101378072;-0.0707218363209716;0.7501134854948068;0.0029950967311112506;0.12232520338089038;-0.006090785525985946;-0.0014965911258334158;-9.527892906483729e-06;-1.0096594849105114;1.0084072507818065;-0.09875854921546807;9.507952790004623e-06;-0.0015100123380749279;9.49798273176556e-06;-1.009655589981431;1.0084060407641582;-0.09875459749008776;-9.517922848244341e-06;7.670005675801395e-06;0.10000920400681096;0.22997745018331314;0.12992499808249858;2.8857629354561712e-05;0.9999607387749468;-5.4785514709910704e-05;-9.130919118318449e-06;2.739275735495535e-05;0.2299467701606099;0.12992499808249858;4.4197640706178376e-05;1.000038282532329;7.304735294654759e-05;-3.6523676473273796e-05;-2.739275735495535e-05;-0.005313147336269974;0.04217450113839005
0.16000032424926758;-0.17598007036171337;-0.07077300881706297;0.7500964215801584;0.0030285318018122443;0.12225303166547395;-0.006028373134564745;-0.0014965911258334158;-9.527892906483729e-06;-1.0096594849105114;1.0084072507818065;-0.09875854921546807;9.507952790004623e-06;-0.0015100123380749279;9.49798273176556e-06;-1.009655589981431;1.0084060407641582;-0.09875459749008776;-9.517922848244341e-06;7.670005675801395e-06;0.10000920400681096;0.22997745018331314;0.12992499808249858;2.8857629354561712e-05;0.9999607387749468;-5.4785514709910704e-05;-9.130919118318449e-06;2.739275735495535e-05;0.2299467701606099;0.12992499808249858;4.4197640706178376e-05;1.000038282532329;7.304735294654759e-05;-3.6523676473273796e-05;-2.739275735495535e-05;-0.005313147336269974;0.043710390880145056
0.1799452304840088;-0.17600672928587924;-0.07084705566636157;0.7500831764267127;0.00295770692582024;0.12222519767998234;-0.005908808089905579;-0.0014965911258334158;-9.527892906483729e-06;-1.0096594849105114;1.0084072507818065;-0.09875854921546807;9.507952790004623e-06;-0.0015100123380749279;9.49798273176556e-06;-1.009655589981431;1.0084060407641582;-0.09875459749008776;-9.517922848244341e-06;7.670005675801395e-06;0.10000920400681096;0.22997745018331314;0.12992499808249858;2.8857629354561712e-05;0.9999607387749468;-5.4785514709910704e-05;-9.130919118318449e-06;2.739275735495535e-05;0.2299467701606099;0.12992499808249858;4.4197640706178376e-05;1.000038282532329;6.391643382822915e-05;-3.6523676473273796e-05;-2.739275735495535e-05;-0.005313147336269974;0.043710390880145056
0.19996094703674316;-0.17601152991260266;-0.07092583463046369;0.7500746049085314;0.0029530667667256125;0.12222018138395775;-0.005798735882715126;-0.0014965911258334158;-9.527892906483729e-06;-1.0096594849105114;1.0084072507818065;-0.09875854921546807;9.507952790004623e-06;-0.0015100123380749279;9.49798273176556e-06;-1.009655589981431;1.0084060407641582;-0.09875459749008776;-9.517922848244341e-06;7.670005675801395e-06;0.10000920400681096;0.22997745018331314;0.12992499808249858;2.8857629354561712e-05;0.9999607387749468;-5.4785514709910704e-05;-9.130919118318449e-06;2.739275735495535e-05;0.2299467701606099;0.12992499808249858;4.4197640706178376e-05;1.000038282532329;6.391643382822915e-05;-3.6523676473273796e-05;-2.739275735495535e-05;-0.005313147336269974;0.04217450113839005
0.21991753578186035;-0.17596309348548178;-0.07091024057485337;0.7500874436500912;0.0027537340707909927;0.12230383958412143;-0.005771537279833189;-0.0014965911258334158;-9.527892906483729e-06;-1.0096594849105114;1.0084072507818065;-0.09875854921546807;9.507952790004623e-06;-0.0015100123380749279;9.49798273176556e-06;-1.009655589981431;1.0084060407641582;-0.09875459749008776;-9.517922848244341e-06;0.0;0.10001687401248677;0.22997745018331314;0.12992499808249858;2.8857629354561712e-05;0.9999607387749468;-5.4785514709910704e-05;-9.130919118318449e-06;2.739275735495535e-05;0.2299467701606099;0.12992499808249858;4.4197640706178376e-05;1.000038282532329;6.391643382822915e-05;-3.6523676473273796e-05;-2.739275735495535e-05;-0.005313147336269974;0.043710390880145056
0.23987460136413574;-0.17596458833542297;-0.07091502368250793;0.7500866407802148;0.00268948250441981;0.12230811764727446;-0.005749272414214456;-0.0014965911258334158;-9.527892906483729e-06;-1.0096594849105114;1.0084072507818065;-0.09875854921546807;9.507952790004623e-06;-0.0015100123380749279;9.49798273176556e-06;-1.009655589981431;1.0084060407641582;-0.09875459749008776;-9.517922848244341e-06;0.0;0.10001687401248677;0.22997745018331314;0.12992499808249858;2.8857629354561712e-05;0.9999607387749468;-5.4785514709910704e-05;-9.130919118318449e-06;2.739275735495535e-05;0.2299467701606099;0.12992499808249858;4.4197640706178376e-05;1.000038282532329;7.304735294654759e-05;-3.6523676473273796e-05;-2.739275735495535e-05;-0.005313147336269974;0.043710390880145056
0.2598731517791748;-0.17599354660031682;-0.0709638972810199;0.7500752245252631;0.0028525121041303616;0.12225433584857494;-0.005721510742243522;-0.0014965911258334158;-9.527892906483729e-06;-1.0096594849105114;1.0084072507818065;-0.09875854921546807;9.507952790004623e-06;-0.0015100123380749279;9.49798273176556e-06;-1.009655589981431;1.0084060407641582;-0.09875459749008776;-9.517922848244341e-06;0.0;0.10001687401248677;0.22997745018331314;0.12992499808249858;2.8857629354561712e-05;0.9999607387749468;-5.4785514709910704e-05;-9.130919118318449e-06;2.739275735495535e-05;0.2299467701606099;0.12992499808249858;4.4197640706178376e-05;1.000038282532329;7.304735294654759e-05;-3.6523676473273796e-05;-2.739275735495535e-05;-0.005313147336269974;0.043710390880145056
0.2798309326171875;-0.1760127941583286;-0.07091089045265063;0.7500757211886562;0.0028535385672179853;0.12222793713205503;-0.0057951524464339745;-0.0014965911258334158;-9.527892906483729e-06;-1.0096594849105114;1.0084072507818065;-0.09875854921546807;9.507952790004623e-06;-0.0015100123380749279;9.49798273176556e-06;-1.009655589981431;1.0084060407641582;-0.09875459749008776;-9.517922848244341e-06;0.0;0.10001687401248677;0.22997745018331314;0.12992499808249858;2.8857629354561712e-05;0.9999607387749468;-5.4785514709910704e-05;-9.130919118318449e-06;2.739275735495535e-05;0.2299467701606099;0.12992499808249858;4.4197640706178376e-05;1.000038282532329;6.391643382822915e-05;-3.6523676473273796e-05;-2.739275735495535e-05;-0.005313147336269974;0.043710390880145056
0.2998659610748291;-0.17601518845783132;-0.07089270490733027;0.7500768783477927;0.0028963050212170672;0.12222039390779783;-0.00583073843109895;-0.0014965911258334158;-9.527892906483729e-06;-1.0096594849105114;1.0084072507818065;-0.09875854921546807;9.507952790004623e-06;-0.0015100123380749279;9.49798273176556e-06;-1.009655589981431;1.0084060407641582;-0.09875459749008776;-9.517922848244341e-06;0.0;0.10001687401248677;0.22997745018331314;0.12992499808249858;2.8857629354561712e-05;0.9999607387749468;-5.4785514709910704e-05;-9.130919118318449e-06;2.739275735495535e-05;0.2299467701606099;0.12992499808249858;4.4197640706178376e-05;1.000038282532329;6.391643382822915e-05;-3.6523676473273796e-05;-2.739275735495535e-05;-0.005313147336269974;0.043710390880145056
0.319913387298584;-0.17600295232997804;-0.0708979685038637;0.7500792521074353;0.0030535217803022096;0.12222158176403548;-0.00586172692312333;-0.0014965911258334158;-9.527892906483729e-06;-1.0096594849105114;1.0084072507818065;-0.09875854921546807;9.507952790004623e-06;-0.0015100123380749279;9.49798273176556e-06;-1.009655589981431;1.0084060407641582;-0.09875459749008776;-9.517922848244341e-06;0.0;0.10001687401248677;0.22997745018331314;0.12992499808249858;2.8857629354561712e-05;0.9999607387749468;-5.4785514709910704e-05;-9.130919118318449e-06;2.739275735495535e-05;0.2299467701606099;0.12992499808249858;4.4197640706178376e-05;1.000038282532329;6.391643382822915e-05;-3.6523676473273796e-05;-2.739275735495535e-05;-0.005313147336269974;0.043710390880145056
0.33997130393981934;-0.17608768450105294;-0.07085247569964465;0.7500636637400733;0.0030011996191421928;0.122113129842553;-0.005912248056885048;-0.0014965911258334158;-9.527892906483729e-06;-1.0096594849105114;1.0084072507818065;-0.09875854921546807;9.507952790004623e-06;-0.0015100123380749279;9.49798273176556e-06;-1.009655589981431;1.0084060407641582;-0.09875459749008776;-9.517922848244341e-06;0.0;0.10001687401248677;0.22997745018331314;0.12992499808249858;2.8857629354561712e-05;0.9999607387749468;-5.4785514709910704e-05;-9.130919118318449e-06;2.739275735495535e-05;0.2299467701606099;0.12992499808249858;4.4197640706178376e-05;1.000038282532329;7.304735294654759e-05;-3.6523676473273796e-05;-2.739275735495535e-05;-0.005313147336269974;0.04217450113839005
0.3598661422729492;-0.17614828087902965;-0.07089539318203293;0.7500453799456537;0.003185197017354641;0.1220150738353014;-0.005898023480523149;-0.0014965911258334158;-9.527892906483729e-06;-1.0096594849105114;1.0084072507818065;-0.09875854921546807;9.507952790004623e-06;-0.0015100123380749279;9.49798273176556e-06;-1.009655589981431;1.0084060407641582;-0.09875459749008776;-9.517922848244341e-06;0.0;0.10001687401248677;0.22997745018331314;0.12992499808249858;2.8857629354561712e-05;0.9999607387749468;-5.4785514709910704e-05;-9.130919118318449e-06;2.739275735495535e-05;0.2299467701606099;0.12992499808249858;4.4197640706178376e-05;1.000038282532329;7.304735294654759e-05;-3.195821691411457e-05;-2.2827297795796123e-05;-0.005313147336269974;0.043710390880145056
0.3799021244049072;-0.17621631438227134;-0.0709555093354788;0.7500237141913341;0.0031005522853914482;0.12193323852818515;-0.005794518809155218;-0.0014965911258334158;-9.527892906483729e-06;-1.0096594849105114;1.0084072507818065;-0.09875854921546807;9.507952790004623e-06;-0.0015100123380749279;9.49798273176556e-06;-1.009655589981431;1.0084060407641582;-0.09875459749008776;-9.517922848244341e-06;0.0;0.10001687401248677;0.22997745018331314;0.12992499808249858;2.8857629354561712e-05;0.9999607387749468;-5.4785514709910704e-05;-9.130919118318449e-06;2.739275735495535e-05;0.2299467701606099;0.12992499808249858;4.4197640706178376e-05;0.9999922624982742;6.391643382822915e-05;-3.195821691411457e-05;-3.195821691411457e-05;-0.005313147336269974;0.043710390880145056
0.3999483585357666;-0.1761227676093228;-0.07092362347533103;0.7500487023998205;0.003188841202013489;0.1220490644033552;-0.0058597541366325855;-0.0014965911258334158;-9.527892906483729e-06;-1.0096594849105114;1.0084072507818065;-0.09875854921546807;9.507952790004623e-06;-0.0015100123380749279;9.49798273176556e-06;-1.009655589981431;1.0084060407641582;-0.09875459749008776;-9.517922848244341e-06;0.0;0.10001687401248677;0.22997745018331314;0.12992499808249858;2.8857629354561712e-05;0.9999607387749468;-5.4785514709910704e-05;-9.130919118318449e-06;2.739275735495535e-05;0.2299467701606099;0.12992499808249858;4.4197640706178376e-05;0.9998848824188128;6.391643382822915e-05;-3.6523676473273796e-05;-2.739275735495535e-05;-0.005313147336269974;0.043710390880145056
0.4199495315551758;-0.1761463811482988;-0.07087952033931315;0.7500473262492973;0.003194346096175986;0.1220165404029704;-0.005922200899003794;-0.0014965911258334158;-9.527892906483729e-06;-1.0096594849105114;1.0084072507818065;-0.09875854921546807;9.507952790004623e-06;-0.0015100123380749279;9.49798273176556e-06;-1.009655589981431;1.0084060407641582;-0.09875459749008776;-9.517922848244341e-06;-7.670005675801395e-06;0.10000920400681096;0.22997745018331314;0.12992499808249858;2.8857629354561712e-05;0.9999607387749468;-5.4785514709910704e-05;-9.130919118318449e-06;2.739275735495535e-05;0.2299467701606099;0.12992499808249858;4.4197640706178376e-05;0.9998848824188128;6.391643382822915e-05;-3.6523676473273796e-05;-2.739275735495535e-05;-0.005313147336269974;0.043710390880145056
0.44002485275268555;-0.1761548564063034;-0.07086954363925167;0.7500462785440186;0.003318185035157187;0.12199317447711644;-0.00596624899405799;-0.0014965911258334158;-9.527892906483729e-06;-1.0096594849105114;1.0084072507818065;-0.09875854921546807;9.507952790004623e-06;-0.0015100123380749279;9.49798273176556e-06;-1.009655589981431;1.0084060407641582;-0.09875459749008776;-9.517922848244341e-06;-7.670005675801395e-06;0.10000920400681096;0.22997745018331314;0.12992499808249858;2.8857629354561712e-05;0.9999607387749468;-5.4785514709910704e-05;-9.130919118318449e-06;2.739275735495535e-05;0.2299467701606099;0.12992499808249858;4.4197640706178376e-05;0.9998695424074614;7.304735294654759e-05;-3.6523676473273796e-05;-2.739275735495535e-05;-0.005313147336269974;0.04217450113839005
0.4599332809448242;-0.17620109498779013;-0.07091223813203953;0.750031382154841;0.0031941707907721588;0.12194398397819148;-0.0058771474095043515;-0.0014965911258334158;-9.527892906483729e-06;-1.0096594849105114;1.0084072507818065;-0.09875854921546807;9.507952790004623e-06;-0.0015100123380749279;9.49798273176556e-06;-1.009655589981431;1.0084060407641582;-0.09875459749008776;-9.517922848244341e-06;-7.670005675801395e-06;0.10000920400681096;0.22997745018331314;0.12992499808249858;2.8857629354561712e-05;0.9999607387749468;-5.4785514709910704e-05;-9.130919118318449e-06;2.739275735495535e-05;0.2299467701606099;0.12992499808249858;4.4197640706178376e-05;0.9998695424074614;6.391643382822915e-05;-3.6523676473273796e-05;-2.739275735495535e-05;-0.005313147336269974;0.043710390880145056
0.4798123836517334;-0.1762390469864041;-0.07089441490027408;0.7500241501859553;0.0033071022368737425;0.12188227376304006;-0.005929530644106636;-0.0014965911258334158;-9.527892906483729e-06;-1.0096594849105114;1.0084072507818065;-0.09875854921546807;9.507952790004623e-06;-0.0015100123380749279;9.49798273176556e-06;-1.009655589981431;1.0084060407641582;-0.09875459749008776;-9.517922848244341e-06;-7.670005675801395e-06;0.10000920400681096;0.22997745018331314;0.12992499808249858;2.8857629354561712e-05;0.9999607387749468;-5.4785514709910704e-05;-9.130919118318449e-06;2.739275735495535e-05;0.2299467701606099;0.12992499808249858;4.4197640706178376e-05;0.9998695424074614;6.391643382822915e-05;-3.6523676473273796e-05;-2.739275735495535e-05;-0.005313147336269974;0.043710390880145056
0.4999251365661621;-0.17622405448114606;-0.07083984272903598;0.7500328292236573;0.003235352600752091;0.121908565276594;-0.005987430151186914;-0.0014965911258334158;-9.527892906483729e-06;-1.0096594849105114;1.0084072507818065;-0.09875854921546807;9.507952790004623e-06;-0.0015100123380749279;9.49798273176556e-06;-1.009655589981431;1.0084060407641582;-0.09875459749008776;-9.517922848244341e-06;-7.670005675801395e-06;0.10000920400681096;0.22997745018331314;0.12992499808249858;2.8857629354561712e-05;0.9999607387749468;-5.4785514709910704e-05;-9.130919118318449e-06;2.739275735495535e-05;0.2299467701606099;0.12992499808249858;4.4197640706178376e-05;0.9998695424074614;6.391643382822915e-05;-3.6523676473273796e-05;-2.739275735495535e-05;-0.005313147336269974;0.043710390880145056
0.5199875831604004;-0.1761764257378401;-0.07090098701296338;0.7500382408009071;0.003353440075346527;0.12196136977313306;-0.0059314605897956086;-0.0014965911258334158;-9.527892906483729e-06;-1.0096594849105114;1.0084072507818065;-0.09875854921546807;9.507952790004623e-06;-0.0015100123380749279;9.49798273176556e-06;-1.009655589981431;1.0084060407641582;-0.09875459749008776;-9.517922848244341e-06;-7.670005675801395e-06;0.10000920400681096;0.22997745018331314;0.12992499808249858;2.8857629354561712e-05;0.9999607387749468;-5.4785514709910704e-05;-9.130919118318449e-06;2.739275735495535e-05;0.2299467701606099;0.12992499808249858;4.4197640706178376e-05;0.9998695424074614;5.4785514709910704e-05;-3.6523676473273796e-05;-2.739275735495535e-05;-0.005313147336269974;0.043710390880145056
0.5398294925689697;-0.17620032042391529;-0.07090992692488335;0.7500317826298495;0.003448364641138763;0.121920448996847;-0.005942371719918363;-0.0014965911258334158;-9.527892906483729e-06;-1.0096594849105114;1.0084072507818065;-0.09875854921546807;9.507952790004623e-06;-0.0015100123380749279;9.49798273176556e-06;-1.009655589981431;1.0084060407641582;-0.09875459749008776;-9.517922848244341e-06;-7.670005675801395e-06;0.10000920400681096;0.22997745018331314;0.12992499808249858;2.8857629354561712e-05;0.9999607387749468;-5.4785514709910704e-05;-9.130919118318449e-06;2.739275735495535e-05;0.2299467701606099;0.12992499808249858;4.4197640706178376e-05;0.9998695424074614;7.304735294654759e-05;-3.6523676473273796e-05;-2.739275735495535e-05;-0.005313147336269974;0.04217450113839005
0.5599544048309326;-0.17616195116468616;-0.07079943698823728;0.7500512331120401;0.003503077309531055;0.12196510215092396;-0.006108356235620967;-0.0014965911258334158;-9.527892906483729e-06;-1.0096594849105114;1.0084072507818065;-0.09875854921546807;9.507952790004623e-06;-0.0015100123380749279;9.49798273176556e-06;-1.009655589981431;1.0084060407641582;-0.09875459749008776;-9.517922848244341e-06;-7.670005675801395e-06;0.10000920400681096;0.22997745018331314;0.12992499808249858;2.8857629354561712e-05;0.9999607387749468;-5.4785514709910704e-05;-9.130919118318449e-06;2.739275735495535e-05;0.2299467701606099;0.12992499808249858;4.4197640706178376e-05;0.9998695424074614;7.304735294654759e-05;-3.6523676473273796e-05;-2.739275735495535e-05;-0.005313147336269974;0.043710390880145056
0.5798273086547852;-0.1761759707865614;-0.07074946777690996;0.7500526553086717;0.0036579312224171404;0.12193095081931406;-0.006215322188703493;-0.0014965911258334158;-9.527892906483729e-06;-1.0096594849105114;1.0084072507818065;-0.09875854921546807;9.507952790004623e-06;-0.0015100123380749279;9.49798273176556e-06;-1.009655589981431;1.0084060407641582;-0.09875459749008776;-9.517922848244341e-06;-7.670005675801395e-06;0.10000920400681096;0.22997745018331314;0.12992499808249858;2.8857629354561712e-05;0.9999607387749468;-5.4785514709910704e-05;-9.130919118318449e-06;2.739275735495535e-05;0.2299467701606099;0.12992499808249858;4.4197640706178376e-05;0.9998695424074614;6.391643382822915e-05;-3.6523676473273796e-05;-2.739275735495535e-05;-0.005313147336269974;0.04217450113839005
0.5998485088348389;-0.17606608064241377;-0.07066272200732307;0.7500866353792923;0.0032979504871695157;0.12211113866064079;-0.006246959707068081;-0.0014965911258334158;-9.527892906483729e-06;-1.0096594849105114;1.0084072507818065;-0.09875854921546807;9.507952790004623e-06;-0.0015100123380749279;9.49798273176556e-06;-1.009655589981431;1.0084060407641582;-0.09875459749008776;-9.517922848244341e-06;-7.670005675801395e-06;0.10000920400681096;0.22997745018331314;0.12992499808249858;2.8857629354561712e-05;0.9999607387749468;-5.4785514709910704e-05;-9.130919118318449e-06;2.739275735495535e-05;0.2299467701606099;0.1299403380938502;4.4197640706178376e-05;0.9998695424074614;6.391643382822915e-05;-3.6523676473273796e-05;-2.739275735495535e-05;-0.005313147336269974;0.043710390880145056
0.6198313236236572;-0.17609794264290904;-0.07060303815044758;0.7500847760151873;0.003604492734232102;0.12203852829769407;-0.006404413873283876;-0.0014965911258334158;-9.527892906483729e-06;-1.0096594849105114;1.0084072507818065;-0.09875854921546807;9.507952790004623e-06;-0.0015100123380749279;9.49798273176556e-06;-1.009655589981431;1.0084060407641582;-0.09875459749008776;-9.517922848244341e-06;-7.670005675801395e-06;0.10000920400681096;0.22997745018331314;0.12992499808249858;2.8857629354561712e-05;0.9999607387749468;-5.4785514709910704e-05;-9.130919118318449e-06;2.739275735495535e-05;0.2299467701606099;0.1299403380938502;4.4197640706178376e-05;0.9998695424074614;6.391643382822915e-05;-3.6523676473273796e-05;-2.739275735495535e-05;-0.005313147336269974;0.043710390880145056
0.6398367881774902;-0.17607471229561145;-0.07071334983279304;0.7500798380534802;0.003350118251339212;0.12209518302708396;-0.006189698253499182;-0.0014965911258334158;-9.527892906483729e-06;-1.0096594849105114;1.0084072507818065;-0.09875854921546807;9.507952790004623e-06;-0.0015100123380749279;9.49798273176556e-06;-1.009655589981431;1.0084060407641582;-0.09875459749008776;-9.517922848244341e-06;-7.670005675801395e-06;0.10000920400681096;0.22997745018331314;0.12992499808249858;2.8857629354561712e-05;0.9999607387749468;-5.4785514709910704e-05;-9.130919118318449e-06;2.739275735495535e-05;0.2299467701606099;0.1299403380938502;4.4197640706178376e-05;0.9998695424074614;7.304735294654759e-05;-3.195821691411457e-05;-2.2827297795796123e-05;-0.005313147336269974;0.043710390880145056
0.659914493560791;-0.1760910760907843;-0.07081165813444565;0.7500667221003291;0.0033620530308261106;0.1220733255520144;-0.0060567161050701975;-0.0014965911258334158;-9.527892906483729e-06;-1.0096594849105114;1.0084072507818065;-0.09875854921546807;9.507952790004623e-06;-0.0015100123380749279;9.49798273176556e-06;-1.009655589981431;1.0084060407641582;-0.09875459749008776;-9.517922848244341e-06;-7.670005675801395e-06;0.10000920400681096;0.22997745018331314;0.12992499808249858;2.8857629354561712e-05;0.9999607387749468;-5.4785514709910704e-05;-9.130919118318449e-06;2.739275735495535e-05;0.2299467701606099;0.1299403380938502;4.4197640706178376e-05;0.9998695424074614;7.304735294654759e-05;-3.6523676473273796e-05;-2.739275735495535e-05;-0.005313147336269974;0.04217450113839005
0.6798152923583984;-0.17606066392103614;-0.07083581114109111;0.750071580643181;0.003673366364560129;0.12208413708920392;-0.00609908334908228;-0.0014965911258334158;-9.527892906483729e-06;-1.0096594849105114;1.0084072507818065;-0.09875854921546807;9.507952790004623e-06;-0.0015100123380749279;9.49798273176556e-06;-1.009655589981431;1.0084060407641582;-0.09875459749008776;-9.517922848244341e-06;-7.670005675801395e-06;0.10000920400681096;0.22997745018331314;0.12992499808249858;2.8857629354561712e-05;0.9999607387749468;-5.4785514709910704e-05;-9.130919118318449e-06;2.739275735495535e-05;0.2299467701606099;0.1299403380938502;4.4197640706178376e-05;0.9998695424074614;6.391643382822915e-05;-3.195821691411457e-05;-3.195821691411457e-05;-0.005313147336269974;0.043710390880145056
0.700031042098999;-0.17600443003310123;-0.070763715918725;0.7500915828930422;0.0038084983792800817;0.12214532237940925;-0.006231455167645554;-0.0014965911258334158;-9.527892906483729e-06;-1.0096594849105114;1.0084072507818065;-0.09875854921546807;9.507952790004623e-06;-0.0015100123380749279;9.49798273176556e-06;-1.009655589981431;1.0084060407641582;-0.09875459749008776;-9.517922848244341e-06;-7.670005675801395e-06;0.10000920400681096;0.22997745018331314;0.12992499808249858;2.8857629354561712e-05;0.9999607387749468;-5.4785514709910704e-05;-9.130919118318449e-06;2.739275735495535e-05;0.2299467701606099;0.1299403380938502;4.4197640706178376e-05;0.9998695424074614;6.391643382822915e-05;-3.6523676473273796e-05;-2.739275735495535e-05;-0.005313147336269974;0.043710390880145056
0.7198562622070312;-0.17597266422266833;-0.0707490010105407;0.750100423884215;0.003933767966738071;0.12217546681871548;-0.006282175217799457;-0.0014965911258334158;-9.527892906483729e-06;-1.0096594849105114;1.0084072507818065;-0.09875854921546807;9.507952790004623e-06;-0.0015100123380749279;9.49798273176556e-06;-1.009655589981431;1.0084060407641582;-0.09875459749008776;-9.517922848244341e-06;-1.5340011351609728e-05;0.10000153400113516;0.22997745018331314;0.12992499808249858;2.8857629354561712e-05;0.9999607387749468;-5.4785514709910704e-05;-9.130919118318449e-06;2.739275735495535e-05;0.2299467701606099;0.1299403380938502;4.4197640706178376e-05;0.9998695424074614;7.304735294654759e-05;-3.6523676473273796e-05;-2.739275735495535e-05;-0.005313147336269974;0.043710390880145056
0.7399294376373291;-0.17605371072698425;-0.07079513725006574;0.7500770527685113;0.003859350841184826;0.1220750599038129;-0.00620065826590389;-0.0014965911258334158;-9.527892906483729e-06;-1.0096594849105114;1.0084072507818065;-0.09875854921546807;9.507952790004623e-06;-0.0015100123380749279;9.49798273176556e-06;-1.009655589981431;1.0084060407641582;-0.09875459749008776;-9.517922848244341e-06;-1.5340011351609728e-05;0.10000153400113516;0.22997745018331314;0.12992499808249858;2.8857629354561712e-05;0.9999607387749468;-5.4785514709910704e-05;-9.130919118318449e-06;2.739275735495535e-05;0.2299467701606099;0.1299556781052018;4.4197640706178376e-05;0.9998695424074614;7.304735294654759e-05;-3.6523676473273796e-05;-2.739275735495535e-05;-0.005313147336269974;0.043710390880145056
0.7597775459289551;-0.17603289152043666;-0.07084107396459606;0.7500776019528842;0.003764469339010819;0.12211244397544974;-0.006113877200170985;-0.0014965911258334158;-9.527892906483729e-06;-1.0096594849105114;1.0084072507818065;-0.09875854921546807;9.507952790004623e-06;-0.0015100123380749279;9.49798273176556e-06;-1.009655589981431;1.0084060407641582;-0.09875459749008776;-9.517922848244341e-06;-1.5340011351609728e-05;0.10000153400113516;0.22997745018331314;0.12992499808249858;2.8857629354561712e-05;0.9999607387749468;-5.4785514709910704e-05;-9.130919118318449e-06;2.739275735495535e-05;0.2299467701606099;0.1299556781052018;4.4197640706178376e-05;0.9998695424074614;6.391643382822915e-05;-3.6523676473273796e-05;-2.739275735495535e-05;-0.005313147336269974;0.043710390880145056
0.7799296379089355;-0.17609544491716692;-0.07084585451662893;0.7500624672559786;0.003713420377392905;0.12203401418581933;-0.006095139062802384;-0.0014965911258334158;-9.527892906483729e-06;-1.0096594849105114;1.0084072507818065;-0.09875854921546807;9.507952790004623e-06;-0.0015100123380749279;9.49798273176556e-06;-1.009655589981431;1.0084060407641582;-0.09875459749008776;-9.517922848244341e-06;-1.5340011351609728e-05;0.10000153400113516;0.22997745018331314;0.12992499808249858;2.8857629354561712e-05;0.9999607387749468;-5.4785514709910704e-05;-9.130919118318449e-06;2.739275735495535e-05;0.2299467701606099;0.1299556781052018;4.4197640706178376e-05;0.9998695424074614;6.391643382822915e-05;-3.6523676473273796e-05;-2.739275735495535e-05;-0.005313147336269974;0.043710390880145056
0.7997877597808838;-0.17612066583020944;-0.07085537564327103;0.7500556462149106;0.003752162942350603;0.12199675701927153;-0.006091551535411535;-0.0014965911258334158;-9.527892906483729e-06;-1.0096594849105114;1.0084072507818065;-0.09875854921546807;9.507952790004623e-06;-0.0015100123380749279;9.49798273176556e-06;-1.009655589981431;1.0084060407641582;-0.09875459749008776;-9.517922848244341e-06;-1.5340011351609728e-05;0.10000153400113516;0.22997745018331314;0.12992499808249858;2.8857629354561712e-05;0.9999607387749468;-5.4785514709910704e-05;-9.130919118318449e-06;2.739275735495535e-05;0.2299467701606099;0.1299556781052018;4.4197640706178376e-05;0.9998695424074614;6.391643382822915e-05;-3.6523676473273796e-05;-2.739275735495535e-05;-0.0068490370780249785;0.043710390880145056
0.8198368549346924;-0.1759735929672393;-0.07095215839847505;0.7500810165613383;0.0039612074657547494;0.12217371958034288;-0.006007886821248358;-0.0014965911258334158;-9.527892906483729e-06;-1.0096594849105114;1.0084072507818065;-0.09875854921546807;9.507952790004623e-06;-0.0015100123380749279;9.49798273176556e-06;-1.009655589981431;1.0084060407641582;-0.09875459749008776;-9.517922848244341e-06;-1.5340011351609728e-05;0.10000153400113516;0.22997745018331314;0.12992499808249858;1.3517618002945042e-05;0.9999607387749468;-5.4785514709910704e-05;-9.130919118318449e-06;2.739275735495535e-05;0.2299467701606099;0.1299556781052018;4.4197640706178376e-05;0.9998695424074614;7.304735294654759e-05;-3.6523676473273796e-05;-2.739275735495535e-05;-0.005313147336269974;0.043710390880145056
0.8399274349212646;-0.17594748329043647;-0.07086177570718233;0.7500956855470368;0.004015057437028682;0.12220239440718558;-0.006145876338748393;-0.0014965911258334158;-9.527892906483729e-06;-1.0096594849105114;1.0084072507818065;-0.09875854921546807;9.507952790004623e-06;-0.0015100123380749279;9.49798273176556e-06;-1.009655589981431;1.0084060407641582;-0.09875459749008776;-9.517922848244341e-06;-1.5340011351609728e-05;0.10000153400113516;0.22997745018331314;0.12992499808249858;1.3517618002945042e-05;0.9999607387749468;-5.4785514709910704e-05;-9.130919118318449e-06;2.739275735495535e-05;0.2299467701606099;0.1299556781052018;4.4197640706178376e-05;0.9998695424074614;7.304735294654759e-05;-3.6523676473273796e-05;-2.739275735495535e-05;-0.005313147336269974;0.043710390880145056
0.859933614730835;-0.17599486045452176;-0.07082720162826675;0.7500878363311825;0.004078479558653497;0.12213276578486422;-0.006209420854215919;-0.0014965911258334158;-9.527892906483729e-06;-1.0096594849105114;1.0084072507818065;-0.09875854921546807;9.507952790004623e-06;-0.0015100123380749279;9.49798273176556e-06;-1.009655589981431;1.0084060407641582;-0.09875459749008776;-9.517922848244341e-06;-2.301001702741806e-05;0.10000920400681096;0.22997745018331314;0.12992499808249858;1.3517618002945042e-05;0.9999607387749468;-5.4785514709910704e-05;-9.130919118318449e-06;2.739275735495535e-05;0.2299467701606099;0.1299556781052018;4.4197640706178376e-05;0.9998695424074614;6.391643382822915e-05;-3.6523676473273796e-05;-2.739275735495535e-05;-0.005313147336269974;0.043710390880145056
0.8799722194671631;-0.17608376087751287;-0.07084166980768752;0.7500656055192653;0.004159584111140987;0.12200658168903306;-0.006209696444054667;-0.0014965911258334158;-9.527892906483729e-06;-1.0096594849105114;1.0084072507818065;-0.09875854921546807;9.507952790004623e-06;-0.0015100123380749279;9.49798273176556e-06;-1.009655589981431;1.0084060407641582;-0.09875459749008776;-9.517922848244341e-06;-2.301001702741806e-05;0.10000920400681096;0.22997745018331314;0.12992499808249858;1.3517618002945042e-05;0.9999607387749468;-5.4785514709910704e-05;-9.130919118318449e-06;2.739275735495535e-05;0.2299467701606099;0.12997101811655346;4.4197640706178376e-05;0.9998695424074614;6.391643382822915e-05;-3.6523676473273796e-05;-2.739275735495535e-05;-0.005313147336269974;0.043710390880145056
0.9000847339630127;-0.1762203244529319;-0.07066298507025116;0.7500503885736993;0.0041926227332099684;0.12181951744578547;-0.006465677825231472;-0.0014965911258334158;-9.527892906483729e-06;-1.0096594849105114;1.0084072507818065;-0.09875854921546807;9.507952790004623e-06;-0.0015100123380749279;9.49798273176556e-06;-1.009655589981431;1.0084060407641582;-0.09875459749008776;-9.517922848244341e-06;-2.301001702741806e-05;0.10000920400681096;0.22997745018331314;0.12992499808249858;1.3517618002945042e-05;0.9999607387749468;-5.4785514709910704e-05;-9.130919118318449e-06;2.739275735495535e-05;0.2299467701606099;0.12997101811655346;4.4197640706178376e-05;0.9998695424074614;6.391643382822915e-05;-3.6523676473273796e-05;-2.739275735495535e-05;-0.005313147336269974;0.043710390880145056
0.9198324680328369;-0.17629185625397162;-0.07068283978072452;0.7500317081216994;0.004402538170649311;0.12170419259652551;-0.006489902077869224;-0.0014965911258334158;-9.527892906483729e-06;-1.0096594849105114;1.0084072507818065;-0.09875854921546807;9.507952790004623e-06;-0.0015100123380749279;9.49798273176556e-06;-1.009655589981431;1.0084060407641582;-0.09875459749008776;-9.517922848244341e-06;-2.301001702741806e-05;0.10000920400681096;0.22997745018331314;0.12992499808249858;1.3517618002945042e-05;0.9999607387749468;-5.4785514709910704e-05;-9.130919118318449e-06;2.739275735495535e-05;0.2299467701606099;0.12998635812790504;4.4197640706178376e-05;0.9998695424074614;7.304735294654759e-05;-3.6523676473273796e-05;-2.739275735495535e-05;-0.005313147336269974;0.043710390880145056
0.9399123191833496;-0.17630476207813628;-0.07063586755467736;0.7500330997311133;0.004306149824299261;0.12169577083403144;-0.006531400699276149;-0.0014965911258334158;-9.527892906483729e-06;-1.0096594849105114;1.0084072507818065;-0.09875854921546807;9.507952790004623e-06;-0.0015100123380749279;9.49798273176556e-06;-1.009655589981431;1.0084060407641582;-0.09875459749008776;-9.517922848244341e-06;-2.301001702741806e-05;0.10000920400681096;0.22997745018331314;0.12992499808249858;1.3517618002945042e-05;0.9999607387749468;-5.4785514709910704e-05;-9.130919118318449e-06;2.739275735495535e-05;0.2299467701606099;0.13009373820736625;4.4197640706178376e-05;0.9998695424074614;7.304735294654759e-05;-3.6523676473273796e-05;-2.739275735495535e-05;-0.005313147336269974;0.04217450113839005
0.95981764793396;-0.17628122533679427;-0.07064620229501094;0.7500376585905157;0.0043230149390151695;0.1217256373080001;-0.006521086171796782;-0.0014965911258334158;-9.527892906483729e-06;-1.0096594849105114;1.0084072507818065;-0.09875854921546807;9.507952790004623e-06;-0.0015100123380749279;9.49798273176556e-06;-1.009655589981431;1.0084060407641582;-0.09875459749008776;-9.517922848244341e-06;-2.301001702741806e-05;0.10000920400681096;0.22997745018331314;0.12992499808249858;1.3517618002945042e-05;0.9999607387749468;-5.4785514709910704e-05;-9.130919118318449e-06;2.739275735495535e-05;0.2299467701606099;0.13010907821871787;4.4197640706178376e-05;0.9998695424074614;6.391643382822915e-05;-3.6523676473273796e-05;-2.739275735495535e-05;-0.005313147336269974;0.043710390880145056
0.9798059463500977;-0.1763318460129888;-0.07058185460759105;0.7500318176522226;0.00426779003329286;0.12166280174036197;-0.0065968920829254304;-0.0014965911258334158;-9.527892906483729e-06;-1.0096594849105114;1.0084072507818065;-0.09875854921546807;9.507952790004623e-06;-0.0015100123380749279;9.49798273176556e-06;-1.009655589981431;1.0084060407641582;-0.09875459749008776;-9.517922848244341e-06;-2.301001702741806e-05;0.10000920400681096;0.22997745018331314;0.12992499808249858;1.3517618002945042e-05;0.9999607387749468;-5.4785514709910704e-05;-9.130919118318449e-06;2.739275735495535e-05;0.2299467701606099;0.13012441823006948;4.4197640706178376e-05;0.9998695424074614;6.391643382822915e-05;-3.195821691411457e-05;-3.195821691411457e-05;-0.005313147336269974;0.043710390880145056
0.9999208450317383;-0.1763673700769921;-0.0706910019778063;0.7500131856310204;0.004442460810264414;0.12159975449126718;-0.006488828555708014;-0.0014965911258334158;-9.527892906483729e-06;-1.0096594849105114;1.0084072507818065;-0.09875854921546807;9.507952790004623e-06;-0.0015100123380749279;9.49798273176556e-06;-1.009655589981431;1.0084060407641582;-0.09875459749008776;-9.517922848244341e-06;-2.301001702741806e-05;0.10000920400681096;0.22997745018331314;0.12992499808249858;1.3517618002945042e-05;0.9999607387749468;-5.4785514709910704e-05;-9.130919118318449e-06;2.739275735495535e-05;0.2299467701606099;0.1301397582414211;4.4197640706178376e-05;0.9998695424074614;6.391643382822915e-05;-3.6523676473273796e-05;-2.739275735495535e-05;-0.005313147336269974;0.043710390880145056
1.0198109149932861;-0.17639882058751036;-0.07061487176087432;0.7500129609482912;0.0045051400640074004;0.12155107254696368;-0.0066096302615361825;-0.0014965911258334158;-9.527892906483729e-06;-1.0096594849105114;1.0084072507818065;-0.09875854921546807;9.507952790004623e-06;-0.0015100123380749279;9.49798273176556e-06;-1.009655589981431;1.0084060407641582;-0.09875459749008776;-9.517922848244341e-06;-2.301001702741806e-05;0.10000920400681096;0.22997745018331314;0.12992499808249858;1.3517618002945042e-05;0.9999607387749468;-5.4785514709910704e-05;-9.130919118318449e-06;2.739275735495535e-05;0.2299467701606099;0.1301397582414211;4.4197640706178376e-05;0.9998695424074614;7.304735294654759e-05;-3.6523676473273796e-05;-2.739275735495535e-05;-0.005313147336269974;0.043710390880145056
1.03995943069458;-0.17641123439318332;-0.07055468871308168;0.7500157050951439;0.004540125998851863;0.12153059256895539;-0.0067014923539890706;-0.0014965911258334158;-9.527892906483729e-06;-1.0096594849105114;1.0084072507818065;-0.09875854921546807;9.507952790004623e-06;-0.0015100123380749279;9.49798273176556e-06;-1.009655589981431;1.0084060407641582;-0.09875459749008776;-9.517922848244341e-06;-2.301001702741806e-05;0.10000920400681096;0.22997745018331314;0.12992499808249858;1.3517618002945042e-05;0.9999607387749468;-5.4785514709910704e-05;-9.130919118318449e-06;2.739275735495535e-05;0.2299467701606099;0.1301397582414211;4.4197640706178376e-05;0.9998695424074614;7.304735294654759e-05;-3.6523676473273796e-05;-2.739275735495535e-05;-0.005313147336269974;0.043710390880145056
1.0598464012145996;-0.17645017920127698;-0.07058925805368658;0.7500032910035527;0.004494716120078747;0.12148334519394827;-0.006642825913365917;-0.0014965911258334158;-9.527892906483729e-06;-1.0096594849105114;1.0084072507818065;-0.09875854921546807;9.507952790004623e-06;-0.0015100123380749279;9.49798273176556e-06;-1.009655589981431;1.0084060407641582;-0.09875459749008776;-9.517922848244341e-06;-2.301001702741806e-05;0.10000920400681096;0.22997745018331314;0.12992499808249858;1.3517618002945042e-05;0.9999607387749468;-5.4785514709910704e-05;-9.130919118318449e-06;2.739275735495535e-05;0.2299467701606099;0.1301397582414211;4.4197640706178376e-05;0.9998695424074614;6.391643382822915e-05;-3.6523676473273796e-05;-2.739275735495535e-05;-0.005313147336269974;0.043710390880145056
1.0799672603607178;-0.17649129335184396;-0.07056271005354822;0.7499961152764624;0.004390911370484787;0.1214382130018248;-0.006654414981332101;-0.0014965911258334158;-9.527892906483729e-06;-1.0096594849105114;1.0084072507818065;-0.09875854921546807;9.507952790004623e-06;-0.0015100123380749279;9.49798273176556e-06;-1.009655589981431;1.0084060407641582;-0.09875459749008776;-9.517922848244341e-06;-2.301001702741806e-05;0.10000920400681096;0.22997745018331314;0.12992499808249858;1.3517618002945042e-05;0.9999607387749468;-5.4785514709910704e-05;-9.130919118318449e-06;2.739275735495535e-05;0.2299467701606099;0.1301397582414211;4.4197640706178376e-05;0.9998695424074614;6.391643382822915e-05;-3.6523676473273796e-05;-2.739275735495535e-05;-0.005313147336269974;0.043710390880145056
1.0998508930206299;-0.17653178913716533;-0.07058497560085959;0.7499844893411796;0.00428810579757241;0.12139428630654511;-0.006598724356442659;-0.0014965911258334158;-9.527892906483729e-06;-1.0096594849105114;1.0084072507818065;-0.09875854921546807;9.507952790004623e-06;-0.0015100123380749279;9.49798273176556e-06;-1.009655589981431;1.0084060407641582;-0.09875459749008776;-9.517922848244341e-06;-2.301001702741806e-05;0.10000920400681096;0.22997745018331314;0.12992499808249858;1.3517618002945042e-05;0.9999607387749468;-5.4785514709910704e-05;-9.130919118318449e-06;2.739275735495535e-05;0.2299467701606099;0.1301397582414211;4.4197640706178376e-05;0.9998695424074614;6.391643382822915e-05;-3.6523676473273796e-05;-2.739275735495535e-05;-0.005313147336269974;0.043710390880145056
1.119922399520874;-0.17655815686204873;-0.07047875080487873;0.749988272267875;0.004036188302197849;0.12138219991756087;-0.006684174759909842;-0.0014965911258334158;-9.527892906483729e-06;-1.0096594849105114;1.0084072507818065;-0.09875854921546807;9.507952790004623e-06;-0.0015100123380749279;9.49798273176556e-06;-1.009655589981431;1.0084060407641582;-0.09875459749008776;-9.517922848244341e-06;-2.301001702741806e-05;0.10000920400681096;0.22997745018331314;0.12992499808249858;1.3517618002945042e-05;0.9999607387749468;-5.4785514709910704e-05;-9.130919118318449e-06;2.739275735495535e-05;0.2299467701606099;0.1301397582414211;4.4197640706178376e-05;0.9998695424074614;7.304735294654759e-05;-3.6523676473273796e-05;-2.739275735495535e-05;-0.005313147336269974;0.043710390880145056
1.1398415565490723;-0.17657722703158463;-0.07044291843637533;0.7499871490531653;0.004114591328168233;0.12134890190155155;-0.006753015033402081;-0.0014965911258334158;-9.527892906483729e-06;-1.0096594849105114;1.0084072507818065;-0.09875854921546807;9.507952790004623e-06;-0.0015100123380749279;9.49798273176556e-06;-1.009655589981431;1.0084060407641582;-0.09875459749008776;-9.517922848244341e-06;-2.301001702741806e-05;0.10000920400681096;0.22997745018331314;0.12992499808249858;1.3517618002945042e-05;0.9999607387749468;-5.4785514709910704e-05;-9.130919118318449e-06;2.739275735495535e-05;0.2299467701606099;0.1301397582414211;4.4197640706178376e-05;0.9998695424074614;7.304735294654759e-05;-3.6523676473273796e-05;-2.739275735495535e-05;-0.005313147336269974;0.043710390880145056
1.1598179340362549;-0.17654701676130427;-0.07041955411900508;0.7499964552444609;0.004214447864886718;0.12137939625292062;-0.0068095775459154385;-0.0014965911258334158;-9.527892906483729e-06;-1.0096594849105114;1.0084072507818065;-0.09875854921546807;9.507952790004623e-06;-0.0015100123380749279;9.49798273176556e-06;-1.009655589981431;1.0084060407641582;-0.09875459749008776;-9.517922848244341e-06;-2.301001702741806e-05;0.10000920400681096;0.22997745018331314;0.12992499808249858;1.3517618002945042e-05;0.9999607387749468;-5.4785514709910704e-05;-9.130919118318449e-06;2.739275735495535e-05;0.2299467701606099;0.1301397582414211;4.4197640706178376e-05;0.9998695424074614;6.391643382822915e-05;-3.6523676473273796e-05;-2.739275735495535e-05;-0.005313147336269974;0.043710390880145056
1.1798949241638184;-0.17652955759445502;-0.07036253610724448;0.7500059162546351;0.0042817154158004914;0.12139568137011057;-0.006904780906668171;-0.0014965911258334158;-9.527892906483729e-06;-1.0096594849105114;1.0084072507818065;-0.09875854921546807;9.507952790004623e-06;-0.0015100123380749279;9.49798273176556e-06;-1.009655589981431;1.0084060407641582;-0.09875459749008776;-9.517922848244341e-06;-2.301001702741806e-05;0.10000920400681096;0.22997745018331314;0.12992499808249858;1.3517618002945042e-05;0.9999607387749468;-5.4785514709910704e-05;-9.130919118318449e-06;2.739275735495535e-05;0.2299467701606099;0.1301397582414211;4.4197640706178376e-05;0.9998695424074614;6.391643382822915e-05;-3.6523676473273796e-05;-2.739275735495535e-05;-0.005313147336269974;0.043710390880145056
1.199899435043335;-0.1765648912307519;-0.07028494059350936;0.7500048745970469;0.004447355723711154;0.12133199932180776;-0.00705281875240518;-0.0014965911258334158;-9.527892906483729e-06;-1.0096594849105114;1.0084072507818065;-0.09875854921546807;9.507952790004623e-06;-0.0015100123380749279;9.49798273176556e-06;-1.009655589981431;1.0084060407641582;-0.09875459749008776;-9.517922848244341e-06;-2.301001702741806e-05;0.10000920400681096;0.22997745018331314;0.12992499808249858;1.3517618002945042e-05;0.9999607387749468;-5.4785514709910704e-05;-9.130919118318449e-06;2.739275735495535e-05;0.2299467701606099;0.1301397582414211;4.4197640706178376e-05;0.9998695424074614;6.391643382822915e-05;-3.6523676473273796e-05;-2.739275735495535e-05;-0.005313147336269974;0.043710390880145056
1.2198801040649414;-0.17649311757712624;-0.07014582721375241;0.7500347911805809;0.0044815376324585906;0.12142311304399263;-0.0072531206901683895;-0.0014965911258334158;-9.527892906483729e-06;-1.0096594849105114;1.0084072507818065;-0.09875854921546807;9.507952790004623e-06;-0.0015100123380749279;9.49798273176556e-06;-1.009655589981431;1.0084060407641582;-0.09875459749008776;-9.517922848244341e-06;-2.301001702741806e-05;0.10000920400681096;0.22997745018331314;0.12992499808249858;1.3517618002945042e-05;0.9999607387749468;-5.4785514709910704e-05;-9.130919118318449e-06;2.739275735495535e-05;0.2299467701606099;0.1301397582414211;4.4197640706178376e-05;0.9998695424074614;7.304735294654759e-05;-3.6523676473273796e-05;-2.739275735495535e-05;-0.005313147336269974;0.043710390880145056
1.2398526668548584;-0.17656854331386657;-0.07014905788796119;0.750016736345492;0.0045161726790902785;0.12131927782838144;-0.007257592715954374;-0.0014965911258334158;-9.527892906483729e-06;-1.0096594849105114;1.0084072507818065;-0.09875854921546807;9.507952790004623e-06;-0.0015100123380749279;9.49798273176556e-06;-1.009655589981431;1.0084060407641582;-0.09875459749008776;-9.517922848244341e-06;-2.301001702741806e-05;0.10000920400681096;0.22997745018331314;0.12992499808249858;1.3517618002945042e-05;0.9999607387749468;-5.4785514709910704e-05;-9.130919118318449e-06;2.739275735495535e-05;0.2299467701606099;0.1301397582414211;4.4197640706178376e-05;0.9998695424074614;7.304735294654759e-05;-3.6523676473273796e-05;-2.739275735495535e-05;-0.005313147336269974;0.043710390880145056
1.2598204612731934;-0.1766936347473367;-0.07012430190804081;0.7499895914814932;0.0045390080245589015;0.12115007602575045;-0.007298199526998804;-0.0014965911258334158;-9.527892906483729e-06;-1.0096594849105114;1.0084072507818065;-0.09875854921546807;9.507952790004623e-06;-0.0015100123380749279;9.49798273176556e-06;-1.009655589981431;1.0084060407641582;-0.09875459749008776;-9.517922848244341e-06;-2.301001702741806e-05;0.10000920400681096;0.22997745018331314;0.12992499808249858;1.3517618002945042e-05;0.9999607387749468;-5.4785514709910704e-05;-9.130919118318449e-06;2.739275735495535e-05;0.2299467701606099;0.1301397582414211;4.4197640706178376e-05;0.9998695424074614;6.391643382822915e-05;-3.195821691411457e-05;-2.2827297795796123e-05;-0.005313147336269974;0.043710390880145056
1.2798359394073486;-0.17666771456028318;-0.07011568441969546;0.7499965033513798;0.004529854981875903;0.12118542802162163;-0.007307713846027093;-0.0014965911258334158;-9.527892906483729e-06;-1.0096594849105114;1.0084072507818065;-0.09875854921546807;9.507952790004623e-06;-0.0015100123380749279;9.49798273176556e-06;-1.009655589981431;1.0084060407641582;-0.09875459749008776;-9.517922848244341e-06;-2.301001702741806e-05;0.10000920400681096;0.22997745018331314;0.12992499808249858;1.3517618002945042e-05;0.9999607387749468;-5.4785514709910704e-05;-9.130919118318449e-06;2.739275735495535e-05;0.2299467701606099;0.1301397582414211;4.4197640706178376e-05;0.9998695424074614;6.391643382822915e-05;-3.195821691411457e-05;-3.195821691411457e-05;-0.005313147336269974;0.043710390880145056
1.2998430728912354;-0.17672515448035486;-0.07014435207639916;0.7499802899107211;0.004654860782245035;0.12109720879195005;-0.007299035293284673;-0.0014965911258334158;-9.527892906483729e-06;-1.0096594849105114;1.0084072507818065;-0.09875854921546807;9.507952790004623e-06;-0.0015100123380749279;9.49798273176556e-06;-1.009655589981431;1.0084060407641582;-0.09875459749008776;-9.517922848244341e-06;-3.0680022703219456e-05;0.10000153400113516;0.22997745018331314;0.12992499808249858;1.3517618002945042e-05;0.9999607387749468;-5.4785514709910704e-05;-9.130919118318449e-06;2.739275735495535e-05;0.2299467701606099;0.1301397582414211;4.4197640706178376e-05;0.9998695424074614;5.4785514709910704e-05;-3.6523676473273796e-05;-2.739275735495535e-05;-0.005313147336269974;0.043710390880145056
1.3198294639587402;-0.17662526977181947;-0.07012834490470442;0.7500053165997234;0.004516334166252118;0.1212434294270903;-0.007286630999700344;-0.0014965911258334158;-9.527892906483729e-06;-1.0096594849105114;1.0084072507818065;-0.09875854921546807;9.507952790004623e-06;-0.0015100123380749279;9.49798273176556e-06;-1.009655589981431;1.0084060407641582;-0.09875459749008776;-9.517922848244341e-06;-3.0680022703219456e-05;0.10000153400113516;0.22997745018331314;0.12992499808249858;1.3517618002945042e-05;0.9999607387749468;-5.4785514709910704e-05;-9.130919118318449e-06;2.739275735495535e-05;0.2299467701606099;0.1301397582414211;4.4197640706178376e-05;0.9998695424074614;7.304735294654759e-05;-3.6523676473273796e-05;-2.739275735495535e-05;-0.005313147336269974;0.043710390880145056
1.3398308753967285;-0.1765828099791733;-0.07013495828165614;0.7500146961597367;0.0046337394861730614;0.12128893317143088;-0.0073059425010578265;-0.0014965911258334158;-9.527892906483729e-06;-1.0096594849105114;1.0084072507818065;-0.09875854921546807;9.507952790004623e-06;-0.0015100123380749279;9.49798273176556e-06;-1.009655589981431;1.0084060407641582;-0.09875459749008776;-9.517922848244341e-06;-3.0680022703219456e-05;0.10000153400113516;0.22997745018331314;0.12992499808249858;1.3517618002945042e-05;0.9999607387749468;-5.4785514709910704e-05;-9.130919118318449e-06;2.739275735495535e-05;0.2299467701606099;0.1301397582414211;4.4197640706178376e-05;0.9998695424074614;7.304735294654759e-05;-3.6523676473273796e-05;-2.739275735495535e-05;-0.005313147336269974;0.043710390880145056
1.359833002090454;-0.17666834384039962;-0.07015000839965446;0.7499931454454177;0.004540991510898017;0.12118385188714098;-0.007262976159826999;-0.0014965911258334158;-9.527892906483729e-06;-1.0096594849105114;1.0084072507818065;-0.09875854921546807;9.507952790004623e-06;-0.0015100123380749279;9.49798273176556e-06;-1.009655589981431;1.0084060407641582;-0.09875459749008776;-9.517922848244341e-06;-3.0680022703219456e-05;0.10000153400113516;0.22997745018331314;0.12992499808249858;1.3517618002945042e-05;0.9999607387749468;-5.4785514709910704e-05;-9.130919118318449e-06;2.739275735495535e-05;0.2299467701606099;0.1301397582414211;2.8857629354561712e-05;0.9998695424074614;6.391643382822915e-05;-3.6523676473273796e-05;-2.739275735495535e-05;-0.005313147336269974;0.04217450113839005
1.379948616027832;-0.17668696521746022;-0.07023133974348347;0.7499811469956911;0.0047060294483784945;0.12114406049553712;-0.0071910179676743045;-0.0014965911258334158;-9.527892906483729e-06;-1.0096594849105114;1.0084072507818065;-0.09875854921546807;9.507952790004623e-06;-0.0015100123380749279;9.49798273176556e-06;-1.009655589981431;1.0084060407641582;-0.09875459749008776;-9.517922848244341e-06;-3.0680022703219456e-05;0.10000153400113516;0.22997745018331314;0.12992499808249858;1.3517618002945042e-05;0.9999607387749468;-5.4785514709910704e-05;-9.130919118318449e-06;2.739275735495535e-05;0.2299467701606099;0.1301397582414211;2.8857629354561712e-05;0.9998848824188128;6.391643382822915e-05;-3.6523676473273796e-05;-2.739275735495535e-05;-0.005313147336269974;0.043710390880145056
1.3999927043914795;-0.17662629021971055;-0.07019268877425364;0.7499990571025782;0.00470530272341345;0.12122467905057138;-0.007243896824464845;-0.0014965911258334158;-9.527892906483729e-06;-1.0096594849105114;1.0084072507818065;-0.09875854921546807;9.507952790004623e-06;-0.0015100123380749279;9.49798273176556e-06;-1.009655589981431;1.0084060407641582;-0.09875459749008776;-9.517922848244341e-06;-3.0680022703219456e-05;0.10000153400113516;0.22997745018331314;0.12992499808249858;-1.8223933486716248e-06;0.9999607387749468;-5.4785514709910704e-05;-9.130919118318449e-06;2.739275735495535e-05;0.2299467701606099;0.1301397582414211;2.8857629354561712e-05;0.9998848824188128;6.391643382822915e-05;-3.6523676473273796e-05;-2.739275735495535e-05;-0.005313147336269974;0.043710390880145056
1.4198660850524902;-0.17663139491172303;-0.07011697425484564;0.750004937224934;0.004737347951453222;0.12121412940861281;-0.0073564793448914695;-0.0014965911258334158;-9.527892906483729e-06;-1.0096594849105114;1.0084072507818065;-0.09875854921546807;9.507952790004623e-06;-0.0015100123380749279;-2.991017471806051e-08;-1.009655589981431;1.0084060407641582;-0.09875459749008776;-9.517922848244341e-06;-3.0680022703219456e-05;0.10000153400113516;0.22997745018331314;0.12992499808249858;-1.8223933486716248e-06;0.9999607387749468;-5.4785514709910704e-05;-9.130919118318449e-06;2.739275735495535e-05;0.2299467701606099;0.1301397582414211;2.8857629354561712e-05;0.9998848824188128;7.304735294654759e-05;-3.6523676473273796e-05;-2.739275735495535e-05;-0.005313147336269974;0.043710390880145056
1.439932107925415;-0.17657800191047124;-0.07015601501825244;0.7500138588099271;0.004667111003209507;0.12129236335936315;-0.007284956062697201;-0.0014965911258334158;-9.527892906483729e-06;-1.0096594849105114;1.0084072507818065;-0.09875854921546807;9.507952790004623e-06;-0.0015100123380749279;-2.991017471806051e-08;-1.009655589981431;1.0084060407641582;-0.09875459749008776;-9.517922848244341e-06;-3.0680022703219456e-05;0.10000153400113516;0.22997745018331314;0.12992499808249858;-1.8223933486716248e-06;0.9999607387749468;-5.4785514709910704e-05;-9.130919118318449e-06;2.739275735495535e-05;0.2299467701606099;0.1301397582414211;2.8857629354561712e-05;0.9998848824188128;7.304735294654759e-05;-3.6523676473273796e-05;-2.739275735495535e-05;-0.005313147336269974;0.043710390880145056
1.4598760604858398;-0.17661365692717698;-0.0701529341319094;0.7500057517302027;0.004714821061750444;0.1212402530377768;-0.007301121350043908;-0.0014965911258334158;-9.527892906483729e-06;-1.0096594849105114;1.0084072507818065;-0.09875854921546807;9.507952790004623e-06;-0.0015100123380749279;-2.991017471806051e-08;-1.009655589981431;1.0084060407641582;-0.09875459749008776;-9.517922848244341e-06;-3.0680022703219456e-05;0.10000153400113516;0.22997745018331314;0.12992499808249858;-1.8223933486716248e-06;0.9999607387749468;-5.4785514709910704e-05;-9.130919118318449e-06;2.739275735495535e-05;0.2299467701606099;0.1301397582414211;2.8857629354561712e-05;0.9998848824188128;6.391643382822915e-05;-3.6523676473273796e-05;-2.739275735495535e-05;-0.005313147336269974;0.043710390880145056
1.479832410812378;-0.17652415812066422;-0.07017944903517125;0.7500243410328784;0.004925026354504717;0.12133982565255391;-0.007315283149094498;-0.0014965911258334158;-9.527892906483729e-06;-1.0096594849105114;1.0084072507818065;-0.09875854921546807;9.507952790004623e-06;-0.0015100123380749279;-2.991017471806051e-08;-1.009655589981431;1.0084060407641582;-0.09875459749008776;-9.517922848244341e-06;-3.0680022703219456e-05;0.10000153400113516;0.22997745018331314;0.12992499808249858;-1.8223933486716248e-06;0.9999607387749468;-5.4785514709910704e-05;-9.130919118318449e-06;2.739275735495535e-05;0.22999279019466476;0.1301397582414211;2.8857629354561712e-05;0.9998848824188128;6.391643382822915e-05;-3.6523676473273796e-05;-2.739275735495535e-05;-0.005313147336269974;0.043710390880145056
1.499854326248169;-0.17659335261726541;-0.07018637719909498;0.7500074038807573;0.004966225406715529;0.12124370566054367;-0.007316254512372054;-0.0014965911258334158;-9.527892906483729e-06;-1.0096594849105114;1.0084072507818065;-0.09875854921546807;9.507952790004623e-06;-0.0015100123380749279;-2.991017471806051e-08;-1.009655589981431;1.0084060407641582;-0.09875459749008776;-9.517922848244341e-06;-3.0680022703219456e-05;0.10000153400113516;0.22997745018331314;0.12992499808249858;-1.8223933486716248e-06;0.9999607387749468;-5.4785514709910704e-05;-9.130919118318449e-06;2.739275735495535e-05;0.2300388102287196;0.1301397582414211;2.8857629354561712e-05;0.9999002224301644;7.304735294654759e-05;-3.6523676473273796e-05;-2.739275735495535e-05;-0.005313147336269974;0.043710390880145056
1.5199215412139893;-0.17663099350142586;-0.07020544214983242;0.7499967557504089;0.005095955908973204;0.12118133943615776;-0.007321899883398383;-0.0014965911258334158;-9.527892906483729e-06;-1.0096594849105114;1.0084072507818065;-0.09875854921546807;9.507952790004623e-06;-0.0015100123380749279;-2.991017471806051e-08;-1.009655589981431;1.0084060407641582;-0.09875459749008776;-9.517922848244341e-06;-3.0680022703219456e-05;0.10000153400113516;0.22997745018331314;0.12992499808249858;-1.8223933486716248e-06;0.9999607387749468;-5.4785514709910704e-05;-9.130919118318449e-06;2.739275735495535e-05;0.2300541502400712;0.1301397582414211;2.8857629354561712e-05;0.9999309024528678;7.304735294654759e-05;-3.6523676473273796e-05;-2.739275735495535e-05;-0.005313147336269974;0.043710390880145056
1.540039300918579;-0.1765239813812858;-0.07021545595138248;0.7500210126068013;0.005282062558187197;0.12130640945065702;-0.0073528230873891945;-0.0014965911258334158;-9.527892906483729e-06;-1.0096594849105114;1.0084072507818065;-0.09875854921546807;9.507952790004623e-06;-0.0015100123380749279;-2.991017471806051e-08;-1.009655589981431;1.0084060407641582;-0.09875459749008776;-9.517922848244341e-06;-3.0680022703219456e-05;0.10000153400113516;0.22997745018331314;0.1299403380938502;-1.8223933486716248e-06;0.9999607387749468;-5.4785514709910704e-05;-9.130919118318449e-06;2.739275735495535e-05;0.2300541502400712;0.1301397582414211;-3.2502416051904966e-05;1.0001149825890872;6.391643382822915e-05;-3.195821691411457e-05;-2.2827297795796123e-05;-0.005313147336269974;0.043710390880145056
1.5599477291107178;-0.17672219288445318;-0.07017400567341656;0.7499782137360727;0.005147676588663297;0.12105454277129987;-0.007378682166805463;-0.0014965911258334158;-9.527892906483729e-06;-1.0096594849105114;1.0084072507818065;-0.09875854921546807;9.507952790004623e-06;-0.0015100123380749279;-2.991017471806051e-08;-1.009655589981431;1.0084060407641582;-0.09875459749008776;-9.517922848244341e-06;-3.0680022703219456e-05;0.10000153400113516;0.22997745018331314;0.1299556781052018;-1.8223933486716248e-06;0.9999607387749468;-5.4785514709910704e-05;-9.130919118318449e-06;2.739275735495535e-05;0.2300541502400712;0.1301397582414211;-4.784242740352162e-05;1.0001303226004388;6.391643382822915e-05;-3.6523676473273796e-05;-2.739275735495535e-05;-0.005313147336269974;0.04217450113839005
1.5798389911651611;-0.17678545568382195;-0.0701501608679987;0.749965534673261;0.005226435848585096;0.12096249589896452;-0.007431402005615794;-0.0014965911258334158;-9.527892906483729e-06;-1.0096594849105114;1.0084072507818065;-0.09875854921546807;9.507952790004623e-06;-0.0015100123380749279;-2.991017471806051e-08;-1.009655589981431;1.0084060407641582;-0.09875459749008776;-9.517922848244341e-06;-3.0680022703219456e-05;0.10000153400113516;0.22997745018331314;0.12997101811655346;-1.8223933486716248e-06;0.9999607387749468;-5.4785514709910704e-05;-9.130919118318449e-06;2.739275735495535e-05;0.2300541502400712;0.1301397582414211;-4.784242740352162e-05;1.0001303226004388;6.391643382822915e-05;-3.195821691411457e-05;-3.195821691411457e-05;-0.005313147336269974;0.043710390880145056
1.5999338626861572;-0.17679446988756345;-0.07017332136252133;0.7499612429952768;0.005271991437785986;0.12094634068680513;-0.007410599567605451;-0.0014965911258334158;-9.527892906483729e-06;-1.0096594849105114;1.0084072507818065;-0.09875854921546807;9.507952790004623e-06;-0.0015100123380749279;-2.991017471806051e-08;-1.009655589981431;1.0084060407641582;-0.09875459749008776;-9.517922848244341e-06;-3.0680022703219456e-05;0.10000153400113516;0.22997745018331314;0.13000169813925666;-1.8223933486716248e-06;0.9999607387749468;-5.4785514709910704e-05;-9.130919118318449e-06;2.739275735495535e-05;0.2300541502400712;0.1301397582414211;-4.784242740352162e-05;1.0001303226004388;7.304735294654759e-05;-3.6523676473273796e-05;-2.739275735495535e-05;-0.005313147336269974;0.04217450113839005
1.6197831630706787;-0.17681116751757334;-0.07018205335747707;0.7499564894288827;0.005305192329851599;0.12092099187901506;-0.007406780890242191;-0.0014965911258334158;-9.527892906483729e-06;-1.0096594849105114;1.0084072507818065;-0.09875854921546807;9.507952790004623e-06;-0.0015100123380749279;-2.991017471806051e-08;-1.009655589981431;1.0084060407641582;-0.09875459749008776;-9.517922848244341e-06;-3.0680022703219456e-05;0.10000153400113516;0.22997745018331314;0.1300477181733114;-1.8223933486716248e-06;0.9999607387749468;-5.4785514709910704e-05;-9.130919118318449e-06;2.739275735495535e-05;0.2300541502400712;0.1301397582414211;-4.784242740352162e-05;1.0001456626117904;7.304735294654759e-05;-3.195821691411457e-05;-3.195821691411457e-05;-0.005313147336269974;0.043710390880145056
1.6397888660430908;-0.17674983223473922;-0.07031397740670821;0.7499585901869071;0.005352812452975372;0.12099934696244766;-0.007235555973620684;-0.0014965911258334158;-9.527892906483729e-06;-1.0096594849105114;1.0084072507818065;-0.09875854921546807;9.507952790004623e-06;-0.0015100123380749279;-2.991017471806051e-08;-1.009655589981431;1.0084060407641582;-0.09875459749008776;-9.517922848244341e-06;-3.0680022703219456e-05;0.10000153400113516;0.22997745018331314;0.1301397582414211;-1.8223933486716248e-06;0.9999607387749468;-5.4785514709910704e-05;-9.130919118318449e-06;2.739275735495535e-05;0.2300541502400712;0.1301397582414211;-4.784242740352162e-05;1.0001456626117904;6.391643382822915e-05;-3.6523676473273796e-05;-2.739275735495535e-05;-0.005313147336269974;0.043710390880145056
1.6598362922668457;-0.17685263712270652;-0.070361884919776;0.7499298603884057;0.0053604999442591434;0.12086192205331929;-0.00717194856377303;-0.0014965911258334158;-9.527892906483729e-06;-1.0096594849105114;1.0084072507818065;-0.09875854921546807;9.507952790004623e-06;-0.0015100123380749279;-2.991017471806051e-08;-1.009655589981431;1.0084060407641582;-0.09875459749008776;-9.517922848244341e-06;-3.0680022703219456e-05;0.10000153400113516;0.22997745018331314;0.13015509825277272;-1.8223933486716248e-06;0.9999607387749468;-5.4785514709910704e-05;-9.130919118318449e-06;2.739275735495535e-05;0.2300541502400712;0.1301397582414211;-4.784242740352162e-05;1.0001456626117904;6.391643382822915e-05;-3.6523676473273796e-05;-2.739275735495535e-05;-0.005313147336269974;0.043710390880145056
1.6801424026489258;-0.17682665982433282;-0.07035042999856873;0.749937060681281;0.005474182644860952;0.12088563835097889;-0.007215457045469975;-0.0014965911258334158;-9.527892906483729e-06;-1.0096594849105114;1.0084072507818065;-0.09875854921546807;9.507952790004623e-06;-0.0015100123380749279;-2.991017471806051e-08;-1.009655589981431;1.0084060407641582;-0.09875459749008776;-9.517922848244341e-06;-3.0680022703219456e-05;0.10000153400113516;0.22997745018331314;0.13015509825277272;-1.8223933486716248e-06;0.9999607387749468;-5.4785514709910704e-05;-9.130919118318449e-06;2.739275735495535e-05;0.2300541502400712;0.13012441823006948;-4.784242740352162e-05;1.0001456626117904;6.391643382822915e-05;-3.6523676473273796e-05;-2.739275735495535e-05;-0.005313147336269974;0.043710390880145056
1.6998469829559326;-0.17693187773245192;-0.0703942064071192;0.7499081356774799;0.005615191738364051;0.12073224482964048;-0.007190292778419753;-0.0014965911258334158;-9.527892906483729e-06;-1.0096594849105114;1.0084072507818065;-0.09875854921546807;9.507952790004623e-06;-0.0015100123380749279;-2.991017471806051e-08;-1.009655589981431;1.0084060407641582;-0.09875459749008776;-9.517922848244341e-06;-3.0680022703219456e-05;0.10000153400113516;0.22997745018331314;0.13015509825277272;-1.8223933486716248e-06;0.9999607387749468;-5.4785514709910704e-05;-9.130919118318449e-06;2.739275735495535e-05;0.2300541502400712;0.13012441823006948;-4.784242740352162e-05;1.0001456626117904;7.304735294654759e-05;-3.6523676473273796e-05;-2.739275735495535e-05;-0.005313147336269974;0.043710390880145056
1.719775676727295;-0.1769442530336622;-0.07041491885002207;0.7499032711827555;0.005552140817340315;0.12072191537301638;-0.007146282079277155;-0.0014965911258334158;-9.527892906483729e-06;-1.0096594849105114;1.0084072507818065;-0.09875854921546807;9.507952790004623e-06;-0.0015100123380749279;-2.991017471806051e-08;-1.009655589981431;1.0084060407641582;-0.09875459749008776;-9.517922848244341e-06;-3.0680022703219456e-05;0.10000153400113516;0.22997745018331314;0.13015509825277272;-1.8223933486716248e-06;0.9999607387749468;-5.4785514709910704e-05;-9.130919118318449e-06;2.739275735495535e-05;0.2300541502400712;0.13010907821871787;-4.784242740352162e-05;1.0001456626117904;7.304735294654759e-05;-3.6523676473273796e-05;-2.739275735495535e-05;-0.005313147336269974;0.043710390880145056
1.7399420738220215;-0.1768951379735556;-0.07042305883500811;0.7499140941164733;0.005601442882857881;0.12078277878861923;-0.007146735647947091;-0.0014965911258334158;-9.527892906483729e-06;-1.0096594849105114;1.0084072507818065;-0.09875854921546807;9.507952790004623e-06;-0.0015100123380749279;-2.991017471806051e-08;-1.009655589981431;1.0084060407641582;-0.09875459749008776;-9.517922848244341e-06;-3.0680022703219456e-05;0.10000153400113516;0.22997745018331314;0.13015509825277272;-1.8223933486716248e-06;0.9999607387749468;-5.4785514709910704e-05;-9.130919118318449e-06;2.739275735495535e-05;0.2300541502400712;0.13010907821871787;-4.784242740352162e-05;1.0001456626117904;6.391643382822915e-05;-3.6523676473273796e-05;-2.739275735495535e-05;-0.005313147336269974;0.043710390880145056
1.7598028182983398;-0.17686698492294442;-0.07042398339497549;0.7499206476794357;0.005577181117066735;0.12082264227130589;-0.007139291434780447;-0.0014965911258334158;-9.527892906483729e-06;-1.0096594849105114;1.0084072507818065;-0.09875854921546807;9.507952790004623e-06;-0.0015100123380749279;-2.991017471806051e-08;-1.009655589981431;1.0084060407641582;-0.09875459749008776;-9.517922848244341e-06;-3.0680022703219456e-05;0.10000153400113516;0.22997745018331314;0.13015509825277272;-1.8223933486716248e-06;0.9999607387749468;-5.4785514709910704e-05;-9.130919118318449e-06;2.739275735495535e-05;0.2300541502400712;0.13010907821871787;-4.784242740352162e-05;1.0001456626117904;6.391643382822915e-05;-3.6523676473273796e-05;-2.739275735495535e-05;-0.005313147336269974;0.043710390880145056
1.7798361778259277;-0.17685139688221754;-0.07041836636910441;0.7499248513735279;0.00551491311558711;0.1208493203996777;-0.007131676421560686;-0.0014965911258334158;-9.527892906483729e-06;-1.0096594849105114;1.0084072507818065;-0.09875854921546807;9.507952790004623e-06;-0.0015100123380749279;-2.991017471806051e-08;-1.009655589981431;1.0084060407641582;-0.09875459749008776;-9.517922848244341e-06;-3.0680022703219456e-05;0.10000153400113516;0.22997745018331314;0.13015509825277272;-1.8223933486716248e-06;0.9999607387749468;-5.4785514709910704e-05;-9.130919118318449e-06;2.739275735495535e-05;0.2300541502400712;0.13009373820736625;-4.784242740352162e-05;1.0001456626117904;6.391643382822915e-05;-3.6523676473273796e-05;-2.739275735495535e-05;-0.005313147336269974;0.043710390880145056
1.7998218536376953;-0.17697878486521398;-0.07039635018045222;0.7498968657074095;0.00549032755347082;0.12068160682984368;-0.007157064436606997;-0.0014965911258334158;-9.527892906483729e-06;-1.0096594849105114;1.0084072507818065;-0.09875854921546807;9.507952790004623e-06;-0.0015100123380749279;-2.991017471806051e-08;-1.009655589981431;1.0084060407641582;-0.09875459749008776;-9.517922848244341e-06;-3.0680022703219456e-05;0.10000153400113516;0.22997745018331314;0.13015509825277272;-1.8223933486716248e-06;0.9999607387749468;-5.4785514709910704e-05;-9.130919118318449e-06;2.739275735495535e-05;0.2300541502400712;0.13007839819601466;-4.784242740352162e-05;1.0001456626117904;7.304735294654759e-05;-3.6523676473273796e-05;-2.739275735495535e-05;-0.005313147336269974;0.04217450113839005
1.8199703693389893;-0.1771011512976111;-0.07045473417706812;0.7498624928945257;0.005525041565212721;0.12051557839873595;-0.007085772924734405;-0.0014965911258334158;-9.527892906483729e-06;-1.0096594849105114;1.0084072507818065;-0.09875854921546807;9.507952790004623e-06;-0.0015100123380749279;-2.991017471806051e-08;-1.009655589981431;1.0084060407641582;-0.09875459749008776;-9.517922848244341e-06;-3.0680022703219456e-05;0.10000153400113516;0.22997745018331314;0.13015509825277272;-1.8223933486716248e-06;0.9999607387749468;-5.4785514709910704e-05;-9.130919118318449e-06;2.739275735495535e-05;0.2300541502400712;0.13000169813925666;-4.784242740352162e-05;1.0001456626117904;7.304735294654759e-05;-3.6523676473273796e-05;-2.739275735495535e-05;-0.005313147336269974;0.043710390880145056
1.8398115634918213;-0.1771118722208843;-0.07047033961870727;0.7498584943583223;0.005700864630372492;0.12048463504694412;-0.007107434852287834;-0.0014965911258334158;-9.527892906483729e-06;-1.0096594849105114;1.0084072507818065;-0.09875854921546807;9.507952790004623e-06;-0.0015100123380749279;-2.991017471806051e-08;-1.009655589981431;1.0084060407641582;-0.09875459749008776;-9.517922848244341e-06;-3.0680022703219456e-05;0.10000153400113516;0.22997745018331314;0.13015509825277272;-1.8223933486716248e-06;0.9999607387749468;-5.4785514709910704e-05;-9.130919118318449e-06;2.739275735495535e-05;0.2300541502400712;0.1299556781052018;-4.784242740352162e-05;1.0001456626117904;6.391643382822915e-05;-3.6523676473273796e-05;-2.739275735495535e-05;-0.005313147336269974;0.043710390880145056
1.859795331954956;-0.17715895762353412;-0.07055434817665623;0.749839471684442;0.005681784943689678;0.12042431578826641;-0.006986941687971935;-0.0014965911258334158;-9.527892906483729e-06;-1.0096594849105114;1.0084072507818065;-0.09875854921546807;9.507952790004623e-06;-0.0015100123380749279;-2.991017471806051e-08;-1.009655589981431;1.0084060407641582;-0.09875459749008776;-9.517922848244341e-06;-3.0680022703219456e-05;0.10000153400113516;0.22997745018331314;0.13015509825277272;-1.8223933486716248e-06;0.9999607387749468;-5.4785514709910704e-05;-9.130919118318449e-06;2.739275735495535e-05;0.2300541502400712;0.1299403380938502;-6.318243875513829e-05;1.0001456626117904;6.391643382822915e-05;-3.6523676473273796e-05;-2.739275735495535e-05;-0.005313147336269974;0.043710390880145056
1.8799793720245361;-0.17712554561230198;-0.07059604124383903;0.7498434407668946;0.005554985582480319;0.12048132027905566;-0.006897889308461938;-0.0014965911258334158;-9.527892906483729e-06;-1.0096594849105114;1.0084072507818065;-0.09875854921546807;9.507952790004623e-06;-0.0015100123380749279;-2.991017471806051e-08;-1.009655589981431;1.0084060407641582;-0.09875459749008776;-9.517922848244341e-06;-3.0680022703219456e-05;0.10000153400113516;0.22997745018331314;0.13015509825277272;-1.8223933486716248e-06;0.9999607387749468;-5.4785514709910704e-05;-9.130919118318449e-06;2.739275735495535e-05;0.2300541502400712;0.12992499808249858;-6.318243875513829e-05;1.0001456626117904;6.391643382822915e-05;-3.195821691411457e-05;-3.195821691411457e-05;-0.005313147336269974;0.043710390880145056
1.8998024463653564;-0.17714372068694076;-0.07052864706536562;0.749845489266428;0.005573779509120335;0.12045474617269955;-0.00699584676687943;-0.0014965911258334158;-9.527892906483729e-06;-1.0096594849105114;1.0084072507818065;-0.09875854921546807;9.507952790004623e-06;-0.0015100123380749279;-2.991017471806051e-08;-1.009655589981431;1.0084060407641582;-0.09875459749008776;-9.517922848244341e-06;-3.0680022703219456e-05;0.10000153400113516;0.22997745018331314;0.13015509825277272;-1.8223933486716248e-06;0.9999607387749468;-5.4785514709910704e-05;-9.130919118318449e-06;2.739275735495535e-05;0.2300541502400712;0.12992499808249858;-6.318243875513829e-05;1.0001456626117904;7.304735294654759e-05;-3.6523676473273796e-05;-2.739275735495535e-05;-0.005313147336269974;0.043710390880145056
1.9199528694152832;-0.1771946735985104;-0.07052986416337526;0.7498333358275732;0.00562897305071682;0.12038153142157226;-0.007008111771295286;-0.0014965911258334158;-9.527892906483729e-06;-1.0096594849105114;1.0084072507818065;-0.09875854921546807;9.507952790004623e-06;-0.0015100123380749279;-2.991017471806051e-08;-1.009655589981431;1.0084060407641582;-0.09875459749008776;-9.517922848244341e-06;-3.0680022703219456e-05;0.10000153400113516;0.22999279019466476;0.13015509825277272;-1.8223933486716248e-06;0.9999607387749468;-5.4785514709910704e-05;-9.130919118318449e-06;2.739275735495535e-05;0.2300541502400712;0.12992499808249858;-6.318243875513829e-05;1.0001456626117904;7.304735294654759e-05;-3.195821691411457e-05;-3.195821691411457e-05;-0.005313147336269974;0.043710390880145056
1.9398415088653564;-0.17723856461864446;-0.07058074414446387;0.7498181748776361;0.005585859071205291;0.12032751442536609;-0.006927497242875479;-0.0014965911258334158;-9.527892906483729e-06;-1.0096594849105114;1.0084072507818065;-0.09875854921546807;9.507952790004623e-06;-0.0015100123380749279;-2.991017471806051e-08;-1.009655589981431;1.0084060407641582;-0.09875459749008776;-9.517922848244341e-06;-3.0680022703219456e-05;0.10000153400113516;0.22999279019466476;0.13015509825277272;-1.8223933486716248e-06;0.9999607387749468;-5.4785514709910704e-05;-9.130919118318449e-06;2.739275735495535e-05;0.2300541502400712;0.12992499808249858;-6.318243875513829e-05;1.0001456626117904;6.391643382822915e-05;-3.6523676473273796e-05;-2.739275735495535e-05;-0.005313147336269974;0.04217450113839005
1.9599742889404297;-0.17718716899352552;-0.07055344950949;0.7498328903930958;0.005578944201580935;0.12039650442383924;-0.006963149385306013;-0.0014965911258334158;-9.527892906483729e-06;-1.0096594849105114;1.0084072507818065;-0.09875854921546807;9.507952790004623e-06;-0.0015100123380749279;-2.991017471806051e-08;-1.009655589981431;1.0084060407641582;-0.09875459749008776;-9.517922848244341e-06;-3.0680022703219456e-05;0.10000153400113516;0.22999279019466476;0.13015509825277272;-1.8223933486716248e-06;0.9999607387749468;-5.4785514709910704e-05;-9.130919118318449e-06;2.739275735495535e-05;0.2300541502400712;0.12992499808249858;-6.318243875513829e-05;1.0001456626117904;6.391643382822915e-05;-3.6523676473273796e-05;-2.739275735495535e-05;-0.005313147336269974;0.043710390880145056
1.9798753261566162;-0.17707721782671848;-0.07060959478472568;0.7498535788138766;0.005603212789954479;0.12054127246794313;-0.0068906106618554265;-0.0014965911258334158;-9.527892906483729e-06;-1.0096594849105114;1.0084072507818065;-0.09875854921546807;9.507952790004623e-06;-0.0015100123380749279;-2.991017471806051e-08;-1.009655589981431;1.0084060407641582;-0.09875459749008776;-9.517922848244341e-06;-3.0680022703219456e-05;0.10000153400113516;0.22999279019466476;0.13015509825277272;-1.8223933486716248e-06;0.9999607387749468;-5.4785514709910704e-05;-9.130919118318449e-06;2.739275735495535e-05;0.2300541502400712;0.12992499808249858;-6.318243875513829e-05;1.0001456626117904;6.391643382822915e-05;-3.6523676473273796e-05;-2.739275735495535e-05;-0.005313147336269974;0.043710390880145056
1.999964714050293;-0.17708743120769355;-0.07063811174652272;0.7498484810186916;0.005667684871670496;0.12052171423361577;-0.006867076858880057;-0.0014965911258334158;-9.527892906483729e-06;-1.0096594849105114;1.0084072507818065;-0.09875854921546807;9.507952790004623e-06;-0.0015100123380749279;-2.991017471806051e-08;-1.009655589981431;1.0084060407641582;-0.09875459749008776;-9.517922848244341e-06;-3.0680022703219456e-05;0.10000153400113516;0.22999279019466476;0.13015509825277272;-1.8223933486716248e-06;0.9999607387749468;-5.4785514709910704e-05;-9.130919118318449e-06;2.739275735495535e-05;0.2300541502400712;0.12992499808249858;-6.318243875513829e-05;1.0001456626117904;7.304735294654759e-05;-3.6523676473273796e-05;-2.739275735495535e-05;-0.005313147336269974;0.043710390880145056
2.0199661254882812;-0.17720287713953917;-0.07071505423795207;0.7498139549558183;0.005664752522035931;0.12036863111561623;-0.0067608518451519085;-0.0014965911258334158;-9.527892906483729e-06;-1.0096594849105114;1.0084072507818065;-0.09875854921546807;9.507952790004623e-06;-0.0015100123380749279;-2.991017471806051e-08;-1.009655589981431;1.0084060407641582;-0.09875459749008776;-9.517922848244341e-06;-3.0680022703219456e-05;0.10000153400113516;0.22999279019466476;0.13015509825277272;-1.8223933486716248e-06;0.9999607387749468;-5.4785514709910704e-05;-9.130919118318449e-06;2.739275735495535e-05;0.2300541502400712;0.12992499808249858;-6.318243875513829e-05;1.0001456626117904;7.304735294654759e-05;-3.6523676473273796e-05;-2.739275735495535e-05;-0.005313147336269974;0.043710390880145056
2.0399515628814697;-0.1772407973172443;-0.07067739783677897;0.749808542769594;0.005802102291042538;0.12030462246062262;-0.00684697105416329;-0.0014965911258334158;-9.527892906483729e-06;-1.0096594849105114;1.0084072507818065;-0.09875854921546807;9.507952790004623e-06;-0.0015100123380749279;-2.991017471806051e-08;-1.009655589981431;1.0084060407641582;-0.09875459749008776;-9.517922848244341e-06;-3.0680022703219456e-05;0.10000153400113516;0.22999279019466476;0.13015509825277272;-1.8223933486716248e-06;0.9999607387749468;-5.4785514709910704e-05;-9.130919118318449e-06;2.739275735495535e-05;0.2300541502400712;0.12992499808249858;-6.318243875513829e-05;1.0001456626117904;6.391643382822915e-05;-3.6523676473273796e-05;-2.739275735495535e-05;-0.005313147336269974;0.043710390880145056
2.059969425201416;-0.17722719940230436;-0.07068150519026019;0.7498113697623877;0.005875825067162403;0.12031574047947015;-0.006859293118145649;-0.0014965911258334158;-9.527892906483729e-06;-1.0096594849105114;1.0084072507818065;-0.09875854921546807;9.507952790004623e-06;-0.0015100123380749279;-2.991017471806051e-08;-1.009655589981431;1.0084060407641582;-0.09875459749008776;-9.517922848244341e-06;-3.0680022703219456e-05;0.10000153400113516;0.22999279019466476;0.13015509825277272;-1.8223933486716248e-06;0.9999607387749468;-5.4785514709910704e-05;-9.130919118318449e-06;2.739275735495535e-05;0.2300541502400712;0.12992499808249858;-6.318243875513829e-05;1.0001456626117904;6.391643382822915e-05;-3.6523676473273796e-05;-2.739275735495535e-05;-0.0068490370780249785;0.043710390880145056
2.0798308849334717;-0.17731685665203564;-0.07064529287503583;0.7497935852956698;0.005900209033335958;0.12019355569775803;-0.006916095596098267;-0.0014965911258334158;-9.527892906483729e-06;-1.0096594849105114;1.0084072507818065;-0.09875854921546807;9.507952790004623e-06;-0.0015100123380749279;-2.991017471806051e-08;-1.009655589981431;1.0084060407641582;-0.09875459749008776;-9.517922848244341e-06;-3.835002837902085e-05;0.09999386399545936;0.22999279019466476;0.13015509825277272;-1.8223933486716248e-06;0.9999607387749468;-5.4785514709910704e-05;-9.130919118318449e-06;2.739275735495535e-05;0.2300541502400712;0.12992499808249858;-6.318243875513829e-05;1.0001456626117904;5.4785514709910704e-05;-3.6523676473273796e-05;-2.739275735495535e-05;-0.005313147336269974;0.043710390880145056
2.0999276638031006;-0.17733666873788612;-0.07064055660591984;0.7497893459447448;0.00589389860746974;0.1201676982549353;-0.006921256069309164;-0.0014965911258334158;-9.527892906483729e-06;-1.0096594849105114;1.0084072507818065;-0.09875854921546807;9.507952790004623e-06;-0.0015100123380749279;-2.991017471806051e-08;-1.009655589981431;1.0084060407641582;-0.09875459749008776;-9.517922848244341e-06;-3.835002837902085e-05;0.09999386399545936;0.22999279019466476;0.13015509825277272;-1.8223933486716248e-06;0.9999760787862984;-5.4785514709910704e-05;-9.130919118318449e-06;2.739275735495535e-05;0.2300541502400712;0.12992499808249858;-6.318243875513829e-05;1.0001456626117904;7.304735294654759e-05;-3.6523676473273796e-05;-2.739275735495535e-05;-0.005313147336269974;0.043710390880145056
2.1197807788848877;-0.17720830854885877;-0.07066004821810087;0.7498178569332428;0.005910158352440768;0.12033749158835902;-0.006897247817890801;-0.0014965911258334158;-9.527892906483729e-06;-1.0096594849105114;1.0084072507818065;-0.09875854921546807;9.507952790004623e-06;-0.0015100123380749279;-2.991017471806051e-08;-1.009655589981431;1.0084060407641582;-0.09875459749008776;-9.517922848244341e-06;-3.835002837902085e-05;0.09999386399545936;0.22999279019466476;0.13015509825277272;-1.8223933486716248e-06;0.9999760787862984;-5.4785514709910704e-05;-9.130919118318449e-06;2.739275735495535e-05;0.2300541502400712;0.12992499808249858;-6.318243875513829e-05;1.0001456626117904;7.304735294654759e-05;-3.6523676473273796e-05;-2.739275735495535e-05;-0.005313147336269974;0.043710390880145056
2.140089273452759;-0.17723035211998087;-0.0705716732854301;0.7498209698494801;0.00603749672682187;0.12029527420003101;-0.007050931443883368;-0.0014965911258334158;-9.527892906483729e-06;-1.0096594849105114;1.0084072507818065;-0.09875854921546807;9.507952790004623e-06;-0.0015100123380749279;-2.991017471806051e-08;-1.009655589981431;1.0084060407641582;-0.09875459749008776;-9.517922848244341e-06;-3.835002837902085e-05;0.09999386399545936;0.22999279019466476;0.13015509825277272;-1.8223933486716248e-06;0.9999760787862984;-5.4785514709910704e-05;-9.130919118318449e-06;2.739275735495535e-05;0.2300541502400712;0.12992499808249858;-6.318243875513829e-05;1.0001456626117904;6.391643382822915e-05;-3.6523676473273796e-05;-2.739275735495535e-05;-0.005313147336269974;0.043710390880145056
2.1598098278045654;-0.1771590858788909;-0.07059327449375981;0.7498357776844856;0.0060750977681129645;0.12038689212800743;-0.007029697670244922;-0.0014965911258334158;-9.527892906483729e-06;-1.0096594849105114;1.0084072507818065;-0.09875854921546807;9.507952790004623e-06;-0.0015100123380749279;-2.991017471806051e-08;-1.009655589981431;1.0084060407641582;-0.09875459749008776;-9.517922848244341e-06;-3.835002837902085e-05;0.09999386399545936;0.23000813020601635;0.13015509825277272;-1.8223933486716248e-06;0.9999760787862984;-5.4785514709910704e-05;-9.130919118318449e-06;2.739275735495535e-05;0.2300541502400712;0.12992499808249858;-6.318243875513829e-05;1.0001456626117904;6.391643382822915e-05;-3.195821691411457e-05;-2.2827297795796123e-05;-0.005313147336269974;0.04217450113839005
2.1798152923583984;-0.17713681741516948;-0.07052293353204991;0.7498476574417978;0.005969726916326229;0.12042612636963511;-0.007100913351685075;-0.0014965911258334158;-9.527892906483729e-06;-1.0096594849105114;1.0084072507818065;-0.09875854921546807;9.507952790004623e-06;-0.0015100123380749279;-2.991017471806051e-08;-1.009655589981431;1.0084060407641582;-0.09875459749008776;-9.517922848244341e-06;-3.835002837902085e-05;0.09999386399545936;0.23000813020601635;0.13015509825277272;-1.8223933486716248e-06;0.9999760787862984;-5.4785514709910704e-05;-9.130919118318449e-06;2.739275735495535e-05;0.2300541502400712;0.12992499808249858;-6.318243875513829e-05;1.0001456626117904;5.4785514709910704e-05;-3.6523676473273796e-05;-2.739275735495535e-05;-0.005313147336269974;0.043710390880145056
2.1997928619384766;-0.17719373760734355;-0.07051929335717935;0.749834551235162;0.005987907801780988;0.12034845200036537;-0.007110883183872998;-0.0014965911258334158;-9.527892906483729e-06;-1.0096594849105114;1.0084072507818065;-0.09875854921546807;9.507952790004623e-06;-0.0015100123380749279;-2.991017471806051e-08;-1.009655589981431;1.0084060407641582;-0.09875459749008776;-9.517922848244341e-06;-3.835002837902085e-05;0.09999386399545936;0.23000813020601635;0.13015509825277272;-1.8223933486716248e-06;0.9999760787862984;-5.4785514709910704e-05;-9.130919118318449e-06;2.739275735495535e-05;0.2300541502400712;0.12992499808249858;-6.318243875513829e-05;1.0001456626117904;7.304735294654759e-05;-3.6523676473273796e-05;-2.739275735495535e-05;-0.005313147336269974;0.04217450113839005
2.2200183868408203;-0.17726573014069272;-0.07042136865465196;0.7498267382291629;0.006034520043017241;0.12024727455241904;-0.007258355902081907;-0.0014965911258334158;-9.527892906483729e-06;-1.0096594849105114;1.0084072507818065;-0.09875854921546807;9.507952790004623e-06;-0.0015100123380749279;-2.991017471806051e-08;-1.009655589981431;1.0084060407641582;-0.09875459749008776;-9.517922848244341e-06;-3.835002837902085e-05;0.09999386399545936;0.23000813020601635;0.13015509825277272;-1.8223933486716248e-06;0.9999760787862984;-5.4785514709910704e-05;-9.130919118318449e-06;2.739275735495535e-05;0.2300541502400712;0.12992499808249858;-6.318243875513829e-05;1.0001456626117904;7.304735294654759e-05;-3.195821691411457e-05;-3.195821691411457e-05;-0.005313147336269974;0.043710390880145056
2.2398412227630615;-0.17721156778801417;-0.07045258872821561;0.7498366079303542;0.005869089276366402;0.12033550085758139;-0.007174091045075236;-0.0014965911258334158;-9.527892906483729e-06;-1.0096594849105114;1.0084072507818065;-0.09875854921546807;9.507952790004623e-06;-0.0015100123380749279;-2.991017471806051e-08;-1.009655589981431;1.0084060407641582;-0.09875459749008776;-9.517922848244341e-06;-3.835002837902085e-05;0.09999386399545936;0.23000813020601635;0.13015509825277272;-1.8223933486716248e-06;0.9999760787862984;-5.4785514709910704e-05;-9.130919118318449e-06;2.739275735495535e-05;0.2300541502400712;0.12992499808249858;-6.318243875513829e-05;1.0001456626117904;6.391643382822915e-05;-3.6523676473273796e-05;-2.739275735495535e-05;-0.005313147336269974;0.043710390880145056
2.259859323501587;-0.1772930353448018;-0.07044040765328081;0.7498184941682614;0.0059717569675497365;0.12021697415364618;-0.007216829352043767;-0.0014965911258334158;-9.527892906483729e-06;-1.0096594849105114;1.0084072507818065;-0.09875854921546807;9.507952790004623e-06;-0.0015100123380749279;-2.991017471806051e-08;-1.009655589981431;1.0084060407641582;-0.09875459749008776;-9.517922848244341e-06;-3.835002837902085e-05;0.09999386399545936;0.23000813020601635;0.13015509825277272;-1.8223933486716248e-06;0.9999760787862984;-5.4785514709910704e-05;-9.130919118318449e-06;2.739275735495535e-05;0.2300541502400712;0.12992499808249858;-6.318243875513829e-05;1.0001456626117904;6.391643382822915e-05;-3.6523676473273796e-05;-2.739275735495535e-05;-0.005313147336269974;0.043710390880145056
2.2799527645111084;-0.1773355101037558;-0.07044049721358836;0.7498084414151631;0.0059788852145624734;0.12015964582138469;-0.007218808564806585;-0.0014965911258334158;-9.527892906483729e-06;-1.0096594849105114;1.0084072507818065;-0.09875854921546807;9.507952790004623e-06;-0.0015100123380749279;-2.991017471806051e-08;-1.009655589981431;1.0084060407641582;-0.09875459749008776;-9.517922848244341e-06;-3.835002837902085e-05;0.09999386399545936;0.23000813020601635;0.13015509825277272;-1.8223933486716248e-06;0.9999760787862984;-5.4785514709910704e-05;-9.130919118318449e-06;2.739275735495535e-05;0.2300541502400712;0.12992499808249858;-6.318243875513829e-05;1.0001456626117904;7.304735294654759e-05;-3.6523676473273796e-05;-2.739275735495535e-05;-0.005313147336269974;0.043710390880145056
2.2999801635742188;-0.17725025823961554;-0.07045820248865765;0.7498269355424291;0.006043681465927074;0.12026730572645619;-0.007209539678381838;-0.0014965911258334158;-9.527892906483729e-06;-1.0096594849105114;1.0084072507818065;-0.09875854921546807;9.507952790004623e-06;-0.0015100123380749279;9.49798273176556e-06;-1.009655589981431;1.0084060407641582;-0.09875459749008776;-9.517922848244341e-06;-3.835002837902085e-05;0.09999386399545936;0.230023470217368;0.13015509825277272;-1.8223933486716248e-06;0.9999760787862984;-5.4785514709910704e-05;-9.130919118318449e-06;2.739275735495535e-05;0.2300541502400712;0.12992499808249858;-6.318243875513829e-05;1.0001456626117904;7.304735294654759e-05;-3.6523676473273796e-05;-2.739275735495535e-05;-0.005313147336269974;0.043710390880145056
2.319946050643921;-0.17739295794765927;-0.07044975889816547;0.7497939820715177;0.006063614933404429;0.12007502145489778;-0.007227311015093942;-0.0014965911258334158;-9.527892906483729e-06;-1.0096594849105114;1.0084072507818065;-0.09875854921546807;9.507952790004623e-06;-0.0015100123380749279;9.49798273176556e-06;-1.009655589981431;1.0084060407641582;-0.09875459749008776;-9.517922848244341e-06;-3.835002837902085e-05;0.09999386399545936;0.230023470217368;0.13015509825277272;-1.8223933486716248e-06;0.9999760787862984;-5.4785514709910704e-05;-9.130919118318449e-06;2.739275735495535e-05;0.2300541502400712;0.12992499808249858;-6.318243875513829e-05;1.0001456626117904;6.391643382822915e-05;-3.6523676473273796e-05;-2.739275735495535e-05;-0.005313147336269974;0.043710390880145056
2.3397812843322754;-0.17743826009534233;-0.07038781281478469;0.7497890805222368;0.006158872920461011;0.12000508702006736;-0.007336788029281937;-0.0014965911258334158;-9.527892906483729e-06;-1.0096594849105114;1.0084072507818065;-0.09875854921546807;9.507952790004623e-06;-0.0015100123380749279;9.49798273176556e-06;-1.009655589981431;1.0084060407641582;-0.09875459749008776;-9.517922848244341e-06;-3.835002837902085e-05;0.09999386399545936;0.230023470217368;0.1301397582414211;-1.8223933486716248e-06;0.9999760787862984;-5.4785514709910704e-05;-9.130919118318449e-06;2.739275735495535e-05;0.2300541502400712;0.12992499808249858;-6.318243875513829e-05;1.0001456626117904;6.391643382822915e-05;-3.6523676473273796e-05;-2.739275735495535e-05;-0.005313147336269974;0.04217450113839005
2.359809398651123;-0.17746145367032645;-0.07043956264319917;0.7497787314166375;0.006248945863126329;0.11996594372513905;-0.007287579865568984;-0.0014965911258334158;-9.527892906483729e-06;-1.0096594849105114;1.0084072507818065;-0.09875854921546807;9.507952790004623e-06;-0.0015100123380749279;9.49798273176556e-06;-1.009655589981431;1.0084060407641582;-0.09875459749008776;-9.517922848244341e-06;-3.835002837902085e-05;0.09999386399545936;0.230023470217368;0.13012441823006948;-1.8223933486716248e-06;0.9999760787862984;-5.4785514709910704e-05;-9.130919118318449e-06;2.739275735495535e-05;0.2300541502400712;0.12992499808249858;-6.318243875513829e-05;1.0001303226004388;6.391643382822915e-05;-3.6523676473273796e-05;-2.739275735495535e-05;-0.005313147336269974;0.043710390880145056
2.3799543380737305;-0.17740652799580028;-0.0704380442065803;0.7497918720296455;0.0063007344748773455;0.12003426292367833;-0.007301942376125903;-0.0014965911258334158;-9.527892906483729e-06;-1.0096594849105114;1.0084072507818065;-0.09875854921546807;9.507952790004623e-06;-0.0015100123380749279;9.49798273176556e-06;-1.009655589981431;1.0084060407641582;-0.09875459749008776;-9.517922848244341e-06;-3.835002837902085e-05;0.09999386399545936;0.230023470217368;0.13010907821871787;-1.8223933486716248e-06;0.9999760787862984;-5.4785514709910704e-05;-9.130919118318449e-06;2.739275735495535e-05;0.2300541502400712;0.12992499808249858;-6.318243875513829e-05;1.0001149825890872;7.304735294654759e-05;-3.6523676473273796e-05;-2.739275735495535e-05;-0.005313147336269974;0.043710390880145056
2.399791955947876;-0.1773000533334693;-0.0704276149892712;0.7498180364220142;0.006157833007568917;0.12018980220693554;-0.007280312584287733;-0.0014965911258334158;-9.527892906483729e-06;-1.0096594849105114;1.0084072507818065;-0.09875854921546807;9.507952790004623e-06;-0.0015100123380749279;9.49798273176556e-06;-1.009655589981431;1.0084060407641582;-0.09875459749008776;-9.517922848244341e-06;-3.835002837902085e-05;0.09999386399545936;0.230023470217368;0.13007839819601466;-1.8223933486716248e-06;0.9999760787862984;-5.4785514709910704e-05;-9.130919118318449e-06;2.739275735495535e-05;0.2300388102287196;0.12992499808249858;-6.318243875513829e-05;1.0000996425777355;7.304735294654759e-05;-3.6523676473273796e-05;-2.739275735495535e-05;-0.005313147336269974;0.04217450113839005
2.419914484024048;-0.1773456975367619;-0.07034230178502132;0.7498152504141786;0.006188898116802966;0.12012536553704302;-0.007406318538603985;-0.0014965911258334158;-9.527892906483729e-06;-1.0096594849105114;1.0084072507818065;-0.09875854921546807;9.507952790004623e-06;-0.0015100123380749279;9.49798273176556e-06;-1.009655589981431;1.0084060407641582;-0.09875459749008776;-9.517922848244341e-06;-3.835002837902085e-05;0.09999386399545936;0.230023470217368;0.13006305818466302;-1.8223933486716248e-06;0.9999760787862984;-5.4785514709910704e-05;-9.130919118318449e-06;2.739275735495535e-05;0.22997745018331314;0.12992499808249858;-6.318243875513829e-05;1.0000843025663841;6.391643382822915e-05;-3.6523676473273796e-05;-2.739275735495535e-05;-0.005313147336269974;0.043710390880145056
2.439835548400879;-0.17733864500280877;-0.07036760334656977;0.749814544401961;0.006111875563209361;0.12014227599439636;-0.0073523335151836405;-0.0014965911258334158;-9.527892906483729e-06;-1.0096594849105114;1.0084072507818065;-0.09875854921546807;9.507952790004623e-06;-0.0015100123380749279;9.49798273176556e-06;-1.009655589981431;1.0084060407641582;-0.09875459749008776;-9.517922848244341e-06;-3.835002837902085e-05;0.09999386399545936;0.230023470217368;0.12998635812790504;-1.8223933486716248e-06;0.9999760787862984;-5.4785514709910704e-05;-9.130919118318449e-06;2.739275735495535e-05;0.22996211017196155;0.12992499808249858;-6.318243875513829e-05;1.0000843025663841;6.391643382822915e-05;-3.6523676473273796e-05;-2.739275735495535e-05;-0.005313147336269974;0.043710390880145056
2.4597983360290527;-0.17735006304548584;-0.07037262254736684;0.7498113727748205;0.006190470362788198;0.1201196074271051;-0.007364811977417706;-0.0014965911258334158;-9.527892906483729e-06;-1.0096594849105114;1.0084072507818065;-0.09875854921546807;9.507952790004623e-06;-0.0015100123380749279;9.49798273176556e-06;-1.009655589981431;1.0084060407641582;-0.09875459749008776;-9.517922848244341e-06;-3.835002837902085e-05;0.09999386399545936;0.230023470217368;0.12992499808249858;-1.8223933486716248e-06;0.9999760787862984;-5.4785514709910704e-05;-9.130919118318449e-06;2.739275735495535e-05;0.2299467701606099;0.12992499808249858;-6.318243875513829e-05;1.0000689625550323;6.391643382822915e-05;-3.6523676473273796e-05;-2.739275735495535e-05;-0.005313147336269974;0.043710390880145056
2.4799582958221436;-0.1773344994759002;-0.07029472025320399;0.7498223611023136;0.006269781549405609;0.12013228213671659;-0.007491906953783785;-0.0014965911258334158;-9.527892906483729e-06;-1.0096594849105114;1.0084072507818065;-0.09875854921546807;9.507952790004623e-06;-0.0015100123380749279;9.49798273176556e-06;-1.009655589981431;1.0084060407641582;-0.09875459749008776;-9.517922848244341e-06;-3.835002837902085e-05;0.09999386399545936;0.230023470217368;0.12992499808249858;-1.8223933486716248e-06;0.9999760787862984;-5.4785514709910704e-05;-9.130919118318449e-06;2.739275735495535e-05;0.2299467701606099;0.12992499808249858;-6.318243875513829e-05;1.000053622543681;7.304735294654759e-05;-3.6523676473273796e-05;-2.739275735495535e-05;-0.005313147336269974;0.043710390880145056
2.499919891357422;-0.177409851131448;-0.07036581410621909;0.7497978677854313;0.0064570994659283835;0.12001446920747662;-0.0074403177217112594;-0.0014965911258334158;-9.527892906483729e-06;-1.0096594849105114;1.0084072507818065;-0.09875854921546807;9.507952790004623e-06;-0.0015100123380749279;9.49798273176556e-06;-1.009655589981431;1.0084060407641582;-0.09875459749008776;-9.517922848244341e-06;-3.835002837902085e-05;0.09999386399545936;0.230023470217368;0.12992499808249858;-1.8223933486716248e-06;0.9999760787862984;-5.4785514709910704e-05;-9.130919118318449e-06;2.739275735495535e-05;0.2299467701606099;0.12992499808249858;-6.318243875513829e-05;1.000053622543681;7.304735294654759e-05;-3.6523676473273796e-05;-2.739275735495535e-05;-0.005313147336269974;0.04217450113839005
2.5199713706970215;-0.17741021099087934;-0.0704324306160728;0.7497915279346498;0.006653033871635613;0.1199958002211588;-0.007396393018151157;-0.0014965911258334158;-9.527892906483729e-06;-1.0096594849105114;1.0084072507818065;-0.09875854921546807;9.507952790004623e-06;-0.0015100123380749279;9.49798273176556e-06;-1.009655589981431;1.0084060407641582;-0.09875459749008776;-9.517922848244341e-06;-3.835002837902085e-05;0.09999386399545936;0.230023470217368;0.12992499808249858;-1.8223933486716248e-06;0.9999760787862984;-5.4785514709910704e-05;-9.130919118318449e-06;2.739275735495535e-05;0.2299467701606099;0.12992499808249858;-6.318243875513829e-05;1.000053622543681;6.391643382822915e-05;-3.6523676473273796e-05;-2.739275735495535e-05;-0.005313147336269974;0.043710390880145056
