flxalr/sts-optimization-reemc/input/498_166/trq.csv
time;base_link_tx;base_link_ty;base_link_tz;base_link_rz;base_link_ry;base_link_rx;leg_left_1_joint;leg_left_2_joint;leg_left_3_joint;leg_left_4_joint;leg_left_5_joint;leg_left_6_joint;leg_right_1_joint;leg_right_2_joint;leg_right_3_joint;leg_right_4_joint;leg_right_5_joint;leg_right_6_joint;torso_1_joint;torso_2_joint;arm_left_1_joint;arm_left_2_joint;arm_left_3_joint;arm_left_4_joint;arm_left_5_joint;arm_left_6_joint;arm_left_7_joint;arm_right_1_joint;arm_right_2_joint;arm_right_3_joint;arm_right_4_joint;arm_right_5_joint;arm_right_6_joint;arm_right_7_joint;head_1_joint;head_2_joint
0.0;13.33435906207179;25.93866215419626;480.7598001597985;5.469589531360938;-8.217817182449998;36.712969041567504;3.6981162001347574;8.399846608386781;-9.258243094317331;2.8337580325745053;3.3643468899109705;1.6092640587509477;3.4015872340029905;3.396519437565016;34.47752834367542;0.39904666865692473;10.135719418324719;-2.163134774804575;-0.1074725758329686;-28.490994667378796;6.164647139014985;3.703759186785427;0.8677626889280333;5.421585022549925;-0.01894216271411256;0.12852711953285567;0.060033933082280604;6.197028519267539;3.9145697213023687;0.9471798586359541;5.416468503773734;-0.01949419416391983;0.14350549926872483;0.060392568634347506;0.0011777620969268664;-0.5151430010270756
0.019866466522216797;13.226550449143827;26.17262573478979;480.7625325837634;5.512955532845597;-8.233480571592771;36.856879748818145;3.6974423144785793;8.396939282821148;-9.305170487755722;2.8327288244850095;3.355021423131765;1.609096177632217;3.4664794085604904;3.4870844979074276;34.5035097920645;0.36420796592532323;10.085168310209365;-2.1741065612880885;-0.10659531713305039;-28.494336191595103;6.163844426607508;3.704750496385991;0.8681029628089015;5.421314836239436;-0.018945346557464923;0.12857835295226888;0.0600325458166737;6.195783291077446;3.913733812911279;0.9468830725242477;5.416207975640839;-0.019488077411161035;0.1434607303389073;0.060391974442228435;0.0012460549968585817;-0.5152381983900188
0.039989471435546875;13.22831219966047;25.97467902676774;480.56043414082257;5.4589723635427525;-8.251032718923426;36.673137195156855;3.698979565739334;8.399029085351078;-9.195478211546687;2.875585045282718;3.375912980827065;1.6091222037037958;3.3742782431571587;3.360551824734736;34.398777668495846;0.28522710490511294;10.047891642889695;-2.2001155072819345;-0.10431477381773732;-28.50099847229066;6.162056628707532;3.7068137847111746;0.868842999719861;5.420703812650335;-0.01894828031769088;0.12870577365598607;0.06003298270193622;6.193339975853381;3.911999252696603;0.9462349860236745;5.415696127602269;-0.019480567779705055;0.1433376703807151;0.060385449669078925;0.0013842648898739441;-0.5154250795658064
0.0598454475402832;13.195846755133255;25.889014649207404;480.3616237746219;5.455862036251655;-8.147823169420612;36.649854629657995;3.6719635828272774;8.340385173698111;-9.199202515299199;2.8736944627010845;3.3757455690748643;1.5972410862487783;3.3935322703705904;3.3951324452269054;34.49534434358669;0.3276394209359923;10.083460582259637;-2.1690980279162613;-0.10450095867786323;-28.49642601470442;6.164129023666488;3.7066397397730464;0.8687751602473682;5.421335978750932;-0.01895476613617899;0.12868835011090723;0.060031528593160945;6.195161794671524;3.9117270710967853;0.9461816003974785;5.4162690846104455;-0.019474498400863176;0.14334402323907894;0.06039532254396438;0.0013926845558169623;-0.5152988995559901
0.08004927635192871;13.058680170406966;25.904829821671736;480.05476661395915;5.4545989330461975;-7.985591665600744;36.73078253462111;3.670751428118523;8.338482674334138;-9.182361825002417;2.8686936319353973;3.3752101601317017;1.5973835290919443;3.4126060078299147;3.4513318217238367;34.627513383873065;0.3902761716069847;10.117791902211444;-2.1329719638027895;-0.10824677361527563;-28.49552607354663;6.164151600742442;3.703324020675778;0.8675190205170523;5.421615829144239;-0.018955782321713528;0.1284488056326656;0.06001716954876337;6.194473439019605;3.914337030871296;0.9471702582313727;5.415897568211336;-0.019475404765528205;0.14355509921152068;0.060407693013911044;0.0012199006249084656;-0.5153069393403641
0.09981584548950195;13.3478245321479;25.916289864889848;480.0582192986325;5.457070376740605;-8.297189058082253;36.72627950661287;3.6446143598269605;8.280545797326306;-9.355337944533195;2.7769291817066755;3.332175093859806;1.5851874128467927;3.441675876249587;3.484247007799164;34.5697343980575;0.3215347915596958;10.113191151121562;-2.141804814639918;-0.10690540603269312;-28.510439645858334;6.159551625621441;3.703497685816398;0.8675464817999148;5.420345611600092;-0.01895306093882805;0.1284480070076024;0.06000754043878632;6.189613838659245;3.9136350630062195;0.9468845297168023;5.414697073497735;-0.01946515247261884;0.14350194698303403;0.06039728573775227;0.001312466450437727;-0.5157137265924469
0.11984515190124512;13.219665993337042;25.947630537132653;480.35464784332294;5.483932058121235;-8.307590316158603;36.715353391661424;3.6703524207766933;8.335884630644594;-9.238731201937345;2.876497858022739;3.3667171516166645;1.5968721575542524;3.4205232158510452;3.4232469425151315;34.43951291475937;0.26336820396570726;10.087510454433733;-2.170411149207746;-0.1083876180647592;-28.51798199503694;6.157048650768804;3.7010190025323793;0.8666087439646402;5.419806643108787;-0.01893990032490237;0.1282694222297276;0.06000294785351586;6.18744359638741;3.9150474514145555;0.947403470805145;5.414125092657569;-0.019475379001824854;0.14360897089988434;0.06038766060782974;0.0012640615480740327;-0.5159156308239434
0.13994932174682617;13.20882956728101;26.103873513592724;479.65994696991993;5.471796377635799;-8.160091229730483;36.70530256392475;3.6617645351167956;8.331062766411906;-9.1368210060016;2.8393594594609004;3.3907717945543774;1.5880028498652565;3.4356188646196264;3.4705040680590633;34.490557274009475;0.2897988690705162;10.074395803264963;-2.1673072421318293;-0.10397215617588924;-28.51369332244367;6.158484720216678;3.704080681177734;0.8677956248354732;5.419975389977172;-0.018928970266230263;0.1284965682341748;0.06002920264499227;6.188588879190817;3.912139271582193;0.9463119425777204;5.414817108284032;-0.019495720052200155;0.14340929416698783;0.06036006510412664;0.0015169667571517326;-0.5140098876241175
0.16000032424926758;13.185661192272487;26.261909483310944;480.1644154198946;5.506561446020796;-8.260022834746515;36.81081208034558;3.699207270413785;8.395846735015713;-9.258810635231942;2.8325264135275234;3.3633463101737546;1.6092318292941543;3.436407633246344;3.4775124677898015;34.496380214947315;0.29118911857987984;10.068051645828998;-2.157467886855839;-0.0995474260650731;-28.512821197460813;6.159622039719965;3.706790151708163;0.8688757917977732;5.420031227614128;-0.018903499052703443;0.12870908416443289;0.06006719886967069;6.189915302359869;3.909600711306308;0.9453264556720768;5.415553135048459;-0.019533400641264485;0.1432321663941249;0.06031841493755029;0.0017369722484654512;-0.5157274950846029
0.1799452304840088;13.188373861223448;26.308988252008533;480.1683066816728;5.519425998459514;-8.232531576593004;36.80366622007904;3.7004611408256647;8.397615785205847;-9.30507979445993;2.8317202025712813;3.3544377091553557;1.6091013803737164;3.4379547359159917;3.465978868419481;34.56798856024885;0.3154505473178624;10.098218280526352;-2.152482912712803;-0.0929881762501611;-28.511665782608823;6.160170506877974;3.7107541241871056;0.8704523192702615;5.419806773570564;-0.01886842967333789;0.12902346184411118;0.06011784890755174;6.190646005337429;3.9058776479584685;0.9438559868271225;5.416222617944397;-0.01958060017855799;0.14296148224722513;0.0602618968490117;0.00206241452404574;-0.5156715364573637
0.19996094703674316;13.20081272578685;26.262823971627554;479.97219123427845;5.507205964591542;-8.15938266841583;36.72232390045393;3.7019376678807334;8.399272300216634;-9.305452535704717;2.83121205070768;3.3543442933522494;1.6091159850739947;3.4072346936800497;3.4061457534402066;34.644539933072494;0.34610212611979785;10.13768709625329;-2.1567722789949535;-0.08648701064943995;-28.50952492584196;6.160295478538966;3.7145002504072595;0.8719595144967092;5.419474292746584;-0.018829513896590613;0.1293307511623631;0.06017025469465055;6.1911284937436175;3.9023843990263587;0.9424519491855627;5.416797378205922;-0.019630062620356444;0.14268515797662035;0.06020279243597197;0.002383623815015833;-0.5138216988587342
0.21991753578186035;13.12566265157797;26.173027002642026;479.8677274653113;5.492123390430423;-8.105015823735151;36.56485741238342;3.6774516979656617;8.345768900537111;-9.176647500529434;2.8698972311587543;3.3750120154209133;1.5972410386212654;3.391647741224935;3.3712204000995474;34.57008277443114;0.32203818575500787;10.114465113663188;-2.173645204614275;-0.08224155199194655;-28.514976458423174;6.158651457112182;3.716526489803171;0.8728176283124319;5.418770213016128;-0.018789559897150296;0.1295213277498591;0.06021215207552797;6.190337841152077;3.9007540809387033;0.941722292799957;5.41684242067818;-0.01967817061792102;0.14252343312716304;0.060148588145981605;0.002552241326250673;-0.5157192219758472
0.23987460136413574;13.143790170959612;26.190498378732606;479.8720437186903;5.4769687193986405;-8.123804579733005;36.509052306740095;3.6787702637767796;8.348200475142711;-9.191207295919867;2.828802690422415;3.372051168455234;1.5974234822658393;3.3845656381178424;3.350779409029416;34.56393703036694;0.3426610982695193;10.097109513444886;-2.186068057610484;-0.07915875639068697;-28.513752510557154;6.15871913831603;3.7179407974742125;0.8734290338612674;5.418600694448437;-0.018763947668130852;0.12966033856416548;0.06024249945378897;6.1909937790762894;3.899470773622729;0.9411645337495653;5.417199199450077;-0.019713477906351598;0.1423918033701913;0.06011121497779643;0.002678711270508175;-0.5156700151298476
0.2598731517791748;13.158833250827385;26.431142735511063;480.08209064330106;5.525140206323363;-8.14715979362154;36.647240112061965;3.704527344955307;8.403332074554985;-9.17911188374457;2.8688197631916244;3.3748404752651617;1.6092938328326627;3.4057754424964894;3.3954017370253315;34.51331476424224;0.309469709730569;10.08806747237581;-2.1991382614877333;-0.07733453713220308;-28.50877382965432;6.1601504951844;3.7188885786378125;0.8738278406439225;5.418859314397201;-0.018757321006172258;0.1297474605064779;0.06025642442810124;6.19256142778038;3.898445809928448;0.9407565309976483;5.417711211309138;-0.01973206031595802;0.14231029987937296;0.060093729002011716;0.0027576809811003283;-0.515518556163887
0.2798309326171875;13.299427387005112;26.23429118216064;479.69608168389277;5.484820166858761;-8.125072727851332;36.54257532913226;3.677856741543368;8.345854025098761;-9.194974543557354;2.8272980006781783;3.371808793318372;1.597505703686248;3.3874080919440854;3.366983468449852;34.563207936672114;0.3139260379320383;10.097710011425301;-2.189846225110507;-0.0788432715463161;-28.504101363375394;6.161119099517704;3.7175712766065625;0.8733520903506684;5.41915414986404;-0.018759332235965757;0.12966643094039002;0.060251855328370185;6.193986487199203;3.899660630801567;0.9412052389256303;5.417953866282175;-0.019742187900750538;0.1423994952186583;0.06009304346128085;0.0026673238097038193;-0.515374878256183
0.2998659610748291;13.347580490920349;26.32955613325915;479.388841985544;5.530369122011494;-8.015711919555883;36.708537943282934;3.7033857782397392;8.401636617938557;-9.170742213672844;2.878546907337336;3.3848648722282184;1.609277618859191;3.407428385714494;3.4047204221088503;34.64573109138642;0.2988542113757333;10.133724687768698;-2.1581426111754984;-0.08024951054758914;-28.49953758597356;6.162111981707416;3.716626436859692;0.8729893605568364;5.4194360278646565;-0.018772665815942988;0.12959955627252298;0.060237949801419215;6.195026116913251;3.9004811696298898;0.9415254282350245;5.41806666129271;-0.019740530794604312;0.14245888240349555;0.060100412318165;0.0025894706174132143;-0.5152325276944054
0.319913387298584;13.382784801625917;26.339885964365784;480.10124076237867;5.498212869419687;-8.15297233947964;36.666511159992424;3.6763633316259807;8.342328855179662;-9.187909215925082;2.836264940723658;3.381497719995322;1.5974944990302964;3.424666399317659;3.4927741658937315;34.50278106247036;0.3443353292080866;10.111624748402306;-2.129848637680686;-0.08211142704481103;-28.494578237840862;6.16320952106219;3.7155687597810916;0.8725615469274949;5.419751485344538;-0.018793092382182824;0.12951283692030174;0.06021704061344264;6.195968800954651;3.901376063258789;0.9418917322140405;5.418111447309384;-0.019732138171719413;0.14253208037439596;0.060114220731746104;0.0024976702823979987;-0.5150754660452639
0.33997130393981934;13.339917767704346;26.317506463362268;479.40981279416485;5.512901711459782;-7.956933069812031;36.69987758963031;3.700771617297296;8.390358171682465;-9.13897439584489;2.867423354181474;3.38366737967301;1.5995731660190262;3.407378120457446;3.4174862799772328;34.62264068423825;0.29822986098794546;10.082517821894632;-2.1619599747987794;-0.08447683690338478;-28.48205392306702;6.166193767344951;3.7139616291849142;0.8719470177114891;5.420620525294045;-0.018813333468786567;0.12939505900710677;0.06019926965968311;6.198944028195331;3.9025328154328895;0.9423684122953033;5.418694070805244;-0.019725884786248017;0.14261651185019905;0.0601319176124968;0.002383652301452447;-0.5129367939907793
0.3598661422729492;13.484885188690056;26.331485369096285;479.41523336658884;5.51073296484962;-7.975711684143896;36.69227781803757;3.71038525578476;8.38771935182543;-9.15866476873673;2.8240262948776493;3.3802085666246593;1.5994392846373353;3.407462110130725;3.435015173625172;34.6178478327044;0.33239281969307655;10.098413859203042;-2.156609349663225;-0.0854492961823781;-28.473788037367758;6.1691837995585015;3.7135429814973158;0.8717656759296648;5.421410195685354;-0.018835890552941596;0.12935253099990754;0.060183969785933614;6.2015251640991425;3.902521152529337;0.9424115933975589;5.4192610195196655;-0.0197213198673713;0.14263667437171407;0.06014761726739043;0.002326603840122997;-0.5144523364595988
0.3799021244049072;13.422183220595436;26.300563101127608;479.51805787162823;5.512828558288302;-7.860895980352659;36.738142024178;3.7013582111110863;8.398502141510324;-9.199468413844244;2.8788499685350226;3.3850291542215465;1.6094220149744303;3.4077896765030187;3.414159959152932;34.73889639895723;0.3567014481542463;10.130528185944824;-2.1614786683524945;-0.08404827701763075;-28.46515321860458;6.171871159046506;3.714734330604263;0.8722048556952623;5.422018548820494;-0.018856132635192965;0.12943369344926084;0.060176538399099665;6.203327409815811;3.9009814800527485;0.9418182463180502;5.4196014205039855;-0.01971083232036143;0.14253812643553657;0.06015517341338267;0.002387197820918419;-0.5142024400386156
0.3999483585357666;13.674438670345861;26.29250709065201;479.32490959394636;5.51553741955613;-8.002848379012107;36.78334113755459;3.7004500252997694;8.396608647626353;-9.269183418379807;2.8279944671593453;3.3629143974935913;1.6094162744360765;3.4164687587261398;3.432397153324818;34.70709458392189;0.30654574382740885;10.131907414766587;-2.1571411112098375;-0.08690604098601751;-28.466524957135725;6.170590234985722;3.7129248288733314;0.8714839994057153;5.421756262850717;-0.018871770714801964;0.1292925325440263;0.06015092466016525;6.2017274433212455;3.902926039933887;0.9424537895414115;5.418553828036674;-0.019692783236442628;0.14265626844761845;0.060167069934135016;0.002232627209582139;-0.514240519504434
0.4199495315551758;13.492979407041675;26.1609889434687;479.51890720585385;5.4944545932611275;-7.877638505267946;36.699044339164786;3.673061176726466;8.338093366477016;-9.190919118200613;2.8645617733155833;3.374381740291217;1.5974959068787369;3.4194560362825506;3.437531323106346;34.71157499019616;0.3576647178567338;10.137031689048742;-2.156248378702363;-0.08981566594730922;-28.461966066852824;6.171689163094754;3.7108641409200094;0.8707002403209373;5.422199197657976;-0.018888580809111488;0.12914866040236692;0.060129707983345965;6.203051304675176;3.9047181517505263;0.9431458431528337;5.4186949478259185;-0.019679650660060256;0.14277998815117351;0.06018982495973427;0.0020613717681094747;-0.5141024864101252
0.44002485275268555;13.497527515353243;26.249994355907397;480.0254418751878;5.515378713431968;-7.9556367013759015;36.81548415188132;3.6712356133969783;8.33428278458932;-9.246896023981819;2.8782479298874764;3.3757786520588486;1.5972130195297747;3.4570873906800808;3.523176984607722;34.66991208320507;0.36153986633301294;10.129479486291057;-2.1294361378052917;-0.09221597511296135;-28.456814333920082;6.1724305694325245;3.7091746052370955;0.870055646621462;5.422525443076205;-0.018904425681550575;0.12903126994434275;0.06010993588572255;6.203883268686899;3.9062020112521143;0.9437028039846527;5.418685884130312;-0.019665427541557513;0.14286861898197264;0.06021003774270555;0.001927557926543626;-0.5121801162563886
0.4599332809448242;13.509571791771386;26.200265567883072;479.9214156499818;5.506277138358308;-7.921667509414711;36.7411158476048;3.699354595598803;8.395904962606155;-9.1829649420533;2.8737707405898427;3.3844002905684554;1.6095103524922991;3.4160003966976844;3.430544940769628;34.6358652711139;0.36885321256643167;10.122859079006643;-2.1571909391013344;-0.09113143608223198;-28.454988637449155;6.173697481373995;3.7099145224923777;0.8703474011028167;5.422841389751504;-0.018918989868120753;0.12909831974602917;0.060102518643790036;6.204808253833768;3.905223273310149;0.9433322957261194;5.418956148957159;-0.019651959428085973;0.14279434441705474;0.06022168555390995;0.0019340046537374691;-0.5138865457116141
0.4798123836517334;13.503476427587039;26.184547465983407;479.8203449677558;5.509734398065213;-7.8964241269511035;36.78494127663082;3.6711852737716963;8.335314386412122;-9.2133524776385;2.8674787868073963;3.3747317992628614;1.5975006639736737;3.451578405456259;3.4973841979716465;34.68507672385873;0.36882514212962647;10.124769230419213;-2.1504006316677335;-0.09370220023474253;-28.45200794628647;6.174562081831993;3.708002726309742;0.869634751351696;5.423260748545817;-0.018931922430309278;0.12897416223753033;0.06008507288133894;6.2059450510793805;3.9069005772112977;0.9439734152231684;5.4191025036309535;-0.019637258571374674;0.14290448831926963;0.06024495435630529;0.001772173905210157;-0.5137975541844467
0.4999251365661621;13.385969749554853;26.135219015406292;479.9112635473224;5.506110286395969;-7.825165671887774;36.76271640563799;3.697616869805841;8.393709809754219;-9.183608258848835;2.8737835197542694;3.3844348898501027;1.6095301419120256;3.43169304467272;3.425484552175967;34.71531119540633;0.4261017299034049;10.146146436099649;-2.1742617739603123;-0.09643261689941826;-28.45464572188406;6.1735914642869165;3.7060318349888752;0.868891769738652;5.423206376109353;-0.018943109585809838;0.128845486203457;0.06006415400600399;6.205298580362676;3.908879587662895;0.9447107044394101;5.418748273385078;-0.019619412320346606;0.14302787180083104;0.06026754873100227;0.0015997938934654296;-0.513866980781214
0.5199875831604004;13.465262960411062;26.216574870659546;479.7103618428718;5.532984075372694;-7.893742917275226;36.85772883725642;3.6972723552732174;8.392296725860378;-9.193544704552455;2.863526632935331;3.374153257097507;1.6095414522128897;3.461531481734296;3.490560914668917;34.68810385134866;0.3765186240787375;10.141025093624336;-2.1595016627331587;-0.09675923637743149;-28.459980712721332;6.172215548939368;3.7061204476192575;0.8689029374667714;5.422932618842632;-0.01896054795353396;0.12885248375281325;0.06004428604302216;6.203519892369655;3.9089190342550397;0.9447301840561457;5.4182332879171105;-0.0195924084479085;0.14303142207684608;0.06028884018539525;0.0015620750423365583;-0.5140117945402171
0.5398294925689697;13.51299443086902;25.988785064763235;479.9014903641149;5.491458093718025;-7.993059360210694;36.71981449610438;3.668499190418691;8.322915133900942;-9.246083493678343;2.8309593379387845;3.3719320338731373;1.587592158657219;3.4418956136251486;3.4528247218356993;34.65204669701477;0.3824296270358465;10.134331753032912;-2.1584130153031396;-0.09886038297964103;-28.460242529345837;6.1719704058226155;3.7048071498728654;0.868402045478711;5.423102673419436;-0.01897819249427183;0.12876786502824156;0.0600217692005986;6.203188389658359;3.9101907905953475;0.9452282809738316;5.418038762442373;-0.019563751269388467;0.14309747658118546;0.06031879374033704;0.0014422624090246142;-0.5122458556121212
0.5599544048309326;13.45756801800297;26.049641059284667;479.89682991406187;5.5095207196744695;-8.01616909084661;36.81275864463791;3.6686849825976995;8.33102992028255;-9.198396632328896;2.8324560325088375;3.380955657423599;1.597719326099278;3.478891203449136;3.5242507543679396;34.59578981991529;0.3757497861367711;10.123017110042996;-2.151603358923049;-0.10462683719248995;-28.469151399863435;6.169617485931277;3.7007156750781003;0.8668558876394774;5.422900471010504;-0.01898900300362122;0.12849066854979507;0.059989154103466426;6.201604097798879;3.9144559292646885;0.9468292256108222;5.417286237489667;-0.019538958218422643;0.1433827052137307;0.06035434762717392;0.0011029899953222868;-0.514254534091168
0.5798273086547852;13.293700040910736;26.034650245862075;479.4853480653673;5.513189222597438;-7.883723310217974;36.88498489320059;3.693999217920293;8.386431031765998;-9.10230080433977;2.864346291024316;3.391760172189451;1.609941228113874;3.4612987454979374;3.5177822222327135;34.62995246507607;0.36174738572998777;10.113819419310476;-2.135898897725763;-0.1084735547065814;-28.471797878062794;6.168462513498144;3.6978351133522764;0.8657899334467146;5.422955327217424;-0.018994290486341422;0.1283085607659516;0.05996990192901439;6.201038306733358;3.9173896306142004;0.94792786367591;5.416955075507425;-0.019519659767164577;0.14358320629818833;0.060382798493155226;0.0008849020907114079;-0.5125583755372348
0.5998485088348389;13.336723959705832;25.950514290196153;479.87394854375174;5.489845785793415;-8.080260478377738;36.850785461828785;3.694720551358937;8.389621080870798;-9.191310807604102;2.8360178534070455;3.3814795406779945;1.6095676100436211;3.439347426785793;3.480907333190721;34.56437411792483;0.35268090119733886;10.114756629446308;-2.1466531037907743;-0.10933614219294466;-28.488592481863613;6.163703700423113;3.6970089011478233;0.8654986525128181;5.421836827767049;-0.018982833722059562;0.12827445840725;0.05996512370208771;6.196811814815494;3.9190472798568536;0.9484792778071298;5.415760863501805;-0.019512681581351887;0.1436584389413581;0.060384230341655624;0.0007886131176146893;-0.514794431237485
0.6198313236236572;13.259294224132171;25.901901293325743;479.47082730787633;5.499829963218517;-7.9848550401514515;36.90022961415513;3.6653296000509314;8.325192397961418;-9.2306777549704;2.8441691405233085;3.3820857639310247;1.5974358895389056;3.4780424604439277;3.524663546327429;34.708905560394854;0.3562398195807468;10.135744246748269;-2.1436849118413104;-0.11299247019736901;-28.492113769701334;6.162939807219538;3.6941832918905333;0.8644512490880956;5.421949739815305;-0.018965659723623143;0.12807870089476583;0.05996847907901156;6.1968931864614065;3.9219149893006997;0.9495634866682271;5.4157202017703305;-0.019515700209162254;0.1438664460063467;0.06039290358817584;0.0006083523557360573;-0.514901857908287
0.6398367881774902;13.307867877844405;25.88875448020123;479.25468019355105;5.496350008592391;-8.045681372939114;36.78321607000643;3.6959558876702725;8.3907024601855;-9.144732119462759;2.8361768577846673;3.3902793197243324;1.6097641696938738;3.424020273236158;3.4230200252110397;34.60218246565885;0.3148614757998036;10.122095435679304;-2.1584907082884075;-0.10662155903189709;-28.501467956707785;6.161042531311577;3.698886356687443;0.8662217136647727;5.421177814862613;-0.018943110988459563;0.1284032533620288;0.06000366098262774;6.1940892530855765;3.917590970097038;0.9479100708211103;5.415457407911668;-0.01952784591628271;0.14355593059780433;0.060361361877456644;0.0009578426478076335;-0.51517534835621
0.659914493560791;13.236944133704453;25.93350296173488;479.45238822419867;5.4883076769826715;-8.102676104833321;36.76249522827594;3.6701809308099116;8.333282560590584;-9.191173108643758;2.8349348740505445;3.3811551471625556;1.5976173465141827;3.4338101910957466;3.4690990376126045;34.59657960685613;0.30824895820430154;10.11343281964149;-2.1481576329195713;-0.10245661764852651;-28.505274822750874;6.160438528198403;3.702300824670149;0.86747322327906;5.420843965547329;-0.0189220255371852;0.1286087764142229;0.060035617128363736;6.192611994601012;3.914389231861116;0.9467391962997685;5.415492658728031;-0.019531638310258302;0.14336501974707452;0.06033736557182501;0.0012516132314870096;-0.513529559766069
0.6798152923583984;13.170607839461965;25.926250805360223;479.4560415222686;5.4846897704940645;-8.133169535257252;36.687166486918116;3.6683279625023513;8.320279670253274;-9.157148348810088;2.8242358296563816;3.3795267560495086;1.5878833818739688;3.4272749686918527;3.4486109420373188;34.546838369262694;0.3062293493088637;10.104577757688144;-2.149747671118885;-0.10333573451342247;-28.513912435380014;6.159088984225897;3.702494252980652;0.8674598323921437;5.420530417042123;-0.01890757859509693;0.12855621887546875;0.06004625126454493;6.190834186718023;3.9144811109220528;0.9468472753885149;5.415173831832715;-0.019539394567058006;0.14344919778975232;0.060331628866223674;0.0012985122738812045;-0.5155548669381872
0.700031042098999;13.109832310603636;26.193691441136963;479.55578047028087;5.530389363813827;-8.168614078454574;36.93005687168595;3.6678790622928252;8.325324281456396;-9.228248005206366;2.8441239598347208;3.3815358280853793;1.597401628843651;3.4974290757919415;3.5969325776317294;34.59706750383876;0.2927735328000951;10.110140369220357;-2.118365006599709;-0.1063336243819936;-28.52258875703317;6.156777251310288;3.701112063633405;0.8668468874906551;5.4200457174200345;-0.01889068215101193;0.12838963526874508;0.06005036459720358;6.188540551476279;3.9162326483885743;0.9475771862804048;5.41457579103873;-0.019540390928006607;0.14363371821353632;0.0603275862628727;0.0012530351525284742;-0.5158205643017227
0.7198562622070312;12.968291803756355;26.2644351102202;479.3559527850872;5.531441627485077;-8.070314037936882;36.97342110119256;3.694263685613851;8.381477267242783;-9.22816008723375;2.8443145552605262;3.381387147590076;1.6093936667365194;3.483318173102133;3.569668601044751;34.69674415030555;0.32998090141108394;10.129674486144848;-2.1152611352972674;-0.10684212209905568;-28.52834415985805;6.155505496027215;3.7013277564588276;0.8668596232391282;5.419703159659798;-0.01887009780181962;0.12834704939230052;0.06006717315452501;6.187059377534419;3.916285596147095;0.9476527703113569;5.414328865034108;-0.01955294796765142;0.1436842472492223;0.060312162758076895;0.0013250857203777082;-0.5160077992458866
0.7399294376373291;13.022994731472533;26.31266907714479;479.35623247432466;5.538904613390765;-8.127193997573208;36.895353083898684;3.669388695071071;8.327099632952253;-9.20338507140751;2.8237108544898564;3.370372998089152;1.5977330924996118;3.500032229507807;3.599513071826144;34.62318469916347;0.3143755061400011;10.123746121107652;-2.1173751900934;-0.1033208734732345;-28.52725540203508;6.156760918129664;3.704101443460723;0.8678846648894585;5.419843749363087;-0.018843049845052258;0.12850725719549003;0.060107205496944566;6.187739324910775;3.9137643475941655;0.946745509807609;5.414896247776815;-0.019577922561356993;0.14355349973366763;0.060281246787516375;0.0015870455536148385;-0.5160066584601688
0.7597775459289551;12.90554757601618;26.360396080515187;479.45359211881583;5.540520757764503;-8.095767664653017;36.86687751349466;3.697121195207368;8.386547077301966;-9.247737401984633;2.823978122076662;3.361562373139831;1.609512617564184;3.4719227303930573;3.5121969706447027;34.69313613271036;0.3442029614335227;10.133019544009805;-2.144265097479934;-0.09933164497102488;-28.531548882935173;6.155923071534974;3.7071734017769016;0.8690132861223592;5.419350946833492;-0.0188125002541037;0.12868742927342913;0.0601461072622702;6.186402271674835;3.9109446382495925;0.9456938107707809;5.4149013218459325;-0.019605607247560747;0.1433971577287037;0.06024153687678537;0.0018679764439293997;-0.5161513194726115
0.7799296379089355;12.769409692507924;26.404088278181035;479.75201704448216;5.548334203440881;-8.052095640356761;36.83422546161187;3.697561123624859;8.387272483430671;-9.205684390424194;2.86994522902143;3.374173379828498;1.6094262752329564;3.467856636865077;3.5019718383666776;34.66696533681732;0.35771699313214445;10.12820213809105;-2.1468967509758037;-0.09744835727906283;-28.529802215525546;6.1570271761794535;3.708720304778458;0.8695723123783002;5.419507328156909;-0.018788137662049766;0.1287602461273215;0.06017826946894374;6.187212282900368;3.9093684781721447;0.9451421091595974;5.415383050066254;-0.019630085468598554;0.14333153545802596;0.06021499112608682;0.002044818263686724;-0.5161261534113244
0.7997877597808838;12.75371381270945;26.55743904962599;479.5534304793964;5.5751245887953775;-7.999701502847323;36.902359690555684;3.698068316206279;8.387516221708488;-9.117580575838973;2.916304199599311;3.3955655998410674;1.6095012745409196;3.4881337944225552;3.5668445924046077;34.632838452269695;0.31751714177783574;10.117481066169107;-2.133126468646768;-0.09711247149403499;-28.529549455803892;6.157618804380845;3.709681546257474;0.8698751647476357;5.419580160075375;-0.018777608209286027;0.12877683275228033;0.06019341152501793;6.1872916865595;3.9084399488148884;0.9448587481661952;5.4155604208293875;-0.01964066266220433;0.14332215287369446;0.0602022166441559;0.0017767755245725672;-0.5161249968777817
0.8198368549346924;12.868148934317995;26.520010342928366;479.7643531926988;5.556088536482248;-8.164889745904297;36.81162395349147;3.698823694728952;8.386281439366764;-9.159270749279885;2.8700355330390925;3.38254067903134;1.609546939942121;3.4678025094463734;3.5308134856012874;34.54576830188893;0.3124659172206279;10.121040641885374;-2.1304587985935166;-0.09555542362459976;-28.53832825882855;6.155140632573709;3.7117576607170353;0.8705714286919793;5.418721450665306;-0.018785337300136713;0.12885586582278652;0.06018742190865975;6.18358114916684;3.906722505810011;0.9442790561575781;5.414663934488038;-0.0196299644003411;0.1432473599985914;0.06019577112119268;0.0023382068379637286;-0.5163942600799704
0.8399274349212646;12.88845982601186;26.63626251740837;479.2748529404587;5.585056058974605;-8.100223915910561;36.90284513476577;3.69838451427131;8.385925297285109;-9.104859627891827;2.8561568566627678;3.380964391988602;1.6098685982775853;3.513964251544797;3.5994775472959653;34.565184171417734;0.28974403453179765;10.108510605900918;-2.1240251901459026;-0.10035067376591714;-28.538263742839643;6.154965814670838;3.709196668995292;0.8695108359658691;5.418839913426881;-0.018801686941740253;0.1286169845333648;0.060160791441848015;6.1832465946313375;3.9093125872497265;0.945343052978836;5.41430562242989;-0.019616863181678823;0.14348578128007897;0.060217792776384275;0.0021680313575894814;-0.5163953930918717
0.859933614730835;13.121106601137793;26.740097676789084;479.17977478142626;5.640701432319104;-8.184910102365336;37.018557674755144;3.6966004858921426;8.382783808967257;-9.161343155243044;2.8697796512881;3.382515867301618;1.6095861276783054;3.566186953691396;3.6419687597145;34.550506936332354;0.2176273551654413;10.105500004001225;-2.139245251885948;-0.10403143297394664;-28.531269954722923;6.157060613699514;3.7074033535785946;0.8687556201433712;5.4195150040786935;-0.01883313160730158;0.12844570346643946;0.06012893007057818;6.184802692465153;3.9108210295619084;0.9460113634553581;5.414459943506631;-0.01959528537110284;0.14365210570309164;0.06024903010047961;0.0020289430436911163;-0.5161926752459136
0.8799722194671631;12.86041272868438;26.52567608331116;479.6792785434294;5.550486071005793;-8.007234672472272;36.88028525547133;3.6960948825457924;8.38210771242493;-9.137551836314453;2.8732139114675475;3.391863693029262;1.6097773332892173;3.4925207789617105;3.5746176468427366;34.62421510861434;0.36171864450573654;10.12136113291058;-2.1201305507792787;-0.10661947450158483;-28.51891569584202;6.160871172952398;3.7063466575400117;0.868293379534462;5.420593282244954;-0.018875757364972143;0.12833875123889907;0.060093961524722475;6.1877798381933315;3.9116107450309467;0.946412646751793;5.414994990947834;-0.01956754784140754;0.1437507559536;0.06028648655773735;0.0019239923975007873;-0.5158306380227764
0.9000847339630127;12.912946513331004;26.499182633882675;479.4863919473911;5.536639159023322;-7.884724786937838;36.93693919735346;3.6939892986491194;8.380449360408145;-9.156825448187128;2.8310057855330895;3.389049429757367;1.6101556086086388;3.511325682615609;3.6067599852945813;34.728081174736005;0.4342291076696645;10.142138148952728;-2.113997182204316;-0.11535737612808561;-28.502325040936796;6.165265522591342;3.7003863736559053;0.8660113343679134;5.422156197153776;-0.018914037380332087;0.12789952590130618;0.0600453644170562;6.192729078695667;3.916798103927841;0.9484636282718001;5.41571092535181;-0.01954547490158913;0.1441507425959544;0.060340815917423754;0.001482881226377077;-0.5153409169796389
0.9198324680328369;13.285602292058657;26.406296849600977;479.00392967308585;5.539955894671655;-7.951794673175513;36.9494748066071;3.6658570247457822;8.3193999378906;-9.162095636839966;2.8286376781265377;3.3886733901207897;1.5982791778194323;3.5191340557782134;3.6462525948748166;34.69043188025516;0.3340759484197169;10.139899111705192;-2.0958808398370663;-0.11818274387518617;-28.48923639666596;6.168989660425222;3.6988212518006636;0.8653831278469141;5.423222470171931;-0.018953575403952816;0.12777323682466607;0.06001118810247651;6.195962275067949;3.91800112794554;0.9489897602392553;5.416264822295108;-0.019518962305925217;0.14424683310682357;0.06037875551228526;0.0013375829472159623;-0.5149449447333445
0.9399123191833496;13.246201478429821;26.564927195186115;479.5057439385108;5.570158768028623;-7.969238831801285;37.06333246641769;3.691521500343851;8.376843966865557;-9.208164842117217;2.8287101909651655;3.37997059946286;1.6100551090450044;3.5482703871875017;3.674988579579117;34.678080413726995;0.37055115610199785;10.133262461185044;-2.106739411189193;-0.12050357450159965;-28.479757669835845;6.170604011724085;3.697324387202438;0.8648086331334692;5.423681682734286;-0.018976619114060476;0.12766878955295524;0.05998749369312451;6.197570087715063;3.920959669838393;0.9501134030522217;5.41633249501438;-0.01950758620823568;0.144446563843308;0.06040567368984493;0.0012178400363560132;-0.5128801908613824
0.95981764793396;13.320408789860958;26.554040360281622;479.214768760375;5.569809328929592;-7.9027151189266505;37.08151554655929;3.690015350239418;8.36659917974102;-9.198472115911676;2.8386319188205187;3.3898900731206982;1.600009715413357;3.5497763870854397;3.678080595719618;34.73532209994372;0.36187262911906837;10.140461479945287;-2.1061648536495894;-0.12074071226829416;-28.47653918059743;6.171483145267029;3.6970377772571155;0.8647036466529603;5.4238493370149925;-0.018991233828049382;0.12765695885415876;0.05997472941455431;6.198374822345012;3.921172583299839;0.9501761837879387;5.41637219514568;-0.01949658179465428;0.14444727994618606;0.06041951316548204;0.0011595796707296983;-0.5145237128759172
0.9798059463500977;13.371229415992397;26.13163526760859;479.41484514612614;5.4769627813696005;-7.93116803542884;36.80106596085803;3.5895740963702645;8.195798914962793;-9.20941889824858;2.828179166079851;3.3801575784094635;1.5649473642263898;3.525416415542891;3.6309255183946534;34.69414450359008;0.361367785163099;10.124232334332813;-2.1085618261195687;-0.12249180672514567;-28.467541178524623;6.173538257939543;3.695265414539784;0.8640727012666962;5.424440808214917;-0.018996181968277848;0.1275537326197877;0.05996856676093322;6.200968243413116;3.922661632802602;0.9507112771645524;5.416849833210632;-0.01949939867507433;0.1445266024863399;0.060434139628928435;0.001027159669388344;-0.5142449136529452
0.9999208450317383;13.523793191364062;26.35032374655036;479.4313404782047;5.536715553003608;-7.962179778282312;36.970635189114134;3.6268630779119633;8.259697687837589;-9.259693076532482;2.825735995083088;3.370757177271579;1.5863633827963557;3.555700502987123;3.6864897121976665;34.71080046620201;0.34978007536762146;10.14484419693423;-2.1030679709938243;-0.11967634044597324;-28.458946820880822;6.175987426881075;3.6969045413194266;0.864727136990974;5.424909297147195;-0.01900412046958562;0.12769266203600949;0.059974131540930974;6.203074267789281;3.9207486322138645;0.949966151636983;5.41745724320651;-0.01948902086308954;0.1443582662439923;0.06043750028696736;0.0011268439462010578;-0.5139830139388792
1.0198109149932861;13.583802836744749;26.450371375909473;478.83102496386994;5.569441627780293;-7.831356700436132;37.049908373726126;3.6905370283987664;8.375619548365233;-9.132951568671706;2.817059557782845;3.3876334612983268;1.6106569235507604;3.542333587170842;3.6599326486570405;34.7107370242523;0.3461871966608605;10.137196911526566;-2.10055167128814;-0.12183834240379998;-28.45158661685675;6.177349321418908;3.6944040425097704;0.8638566249902063;5.425366074829915;-0.018998384454602134;0.12755840406438837;0.05997357438585044;6.205531784791273;3.9227521590988514;0.9506592097611679;5.417889936853503;-0.0194949833162201;0.14444042445436786;0.06044540805095239;0.0009483444345462222;-0.5137597381836072
1.03995943069458;13.298944991323392;26.429836280015422;480.03474011385777;5.572568808881066;-7.832779319777444;37.080472027055265;3.6970977694256884;8.368487157702058;-9.229583723296116;2.861869690314726;3.3731551013697416;1.6094205635865186;3.5478637751765105;3.669903837721242;34.72641019903247;0.437474781152817;10.144609098031752;-2.098335832293296;-0.12265501124134578;-28.446100089674474;6.178041574617203;3.6924946142019675;0.8632461555815869;5.425597267230503;-0.018984003947794426;0.12748964151635203;0.05998198253176344;6.207546432765749;3.924260242449665;0.9511209672169221;5.4182630789106465;-0.019509145010351142;0.14447184506575694;0.06044271379881858;0.0008095022701043401;-0.5135941369121806
1.0598464012145996;13.543103468459334;26.5059780987673;479.74338189258214;5.606148516539607;-7.903986185822298;37.14493937680845;3.6878948995214325;8.37163858886176;-9.21245591580728;2.856658520034587;3.372785073352925;1.6100093916305904;3.5792864006683547;3.715949533839587;34.66009818533655;0.3618632469940417;10.131821311938586;-2.0890673184922646;-0.1191550244869575;-28.44008370770639;6.179268759381322;3.6933804439146414;0.8637323691124582;5.425786762715496;-0.018963715870084857;0.12764437354123803;0.06000872637467807;6.209719317010261;3.92297527407809;0.9504953912668515;5.418921996797783;-0.019530097704746112;0.14429425202862786;0.06042343867233177;0.0008625484953147561;-0.5134202942141022
1.0799672603607178;13.568099079672162;26.464327295311286;480.0419205781514;5.589640148458667;-7.940451712392189;37.1424587508851;3.6870962769723272;8.371229180260661;-9.3380496451841;2.819299011440771;3.352551661614362;1.6097222768805426;3.571694580097038;3.6864456937574293;34.731269747508165;0.41037772112344095;10.14569985381421;-2.111981928519407;-0.11692004488004015;-28.434789966562477;6.180008482258983;3.6929529529628717;0.8637596990230155;5.425940934636185;-0.018935202044860912;0.1277283188443778;0.060036968351587804;6.212063011426193;3.9230462958432377;0.9503472860688323;5.419549442173873;-0.019558911056908615;0.14418314474930086;0.06040170168953778;0.000824993563905546;-0.513271132449029
1.0998508930206299;13.803995344720612;26.31551981995473;479.54269323557776;5.585369943878806;-7.952473793769279;37.036984454288714;3.6886897377449044;8.374615475680702;-9.253934908638971;2.8348773196513646;3.381158351786005;1.610016432266454;3.53546208633092;3.602648329704754;34.66472610534008;0.33355361816725004;10.13253937765801;-2.1381686048042807;-0.11335883256538133;-28.430462746696314;6.180671152837357;3.69350725054206;0.8641646725968318;5.42603924457429;-0.01891211988165152;0.12789113438591485;0.060063777466197676;6.214054682272361;3.922195561962499;0.9498457641573651;5.420144132045687;-0.01958213671479935;0.14399972034765185;0.06038057327181579;0.0008412850685173626;-0.5131542962812418
1.119922399520874;13.519506209148886;26.220593073214825;479.5266020673421;5.5522950048993795;-7.735356998096329;37.028128274289045;3.7155701845414666;8.43592937948521;-9.225172930999204;2.8170933081841074;3.370731308901677;1.622264718314756;3.5009541033235827;3.5445309502079416;34.805157628638796;0.45945341766676506;10.159336649422652;-2.136894608958824;-0.11393225802672721;-28.428513401716188;6.18026057577704;3.691142845185186;0.8634594711469774;5.426085445769373;-0.018894890421905126;0.12784730098216743;0.06007055559853191;6.215582005589314;3.924369826526449;0.9504888786870811;5.420365613093329;-0.019598262868103025;0.144020255453018;0.060376077912100146;0.000641999578817185;-0.5131080987970126
1.1398415565490723;13.511857088040784;25.965567758682592;479.7219266951694;5.50907025928646;-7.764322854897259;36.94233570623204;3.6603465915436053;8.31676557050672;-9.262681422303977;2.8258348250978904;3.3715912423991887;1.5980478122410202;3.500434216506714;3.570745959128614;34.80414058829123;0.45586105663462284;10.151370118059726;-2.122697005125978;-0.11572949638413038;-28.426663816678037;6.1802393687538615;3.6886249202386017;0.8626369713614895;5.426311988852499;-0.018900065402244433;0.12776293761115037;0.06005617911577191;6.216850272853707;3.9267098930136823;0.9512609657679957;5.420465849079016;-0.019592423452272856;0.1440958956120275;0.06039308506184918;0.0004130193950429139;-0.5130700630524134
1.1598179340362549;13.607531289255913;26.107205229565565;479.72443051038744;5.55274673546199;-7.832922868571259;37.09270646533086;3.659564502277188;8.315376115055285;-9.216491908651891;2.8264255808865473;3.380426400808722;1.5982386733284182;3.561599776081712;3.7023229050988213;34.70798196225276;0.4286254097093636;10.148847032191279;-2.0946160396362146;-0.118531438881526;-28.428615308223872;6.179189715405846;3.68603405649674;0.8617278960491165;5.42630534452646;-0.01892296290915193;0.12764607552994697;0.060021645471331285;6.216580943795107;3.9293111256211457;0.9521719590554262;5.420085785393645;-0.019568003681655156;0.14422161249409787;0.06042525812503929;0.00015960749103622902;-0.5131417242856664
1.1798949241638184;13.705628830306583;26.137961208477286;479.220356812463;5.563396063350434;-7.823910433339364;37.242002446511776;3.6831220831441795;8.361026307324432;-9.27752099897121;2.7851690115177594;3.36840774214494;1.6002729960791826;3.572205215088486;3.7237157369089138;34.80521195473581;0.412527295213569;10.155587687673423;-2.0897619768944513;-0.12323992774883591;-28.430321242438943;6.178308273902856;3.682428505039125;0.8604055007789033;5.426449508019889;-0.01895853365256822;0.1274426027388562;0.0599713329543571;6.2163643404595526;3.9329247995980503;0.9535013745134964;5.4196176820585205;-0.019531441671056596;0.14442736274513512;0.06047257919221009;-0.00017536669623128848;-0.5132098353025868
1.199899435043335;13.779903181868185;26.077706698402675;479.2147378296644;5.583914239476391;-7.878828810041931;37.277697196686134;3.682578892387108;8.367847202173948;-9.233588797576882;2.7850264771049136;3.377261024761198;1.6105491015975224;3.5984096523047047;3.745373608919847;34.712696079845834;0.380659250961882;10.1377447695438;-2.0921847454704463;-0.12983041487180513;-28.428463467487784;6.1786792871097935;3.6776444868666247;0.8586263206805106;5.427041092164303;-0.01900172645388814;0.1271468469505721;0.05991236124399965;6.21744070577661;3.937563690448196;0.9552550732420241;5.419420969766219;-0.019489769339200526;0.14472451824831228;0.06053231194552577;-0.0005927299340720369;-0.5131809276676974
1.2198801040649414;13.671298511480057;26.002295759267028;479.4083942031165;5.589122713910237;-7.875944181383467;37.3518387711388;3.6795246502095806;8.363313167656049;-9.216409213512248;2.8277810704731863;3.3803704403204002;1.6102065358881739;3.6111731946308034;3.771664778028846;34.6912186207004;0.3659547555331306;10.132735012148025;-2.0870588546624966;-0.13736355588913998;-28.433598606240746;6.176387516205103;3.6722531667574128;0.8565961484288895;5.426914220435774;-0.019038698596592317;0.12679760744772406;0.05984968962511096;6.216142532716047;3.94316349162457;0.9573466580558243;5.418505846464952;-0.019452787738383943;0.1450746234696963;0.06058445193538741;-0.0010484763355426766;-0.513344557316783
1.2398526668548584;13.550819439492948;25.843567185084396;479.3995602258517;5.550938251135688;-7.766196104140128;37.29791727135043;3.651954159240705;8.30445234004853;-9.218865083372867;2.8265158269814235;3.380291509307827;1.5982876354190902;3.60353620845283;3.7758947588249363;34.77708006972103;0.4248237103257111;10.150129983413255;-2.085666471506991;-0.13961027618170793;-28.429448140402865;6.177915745422947;3.6706222679478704;0.856009275521264;5.427563745030705;-0.019074316266953377;0.12671913206941182;0.05981349387147231;6.217734843159254;3.9446157087032088;0.957904446104065;5.418743455068552;-0.019422899497695503;0.14515700485329586;0.060622177006565116;-0.001226387195081888;-0.5132507439268736
1.2598204612731934;13.619272987458032;25.90613440363324;479.3960310235892;5.576999763132857;-7.784764728001036;37.39994802679494;3.650889902397719;8.303564706239841;-9.222414344403141;2.825072950728812;3.3803300278005057;1.598417296935956;3.6368121464068643;3.851034826571013;34.75504235151339;0.41059498094165203;10.146484335408543;-2.062011341961333;-0.14193799082741188;-28.422492933278782;6.180386353808238;3.668763613340727;0.8553497325244688;5.428464070577488;-0.01909788781460698;0.12662271540597933;0.05979040959577751;6.220525952849296;3.9461948698884943;0.9585132108511851;5.419364508763574;-0.01941179536121025;0.1452700022464205;0.060651127748514576;-0.0013949221157260865;-0.5130782650085561
1.2798359394073486;13.507873022261883;25.68325395163621;479.28891301102624;5.532082551347815;-7.69867034139363;37.242553851540144;3.6513941354572244;8.30459902991393;-9.175043543177887;2.8260900831427502;3.38933142058147;1.5986186464558267;3.5835511387609205;3.7362727818898946;34.79001104873526;0.4508023885775474;10.15705670032859;-2.0858286820392093;-0.14272319020993107;-28.426101509665394;6.1793140055566385;3.668171206360577;0.8551379050840302;5.428277166695194;-0.01910912084595011;0.12659960395961686;0.0597745193315777;6.219678018328787;3.947013916886523;0.9588036753613873;5.419092216468098;-0.019402191850055775;0.145311191042889;0.060660963350807826;-0.0014654524647066524;-0.5131987100068236
1.2998430728912354;13.550113668619268;25.58805097973662;479.78830867211076;5.527184895452456;-7.85088835581449;37.21271739500611;3.6491257054820645;8.299846219779152;-9.288553512349925;2.8283497061899565;3.371648738550781;1.5980983326023535;3.562938114706391;3.687999005938674;34.74988750727865;0.42394051596361537;10.149908818400116;-2.094551292615558;-0.14258478294494276;-28.425184059919086;6.1801525879076165;3.668168342880464;0.8551632533008346;5.428590538167793;-0.019112827636271444;0.12661728003816672;0.059773291131135796;6.220648833444922;3.9470274700929586;0.9588159194688288;5.419456982023574;-0.019395385433974517;0.14531847524466798;0.06066603802479797;-0.0014747461872265735;-0.5131962279927764
1.3198294639587402;13.52381630618539;25.97030507006041;479.6849348527903;5.602206344627468;-7.891050862111875;37.45336188788111;3.702181488822739;8.408259721993108;-9.265490070540988;2.8261056335038113;3.371418892066109;1.6121148331156823;3.614572089292866;3.7763178491616824;34.71547105703522;0.3998671550526991;10.142075635954328;-2.0856041963522682;-0.14158425769622637;-28.436613131216042;6.176695711904056;3.668852305619054;0.8554247489183985;5.427654915736485;-0.019103896699372534;0.1266745782434027;0.059775276065558575;6.2174394726634565;3.946940939963084;0.9587378756998381;5.418717472393154;-0.019398278966068203;0.14527611045133368;0.06065336754109723;-0.001433012540188073;-0.5135347747789948
1.3398308753967285;13.382444068008786;25.803846803785028;479.4767407800907;5.566013917550838;-7.808748691987368;37.34286530954148;3.6486143605594177;8.29076849688625;-9.26503958080072;2.8258075898711272;3.371120034931064;1.588093344010882;3.6234764782538122;3.7938104592567434;34.80273789167545;0.4246758835086579;10.151019120693872;-2.0810081206775144;-0.14133713983109794;-28.44387856511745;6.174786908062243;3.6690574911687666;0.8555035167011128;5.427185911914227;-0.01909387088286;0.1266899551351997;0.05978050746529886;6.215789054042659;3.94714162258253;0.9588001883414929;5.418415785822896;-0.019403877326709527;0.1452926388948867;0.06064470105990247;-0.0014112998924096995;-0.5137557723410262
1.359833002090454;13.318419513647575;25.807146820132964;479.46670248313575;5.562755227186048;-7.777231848665586;37.25990144306043;3.6519673427916617;8.305190339069643;-9.193305469707484;2.8063816376396966;3.36927936825244;1.5986989908073317;3.6135878684825675;3.7658521822587154;34.75624937931953;0.46098098449060165;10.158181830174733;-2.0954200039078494;-0.1394563421270765;-28.44230468737134;6.175563455428905;3.670361172599974;0.8560157644420703;5.4273846491165445;-0.019084889225863585;0.12678823979231843;0.05979633606029046;6.21648546887218;3.9458245394217615;0.9583541288119297;5.418873271777806;-0.019411420059271628;0.14522983610520537;0.06063550488944162;-0.001287309621693611;-0.511959881499058
1.379948616027832;13.254795073750373;25.85262952567735;479.6693115756999;5.570597290532158;-7.821740314196774;37.27264985391046;3.651518965708539;8.302561266725895;-9.231714993045038;2.814502865041659;3.3699349000777903;1.5984847857889766;3.619432788822299;3.77581530139651;34.753907539087606;0.45741855742925974;10.150752062804393;-2.0916930306262707;-0.13736122020270078;-28.447870406696076;6.1753433553637205;3.67223346512859;0.8567058074902403;5.427280868569893;-0.019082080088511866;0.1269081815940797;0.05980572566628121;6.21585688084577;3.944186666386841;0.9577804983192623;5.419041535424316;-0.019410309831499557;0.14514107534501627;0.060629529458804406;-0.0011659269390147942;-0.5138962168886309
1.3999927043914795;13.205121379303879;25.766369286800533;479.5631241494792;5.534068459244011;-7.871136956438967;37.220071549853415;3.6500054409344975;8.292197985962419;-9.229234552092768;2.8156152826445315;3.369934464806369;1.5884311302952565;3.5767848907872555;3.737545215881739;34.724607019715094;0.41007640927680367;10.11628535923278;-2.0915566747220504;-0.1384889128068679;-28.457497747321675;6.172715787999414;3.671721365398202;0.8565188792120184;5.426671081629466;-0.019077877441078257;0.12686213941559446;0.05980082640312643;6.213325813177112;3.9450977522751454;0.9581355415793805;5.418424784396508;-0.019406757370671157;0.1452230723148637;0.06063008968987553;-0.0011913366219745477;-0.5141819110417567
1.4198660850524902;13.242254873484026;25.883390275216293;479.2677740335745;5.58398897140854;-7.832497081365581;37.349840288574164;3.650692928675987;8.300655992972192;-9.218724783512554;2.8260624571912696;3.380012289448554;1.5983960776198487;3.633454071071225;3.8116591644737436;34.77972474136939;0.4167062570894924;10.16223972618599;-2.0769268692089677;-0.141381789575747;-28.46288498835709;6.171479172219479;3.67001686873101;0.8558503498014854;5.42655730528153;-0.01907690208541224;0.12672568842718296;0.05979153813029111;6.212357834860256;3.9470845615247168;0.9589189228278745;5.418143041652261;-0.019400596338966458;0.1453803745648937;0.060640995731722463;-0.0013053718021471808;-0.5143511050924546
1.439932107925415;13.41745942720716;25.89149159361824;478.54987625985586;5.594558782718364;-7.855028023686408;37.38323969274526;3.6791627007624745;8.361594482391968;-9.23091377762886;2.7859836096381585;3.3770937397661682;1.6106034057870953;3.615266650130705;3.77115589107971;34.83376331144731;0.37751567993756385;10.18487870165293;-2.0623019276139227;-0.14007105418977125;-28.471952536959037;6.169400545177855;3.671733954234695;0.8564408267989784;5.425966611054369;-0.019083710544881054;0.12681807132366588;0.05978603332974669;6.209469946568719;3.945831385459653;0.9584818038770905;5.417538191209019;-0.019385917056094923;0.1453199252175358;0.06064274994083612;-0.0011934246061912398;-0.5146201847433842
1.4598760604858398;12.93648456320701;25.80269690628673;479.53993296499107;5.527654865516013;-7.792655589399736;37.24077254288285;3.6788264788349583;8.360755643013999;-9.170856174405483;2.8271666973046132;3.389025790454074;1.6106154229297922;3.5581945329667692;3.71716763470808;34.75992106939905;0.47016333126540033;10.138819805871732;-2.071963600706735;-0.1415058874249773;-28.474088899069976;6.169564315662121;3.6716352014713824;0.8563338019608292;5.426120820502663;-0.01909748888232387;0.12676872927520652;0.059772601534879496;6.2089243630052025;3.9460554375267964;0.9586530057313237;5.417433263554542;-0.019367960100872758;0.14539925608587018;0.06066032289235386;-0.0012002083220560697;-0.514692547369785
1.479832410812378;13.424982687535852;25.953917252141913;478.86254123438323;5.598033875386262;-8.031313178044172;37.348751138695235;3.6768948483449764;8.348083689153787;-9.231667578853655;2.785437736564875;3.376597409751627;1.6006207871523115;3.6151061463605334;3.77120137029379;34.68655165437228;0.32406844742299423;10.152036163170324;-2.0832655344573126;-0.14354123072738872;-28.482653783454303;6.16762052095654;3.6716138882493565;0.856197992345262;5.425665087902857;-0.019119496366100983;0.1266961862145048;0.05974575945073956;6.206622081422325;3.9464633112723524;0.958910344478433;5.4167639787045685;-0.019340859757610955;0.14549413915510945;0.06068210138922434;-0.0012098497665846558;-0.5149149332799182
1.499854326248169;13.092664097837325;26.07113574699037;479.0447391089396;5.592338072887236;-7.8491571838958905;37.42315438256402;3.6780588907239955;8.357570851754128;-9.233925763961672;2.7844351487392167;3.376580161678309;1.6106953252720875;3.6444743198000733;3.83274477478472;34.81629204962216;0.4333446034731536;10.154509854956407;-2.0702963624555;-0.14548620216817246;-28.480565711084903;6.169316799961579;3.6715255606170656;0.8560616218921024;5.42620426657051;-0.019146072187677075;0.1266266399507758;0.05972411647948224;6.207870777831154;3.9464156121175167;0.9590442334088041;5.417112203622938;-0.019314521077329408;0.14556013116944588;0.060710862075161354;-0.0012177524647941588;-0.5148325534683238
1.5199215412139893;13.069442363126141;26.00084416424635;479.3522135672598;5.592759950746162;-7.907269520753303;37.37860548811342;3.676670382467841;8.354415274969924;-9.22174367837243;2.8243849477294862;3.379366144410004;1.610481838544661;3.6271744465437554;3.798905873484565;34.73184699791324;0.3875879977641734;10.126060547423586;-2.068059337407975;-0.14768825924214843;-28.47808629619501;6.170774095028103;3.67130739432189;0.8558650196385409;5.426658137163592;-0.019174114934366618;0.1265417254555598;0.059699882859398354;6.208398603380432;3.946476341026656;0.9592299373356222;5.417242319143364;-0.019287534972205117;0.14564385013279388;0.06073968326435948;-0.0012349738804840792;-0.514741747664236
1.540039300918579;13.503317149370297;26.045970786354722;478.9695167295622;5.580078962958361;-8.157913411408842;37.38302900071883;3.6408871982423356;8.298189910718735;-9.270557950463823;2.7223087741059055;3.3530757177254795;1.5994799337730583;3.6561415746285166;3.8825995299398603;34.6097950913587;0.3143853300018016;10.126475262250844;-2.0491078025212373;-0.15022013261872183;-28.483125761636686;6.169347301251478;3.6710650642612928;0.855639855187823;5.426279130922423;-0.019197852380901832;0.12644879748007176;0.05967196326626253;6.206649211205534;3.946628692216719;0.9597072403314266;5.41710678406463;-0.01926889716689722;0.1457752425129227;0.06076625788960537;-0.0012751744903615842;-0.5148356949445038
1.5599477291107178;12.988292977659967;26.22973444616592;479.45716012829104;5.62897313590153;-7.776836451257623;37.483051907430244;3.6766375285377215;8.354781016293664;-9.178975068023307;2.8236313301934803;3.388341489861173;1.6108440544881582;3.6943298226367425;3.9035212169498417;34.776768134552114;0.4740899691212914;10.155684257829735;-2.062089982034369;-0.15208418588434983;-28.466541076328674;6.174369124904175;3.6705468886605845;0.8554034164113321;5.427679644421569;-0.019214424106110572;0.12637536911213496;0.059667403135702235;6.2109081138636135;3.946568576393876;0.959857835957053;5.418153074389206;-0.01925283264600633;0.14583732841087507;0.06078912571337565;-0.0012950944414187792;-0.5125761888681988
1.5798389911651611;13.316385054638047;26.166391808353616;479.0686371020355;5.635833981356585;-7.881749294245914;37.461870195800614;3.71253431477782;8.41014386785027;-9.243162702666401;2.7808931770193257;3.376197214586967;1.6225444409534198;3.6522321673451916;3.80600230083669;34.769219066689686;0.40722152162173764;10.154446187803618;-2.0819816650841423;-0.15429001298677783;-28.46033242420808;6.17678249784653;3.6698592059567083;0.8550787602746555;5.428335505344767;-0.019222203451480187;0.12627638059432633;0.05966351720020994;6.2126670889630615;3.9470900349713807;0.9601457147081773;5.418431451077114;-0.019250365459583446;0.1459309220061461;0.060803081017595476;-0.0013552832763160157;-0.5141365166578816
1.5999338626861572;12.939433621881012;26.29667379377839;479.46763655119173;5.631136887632967;-7.665770946297677;37.48830484439631;3.7012755524397787;8.401199967847457;-9.122127601866548;2.8637996110380355;3.400168334398738;1.6129302285313203;3.6681620998428808;3.863905408263343;34.79026272943506;0.481221106713682;10.151334520043314;-2.069182695309535;-0.1541030886228133;-28.454385150394458;6.178024495494935;3.6711194077177223;0.8554788723781223;5.428522298184873;-0.01922090072287804;0.1263073953191473;0.05967297022654734;6.212990740653392;3.946063594297527;0.9598366121384756;5.418464275794795;-0.01924288573689184;0.14589666192000925;0.060802238060134954;-0.0012529742784015644;-0.5121708877802715
1.6197831630706787;13.060664592244036;26.146403555855752;479.4778932813273;5.592450853789989;-7.739449351164808;37.39133011017023;3.6469142733456192;8.282778773360066;-9.267005271996458;2.830085629164012;3.3800494766310805;1.5884426375804341;3.670548094802246;3.860674879799598;34.86930754895782;0.46745947160918533;10.150691090286132;-2.0776068196440365;-0.15370141288750833;-28.452287634829695;6.179225390194349;3.672624366680127;0.855978326192951;5.428674931449651;-0.019207554176687;0.12635343871901444;0.05969490757156834;6.213566381709021;3.945022295322115;0.9595240044781436;5.418675766068312;-0.01925455928702071;0.145878342387157;0.06079427137199218;-0.001169001467323078;-0.5138524925228481
1.6397888660430908;13.509700450857972;26.310046351170833;479.0908710984294;5.623440060426166;-7.963309665906181;37.38540454216079;3.6874526164617856;8.344988588176099;-9.260020024786046;2.73812424814731;3.372706100470232;1.6008457280261328;3.6648876106808523;3.8643317574058575;34.711682086957936;0.3994256028783916;10.144108570605223;-2.06029774789669;-0.14870142294672678;-28.453242163473234;6.179104039059052;3.678294411608068;0.8580304913225603;5.428178133586236;-0.019191257493012794;0.12668551316552373;0.059732833803537465;6.212020914847083;3.940836169529426;0.9579943577941475;5.41851523167341;-0.01925806217050264;0.14563433423311586;0.06076694850111993;-0.0008321090191233437;-0.5138617760575458
1.6598362922668457;13.014151110907264;26.459464725576034;479.4917413281239;5.64969636158788;-7.633194804039938;37.49737888049862;3.7140698255540765;8.410104590772885;-9.201160558686698;2.855261828991211;3.381210596773993;1.622234193722443;3.665372508555073;3.8698455339734985;34.88159807882938;0.49999078150286946;10.17456104943568;-2.0507142306894908;-0.14635488509254102;-28.444123664820317;6.182284686434485;3.680407674228581;0.8587864744807373;5.428803672727561;-0.019166798079647968;0.12678059194234498;0.05977309765058182;6.214438695969538;3.9383537896518144;0.9571277314665277;5.419351948924206;-0.01927387023424481;0.14551089102512263;0.06074934149376905;-0.0006330404169838499;-0.5135956959882436
1.6801424026489258;13.254548500211643;26.026108782100472;479.2011221013343;5.544672950840965;-7.709576363082768;37.16371003962807;3.6246883685783127;8.237185895584869;-9.285599783373929;2.7865793224133193;3.376566102936523;1.5867962612615312;3.622091192757891;3.77245762526978;34.9225472315669;0.4966761166060243;10.182662493891058;-2.070100571162151;-0.14662892990592855;-28.442315933545487;6.18254514368503;3.680371876166617;0.858713303007802;5.4287540848810565;-0.01913862854309497;0.12671769761903706;0.059800443608085216;6.214530415381857;3.9378177753017294;0.956966351434007;5.419388181942016;-0.01928999506428871;0.14551327739291023;0.06073262854484949;-0.0005698655587271211;-0.5135339431353523
1.6998469829559326;13.263607515729904;26.38888166979297;479.0131312499651;5.611310619093365;-7.623474225635327;37.38917855881735;3.639680102341374;8.285396243981335;-9.239455581873205;2.8162436436551523;3.3784433814832733;1.5893614460534604;3.6842127997667244;3.901299709179401;34.9418329679581;0.4809423798807959;10.187759991615069;-2.0420667382263202;-0.14517524584846853;-28.432635614610007;6.185791378056275;3.6813291697610833;0.8590596457780815;5.429481016506013;-0.019113075663537114;0.1267485600378608;0.05983738008875477;6.2174584102037365;3.9362177675312133;0.9564126700254183;5.42032267010275;-0.019308719746560746;0.145428596181899;0.060716376648507264;-0.00043964073646609973;-0.5132599957830514
1.719775676727295;13.391315377500941;26.42491955246291;479.01267364997113;5.615431175965625;-7.7037775672792534;37.34140546718848;3.651311113503551;8.287092637621475;-9.254204331271335;2.775007438649709;3.375416534015316;1.5892406725470112;3.679826651596413;3.8926068579709696;34.8865588065263;0.47011499993446915;10.169093503890474;-2.044440556554662;-0.1426269456173456;-28.430090654197855;6.186478785205643;3.682815785466548;0.859622279364195;5.429459772367135;-0.019080088619774407;0.12683331475524684;0.05987674130858496;6.218088424898116;3.93418611433799;0.9556377379877057;5.420672170050079;-0.019333283434023456;0.14529318007151015;0.060686975213350605;-0.0002812775000472353;-0.5131863610667422
1.7399420738220215;13.213978514217855;26.358887884743318;479.0218083015158;5.564256621210292;-7.5814568067168295;37.2590092674791;3.706918873139959;8.413817263074868;-9.217328885902374;2.7661983197313127;3.3743955268504284;1.623484368452063;3.5815128478432205;3.732473006614864;34.94852876087316;0.5441212735985275;10.181299723526609;-2.068931641975109;-0.1408814185878808;-28.431322704691716;6.185693605830063;3.683578026202511;0.8599240708717404;5.429086212689925;-0.01904288587009808;0.12687784609278122;0.05991335427680838;6.217673353370464;3.933366320392366;0.9552878803491323;5.420673536627042;-0.01936370961915377;0.14523763244027213;0.060654400558696635;-0.0001779266104973455;-0.5132194869264782
1.7598028182983398;13.542100357779743;26.686214835096354;478.8370026671988;5.664141098641722;-7.755420891107832;37.49393245758252;3.6801768129194787;8.3551694840121;-9.252756836323812;2.775832022467059;3.3753857128043467;1.6111605048299544;3.7057750069596436;3.950294706774999;34.85767755682665;0.4243536581181697;10.171266372924922;-2.032185445597979;-0.13864010924464512;-28.4313390661898;6.185252790881895;3.6844632744634738;0.8603003075782242;5.428795055188355;-0.019004499180079605;0.12694904447790342;0.0599525827224679;6.217788071690242;3.93243045702652;0.9548752520663707;5.420841859215641;-0.019399441092588024;0.14515208973228946;0.06061708439778832;-6.992652331036433e-05;-0.5132174026813928
1.7798361778259277;13.385216754067482;26.508799642334914;478.83023859646113;5.613866992002352;-7.630467641641445;37.32076103010117;3.652775171233824;8.288552347676418;-9.251825483413738;2.7760943446260624;3.375431407435877;1.5891409729002512;3.674674335694182;3.877473457308227;34.95248116697323;0.48138747485125366;10.173556804584607;-2.0558314782649565;-0.13610172908151097;-28.429654158334458;6.185226047437332;3.685380411807661;0.8607065888605084;5.428592310202017;-0.018965749492343274;0.12703351428341794;0.05999341276231321;6.218470644582773;3.9311958949921335;0.9543385908624833;5.421178335432972;-0.01944130514034146;0.14503886990912807;0.06057412337415251;3.966944350292014e-05;-0.5131619162280028
1.7998218536376953;13.400846509980946;26.433652740029366;479.1384895379898;5.609077091499409;-7.611363900232384;37.22796669662928;3.6275339057026352;8.241164077592458;-9.25526022531577;2.77458296514156;3.3755383094924003;1.5872615406409194;3.6851907388016327;3.8730478803729236;34.93686881676434;0.5235342495575197;10.183257058644203;-2.0572897471322844;-0.134333324085397;-28.41598540712348;6.188606481810679;3.685563556901743;0.8608647935846111;5.429367509675615;-0.01892987623163099;0.12707580604284913;0.06003773594744189;6.222732950022523;3.9303054082069613;0.9539645987549984;5.422481995912384;-0.01949012422991668;0.14495529333837295;0.060535000940752974;0.00012335186029257487;-0.5109991481149514
1.8199703693389893;13.329683738549999;26.476307795035467;479.2457339118655;5.611070210607265;-7.503824351797938;37.193874426899185;3.6532475226923196;8.289787538583962;-9.19874332590894;2.814311323070225;3.3874588574637126;1.5893802260033436;3.6481717876530357;3.811959877477352;34.94509396332845;0.5442243853133681;10.182151323243122;-2.069265168718909;-0.13015807469489843;-28.405858013439484;6.192324119996715;3.687633769354536;0.8617215348762644;5.430097158820076;-0.018898763864582224;0.12724447400684724;0.0600858041283088;6.226778995715774;3.9265340606611936;0.9525186129079035;5.423915907844776;-0.019536636114070624;0.144687241885829;0.060486573985494375;0.0003056972266260276;-0.5124698485875123
1.8398115634918213;13.254135411700206;26.5408158153977;479.7599683708285;5.62919599900072;-7.50781021678705;37.236997489741206;3.652692218405646;8.294759016199826;-9.23322806732893;2.8535560609028936;3.3811356344321197;1.5988688902202892;3.6596974445107304;3.832092546014722;34.941015951188035;0.5634940378266533;10.194315860694548;-2.0636673930469853;-0.1282331807406951;-28.40103328891505;6.193412810957212;3.688287318873112;0.8620167959727845;5.430203593025274;-0.018864441657768474;0.12730010096979788;0.06012416261720991;6.228596270054117;3.925103147167915;0.9519434441425998;5.424599340828897;-0.01958713275229975;0.14459667882938307;0.060438240827379607;0.0004058641729061856;-0.5123258565052604
1.859795331954956;13.488448316832606;26.885834475787327;479.1692350586935;5.692000962093207;-7.519430776043372;37.42269928194315;3.7184110293152797;8.413330873489933;-9.292666148852454;2.765265586729113;3.365562299988226;1.6229693057630954;3.6900519140801857;3.8754256812921986;35.01872212903422;0.5685305613627136;10.20604904125715;-2.054532538742013;-0.12253503513116885;-28.396081521068094;6.195022732066034;3.6916120554655283;0.8633422370638331;5.430287833257369;-0.018828708204074847;0.12755906525437735;0.060175938596792176;6.230410999513107;3.921471941339943;0.9505630966183211;5.425484378499857;-0.019640277220588857;0.14434018576216542;0.06037867402874387;0.0006879051653967613;-0.5121874132655453
1.8799793720245361;13.503911481105092;26.802217683373968;479.6721432394518;5.661230156811397;-7.627176513315668;37.28808332807427;3.6828955486762136;8.35830895140996;-9.32685338552973;2.7753039871169145;3.366775173668857;1.6110349357929659;3.674835343598998;3.8399584773741005;34.94139033642966;0.5634557431596328;10.194657199875056;-2.0707881718187613;-0.11744812223371141;-28.397666080322086;6.194308624812283;3.694459006824155;0.8644864259235605;5.429779662186588;-0.018789652352509574;0.12778941458845147;0.06022278672263069;6.230186240156812;3.9187389661416305;0.9494490022389106;5.425771715240994;-0.01969818101963873;0.1441271492485442;0.060316837904747705;0.0009290553879302186;-0.5122352524956696
1.8998024463653564;13.610321063800995;26.940777448793654;479.279735790733;5.709042843349417;-7.625681751899279;37.38466681038831;3.681166807552376;8.348213944385218;-9.257953555349616;2.802417045118034;3.3683158873201653;1.6012087436222269;3.711001288247996;3.914705374202148;34.890216356267814;0.48126162982874066;10.180464451494316;-2.0557000931378915;-0.1174071247140428;-28.396160261310268;6.19435672437682;3.6936298935832936;0.8642481436407353;5.429771293721362;-0.018753352377020298;0.12776015773382082;0.060254475109298794;6.231519566510415;3.9197644037806185;0.9497804167867128;5.426216065740806;-0.01974399343217316;0.14417492583509622;0.060275642390785776;0.0009165575981785663;-0.5122004872167294
1.9199528694152832;13.707747016111362;26.67845706627671;479.1814256880814;5.644637703099967;-7.634280275444603;37.131779168816884;3.656177459708289;8.292639622883287;-9.21788256086889;2.7710759162111382;3.384267129457738;1.5898011960437453;3.652753129763657;3.814771154830373;34.85021325899672;0.5053258623517309;10.185440777725466;-2.0678648019052126;-0.1155907116641896;-28.393473447411893;6.195524373595492;3.6942598079382583;0.8645550847076363;5.429996660175004;-0.01872403839693043;0.12783140471529164;0.0602882508604186;6.233188578742457;3.919262023484901;0.9495509666135941;5.426871199267711;-0.019791820544762792;0.14413746029700467;0.0602373502598443;0.0010004757465422948;-0.5121283443466536
1.9398415088653564;13.593226998058354;27.001634364946646;478.9864594081842;5.6913888938615464;-7.500486521623749;37.33701663608227;3.6839455657421496;8.352148312325316;-9.208739987948888;2.780643391508283;3.3943230567841005;1.601809730800647;3.699972544474241;3.917969943447861;34.958824010569074;0.5467320502554092;10.199205774867538;-2.0466206067649475;-0.11165009276381535;-28.390648964142592;6.196178561798441;3.696599174492105;0.8654918438705314;5.429981901940795;-0.01869845385482733;0.12801770758825803;0.0603238242566729;6.2340374729467145;3.9170966603929243;0.9487025167656619;5.427431951978592;-0.019823020955585698;0.14398808248894293;0.06019751110202878;0.001211533276173433;-0.5102915089548702
1.9599742889404297;13.687156865888706;26.934840605654582;478.4831854005323;5.659931939687192;-7.521697865019064;37.26167677107033;3.7121307861505777;8.412917749735547;-9.195013142877306;2.721322901008531;3.380430058964931;1.614352347158503;3.640222866618693;3.8185194501663955;34.96320614174896;0.5311735163467435;10.195512525011422;-2.0595141364695913;-0.11078409599313045;-28.398237059727307;6.194316396265605;3.6969356315155317;0.8656398712191593;5.429429140695593;-0.018671908033395523;0.12804609464365888;0.060345533236916084;6.2327868242404625;3.917208987712187;0.9487063452386723;5.427248933637492;-0.019853665383474446;0.14399454147631108;0.06016565870521648;0.0012556922692764016;-0.5122859345243449
1.9798753261566162;13.56804768033945;27.062067060583008;479.0826040398832;5.695689416201944;-7.619437069316646;37.330816785668496;3.711691537503416;8.4105167042961;-9.214163530957974;2.772566952786959;3.384214108121376;1.6136738140258093;3.673008257306935;3.8778319035569586;34.88296663535388;0.5068942192774033;10.179399102440478;-2.038849859857847;-0.10778872709424242;-28.407725644103163;6.1915264326573425;3.699208983582276;0.866480884995327;5.4284973343080205;-0.018654872030818663;0.1281947392404048;0.06036323306278894;6.2298377559262015;3.9155261365113905;0.9480442020055134;5.426704402687583;-0.019871467400489826;0.14387989150770367;0.06013453294680828;0.001437315577540922;-0.5125690945653085
1.999964714050293;13.442503365714622;26.793843038863706;479.4830307204939;5.653643573323237;-7.607461751422612;37.12739730909284;3.6571692947057333;8.291480459938326;-9.236740767181185;2.822132054628434;3.3879807822836514;1.5891346027284619;3.6480402215476584;3.8148352281619924;34.896615966222114;0.5198910379267514;10.190455656414146;-2.0591996488365973;-0.1065743716780587;-28.408692405561556;6.191605468123386;3.7002262583817846;0.8668527983187487;5.42845069250993;-0.018646693810855874;0.12825277716086053;0.06037516701724366;6.22979041390205;3.9146666865331725;0.9477370445798399;5.426864682389304;-0.019883365746374247;0.14383116050571895;0.06011954796831388;0.0015354671725275422;-0.5126170889407384
2.0199661254882812;13.526179128485358;27.00801659617582;479.0836286208895;5.682436488207877;-7.55861896055729;37.25109615674714;3.6852756584591004;8.352091061128775;-9.25489774589823;2.779410155607102;3.384989772548429;1.6015390616913268;3.6700134204350734;3.861228068464113;34.968427018934314;0.5351744972644172;10.197294046203695;-2.049254050502538;-0.10408787861572805;-28.402404943800672;6.19438396501527;3.7022558607752694;0.8676124969202436;5.429090062212117;-0.01865272645046992;0.12838655678784353;0.06038479390805197;6.231875211268772;3.91242551825681;0.9469417391760007;5.427659391062985;-0.019884274340877417;0.1437020136121038;0.06011580033705118;0.0016942732973981704;-0.5124632076237026
2.0399515628814697;13.508247219249842;27.026487835928698;479.18350117391265;5.688124832795302;-7.564179112202403;37.26933181290286;3.657256343844036;8.291640971717584;-9.26715316224627;2.7684202073700988;3.3748057979032184;1.5896342507361614;3.7088655907408157;3.9335951729195737;34.964707195130956;0.5504532464352603;10.201168519446318;-2.041145050974904;-0.1070428409068407;-28.39991082632306;6.195293720630102;3.7004661512066725;0.8669070386198632;5.429494123686857;-0.01866469242322044;0.12824166535505244;0.06036855654310851;6.232864646465406;3.914126254970869;0.9476323670244313;5.427802031954311;-0.019876554496011917;0.14385854652093819;0.060133119255168586;0.0015782401001718906;-0.5124122070779213
2.059969425201416;13.399982347139474;26.91839245922329;479.28285669467266;5.677914416779865;-7.521676352644128;37.20014520614349;3.6566745388287996;8.290258992172458;-9.206502411577977;2.8099245049598403;3.3866671560302892;1.589616774903654;3.6864066525677157;3.8839695345444003;34.933191489948186;0.5431348947689911;10.191122275342536;-2.0508369616233075;-0.10889313405298552;-28.401177602456674;6.1950673482077745;3.6997345479569086;0.8665930403592346;5.429533657397734;-0.018684616018912532;0.12817583522238116;0.060345902193951084;6.232342434474413;3.9148970489758574;0.9479566245695357;5.4275543234985655;-0.019856711056089243;0.14392561347065408;0.06015355961557958;0.0011331237122381124;-0.512451089693867
2.0798308849334717;13.266639487250119;26.890407523131273;479.4775894806671;5.670175261928474;-7.449035126949909;37.247097237318954;3.656295941950051;8.297777863124017;-9.255501330799095;2.808299291669819;3.3776956202513038;1.5994344522804138;3.692014014456072;3.892584943091806;35.02174870058577;0.6043635753259515;10.208898513834605;-2.0489688144839433;-0.11160267670639723;-28.39627896966638;6.196873120786323;3.6977764690562314;0.8658544658552133;5.430249340589098;-0.018705860806484433;0.12804365637027632;0.06032272965758455;6.234174589394961;3.916556569322508;0.9486218044813957;5.427883541148252;-0.019835317313298073;0.1440590458837604;0.060185645292776244;0.0013664054608784493;-0.5123466601636284
2.0999276638031006;13.243835088165639;26.85082574131785;479.1687406069688;5.667342385002932;-7.373060816548325;37.2501707798783;3.656612268446149;8.298842573227608;-9.209193547594966;2.80890195594168;3.386752292578581;1.5997213831430408;3.6921655207314035;3.8927032517085562;35.0578527871837;0.6145375837875875;10.219868769448379;-2.0489425392788743;-0.11334545986988682;-28.397305659419274;6.19687434506105;3.6966778964418374;0.8654509894632901;5.430479664357561;-0.01872796008434948;0.12797987921955828;0.06029789237749295;6.233964640285242;3.917569272119672;0.9490133941046035;5.427687401623146;-0.019806536378760037;0.14409951510727803;0.0602149973501443;0.0012561792031263361;-0.5123905855254545
2.1197807788848877;13.420591787257008;27.003432199229074;479.7692497611108;5.713510747954109;-7.685000339358794;37.357279153272685;3.6811173941947204;8.34480718155306;-9.242256206771218;2.819746902900518;3.387634283868832;1.601303494397043;3.7135772941840357;3.9373272108562936;34.823156302865;0.5222051963360328;10.189595318014746;-2.0472505856470598;-0.11449408573223328;-28.408082754838386;6.193423647234434;3.6961467632680423;0.8652272103088647;5.4296810762982455;-0.018750099682813007;0.12795204056339413;0.060265489861515316;6.2302755631950735;3.918448934895503;0.9493154847268896;5.4265237820173695;-0.01977173858282725;0.14412987313829095;0.06024112270052497;0.0011639246206134345;-0.5127042192788095
2.140089273452759;13.287583778768534;26.866540971982886;479.2584377214896;5.687779928363811;-7.527723103634237;37.38763941265816;3.678944757915401;8.341295631446332;-9.304607165305951;2.77781817430045;3.3755583255079395;1.6013643958316965;3.7149268368504607;3.9120176463165386;35.036885203236814;0.5792573925291231;10.202941983796974;-2.0519866418275075;-0.1201485452946966;-28.409039434377917;6.192962456883878;3.691945670563207;0.8636642823360785;5.429983787926795;-0.018770881609793462;0.12768396942747828;0.06022800155237556;6.230517486824597;3.922489842655898;0.9508313659213244;5.426205855792951;-0.019740798141142712;0.14439646862873973;0.06028690103323628;0.0008215776547465456;-0.5127408849657226
2.1598098278045654;13.471426087008007;27.01261031036449;479.3559874876603;5.726351282667412;-7.727896067408153;37.53288205860346;3.7051816504197723;8.398253737216251;-9.303017688817086;2.7785762203958466;3.375472154072468;1.613292525088052;3.730908453341246;3.9718710544265186;34.876021427783776;0.4859324276790309;10.175178649264362;-2.0390155803958656;-0.1211722258664435;-28.413762096212768;6.191056419581261;3.6910558535890976;0.8633538460654159;5.4296320227513055;-0.01879077703438973;0.12765863560631463;0.06020066083803757;6.228421340012585;3.9234846604564657;0.9511521979451424;5.42544696738453;-0.01971401606452615;0.14441691141658394;0.06031447485660246;0.0007097520603412304;-0.5110964171433019
2.1798152923583984;13.273777465498458;26.633811366596305;479.14506538514445;5.650675423254185;-7.540141825346076;37.32955004671862;3.652014870342129;8.284030830591986;-9.25405489645488;2.7802332088185846;3.384692295069003;1.5895185161726215;3.7030160849302156;3.9203315652081927;34.99834108502998;0.5723418653753352;10.206588965169015;-2.042917101448205;-0.12397046905843366;-28.41804343602609;6.189714635219223;3.688428736517703;0.8624262914075846;5.429521996128075;-0.018802423236997837;0.12752983560752698;0.060175947753186576;6.227853698396283;3.9260200425883918;0.9520347995383198;5.424981650339742;-0.019688808180499708;0.144534659165311;0.060341769792566585;0.00045435060354196994;-0.512975571446773
2.1997928619384766;13.377891332540097;26.67612626947589;478.6435704647508;5.674350453296384;-7.491535583876889;37.396447838472135;3.652635645435726;8.286117786698771;-9.172859401343773;2.7708596235194864;3.392739758354642;1.5901534746531414;3.731169582692651;3.9799837810074026;34.97563451362102;0.5403295624105371;10.198580594040827;-2.0302790114499345;-0.12516119753847985;-28.41156162250335;6.190823178949213;3.6868050575762545;0.8618982732002006;5.429989295301598;-0.018816033035152946;0.12748000551865948;0.060159946216880505;6.229478895793528;3.9272406677410787;0.9524330298666621;5.425196738237071;-0.019670933499410327;0.1445367456584023;0.060365851938788226;0.0003026302178438297;-0.5110133544674428
2.2200183868408203;13.382795494786208;26.629725281813478;478.8387128899434;5.677595453212069;-7.487629899848166;37.470105005043706;3.6500426757708926;8.282375978348954;-9.211588691498328;2.7796573376878317;3.3937954508188337;1.5899382852142532;3.7455899570306306;4.013115314204152;34.997353397374695;0.5554637355527849;10.20302242080763;-2.0155078133267392;-0.12938250151743205;-28.40628519426634;6.1922328061917815;3.6827785869759078;0.8604757729508206;5.4306695184459866;-0.018822440034289963;0.12726203780073703;0.060142108331452775;6.232153905323698;3.930762661997963;0.9536929203186234;5.425524883924691;-0.019668650965666272;0.14472336223123275;0.060392600705569705;-3.347362842978825e-05;-0.5126194905951016
2.2398412227630615;13.425106237553813;26.357738509369966;479.03638056470163;5.631361858791744;-7.542952321448894;37.2885111069061;3.650926741075823;8.284842848642612;-9.208758438166607;2.7807947905776063;3.3939952911792575;1.5898310494712804;3.6771046228445603;3.877958898639962;34.94196927680578;0.5506728799340155;10.199543369171083;-2.036666073597444;-0.12749515368113176;-28.407128498769357;6.191293204373278;3.6834175931059745;0.8607840762936771;5.430335179003846;-0.018827834540452816;0.12736297452306558;0.06013734456734934;6.231392344915401;3.9300240199237066;0.9533174222909325;5.425215383739684;-0.019657296797393344;0.14460229471845742;0.060393414296398745;-3.614006658955119e-05;-0.5126288866967074
2.259859323501587;13.658642217369547;26.44009677625799;478.6447747045793;5.6699524519952895;-7.573802670220587;37.4095228681554;3.676357424061396;8.34084613973876;-9.212563883079646;2.7794675598679373;3.3939115488590703;1.6019403678305582;3.6862814279446137;3.88595731069643;34.92831162336278;0.4771447944633027;10.189477343195783;-2.0420271333332445;-0.12884476812321205;-28.39754538999069;6.193738678802011;3.6816732380691235;0.8602010062823667;5.43108894774865;-0.018833779345979906;0.12728795744535473;0.0601316237228105;6.234445648679768;3.931196959941544;0.9537166248462876;5.4258245170726;-0.019655685693160757;0.1446393137829245;0.06040699154586248;-0.0001834806423875509;-0.5123500344428017
2.2799527645111084;13.496631512246733;26.409630451364322;478.8407195144126;5.65244747745054;-7.440540496511076;37.3919423158517;3.649286430524969;8.28265723371397;-9.214156122642596;2.778675485903402;3.393890375762349;1.5899849413436924;3.711559822289375;3.933102755112815;35.01565950377921;0.568036694063621;10.207126640000089;-2.040095248402731;-0.12919512865923807;-28.390283753617;6.195444908708297;3.6808534844205925;0.8599437527559672;5.431556385962675;-0.0188411547494401;0.1272657867010074;0.060126118597222195;6.236464470358843;3.9315827392823515;0.953822485212312;5.426202237859178;-0.019653155842958243;0.1446171376233864;0.06041516003165492;-0.00026578785166137854;-0.5121342149047953
2.2999801635742188;13.461446430560551;26.49637888873121;478.64791209026214;5.661985096664764;-7.372501011520946;37.460593889588026;3.6762139952762256;8.340983286296545;-9.186744568662892;2.7599575358680566;3.382779327832447;1.6022371278235426;3.71338958598738;3.9379546129966156;35.05178183807585;0.59284677358582;10.214109428107934;-2.038436729030621;-0.1293212848915477;-28.390593759452447;6.194820724671587;3.680512089414741;0.8598275680611944;5.4313313463378154;-0.018849963996678612;0.12725862490557277;0.06011474505688662;6.2357360676224145;3.931868101357603;0.9538815201874542;5.425821153010921;-0.019648556923825285;0.14459990792239885;0.0604181538948483;-0.00031842039870310593;-0.5121180547814042
2.319946050643921;13.48087191913056;26.375795290220665;479.14919317655836;5.655440726249315;-7.360350517278917;37.4262650034367;3.6473514038807933;8.279780269547357;-9.274334115684923;2.7665316243649767;3.374730508566741;1.5898053618413353;3.7287956321273996;3.9497904475685517;35.107036955351916;0.6580695649580912;10.253939231713543;-2.0280929326017616;-0.13025598872013303;-28.37648879639827;6.198956255559328;3.6793923017340147;0.8594536572463997;5.4324853565760804;-0.01886299333315484;0.12720727371160886;0.060109061460380024;6.240082476356439;3.9322931946370216;0.9540482738348657;5.426846985784464;-0.019647123881396653;0.14462497376897263;0.06043294784598877;-0.0004124203715830301;-0.5117066869664549
2.3397812843322754;13.514081165947985;26.269714955879927;479.25834437587423;5.631108420932689;-7.382498133828278;37.38433008438202;3.64587566525955;8.277445245787211;-9.276847363542842;2.7657831192754037;3.374670859314736;1.5898738179298646;3.7036585264392476;3.9143282108056954;35.064765498244256;0.6352157549822808;10.218615412141341;-2.034396986808898;-0.13339619474573738;-28.36670502965373;6.2007718995767815;3.6765739237900914;0.8584134109749658;5.433108424174973;-0.01887309904719931;0.1270230866836683;0.06009303788259261;6.242495584500464;3.934463533267647;0.9548649866573923;5.427224260083108;-0.01964592081491842;0.14476590265508596;0.06044871146739236;-0.0005880035124635639;-0.5096405737334395
2.359809398651123;13.748813333830524;26.775214735570668;478.8668960299008;5.7381766536374705;-7.463573293499948;37.70959078366755;3.699796289982247;8.393897606150976;-9.232743032444988;2.7656836737843293;3.3835640833030607;1.6142047163005722;3.7809951242500257;4.054032892020568;34.96692156185405;0.5282518048120268;10.175465281442984;-2.036280414587894;-0.13251249654725916;-28.36330034441633;6.202212854038251;3.676860075586072;0.858537481387795;5.43343334657821;-0.01888497855646705;0.1270572637042826;0.06008659725606165;6.243703198695914;3.93371490124233;0.9545638187477201;5.427479082530615;-0.019641347901743836;0.1446996083316812;0.06045265288604521;-0.0005867251780384847;-0.5112941132837623
2.3799543380737305;13.772141933710014;26.67517633854144;479.2713267844431;5.7120865935401515;-7.552485983442175;37.636772059119124;3.699523787818952;8.392947256838163;-9.232005872511186;2.7660397027778716;3.3834554918739683;1.614160464282325;3.7498034803276;4.0228784641504856;34.8754127817106;0.534196463124307;10.17362437871542;-2.0267191714000723;-0.13270712611002733;-28.364515012296337;6.201362382832702;3.6762914699011238;0.8583381571133772;5.433198670050661;-0.018889593022584313;0.12703329141602793;0.060077558188507824;6.2430723048529115;3.9341528619167416;0.9546825155498871;5.427187460586245;-0.019640669696607355;0.14469804340497833;0.06045210229573565;-0.0006271559765451537;-0.5113089499254174
2.399791955947876;13.611309448358673;26.3426733850639;479.0692596744277;5.6468356048808594;-7.396995999589187;37.47462778377209;3.6462527574465966;8.277539490621843;-9.273876882266942;2.767015881332398;3.374564606330989;1.58972613942375;3.727246227316605;3.977637124063323;35.06475491138117;0.6038385435127323;10.217471971676725;-2.0136084018820894;-0.13171403609788837;-28.36843937744206;6.19896930994232;3.676294811926577;0.8583574190253436;5.432497569570713;-0.018891506990200584;0.1270557558692154;0.06006916882716888;6.240631610441653;3.934020141959129;0.9545582102757806;5.426464101470277;-0.019641197283415686;0.14465342585313729;0.06044383096587219;-0.0005984450080974233;-0.5096340416567899
2.419914484024048;13.908635431050982;26.342095228815463;479.0727091229975;5.644391106621567;-7.573590307634589;37.50814189107595;3.6353650175127763;8.277571505534913;-9.38719497674124;2.6935358061975343;3.3607871699199547;1.5902024316641203;3.747342698490543;3.9935936535880465;35.032000904034895;0.5846950555351729;10.21921032612158;-2.010210711455818;-0.13449044941129867;-28.364989132013193;6.199932960042267;3.673708876419136;0.8574201665227094;5.432923684585864;-0.018897247400488502;0.1268984475092821;0.06005589479338788;6.241451146995305;3.936311764468209;0.9553933122339386;5.426477763982664;-0.019644846517350247;0.14481254899308035;0.06045149964906946;-0.0007884627219219495;-0.5113130273469082
2.439835548400879;14.148454869508502;26.437077474159892;478.17769422071785;5.674523634053697;-7.56262700263953;37.507668396391516;3.6485881323605462;8.282817956389788;-9.238631903256934;2.6811773876421965;3.377365584691205;1.5908103794468325;3.7541543562001576;4.02020851051474;34.941073401650314;0.48822122988479055;10.193242084658308;-2.0210575865343534;-0.13321361401556606;-28.364200690632615;6.2001695394371845;3.6735255798082496;0.8573537651202822;5.432945656928742;-0.018909429682226093;0.12689358990812769;0.06004360942370936;6.241261256187177;3.9353461377888035;0.9550338445026323;5.426508478554669;-0.019640589721505293;0.1447464852550341;0.060451445950839726;-0.0007289342409028668;-0.5112731727002144
2.4597983360290527;13.845590492918767;26.752495181982198;478.8722108360563;5.741688422746872;-7.472014209887824;37.75017957824382;3.7460210620588597;8.448838067381281;-9.280990867692035;2.735629774561591;3.381464851822912;1.6252667369822293;3.7592116509065923;4.029522819767722;35.011373600991334;0.5637244672373627;10.199411088009048;-2.0185102765562313;-0.13403720776003;-28.361506951613716;6.201061724320971;3.6724433460582597;0.8569129121068435;5.43322603641989;-0.0189298010516619;0.12680199691933505;0.06002157156847903;6.241637232851303;3.935516769881907;0.9551370229529822;5.426563817554204;-0.01963142395078;0.14478908060674905;0.0604617635684249;-0.000744966311129921;-0.5111821189708883
2.4799582958221436;13.852783663651653;26.578019399177307;479.0817163493317;5.679329599287756;-7.5150437210110965;37.62714592529176;3.698466399362608;8.391630803110719;-9.280901194251308;2.7359823839847626;3.3816587324411365;1.614080748769341;3.7339262597155907;3.9942721062560347;34.96177156478893;0.5620385132368946;10.189750677718601;-2.0254412158067727;-0.13787693511454;-28.360657930040738;6.201207525820169;3.670500397564894;0.8561052709172476;5.43339034939498;-0.01895550979397813;0.12662457556573087;0.059989111755019454;6.241769252647346;3.9377250360173255;0.9560412978390337;5.426404149142131;-0.01961997526768406;0.1449897515561107;0.06048125399954488;-0.0008881081743555702;-0.5111344978917296
2.499919891357422;13.656735804773081;26.434412003472445;478.6843762204996;5.640244704215741;-7.250666917117634;37.50434705476163;3.6356860130778865;8.2769685325135;-9.187441450914822;2.766057581817396;3.3924139876385153;1.5909134455034273;3.7449499654593352;4.019882891896005;35.094896850655935;0.6230646685797403;10.216839995887826;-2.010347857484959;-0.13763954833689473;-28.35256803110851;6.2039931937530355;3.671843878081758;0.8565205699490811;5.434069982726612;-0.01898846894921581;0.12666419629707212;0.05996975359973043;6.243453488394155;3.936385021987496;0.955673663907705;5.427007662253452;-0.01960308843817278;0.14497900068425265;0.060497564616782136;-0.0007792223664533394;-0.5091145809367911
2.5199713706970215;13.738322852209325;26.595963579959175;479.2944675081386;5.69379169360266;-7.413508246124522;37.618723847137346;3.6696943361945458;8.326959347881239;-9.320000229191155;2.7724712813560233;3.37478403722204;1.6016420464547982;3.7643921330947454;4.0346984879651195;35.067206683594605;0.6144364126497148;10.236369391115243;-2.005447426937027;-0.1374131563520306;-28.35384942180634;6.204892718077531;3.6733327337168715;0.8569693094704092;5.434224244946155;-0.019015134036697308;0.1267016732782114;0.059951887239155253;6.243244602936759;3.935144267425749;0.9553324403952392;5.427110821189061;-0.0195879047295794;0.14498543667904973;0.06050819752903587;-0.0006877205599829551;-0.5108977897564517
2.539808511734009;13.739016654412744;26.82253727423202;478.69471265633047;5.727085549740622;-7.32624403645341;37.75925504978369;3.698051444807463;8.388061927834459;-9.281777594045332;2.7639756987785757;3.3739190612174164;1.6139128844992974;3.7852143039043686;4.08284241474879;35.138703142101576;0.5975676557862979;10.242011841196387;-1.9959546275744449;-0.1365169229438299;-28.35818543312428;6.204186807754938;3.6751193939340987;0.8575427996757036;5.433931833531442;-0.019032688971817528;0.12676938217003428;0.059939722058075184;6.241571829308093;3.9337835447462917;0.9549100326179013;5.426846710312593;-0.019575486163627316;0.1449554347049524;0.06051116106130922;-0.0005583216889227145;-0.5110051826665809
2.5599093437194824;13.700479866692714;26.68438946691716;478.8959054648509;5.700180840594532;-7.385793019344504;37.59301152497259;3.697914221246902;8.386262557435087;-9.23684954442117;2.7639900499279415;3.3825954541874936;1.6142585703538066;3.7455158150888384;3.985282991327494;35.03443238035635;0.5853329249377248;10.213958961559175;-2.0223260024762353;-0.13860188092431697;-28.359746141944534;6.203705585667345;3.6746128773305644;0.8572612809430451;5.433893317228892;-0.019045400864833133;0.1266773479839405;0.05992376620386268;6.240696807029328;3.9346075833660263;0.955317641615612;5.426662300626463;-0.019564156913479284;0.14508225632921024;0.06052374438198622;-0.000564412612825034;-0.5092733506833633
2.579867124557495;13.568361627432495;26.700531174817506;478.7926548352402;5.689351982255763;-7.349306828164295;37.53906791326837;3.6462612253382303;8.272996963704347;-9.198011118112644;2.75507120499533;3.381548853826923;1.5905251010278547;3.7901436281181504;4.079152918601119;35.03995066613387;0.600050688691316;10.20291506597221;-2.0107460338839127;-0.1372358167478572;-28.369325415267276;6.20200948363989;3.6764525869609255;0.8578841362341038;5.4333753348616405;-0.01905312896935253;0.126767573797881;0.05991878850411914;6.238153490440753;3.9332566076036173;0.9548473734415167;5.4261408582421415;-0.019551853880369077;0.14501815628159548;0.060523017091673625;-0.0004494111366629876;-0.5113155544427952
2.599966049194336;13.508192988092683;26.73894411959246;478.88968433908445;5.696338901067421;-7.3781282856048875;37.576046018066194;3.6452733220166933;8.269775036936291;-9.23514507233687;2.7639124158364945;3.382264353354677;1.590221389808903;3.79934892965515;4.096753350098779;35.057148985753315;0.59473314004109;10.202319704411861;-2.006094203781918;-0.1373736575753654;-28.375220069817058;6.200904700949353;3.6768890659263014;0.8580088975924405;5.433145945103597;-0.019055898350879362;0.12677524130067674;0.05991473462891331;6.236735141178837;3.9331415191549777;0.9548464762475535;5.4258976476493235;-0.019542069924078365;0.1450419131501464;0.0605286229265552;-0.00041335325585112066;-0.511497518911199
2.61984920501709;13.565173750163915;26.50642072776907;479.07889995800576;5.659944459583546;-7.525638838708112;37.43038107001528;3.6458001436368774;8.270954024094795;-9.266001037624557;2.7755770860698554;3.38351449137048;1.589737582334889;3.7335547900599337;3.974627096786638;34.98224729754412;0.5475502266962233;10.202028180148206;-2.017194359154816;-0.136452571025439;-28.38856350290637;6.197145729237198;3.6778924022687183;0.8583600969163284;5.432152582490861;-0.01905427840941032;0.12683926807261356;0.05991015979493923;6.232756428786951;3.9327603648964997;0.9546862919588541;5.424946731261513;-0.01953150049919187;0.145022145861741;0.060527252019192505;-0.0003524464810357921;-0.5118953548150961
2.6399502754211426;13.61657193449662;26.610796399305787;478.67534894280186;5.67403264948471;-7.555355295889356;37.50088187648372;3.648008136065736;8.282214876869519;-9.25298542558898;2.7157103947720707;3.369444863718228;1.6003635688078646;3.7664450307209685;4.037978079274463;34.97939537102836;0.5488488299322425;10.20960998554732;-2.011246676750628;-0.13830056279716496;-28.39713404785095;6.194882616098778;3.676854682611107;0.8579492595595613;5.431738600142193;-0.01905859701266717;0.12676231664568374;0.059895883620523546;6.230585889322249;3.9341464051640846;0.9552167668514147;5.424329329153051;-0.019515037562908087;0.14512414821814582;0.06054259709469365;-0.00043574134833769713;-0.5121680459561454
2.659785032272339;13.450709469051441;26.494204601251678;479.06407699458146;5.66467157608658;-7.562979704921318;37.4502216498377;3.6447598308394733;8.268712059494739;-9.217840809806942;2.7772069872428187;3.3924194768339766;1.590022184505911;3.7488112298040814;3.997664871486374;34.92298315090421;0.5378490565356069;10.190331963565889;-2.0196680859299128;-0.14228620556567478;-28.402651608498275;6.1934177966949715;3.674184157170982;0.8569300703584886;5.431659211882925;-0.01906544360106182;0.12657350564765085;0.059874901385621404;6.229538983826416;3.936989494913348;0.9563051438769175;5.423878643250898;-0.019497087893682388;0.14532950941258016;0.0605679356524889;-0.0006322707598393311;-0.512358849139871
2.6799418926239014;13.393091087733705;26.683886188079754;478.86124222644327;5.702707156138433;-7.530710255218075;37.62556785939129;3.670943609694432;8.326307909838535;-9.181555124005135;2.7681957182699537;3.391464935575878;1.6023807053932897;3.7866611231002083;4.083725573283798;34.927783120267264;0.541923570631551;10.191159506647384;-1.9936436374981952;-0.14599853451422012;-28.406923728282273;6.192494639809517;3.671712036909205;0.855997584473405;5.43175868279769;-0.019072209935916185;0.12639783977520747;0.05985675911703228;6.228864690751802;3.939543243703895;0.9572907433903204;5.4235443195876565;-0.019479111037163946;0.14550797298572168;0.0605926445767642;-0.0008088584015435657;-0.5125156875584196
2.6999690532684326;13.7516095013329;26.70124923930166;478.6658906553744;5.700849346936161;-7.818946248175081;37.66632094526237;3.6700928162811555;8.323983011832624;-9.302950091243718;2.6851700773493223;3.367294206603197;1.6023912568726266;3.7876707118355815;4.099585453047845;34.83795683596694;0.44955982041427944;10.173451335907975;-1.9972846139029976;-0.14845632782010407;-28.414638651648936;6.190327784367754;3.6702340494745727;0.8554104945753922;5.431368256238117;-0.0190719390739566;0.12627928215456752;0.05984536267466482;6.226842711031285;3.9412756541310485;0.9579556088438133;5.422916646183173;-0.01946663869522986;0.14563886114512875;0.06060593792565678;-0.00090449600718342;-0.5127695175413022
2.719923496246338;13.709067680953783;26.80990230299956;478.4614119238362;5.718816442188778;-7.7910233921240035;37.74272882857093;3.6705613079869814;8.324572014041625;-9.301976840054566;2.68542564327355;3.3672958012258163;1.6023718705282812;3.8120943600255686;4.153808904280664;34.880282299709755;0.44729997273288147;10.181502052011572;-1.986208471925677;-0.1477289425692712;-28.420398571345366;6.189112255795626;3.6710797698677244;0.8557142630006076;5.431049514484405;-0.01906211821887925;0.12632683482708382;0.05985488170648729;6.2253723712831315;3.940597860601495;0.9577055014473935;5.422662686424465;-0.019464498781737775;0.14560965451325733;0.06060214597037447;-0.0012045977581070268;-0.5129495890999446
2.73982572555542;13.57062327480667;26.6617884301073;478.4565875059465;5.708724945307736;-7.740140855965144;37.61101670158514;3.6705639034192745;8.322927179421798;-9.251581898383638;2.7164701981516823;3.36890111052249;1.6023811485786903;3.7770474848067233;4.059486772525488;34.881043719142596;0.45034462566817757;10.1899558494965;-1.996203193133632;-0.1454530684262035;-28.42663564918169;6.1877190139286355;3.672718266224812;0.8563129688613198;5.430597367487654;-0.01904363351756662;0.12642294392362327;0.059875303287617296;6.223643414213972;3.9391614187872666;0.9571655277426466;5.422425251249003;-0.01947031244155674;0.14552139465544106;0.06058676606180161;-0.0006641073655205562;-0.5131749091042025
2.7598023414611816;13.338367072113014;26.694021003540733;478.85392821692926;5.694790403522983;-7.717206834304932;37.596911733598276;3.64388610457165;8.263342071707926;-9.285139984704067;2.7266742982869454;3.369721625055371;1.5899449683316949;3.801408946476056;4.1150141675639365;34.92627425472144;0.5123852684277774;10.198963213865293;-1.9841181516547275;-0.14314230569889155;-28.436902175829285;6.1846655527055505;3.674298542089375;0.8569001378580057;5.4296510686376225;-0.019012362512102234;0.12652015598966213;0.05990328919160752;6.220611488953031;3.9379754457466056;0.9566789058920261;5.421827285735519;-0.01948787314728919;0.14543401699750258;0.06055764638271062;-0.0005088473893133877;-0.5134865695841331
2.7799391746520996;13.511665761652125;26.805320928407994;478.4530057253595;5.724692649532982;-7.804744870102141;37.632628606808304;3.6723601278077185;8.326057571904824;-9.246812916325919;2.7184405498241473;3.3691815322859893;1.6022626776591788;3.789740521841069;4.085946452949681;34.837990943286044;0.41412192598863307;10.164524489302856;-2.000320368183046;-0.14121302127386362;-28.43889269277624;6.1842286832550135;3.6751303321332838;0.857254602734896;5.429452535703487;-0.018972492015729085;0.12658481354946274;0.05994367164307003;6.220635972813354;3.937156033964421;0.9563290259412371;5.422063131337798;-0.01951816632946749;0.1453591012407009;0.060525484666913154;-0.0003937970607995325;-0.5135600188120523
