flxalr/sts-optimization-reemc/input/498_166/vel.csv
time;base_link_tx;base_link_ty;base_link_tz;base_link_rz;base_link_ry;base_link_rx;leg_left_1_joint;leg_left_2_joint;leg_left_3_joint;leg_left_4_joint;leg_left_5_joint;leg_left_6_joint;leg_right_1_joint;leg_right_2_joint;leg_right_3_joint;leg_right_4_joint;leg_right_5_joint;leg_right_6_joint;torso_1_joint;torso_2_joint;arm_left_1_joint;arm_left_2_joint;arm_left_3_joint;arm_left_4_joint;arm_left_5_joint;arm_left_6_joint;arm_left_7_joint;arm_right_1_joint;arm_right_2_joint;arm_right_3_joint;arm_right_4_joint;arm_right_5_joint;arm_right_6_joint;arm_right_7_joint;head_1_joint;head_2_joint
0.0;9.98390663390633e-06;-0.0008612503204113794;-7.894305189311668e-05;0.0010616875163723775;-7.877141670228811e-05;0.0009323450582127131;2.220446049250313e-16;2.220446049250313e-16;2.220446049250313e-16;2.220446049250313e-16;2.220446049250313e-16;2.220446049250313e-16;2.220446049250313e-16;2.220446049250313e-16;2.220446049250313e-16;2.220446049250313e-16;2.220446049250313e-16;2.220446049250313e-16;-1.849572880769797e-05;1.849572880826312e-05;-1.2448367334672118e-06;1.696327205555861e-06;2.220446049250313e-16;-5.04168853331661e-08;2.220446049250313e-16;-0.0;-2.220446049250313e-16;-0.0001271698301809991;-1.6101534374225428e-06;1.4086114631429317e-13;2.716206828342271e-11;-3.939291071126953e-05;-3.667260109242477e-06;3.560517843569625e-06;2.0066655836175614e-07;0.003928385070488258
0.019866466522216797;8.129728290942034e-06;-0.0008600750771256502;-7.92675394467884e-05;0.0010591000252341283;-8.10088481266154e-05;0.0009313431204951949;2.220446049250313e-16;2.220446049250313e-16;2.220446049250313e-16;2.220446049250313e-16;2.220446049250313e-16;2.220446049250313e-16;2.220446049250313e-16;2.220446049250313e-16;2.220446049250313e-16;2.220446049250313e-16;2.220446049250313e-16;2.220446049250313e-16;-1.5064886712175043e-05;1.506488671263536e-05;-1.013927299638628e-06;1.381669110970283e-06;2.220446049250313e-16;-4.1064868209397114e-08;2.220446049250313e-16;-0.0;-2.220446049250313e-16;-0.0001035806214938624;-1.3114800382396448e-06;1.147322840551562e-13;2.2123674379774567e-11;-3.208577198002097e-05;-4.227122351592602e-06;4.1401801090629036e-06;1.6344416595164015e-07;0.003199694192319376
0.039989471435546875;1.5037890532109077e-06;-0.0008562439150067506;-8.046169197198374e-05;0.0010517639069101087;-8.918386146884093e-05;0.0009278065269059451;2.220446049250313e-16;2.220446049250313e-16;2.220446049250313e-16;2.220446049250313e-16;2.220446049250313e-16;2.220446049250313e-16;2.220446049250313e-16;2.220446049250313e-16;2.220446049250313e-16;2.220446049250313e-16;2.220446049250313e-16;2.220446049250313e-16;-1.227044438260852e-05;1.227044438298345e-05;-8.258501226012852e-07;1.1253781263172387e-06;2.220446049250313e-16;-3.344759181198025e-08;2.220446049250313e-16;-0.0;-2.220446049250313e-16;-8.436706358563525e-05;-1.0682086878964294e-06;9.345016243970004e-14;1.801987105529125e-11;6.379916892571421e-05;-3.443017574886872e-06;3.372202574957416e-06;1.3312629469364807e-07;0.002606170917732833
0.0598454475402832;-1.013880361587092e-05;-0.0008502779767489984;-8.263191051044115e-05;0.0010397343555179324;-0.00010362207254328302;0.0009224409427663181;2.220446049250313e-16;2.220446049250313e-16;2.220446049250313e-16;2.220446049250313e-16;2.220446049250313e-16;2.220446049250313e-16;2.220446049250313e-16;2.220446049250313e-16;2.220446049250313e-16;2.220446049250313e-16;2.220446049250313e-16;2.220446049250313e-16;-9.994353639912026e-06;9.994353640217412e-06;-6.72660086422013e-07;-0.00013553101876107872;2.220446049250313e-16;-2.7243272578306734e-08;2.220446049250313e-16;-0.0;-2.220446049250313e-16;-6.871750058464731e-05;-8.70062652595941e-07;7.611574137065093e-14;1.4677297598728813e-11;5.19648218348e-05;-2.8043593336051987e-06;2.7466800735689083e-06;1.0843219906731815e-07;0.0021227425010616283
0.08004927635192871;-2.8196287948874867e-05;-0.0008433749105106806;-8.621900284284435e-05;0.0010222551449391726;-0.00012610040430156022;0.0009170810355128039;2.220446049250313e-16;2.220446049250313e-16;2.220446049250313e-16;2.220446049250313e-16;2.220446049250313e-16;2.220446049250313e-16;2.220446049250313e-16;2.220446049250313e-16;2.220446049250313e-16;2.220446049250313e-16;2.220446049250313e-16;2.220446049250313e-16;-8.140463504418594e-06;8.140463504667329e-06;-5.478858445162696e-07;-0.0005386372607905888;2.220446049250313e-16;-2.218981578548445e-08;2.220446049250313e-16;-0.0;-2.220446049250313e-16;-0.0008009400528086407;-7.086714684309725e-07;6.199674706977874e-14;-0.00013491899338197424;-4.778262768485018e-05;4.2769981720248324e-05;-4.281696183804325e-05;8.83187038415748e-08;0.0017289870342553268
0.09981584548950195;-5.557271876558049e-05;-0.0008351166405199917;-9.186486117512619e-05;0.0010018919488437182;-0.0001607425854994373;0.0009105115495105696;2.220446049250313e-16;2.220446049250313e-16;2.220446049250313e-16;2.220446049250313e-16;2.220446049250313e-16;2.220446049250313e-16;2.220446049250313e-16;2.220446049250313e-16;2.220446049250313e-16;2.220446049250313e-16;2.220446049250313e-16;2.220446049250313e-16;-6.630458402236122e-06;6.630458402458167e-06;-4.4625644464502966e-07;-0.0011723444701246567;2.220446049250313e-16;-1.807374364362574e-08;2.220446049250313e-16;-0.0;-2.220446049250313e-16;-0.0006523706788879678;-5.772173402337046e-07;5.049673796800395e-14;-0.00010989236335332663;-3.89192488907335e-05;-6.062797419201623e-06;6.024531819631912e-06;7.193613627086169e-08;0.0014082707455699275
0.11984515190124512;-9.399660182574122e-05;-0.0008226814016677542;-9.970887999530143e-05;0.000980530030104191;-0.00021006883990996295;0.000898362981570669;2.220446049250313e-16;2.220446049250313e-16;2.220446049250313e-16;2.220446049250313e-16;2.220446049250313e-16;2.220446049250313e-16;2.220446049250313e-16;2.220446049250313e-16;2.220446049250313e-16;2.220446049250313e-16;2.220446049250313e-16;2.220446049250313e-16;-5.40054980896574e-06;5.4005498091877855e-06;-3.6347866326615574e-07;-0.001801355208526463;2.220446049250313e-16;-1.4721177158630937e-08;2.220446049250313e-16;-0.0;-2.220446049250313e-16;-0.0006622268477740661;-4.7014713122872895e-07;4.1129908679551524e-14;-8.950801677855548e-05;-3.1699971466808e-05;-4.938186390423591e-06;4.907018820414064e-06;5.8592432593468524e-08;0.0011470453239588653
0.13994932174682617;-0.00013913036964219267;-0.0008022387904994954;-0.00010837205604168065;0.0009610467610651391;-0.0002686193965813605;0.0008746533043755458;2.220446049250313e-16;2.220446049250313e-16;2.220446049250313e-16;2.220446049250313e-16;2.220446049250313e-16;2.220446049250313e-16;2.220446049250313e-16;2.220446049250313e-16;2.220446049250313e-16;2.220446049250313e-16;2.220446049250313e-16;2.220446049250313e-16;-4.398781572818306e-06;4.398781573040351e-06;-2.960556429719292e-07;-0.0014672150758148572;2.220446049250313e-16;-1.1990490803062136e-08;2.220446049250313e-16;-0.0;-2.220446049250313e-16;-0.0005393879064297753;-3.8293777680536977e-07;3.350056768142395e-14;-7.29048390912383e-05;6.178912743163885e-05;-5.57161082587926e-06;2.4473703508805757e-06;4.7723902550083815e-08;-0.014071716903202358
0.16000032424926758;-0.0001861466242486911;-0.000770000452413157;-0.00011636436437305308;0.0009484255640817955;-0.00033048380279850304;0.0008329477637167938;2.220446049250313e-16;2.220446049250313e-16;2.220446049250313e-16;2.220446049250313e-16;2.220446049250313e-16;2.220446049250313e-16;2.220446049250313e-16;2.220446049250313e-16;2.220446049250313e-16;2.220446049250313e-16;2.220446049250313e-16;2.220446049250313e-16;-3.582835083424746e-06;3.5828350836467903e-06;-2.411391715484049e-07;-0.001195055849345425;2.220446049250313e-16;-9.766329699661627e-09;2.220446049250313e-16;-0.0;-2.220446049250313e-16;-0.00043933482096146704;-3.1190521256907876e-07;2.728642175506781e-14;-5.938144709505791e-05;5.0327630475116275e-05;-7.5554098054828854e-06;5.010696412093489e-06;3.88714169014342e-08;0.002323836061525468
0.1799452304840088;-0.000232564134832077;-0.0007245025683128518;-0.0001229650455535092;0.0009491919830776252;-0.0003930004452879889;0.0007696415795600224;2.220446049250313e-16;2.220446049250313e-16;2.220446049250313e-16;2.220446049250313e-16;2.220446049250313e-16;2.220446049250313e-16;2.220446049250313e-16;2.220446049250313e-16;2.220446049250313e-16;2.220446049250313e-16;2.220446049250313e-16;2.220446049250313e-16;-2.9182415681481332e-06;2.9182415683701774e-06;-1.9640936234599788e-07;-0.0009733804583909069;2.220446049250313e-16;-7.954736579935018e-09;2.220446049250313e-16;-0.0;-2.220446049250313e-16;-0.00035784095751574584;-2.540487450450931e-07;2.2224961059638697e-14;-4.8366559792969e-05;-4.609484163511972e-05;-6.153928507877093e-06;4.081243544502721e-06;3.1661012012573786e-08;0.0018927789960878772
0.19996094703674316;-0.0002778673778700607;-0.0006655539706198544;-0.00012803461119967343;0.0009684323075246991;-0.00045597480754029006;0.0006832329170548632;2.220446049250313e-16;2.220446049250313e-16;2.220446049250313e-16;2.220446049250313e-16;2.220446049250313e-16;2.220446049250313e-16;2.220446049250313e-16;2.220446049250313e-16;2.220446049250313e-16;2.220446049250313e-16;2.220446049250313e-16;2.220446049250313e-16;-2.37692599624586e-06;2.376925996467905e-06;-1.5997665318932993e-07;-0.0007928244669872585;2.220446049250313e-16;-6.4791826614606965e-09;2.220446049250313e-16;-0.0;-2.220446049250313e-16;-0.00029146369640255937;-2.0692429064388485e-07;1.8102369689082338e-14;-3.939486524237195e-05;-3.754453660456523e-05;-7.136828671535672e-06;1.1997829349530142e-06;2.5788092165566422e-08;-0.013625120463338636
0.21991753578186035;-0.00032127620530190466;-0.0005961455333858515;-0.00013167196493152176;0.001008881052911066;-0.0005185947068161131;0.0005771954096110913;2.220446049250313e-16;2.220446049250313e-16;2.220446049250313e-16;2.220446049250313e-16;2.220446049250313e-16;2.220446049250313e-16;2.220446049250313e-16;2.220446049250313e-16;2.220446049250313e-16;2.220446049250313e-16;2.220446049250313e-16;2.220446049250313e-16;-7.707454120319882e-05;7.707454120342088e-05;-1.3030198387679167e-07;-0.0006457604835140408;2.220446049250313e-16;-5.27733477265137e-09;2.220446049250313e-16;-0.0;-2.220446049250313e-16;-0.00023739900236798722;-1.6854112800626067e-07;1.4744493251568116e-14;-3.20873639578197e-05;-3.058025971777215e-05;-5.8129915581449995e-06;9.77230699162573e-07;2.100456224442988e-08;0.003934436187524731
0.23987460136413574;-0.0003613636665374868;-0.0005194623372677667;-0.0001338427478185846;0.0010686236624706193;-0.0005787342560401369;0.00045640688295793454;2.220446049250313e-16;2.220446049250313e-16;2.220446049250313e-16;2.220446049250313e-16;2.220446049250313e-16;2.220446049250313e-16;2.220446049250313e-16;2.220446049250313e-16;2.220446049250313e-16;2.220446049250313e-16;2.220446049250313e-16;2.220446049250313e-16;-6.277769552586734e-05;6.27776955260894e-05;-1.06131780255046e-07;-0.000525975949825208;2.220446049250313e-16;-4.298422155666869e-09;2.220446049250313e-16;-0.0;-2.220446049250313e-16;-0.0001933629711724903;-1.3727780214314935e-07;1.2009481906485053e-14;-2.6135358489668882e-05;6.358999867679248e-05;-8.169659186874186e-06;4.2309017437276315e-06;1.7108347226602157e-08;0.0032046228649650656
0.2598731517791748;-0.00039544979423624153;-0.0004379948423547927;-0.00013415298471317172;0.0011398776422567609;-0.0006320381076850875;0.0003262194655535985;2.220446049250313e-16;2.220446049250313e-16;2.220446049250313e-16;2.220446049250313e-16;2.220446049250313e-16;2.220446049250313e-16;2.220446049250313e-16;2.220446049250313e-16;2.220446049250313e-16;2.220446049250313e-16;2.220446049250313e-16;2.220446049250313e-16;-5.113282536639539e-05;5.1132825366617436e-05;-8.644499834136155e-08;-0.0004284106984823183;2.220446049250313e-16;-3.5010917109291367e-09;2.220446049250313e-16;-0.0;-2.220446049250313e-16;-0.00015749534853856315;-1.1181362783185849e-07;9.781798072093989e-15;-2.1287412835825856e-05;5.17944513597392e-05;-6.654238468078942e-06;3.4460959134020525e-06;1.3934855743237623e-08;0.0026101853524069514
0.2798309326171875;-0.000420968581768888;-0.000355388791209968;-0.00013234463659773276;0.0012155178018012375;-0.0006743526215583724;0.0001934228795115379;2.220446049250313e-16;2.220446049250313e-16;2.220446049250313e-16;2.220446049250313e-16;2.220446049250313e-16;2.220446049250313e-16;2.220446049250313e-16;2.220446049250313e-16;2.220446049250313e-16;2.220446049250313e-16;2.220446049250313e-16;2.220446049250313e-16;-4.1648005841066995e-05;4.164800584128903e-05;-7.04099914302786e-08;-0.00034894319148071366;2.220446049250313e-16;-2.8516610803749745e-09;2.220446049250313e-16;-0.0;-2.220446049250313e-16;-0.00012828094573058804;-9.107289870422267e-08;7.967335665958503e-15;-1.7338730801110378e-05;-4.523583972944496e-05;-5.419918821240722e-06;2.8068666595654297e-06;1.1350027095715437e-08;0.002126012283193914
0.2998659610748291;-0.0004362492274961833;-0.0002740571225577081;-0.00012825331961022006;0.0012914741046234168;-0.0007030278417322306;6.235390886368099e-05;2.220446049250313e-16;2.220446049250313e-16;2.220446049250313e-16;2.220446049250313e-16;2.220446049250313e-16;2.220446049250313e-16;2.220446049250313e-16;2.220446049250313e-16;2.220446049250313e-16;2.220446049250313e-16;2.220446049250313e-16;2.220446049250313e-16;-3.3922561057564975e-05;3.392256105778701e-05;-5.7349378082408346e-08;-0.00028421641035598796;2.220446049250313e-16;-2.3226957728471687e-09;2.220446049250313e-16;-0.0;-2.220446049250313e-16;-0.00010448563205347474;-7.417944520020627e-08;6.489444695771111e-15;-1.4122504604571909e-05;-3.6844874183631206e-05;-4.4145577543932e-06;2.2862104371326647e-06;9.24466800712957e-09;0.0017316502922382127
0.319913387298584;-0.00043947002606710216;-0.0001954832257113726;-0.00012159123314761738;0.0013628732171586412;-0.0007151463427438706;-6.373975783666809e-05;2.220446049250313e-16;2.220446049250313e-16;2.220446049250313e-16;2.220446049250313e-16;2.220446049250313e-16;2.220446049250313e-16;2.220446049250313e-16;2.220446049250313e-16;2.220446049250313e-16;2.220446049250313e-16;2.220446049250313e-16;2.220446049250313e-16;-2.7630137997372675e-05;2.763013799759472e-05;-4.67114268817346e-08;-0.00023149604258751688;2.220446049250313e-16;-1.8918502238325987e-09;2.220446049250313e-16;-0.0;-2.220446049250313e-16;-8.51042003427555e-05;-6.041962173710051e-08;5.2856932637349175e-15;-1.1502868266077596e-05;-3.001038030303127e-05;-6.03973097294022e-06;4.306178780860781e-06;7.529839870982078e-09;0.0014104399858423506
0.33997130393981934;-0.00042836152982182654;-0.00012041532065330918;-0.00011189607287428344;0.0014280159432655498;-0.0007075093047047415;-0.00018339895482273426;2.220446049250313e-16;2.220446049250313e-16;2.220446049250313e-16;2.220446049250313e-16;2.220446049250313e-16;2.220446049250313e-16;2.220446049250313e-16;2.220446049250313e-16;2.220446049250313e-16;2.220446049250313e-16;2.220446049250313e-16;2.220446049250313e-16;-2.250492008720193e-05;2.2504920087423968e-05;-3.8046749141590834e-08;-0.00018855497353779865;2.220446049250313e-16;-1.5409238313755505e-09;2.220446049250313e-16;-0.0;-2.220446049250313e-16;-6.931790308042651e-05;-4.9212159527504206e-08;4.305230198894988e-15;-9.36915809564686e-06;6.16036452445979e-05;-4.919398625778391e-06;3.5074095306284867e-06;6.133101636414094e-09;-0.013942100801048045
0.3598661422729492;-0.00040204229297471916;-4.924602300156553e-05;-9.899771363253698e-05;0.0014857385477095714;-0.0006788246198162688;-0.0002957925732621642;2.220446049250313e-16;2.220446049250313e-16;2.220446049250313e-16;2.220446049250313e-16;2.220446049250313e-16;2.220446049250313e-16;2.220446049250313e-16;2.220446049250313e-16;2.220446049250313e-16;2.220446049250313e-16;2.220446049250313e-16;2.220446049250313e-16;-1.833039806675592e-05;1.833039806697796e-05;-3.098931496800786e-08;-0.00015357920441512156;2.220446049250313e-16;-1.2550920914293316e-09;2.220446049250313e-16;-0.0;-2.220446049250313e-16;-5.6459865295901625e-05;-4.0083611511149214e-08;3.5066369046887102e-15;-7.631237826142464e-06;5.017655407450777e-05;4.163640425858537e-05;4.8500092169529746e-05;0.0013604579360037908;0.002638711244509144
0.3799021244049072;-0.0003615332297264717;1.948728820609179e-05;-8.299744791591148e-05;0.0015377354592160653;-0.000630634309405947;-0.00040336065914637237;2.220446049250313e-16;2.220446049250313e-16;2.220446049250313e-16;2.220446049250313e-16;2.220446049250313e-16;2.220446049250313e-16;2.220446049250313e-16;2.220446049250313e-16;2.220446049250313e-16;2.220446049250313e-16;2.220446049250313e-16;2.220446049250313e-16;-1.4930223790340018e-05;1.4930223790562063e-05;-2.5240990724660947e-08;-0.00012509122186614408;2.220446049250313e-16;-1.0222803527947617e-09;2.220446049250313e-16;-0.0;-2.220446049250313e-16;-4.598691315766996e-05;-3.264835209840297e-08;2.856177675349608e-15;-0.00045587355559856014;-4.173990285308237e-05;4.005902613268571e-05;-4.50899495201874e-05;0.0011081014917371877;0.0035168538625518077
0.3999483585357666;-0.00031057606905203635;8.366180959471036e-05;-6.497434012250394e-05;0.0015851886321306059;-0.0005680166884552201;-0.0005034710889413722;2.220446049250313e-16;2.220446049250313e-16;2.220446049250313e-16;2.220446049250313e-16;2.220446049250313e-16;2.220446049250313e-16;2.220446049250313e-16;2.220446049250313e-16;2.220446049250313e-16;2.220446049250313e-16;2.220446049250313e-16;2.220446049250313e-16;-1.2160760591110038e-05;1.2160760591332084e-05;-2.0558944701428362e-08;-0.00010188758203011099;2.220446049250313e-16;-8.326537366035382e-10;2.220446049250313e-16;-0.0;-2.220446049250313e-16;-3.745662818512941e-05;-2.659228683634983e-08;2.326374567682726e-15;-0.0013380356206681243;-3.3997411748228415e-05;-6.425450131193455e-06;2.327731588802151e-06;0.0009025555906542627;0.0028644994513850877
0.4199495315551758;-0.0002521741585202297;0.00014090341158798006;-4.585790913915516e-05;0.0016284224090389499;-0.0004949800810577643;-0.0005929318451261116;2.220446049250313e-16;2.220446049250313e-16;2.220446049250313e-16;2.220446049250313e-16;2.220446049250313e-16;2.220446049250313e-16;2.220446049250313e-16;2.220446049250313e-16;2.220446049250313e-16;2.220446049250313e-16;2.220446049250313e-16;2.220446049250313e-16;-8.555985526010759e-05;-6.574982424750114e-05;-1.6745388952717784e-08;-8.298807236091309e-05;2.220446049250313e-16;-6.782016725494355e-10;2.220446049250313e-16;-0.0;-2.220446049250313e-16;-3.0508657760714056e-05;-2.1659583829999657e-08;1.8948466252186283e-15;-0.0010898383757568164;-2.7691104352755464e-05;-6.6385266410351566e-06;4.909945772870139e-07;0.0007351371695603383;0.002333152706274725
0.44002485275268555;-0.00018717485921366248;0.00019076489265828364;-2.5889221423796042e-05;0.0016687371703739246;-0.0004127748807815032;-0.0006714450814950146;2.220446049250313e-16;2.220446049250313e-16;2.220446049250313e-16;2.220446049250313e-16;2.220446049250313e-16;2.220446049250313e-16;2.220446049250313e-16;2.220446049250313e-16;2.220446049250313e-16;2.220446049250313e-16;2.220446049250313e-16;2.220446049250313e-16;-6.9689036858453e-05;-5.3553642785991196e-05;-1.3639223960669583e-08;-6.759430361341596e-05;2.220446049250313e-16;-5.523995010519685e-10;2.220446049250313e-16;-0.0;-2.220446049250313e-16;-2.48494924252126e-05;-1.7641866401933654e-08;1.54336441903198e-15;-0.0010214863583204211;6.283577955294008e-05;-5.40712143991464e-06;3.9991815191638045e-07;0.0005987738192142053;-0.011979831246924885
0.4599332809448242;-0.00011802891873739729;0.00023288995764729738;-5.6771699539767275e-06;0.001707963165856408;-0.000324841617991897;-0.0007389752777133585;2.220446049250313e-16;2.220446049250313e-16;2.220446049250313e-16;2.220446049250313e-16;2.220446049250313e-16;2.220446049250313e-16;2.220446049250313e-16;2.220446049250313e-16;2.220446049250313e-16;2.220446049250313e-16;2.220446049250313e-16;2.220446049250313e-16;-5.676215607769033e-05;-4.361977675945724e-05;-1.1109233161115128e-08;-5.505598275752487e-05;2.220446049250313e-16;-4.4993284610370986e-10;2.220446049250313e-16;-0.0;-2.220446049250313e-16;-2.0240066889663323e-05;-1.4369410446039971e-08;1.2570799653291663e-15;-0.0008320070231417222;-3.250705825689753e-05;-5.815423058959622e-06;1.7370246858644902e-06;0.00048770501808634016;0.004319172250903055
0.4798123836517334;-4.687575393360248e-05;0.00026707967554680966;1.4257094244050451e-05;0.0017473698291211384;-0.00023415331954844832;-0.0007955666572295027;2.220446049250313e-16;2.220446049250313e-16;2.220446049250313e-16;2.220446049250313e-16;2.220446049250313e-16;2.220446049250313e-16;2.220446049250313e-16;2.220446049250313e-16;2.220446049250313e-16;2.220446049250313e-16;2.220446049250313e-16;2.220446049250313e-16;-4.623313088875425e-05;-3.552858079418266e-05;-9.048539842435528e-09;-4.4843442055896226e-05;2.220446049250313e-16;-3.664731152317597e-10;2.220446049250313e-16;-0.0;-2.220446049250313e-16;-1.648566098204883e-05;-1.1703974617114844e-08;1.0238994885103894e-15;-0.0006776749203928271;-2.6477202119357134e-05;-4.736698427916729e-06;1.4148174630409133e-06;0.00039723878538768697;0.0035179927931871056
0.4999251365661621;2.3071285925016136e-05;0.00029237294385435226;3.306801976367594e-05;0.0017869053481348249;-0.0001449784547907657;-0.0008398922978156112;2.220446049250313e-16;2.220446049250313e-16;2.220446049250313e-16;2.220446049250313e-16;2.220446049250313e-16;2.220446049250313e-16;2.220446049250313e-16;2.220446049250313e-16;2.220446049250313e-16;2.220446049250313e-16;2.220446049250313e-16;2.220446049250313e-16;-3.765717406595838e-05;-2.893825111049173e-05;-7.370092255037752e-09;-3.652526382604032e-05;2.220446049250313e-16;-2.984946428132384e-10;2.220446049250313e-16;-0.0;-2.220446049250313e-16;-1.3427673905259913e-05;-9.532960475481396e-09;8.339725327635152e-16;-0.0005519704581282101;-2.1565846608729628e-05;-3.858070473903348e-06;1.1523776662559677e-06;0.0003235534734406797;0.002865427117505854
0.5199875831604004;8.62127266343187e-05;0.0003082294084556805;4.9389549472786055e-05;0.0018248534148116416;-6.461167279143436e-05;-0.0008708118903133206;2.220446049250313e-16;2.220446049250313e-16;2.220446049250313e-16;2.220446049250313e-16;2.220446049250313e-16;2.220446049250313e-16;2.220446049250313e-16;2.220446049250313e-16;2.220446049250313e-16;2.220446049250313e-16;2.220446049250313e-16;2.220446049250313e-16;-3.067200363406101e-05;-2.357038639356495e-05;-6.002986204804842e-09;-2.9750055669208753e-05;2.220446049250313e-16;-2.431257521629002e-10;2.220446049250313e-16;-0.0;-2.220446049250313e-16;-1.0936924318796102e-05;-7.764655888282568e-09;6.792758402642128e-16;-0.0004495833879607903;-0.00010628050436752952;-3.1424225139347394e-06;9.386188115258993e-07;0.00026353632632664255;0.002333908296128002
0.5398294925689697;0.0001388406976056238;0.000314293803910756;6.231737934701552e-05;0.0018592892023450954;2.192323314909935e-06;-0.0008873818845886773;2.220446049250313e-16;2.220446049250313e-16;2.220446049250313e-16;2.220446049250313e-16;2.220446049250313e-16;2.220446049250313e-16;2.220446049250313e-16;2.220446049250313e-16;2.220446049250313e-16;2.220446049250313e-16;2.220446049250313e-16;2.220446049250313e-16;-2.49825386599654e-05;-1.919822703247361e-05;-4.889469782477323e-09;-2.4231606280418453e-05;2.220446049250313e-16;-1.980274446726332e-10;2.220446049250313e-16;-0.0;-2.220446049250313e-16;-8.908193213436419e-06;-6.3243607501054516e-09;5.532744173692029e-16;-0.0003661884793902383;7.600349414214641e-05;-2.5595227777405564e-06;7.645108883554167e-07;0.0002146519848950899;-0.014116211607110941
0.5599544048309326;0.00017926849497673338;0.00030860086810051163;7.126961225484274e-05;0.0018922146509031928;5.301394650396481e-05;-0.0008873820550123234;2.220446049250313e-16;2.220446049250313e-16;2.220446049250313e-16;2.220446049250313e-16;2.220446049250313e-16;2.220446049250313e-16;2.220446049250313e-16;2.220446049250313e-16;2.220446049250313e-16;2.220446049250313e-16;2.220446049250313e-16;2.220446049250313e-16;-2.034843387940844e-05;-1.5637075906868705e-05;-3.982503697013921e-09;-1.9736794762940086e-05;2.220446049250313e-16;-1.612945913573889e-10;2.220446049250313e-16;-0.0;-2.220446049250313e-16;-7.255779048551544e-06;-5.151231358215578e-09;4.506454709123242e-16;-0.0002982628051413453;6.190532100061663e-05;-2.0847472994870442e-06;6.226988967585389e-07;0.00017483538327195628;0.002071096459190313
0.5798273086547852;0.00020366518641273988;0.00029099338846229285;7.533179837478688e-05;0.0019253358522243963;8.258166095969885e-05;-0.000871029485421049;2.220446049250313e-16;2.220446049250313e-16;2.220446049250313e-16;2.220446049250313e-16;2.220446049250313e-16;2.220446049250313e-16;2.220446049250313e-16;2.220446049250313e-16;2.220446049250313e-16;2.220446049250313e-16;2.220446049250313e-16;2.220446049250313e-16;-1.6573926572489913e-05;-1.2736496057868974e-05;-3.243774151865944e-09;-1.6075742689381963e-05;2.220446049250313e-16;-1.3137545275178925e-10;2.220446049250313e-16;-0.0;-2.220446049250313e-16;-5.909877383664285e-06;-4.1957101364625766e-09;3.670535525922811e-16;-0.00024293691893015787;-2.9857436566375555e-05;-1.6980397051028184e-06;5.071921432779342e-07;0.0001424045123961538;-0.014001463866367764
0.5998485088348389;0.0002102156950876621;0.0002638669132202958;7.430376918921736e-05;0.001964601249309525;8.787636469087907e-05;-0.0008430993355955378;2.220446049250313e-16;2.220446049250313e-16;2.220446049250313e-16;2.220446049250313e-16;2.220446049250313e-16;2.220446049250313e-16;2.220446049250313e-16;2.220446049250313e-16;2.220446049250313e-16;2.220446049250313e-16;2.220446049250313e-16;2.220446049250313e-16;-1.3499566780334113e-05;-1.037395564223464e-05;-2.6420743202832597e-09;-1.3093792893893415e-05;2.220446049250313e-16;-1.0700612736291201e-10;2.220446049250313e-16;-0.0;-2.220446049250313e-16;-4.813632065728208e-06;0.00013512030329687594;2.989674126711166e-16;-0.00019787363882435688;-2.431906869229143e-05;-2.604347066391896e-06;-8.081719431867207e-07;0.00011598936537486973;0.0021247281872962672
0.6198313236236572;0.0001980347862014701;0.00023251021599972132;6.847660438395738e-05;0.0020093712218738694;6.771986882395979e-05;-0.0008107560521527485;2.220446049250313e-16;2.220446049250313e-16;2.220446049250313e-16;2.220446049250313e-16;2.220446049250313e-16;2.220446049250313e-16;2.220446049250313e-16;2.220446049250313e-16;2.220446049250313e-16;2.220446049250313e-16;2.220446049250313e-16;2.220446049250313e-16;-1.0995481514874508e-05;-8.449651707822876e-06;-2.151986046835216e-09;-1.0664976148281772e-05;2.220446049250313e-16;-8.715715952538783e-11;2.220446049250313e-16;-0.0;-2.220446049250313e-16;-3.9207334027360355e-06;0.00011005633153720104;2.4351082616695364e-16;-0.00016116931553268132;-1.980803344405069e-05;-4.7683232750752195e-06;1.9888052135296278e-06;9.447406303136496e-05;0.0037617543813615022
0.6398367881774902;0.0001678083442944354;0.00020465586855138697;5.8740428150559735e-05;0.0020568456279636224;2.3210807121800364e-05;-0.000784009601376418;2.220446049250313e-16;2.220446049250313e-16;2.220446049250313e-16;2.220446049250313e-16;2.220446049250313e-16;2.220446049250313e-16;2.220446049250313e-16;2.220446049250313e-16;2.220446049250313e-16;2.220446049250313e-16;2.220446049250313e-16;2.220446049250313e-16;-8.955888415624755e-06;-6.882294126344907e-06;-1.752806085060076e-09;-8.68668972887643e-06;2.220446049250313e-16;-7.099005116567541e-11;2.220446049250313e-16;-0.0;-2.220446049250313e-16;-3.193461861112266e-06;8.964156988912235e-05;2.220446049250313e-16;-0.00013127341480959097;6.238020407771395e-05;4.137793959146672e-05;4.688166297748842e-05;7.69497148019407e-05;0.003063972454583826
0.659914493560791;0.00011971090467908013;0.00018693176366368314;4.57611409539786e-05;0.0021036456272674705;-4.516545027795588e-05;-0.0007712033308500713;2.220446049250313e-16;2.220446049250313e-16;2.220446049250313e-16;2.220446049250313e-16;2.220446049250313e-16;2.220446049250313e-16;2.220446049250313e-16;2.220446049250313e-16;2.220446049250313e-16;2.220446049250313e-16;2.220446049250313e-16;2.220446049250313e-16;-7.2946270888289585e-06;-5.605671580246215e-06;-1.4276715113194629e-09;-7.075363075980657e-06;2.220446049250313e-16;-5.78218403622624e-11;2.220446049250313e-16;-0.0;-2.220446049250313e-16;-2.6010946450125733e-06;7.301361893450194e-05;2.220446049250313e-16;-0.00010692301682125438;5.0809066097573494e-05;-4.81566002020061e-06;-3.328429240147725e-07;6.267602364189821e-05;-0.012581712477807363
0.6798152923583984;5.485529147790385e-05;0.0001817968935437541;3.0032171849514782e-05;0.002139364892493714;-0.00013495077521208439;-0.0007731951357801209;2.220446049250313e-16;2.220446049250313e-16;2.220446049250313e-16;2.220446049250313e-16;2.220446049250313e-16;2.220446049250313e-16;2.220446049250313e-16;2.220446049250313e-16;2.220446049250313e-16;2.220446049250313e-16;2.220446049250313e-16;2.220446049250313e-16;-5.941519355270492e-06;-4.565854537557918e-06;-1.1628473689166482e-09;-5.762927446405467e-06;2.220446049250313e-16;-4.7096250361564973e-11;2.220446049250313e-16;-0.0;-2.220446049250313e-16;-2.1186078452042712e-06;5.9470048957270175e-05;2.220446049250313e-16;-8.708946546976681e-05;-3.8513453626374686e-05;4.285033089420756e-05;-4.704381872041439e-05;5.105001298147383e-05;0.0035455227366484186
0.700031042098999;-2.7962955994252505e-05;0.00018901039890344864;1.1247444574028616e-05;0.002159499197862455;-0.00024731248919592755;-0.0007885617386741525;2.220446049250313e-16;2.220446049250313e-16;2.220446049250313e-16;2.220446049250313e-16;2.220446049250313e-16;2.220446049250313e-16;2.220446049250313e-16;2.220446049250313e-16;2.220446049250313e-16;2.220446049250313e-16;2.220446049250313e-16;2.220446049250313e-16;-4.8394046493637854e-06;-3.718917057431784e-06;-9.471464497786656e-10;-4.693940423393792e-06;2.220446049250313e-16;-3.836019027105943e-11;2.220446049250313e-16;-0.0;-2.220446049250313e-16;-1.7256193312179108e-06;4.843872656350253e-05;2.220446049250313e-16;-7.093491393428426e-05;-3.1369448687767344e-05;-4.307691076640603e-06;8.920690328962261e-07;4.158055463599156e-05;0.0049570500265715975
0.7198562622070312;-0.00012355662853371168;0.00020880565189806163;-9.352607146371791e-06;0.002165362915186731;-0.0003754661343044044;-0.0008179184995524905;2.220446049250313e-16;2.220446049250313e-16;2.220446049250313e-16;2.220446049250313e-16;2.220446049250313e-16;2.220446049250313e-16;2.220446049250313e-16;2.220446049250313e-16;2.220446049250313e-16;2.220446049250313e-16;2.220446049250313e-16;2.220446049250313e-16;-8.189887226845925e-05;-8.098622812178318e-05;-7.714567030100341e-10;-3.823243811981889e-06;2.220446049250313e-16;-3.124461472696709e-11;2.220446049250313e-16;-0.0;-2.220446049250313e-16;-1.405527730397808e-06;3.945364552801382e-05;2.220446049250313e-16;-5.777693074268659e-05;7.528475024913903e-05;-3.5086413049929992e-06;7.265958027254315e-07;3.386762162948159e-05;0.004037548228205233
0.7399294376373291;-0.0002308077300876773;0.00024383437286519655;-3.125639793502546e-05;0.002162747690677121;-0.0005185044852467324;-0.0008663412480525092;2.220446049250313e-16;2.220446049250313e-16;2.220446049250313e-16;2.220446049250313e-16;2.220446049250313e-16;2.220446049250313e-16;2.220446049250313e-16;2.220446049250313e-16;2.220446049250313e-16;2.220446049250313e-16;2.220446049250313e-16;2.220446049250313e-16;-6.670714333061173e-05;-6.596378896911816e-05;-6.283563062060663e-10;-3.1140559801330726e-06;2.220446049250313e-16;-2.544893397395673e-11;2.220446049250313e-16;-0.0;-2.220446049250313e-16;-1.1448111209573295e-06;0.000177055274703078;2.220446049250313e-16;-4.705967119573537e-05;6.131989960761278e-05;-2.8578102719249537e-06;5.918168225436311e-07;2.7585389489847937e-05;0.004057824993803067
0.7597775459289551;-0.0003441255846646147;0.00029461902949130635;-5.310160274516013e-05;0.002156331342631457;-0.0006694312028540694;-0.0009356628329044144;2.220446049250313e-16;2.220446049250313e-16;2.220446049250313e-16;2.220446049250313e-16;2.220446049250313e-16;2.220446049250313e-16;2.220446049250313e-16;2.220446049250313e-16;2.220446049250313e-16;2.220446049250313e-16;2.220446049250313e-16;2.220446049250313e-16;-5.4333385162429053e-05;-5.372791838902778e-05;-5.118001386317548e-10;-2.5364180586682637e-06;2.220446049250313e-16;-2.0728315777625093e-11;2.220446049250313e-16;-0.0;-2.220446049250313e-16;-9.324558130892508e-07;0.00014421262784112393;2.220446049250313e-16;-3.8330396311871416e-05;-4.415926165666367e-05;-6.851280526919761e-06;5.0056146999396145e-06;2.2468472148165453e-05;0.003305123818858809
0.7799296379089355;-0.00046442309617336414;0.0003619248677619726;-7.503127867216266e-05;0.0021455549606156227;-0.0008294155234377142;-0.0010268114982405813;2.220446049250313e-16;2.220446049250313e-16;2.220446049250313e-16;2.220446049250313e-16;2.220446049250313e-16;2.220446049250313e-16;2.220446049250313e-16;2.220446049250313e-16;2.220446049250313e-16;2.220446049250313e-16;2.220446049250313e-16;2.220446049250313e-16;-4.425488179845572e-05;-4.376172532735305e-05;-4.168644116664306e-10;-2.065928361398167e-06;2.220446049250313e-16;-1.6883342752849243e-11;2.220446049250313e-16;-0.0;-2.220446049250313e-16;-7.594910876100264e-07;0.00011746208670551941;2.220446049250313e-16;-3.1220347360996225e-05;-3.596799461473791e-05;-5.580410809679437e-06;4.077104458192691e-06;0.0015903804240420694;0.002692044007484367
0.7997877597808838;-0.000586589304963397;0.00044187940408872;-9.620976756769385e-05;0.002125851746541001;-0.000991164577878943;-0.001133288568285436;2.220446049250313e-16;2.220446049250313e-16;2.220446049250313e-16;2.220446049250313e-16;2.220446049250313e-16;2.220446049250313e-16;2.220446049250313e-16;2.220446049250313e-16;2.220446049250313e-16;2.220446049250313e-16;2.220446049250313e-16;2.220446049250313e-16;-3.604587781785341e-05;-3.5644198789912347e-05;-3.3953866870488065e-10;-1.6827115624110649e-06;2.220446049250313e-16;-1.3751588193087914e-11;2.220446049250313e-16;-0.0;-2.220446049250313e-16;-6.18610237677664e-07;9.567360375968746e-05;2.220446049250313e-16;-2.5429168052702427e-05;-2.929615641367036e-05;-4.545279482051462e-06;3.3208270631008097e-06;-0.014070578668120502;0.0021926866693710635
0.8198368549346924;-0.0007133801030602414;0.0005338284407238248;-0.00011734663386920327;0.002089872561486901;-0.0011576360740819481;-0.001252411757787691;2.220446049250313e-16;2.220446049250313e-16;2.220446049250313e-16;2.220446049250313e-16;2.220446049250313e-16;2.220446049250313e-16;2.220446049250313e-16;2.220446049250313e-16;2.220446049250313e-16;2.220446049250313e-16;2.220446049250313e-16;2.220446049250313e-16;-2.9359592769377953e-05;-2.903242269062603e-05;-2.765563677768046e-10;-1.3705790845310772e-06;-0.00012718113709627907;-1.120075453069631e-11;2.220446049250313e-16;-0.0;-2.220446049250313e-16;-5.038619049024427e-07;7.792674822228892e-05;2.220446049250313e-16;-2.0712216311226453e-05;6.926558423629967e-05;-3.625271493190085e-06;2.7817214510023467e-06;0.00280440987846823;0.0017859569964944148
0.8399274349212646;-0.0008408073264784824;0.0006323041088022589;-0.00013802147469144986;0.00203392496613254;-0.0013231004296976022;-0.0013756948757460512;2.220446049250313e-16;2.220446049250313e-16;2.220446049250313e-16;2.220446049250313e-16;2.220446049250313e-16;2.220446049250313e-16;2.220446049250313e-16;2.220446049250313e-16;2.220446049250313e-16;2.220446049250313e-16;2.220446049250313e-16;2.220446049250313e-16;-2.391357180811315e-05;-2.3647089734156712e-05;-2.252568900315059e-10;-1.1163452304698405e-06;-0.00010358983104702612;-9.12308456996796e-12;2.220446049250313e-16;-0.0;-2.220446049250313e-16;-4.1039867067994507e-07;6.347182346923071e-05;2.220446049250313e-16;-1.6870229636845885e-05;5.641725127036757e-05;-4.0673658945251735e-06;3.3802891129754965e-06;0.0022842093735741136;0.0014546731358759284
0.859933614730835;-0.0009609927346504522;0.0007311685926969617;-0.0001569638744611948;0.0019583025101722407;-0.0014770188187501157;-0.0014946757850009388;2.220446049250313e-16;2.220446049250313e-16;2.220446049250313e-16;2.220446049250313e-16;2.220446049250313e-16;2.220446049250313e-16;2.220446049250313e-16;2.220446049250313e-16;2.220446049250313e-16;2.220446049250313e-16;2.220446049250313e-16;2.220446049250313e-16;-8.70882056945908e-05;4.834974961427736e-05;-1.8347314478622426e-10;-9.092701673753756e-07;-8.437456482424681e-05;-7.430809401517465e-12;2.220446049250313e-16;-0.0;-2.220446049250313e-16;-3.34272282260507e-07;5.169819691458509e-05;2.220446049250313e-16;-1.3740907478146202e-05;-4.528666049907307e-05;-3.3128949421275934e-06;2.7532666093254973e-06;0.0018605028110847005;0.0011848403608780427
0.8799722194671631;-0.0010673146613563458;0.0008274588083225483;-0.00017289882975995137;0.001863232870199313;-0.0016105540354972585;-0.0016052738451848415;2.220446049250313e-16;2.220446049250313e-16;2.220446049250313e-16;2.220446049250313e-16;2.220446049250313e-16;2.220446049250313e-16;2.220446049250313e-16;2.220446049250313e-16;2.220446049250313e-16;2.220446049250313e-16;2.220446049250313e-16;2.220446049250313e-16;-7.093388783952978e-05;3.9381173246764e-05;-1.4944002313553452e-10;-7.406062342657892e-07;-6.872361039037916e-05;-6.052440700094732e-12;2.220446049250313e-16;-0.0;-2.220446049250313e-16;-2.7226686310294705e-07;0.0001739913649940518;2.220446049250313e-16;-1.1192055021621816e-05;-3.688626801812313e-05;-5.4555517449795565e-06;-5.146252478113186e-07;0.0015153911677710573;0.0009650598791874213
0.9000847339630127;-0.0011544513882119347;0.000917612234646405;-0.00018491232917330002;0.001750286076226999;-0.0017167255106636252;-0.001702913603077197;2.220446049250313e-16;2.220446049250313e-16;2.220446049250313e-16;2.220446049250313e-16;2.220446049250313e-16;2.220446049250313e-16;2.220446049250313e-16;2.220446049250313e-16;2.220446049250313e-16;2.220446049250313e-16;2.220446049250313e-16;2.220446049250313e-16;-5.7776094982096e-05;3.207621174182205e-05;-1.2171983284403744e-10;-6.032284065984493e-07;-5.597581018552877e-05;-4.929750777981535e-12;2.220446049250313e-16;-0.0;-2.220446049250313e-16;-2.217630616652448e-07;0.0001417170542336864;2.220446049250313e-16;-9.115998765454857e-06;-3.0044095839936402e-05;-4.443580993484254e-06;-4.191654807501183e-07;0.0012342955773443243;0.0007860473032223992
0.9198324680328369;-0.001219194383588548;0.0009987067834416454;-0.00019252436034930548;0.0016249285975707508;-0.0017917528558919881;-0.0017848676865354401;2.220446049250313e-16;2.220446049250313e-16;2.220446049250313e-16;2.220446049250313e-16;2.220446049250313e-16;2.220446049250313e-16;2.220446049250313e-16;2.220446049250313e-16;2.220446049250313e-16;2.220446049250313e-16;2.220446049250313e-16;2.220446049250313e-16;-4.705899046351082e-05;2.6126274940037453e-05;-9.914156460042377e-11;-4.913333073519782e-07;-4.559264724492683e-05;-4.015312819608322e-12;2.220446049250313e-16;-0.0;-2.220446049250313e-16;-1.8062739974547718e-07;0.00027238534486256736;2.220446049250313e-16;-7.4250379694552625e-06;6.574102000227965e-05;-2.5100680433825757e-06;-1.4506693520467843e-06;0.0010053414620943106;0.0006402404412702892
0.9399123191833496;-0.0012653445248123059;0.0010749482722553268;-0.000196231838084744;0.001488934772940692;-0.0018409143321592685;-0.0018574081180786632;2.220446049250313e-16;2.220446049250313e-16;2.220446049250313e-16;2.220446049250313e-16;2.220446049250313e-16;2.220446049250313e-16;2.220446049250313e-16;2.220446049250313e-16;2.220446049250313e-16;2.220446049250313e-16;2.220446049250313e-16;2.220446049250313e-16;-3.832984185121995e-05;2.1280014227878874e-05;-8.075142400182388e-11;-4.001940496713571e-07;-3.713549613503817e-05;-3.2704973872761e-12;2.220446049250313e-16;-0.0;-2.220446049250313e-16;-1.4712214601393955e-07;0.0012591120066827426;2.220446049250313e-16;-6.047739832608617e-06;5.354647167323178e-05;-2.044466109260378e-06;-1.1815792539255555e-06;0.000818856904259954;-0.014605991469536771
0.95981764793396;-0.001293645643561696;0.0011453925473516946;-0.00019629606179550208;0.0013526303298530963;-0.0018661858057039402;-0.0019217530607563758;2.220446049250313e-16;2.220446049250313e-16;2.220446049250313e-16;2.220446049250313e-16;2.220446049250313e-16;2.220446049250313e-16;2.220446049250313e-16;2.220446049250313e-16;2.220446049250313e-16;2.220446049250313e-16;2.220446049250313e-16;2.220446049250313e-16;-3.121989574933021e-05;1.7332704588696262e-05;-6.577253954588555e-11;-3.2596055467013074e-07;-3.024709369883943e-05;-2.6638405625450535e-12;2.220446049250313e-16;-0.0;-2.220446049250313e-16;-1.1983190744176635e-07;0.0011600937064947415;2.220446049250313e-16;-4.925921892033671e-06;-4.086029422097733e-05;-1.6652304239057606e-06;-9.624036871927015e-07;0.000666964066375384;0.0019316810520684704
0.9798059463500977;-0.0013055405780606046;0.00121192611941444;-0.00019287743675550965;0.0012185895317689075;-0.0018697562160267054;-0.001981148199704476;2.220446049250313e-16;2.220446049250313e-16;2.220446049250313e-16;2.220446049250313e-16;2.220446049250313e-16;2.220446049250313e-16;2.220446049250313e-16;2.220446049250313e-16;2.220446049250313e-16;2.220446049250313e-16;2.220446049250313e-16;2.220446049250313e-16;-2.542880021217789e-05;1.4117596216896787e-05;-5.357214453849592e-11;-2.6549690903228805e-07;-2.4636446862040327e-05;-2.169714787196461e-12;2.220446049250313e-16;-0.0;-2.220446049250313e-16;-9.76038375607402e-08;0.001086547972083343;2.220446049250313e-16;-4.01219416807325e-06;-3.3280965019824914e-05;4.5507241699482345e-05;-4.764746610568523e-05;0.0005432464005881648;0.0015733662899163445
0.9999208450317383;-0.0013012720207336579;0.0012757441414964178;-0.0001859189856025555;0.001089081369639855;-0.0018521788541205524;-0.002037801283301516;2.220446049250313e-16;2.220446049250313e-16;2.220446049250313e-16;2.220446049250313e-16;2.220446049250313e-16;2.220446049250313e-16;2.220446049250313e-16;2.220446049250313e-16;2.220446049250313e-16;2.220446049250313e-16;2.220446049250313e-16;2.220446049250313e-16;-2.071191670282021e-05;1.1498870353638789e-05;-4.3634846552508273e-11;-2.1624889176248013e-07;-2.0066539946924734e-05;-1.7672462548889375e-12;2.220446049250313e-16;-0.0;-2.220446049250313e-16;-7.949893571720762e-08;0.0010197751404209528;2.220446049250313e-16;-3.2679572261092117e-06;-2.710755401467876e-05;-1.819312495304004e-06;7.608634004921072e-08;0.00044247758856906386;0.0012815166766761744
1.0198109149932861;-0.001282164820618755;0.0013350202521022277;-0.00017590149672240286;0.0009701835477350635;-0.0018157873215051263;-0.0020906775191566794;2.220446049250313e-16;2.220446049250313e-16;2.220446049250313e-16;2.220446049250313e-16;2.220446049250313e-16;2.220446049250313e-16;2.220446049250313e-16;2.220446049250313e-16;2.220446049250313e-16;2.220446049250313e-16;2.220446049250313e-16;2.220446049250313e-16;-1.6869985603926453e-05;9.3659017709785e-06;-3.5540855234808933e-11;-1.7613607389611357e-07;-1.6344322202644863e-05;-1.4394331198961323e-12;2.220446049250313e-16;-0.0;-2.220446049250313e-16;-6.475238001001383e-08;0.0008306132254674934;2.220446049250313e-16;-2.661771585398616e-06;6.501440183901375e-05;-1.4818413981282069e-06;6.197279950970747e-08;0.00036040076137443104;0.001043803342631973
1.03995943069458;-0.0012491780863437547;0.0013887422147892653;-0.00016314536977724147;0.0008668738850018504;-0.0017623258253960466;-0.002139600221751019;2.220446049250313e-16;2.220446049250313e-16;2.220446049250313e-16;2.220446049250313e-16;2.220446049250313e-16;2.220446049250313e-16;2.220446049250313e-16;2.220446049250313e-16;2.220446049250313e-16;2.220446049250313e-16;2.220446049250313e-16;2.220446049250313e-16;-1.3740708711808114e-05;7.628585529348055e-06;-2.894824871909709e-11;-1.4346393303884635e-07;-1.3312552586068007e-05;-1.1724272726123992e-12;2.220446049250313e-16;-0.0;-2.220446049250313e-16;-5.274121822053131e-08;0.0006765396634759326;2.220446049250313e-16;-2.168029592379581e-06;5.2954636637888174e-05;-2.993933164347532e-06;-1.7364868515327156e-06;0.0002935486726442325;0.002878224437294449
1.0598464012145996;-0.0012044460118998317;0.0014347665261569419;-0.00014835091003746485;0.0007906087802129833;-0.0016957197924686964;-0.0021844155774476334;2.220446049250313e-16;2.220446049250313e-16;2.220446049250313e-16;2.220446049250313e-16;2.220446049250313e-16;2.220446049250313e-16;2.220446049250313e-16;2.220446049250313e-16;2.220446049250313e-16;2.220446049250313e-16;2.220446049250313e-16;2.220446049250313e-16;-1.1191893125197158e-05;6.213530592313546e-06;-2.357852950825907e-11;-1.1685227010972185e-07;-1.0843157284806054e-05;-9.549493412132529e-13;2.220446049250313e-16;-0.0;-2.220446049250313e-16;-4.2958051873236606e-08;0.0005510457842740436;2.220446049250313e-16;-1.7658736531781212e-06;-4.171006593643453e-05;-6.672545936150715e-06;2.8195892680911536e-06;0.00023909722854793144;0.002344331793079061
1.0799672603607178;-0.0011482183913330067;0.001472878252445982;-0.00013159660217775695;0.0007475312906841814;-0.0016168863721457195;-0.00222633126727327;2.220446049250313e-16;2.220446049250313e-16;2.220446049250313e-16;2.220446049250313e-16;2.220446049250313e-16;2.220446049250313e-16;2.220446049250313e-16;2.220446049250313e-16;2.220446049250313e-16;2.220446049250313e-16;2.220446049250313e-16;2.220446049250313e-16;-9.115866899805116e-06;5.060959502005583e-06;-1.9204859650286432e-11;-9.517690433105661e-08;-8.831819378207559e-06;-7.778122068515766e-13;2.220446049250313e-16;-0.0;-2.220446049250313e-16;-3.498960173857543e-08;0.00044883023532736013;2.220446049250313e-16;-1.4383151272239119e-06;-3.397310939313801e-05;-5.434830368406856e-06;2.29657308129317e-06;0.00019474618700996853;0.0019094728975366018
1.0998508930206299;-0.0010837469485478614;0.0014995637367180563;-0.00011397472342876125;0.0007430023418389102;-0.001530643445369523;-0.0022618165354800807;2.220446049250313e-16;2.220446049250313e-16;2.220446049250313e-16;2.220446049250313e-16;2.220446049250313e-16;2.220446049250313e-16;2.220446049250313e-16;2.220446049250313e-16;2.220446049250313e-16;2.220446049250313e-16;2.220446049250313e-16;2.220446049250313e-16;-7.424930564059387e-06;4.122183145380435e-06;-1.5642478215531107e-11;-7.752218343329767e-08;-7.193572082421169e-06;-6.335329038069019e-13;2.220446049250313e-16;-0.0;-2.220446049250313e-16;-2.849924930108055e-08;0.0003655750318631056;2.220446049250313e-16;-1.1715166605934211e-06;-2.7671309932644612e-05;-8.520997590546946e-06;-2.2237211594947136e-06;0.0001586219864832882;0.001555277609249172
1.119922399520874;-0.0010123693815111258;0.0015116716650153048;-9.609580424362972e-05;0.0007765061041877723;-0.0014386925634209318;-0.002286397084032364;2.220446049250313e-16;2.220446049250313e-16;2.220446049250313e-16;2.220446049250313e-16;2.220446049250313e-16;2.220446049250313e-16;2.220446049250313e-16;2.220446049250313e-16;2.220446049250313e-16;2.220446049250313e-16;2.220446049250313e-16;2.220446049250313e-16;-6.047652350242396e-06;3.357543935557022e-06;-1.2740896272038936e-11;-6.31423029200674e-08;-5.859209420957556e-06;-5.160165097313702e-13;2.220446049250313e-16;-0.0;-2.220446049250313e-16;-2.3212816676038232e-08;0.0002977631482964486;2.220446049250313e-16;-9.5420764203247e-07;6.881520720355646e-05;-6.940405793735428e-06;-1.8112347826656913e-06;0.00012919859937805377;0.0021269962066937566
1.1398415565490723;-0.0009383822678564641;0.0015057294679093826;-7.92947787261081e-05;0.0008397476344136314;-0.0013459368270632265;-0.0022932669255380143;2.220446049250313e-16;2.220446049250313e-16;2.220446049250313e-16;2.220446049250313e-16;2.220446049250313e-16;2.220446049250313e-16;2.220446049250313e-16;2.220446049250313e-16;2.220446049250313e-16;2.220446049250313e-16;2.220446049250313e-16;2.220446049250313e-16;-4.9258506370996205e-06;2.7347405201607917e-06;-1.0377539644177411e-11;-5.142980036778814e-08;-4.772362693428808e-06;-4.2029867227938674e-13;2.220446049250313e-16;-0.0;-2.220446049250313e-16;-1.890698426273736e-08;0.00024252994530713417;2.220446049250313e-16;-7.772080882332094e-07;5.605041636234175e-05;-5.653003896533715e-06;-1.4752620506985951e-06;0.00010523306668467087;0.0017324517040783565
1.1598179340362549;-0.0008642542055154402;0.001480166794471995;-6.429917609244103e-05;0.0009212430057917527;-0.0012545530719117184;-0.0022774618247644986;2.220446049250313e-16;2.220446049250313e-16;2.220446049250313e-16;2.220446049250313e-16;2.220446049250313e-16;2.220446049250313e-16;2.220446049250313e-16;2.220446049250313e-16;2.220446049250313e-16;2.220446049250313e-16;2.220446049250313e-16;2.220446049250313e-16;-4.012136130484121e-06;2.227463245799216e-06;-8.452570899805276e-12;-4.1889893835815725e-08;-3.8871192410645975e-06;-3.423358954382623e-13;2.220446049250313e-16;-0.0;-2.220446049250313e-16;-1.539985685065122e-08;0.00019754215626481892;2.220446049250313e-16;-6.330408454165002e-07;-4.051082187790457e-05;-4.604407005001062e-06;-1.2016101606818228e-06;8.57129905213312e-05;0.0025922760072595013
1.1798949241638184;-0.0007921026070931347;0.0014330325927461914;-5.178917020502985e-05;0.001012251684290748;-0.001166510288470032;-0.00223415947034048;2.220446049250313e-16;2.220446049250313e-16;2.220446049250313e-16;2.220446049250313e-16;2.220446049250313e-16;2.220446049250313e-16;2.220446049250313e-16;2.220446049250313e-16;2.220446049250313e-16;2.220446049250313e-16;2.220446049250313e-16;2.220446049250313e-16;-3.2679099541301318e-06;1.8142827353487468e-06;-6.884671826459522e-12;-3.411958034110837e-08;-3.1660829163423706e-06;-2.7883472643381105e-13;2.220446049250313e-16;-0.0;-2.220446049250313e-16;-1.2543279653960732e-08;0.00016089932091617164;2.220446049250313e-16;-5.156157250970232e-07;-3.299631761219e-05;-8.146969116727768e-06;3.4179318476717724e-06;6.981376648581502e-05;0.0037081728837662256
1.199899435043335;-0.0007231913483036407;0.001363455890004547;-4.2142268561292905e-05;0.0011055015725046223;-0.0010827917645380273;-0.002160384973471474;2.220446049250313e-16;2.220446049250313e-16;2.220446049250313e-16;2.220446049250313e-16;2.220446049250313e-16;2.220446049250313e-16;2.220446049250313e-16;2.220446049250313e-16;2.220446049250313e-16;2.220446049250313e-16;2.220446049250313e-16;2.220446049250313e-16;-2.661733082076205e-06;1.4777446272086497e-06;-5.607608231850193e-12;-2.7790611435209895e-08;-2.5787943233790884e-06;-2.2711262739737932e-13;2.220446049250313e-16;-0.0;-2.220446049250313e-16;-1.0216579673648853e-08;0.0001310535025069775;2.220446049250313e-16;-4.199722306898072e-07;-2.6875706922113823e-05;-6.635757264131745e-06;2.7839268520027056e-06;5.686374913873685e-05;0.0030203299899081147
1.2198801040649414;-0.0006576924991144774;0.0012717279136377625;-3.5370768122578166e-05;0.0011985011258694221;-0.0010033924567336681;-0.002055934120616988;2.220446049250313e-16;2.220446049250313e-16;2.220446049250313e-16;2.220446049250313e-16;2.220446049250313e-16;2.220446049250313e-16;2.220446049250313e-16;2.220446049250313e-16;2.220446049250313e-16;2.220446049250313e-16;2.220446049250313e-16;2.220446049250313e-16;-2.167998231182832e-06;1.203632234765365e-06;-4.567431952393432e-12;-2.2635626705299922e-08;-2.1004440938567882e-06;-1.8498465446908665e-13;2.220446049250313e-16;-0.0;-2.220446049250313e-16;-8.321467997809948e-09;0.00010674389687632381;2.220446049250313e-16;-3.4207000672328976e-07;6.0623001682629586e-05;-7.111055455221598e-06;3.97371551060242e-06;4.631587907193328e-05;0.0037571245655233813
1.2398526668548584;-0.0005946166735768092;0.0011613335205773612;-3.09146564655813e-05;0.0012917059798292555;-0.000927070909677631;-0.0019257327886202835;2.220446049250313e-16;2.220446049250313e-16;2.220446049250313e-16;2.220446049250313e-16;2.220446049250313e-16;2.220446049250313e-16;2.220446049250313e-16;2.220446049250313e-16;2.220446049250313e-16;2.220446049250313e-16;2.220446049250313e-16;2.220446049250313e-16;-1.7658481092873608e-06;9.803659779178569e-07;-3.720201871674151e-12;-1.8436859424133696e-08;-1.7108248422219401e-06;-1.5067115721916143e-13;2.220446049250313e-16;-0.0;-2.220446049250313e-16;-6.777887693391188e-09;8.694357115512122e-05;2.220446049250313e-16;-2.786181584136615e-07;4.937781376426231e-05;-5.791999112374583e-06;3.2366161191076106e-06;3.772457297833384e-05;0.0030602014406473275
1.2598204612731934;-0.0005325740581347807;0.0010374563396455183;-2.7960889964465607e-05;0.0013859265085632445;-0.0008521016720918101;-0.001777140433762078;2.220446049250313e-16;2.220446049250313e-16;2.220446049250313e-16;2.220446049250313e-16;2.220446049250313e-16;2.220446049250313e-16;2.220446049250313e-16;2.220446049250313e-16;2.220446049250313e-16;2.220446049250313e-16;2.220446049250313e-16;2.220446049250313e-16;-1.4382943215652383e-06;7.985142163014562e-07;-3.030127675740293e-12;-1.5016937231328296e-08;-1.393477526645034e-06;-1.2272259924973965e-13;2.220446049250313e-16;-0.0;-2.220446049250313e-16;-5.5206318880652044e-09;7.081608210316592e-05;2.220446049250313e-16;-2.2693623139141732e-07;-4.242280771171184e-05;4.1392768073427396e-05;4.874663160831485e-05;3.072690046943402e-05;0.002492553199666252
1.2798359394073486;-0.00047352720374200434;0.0009044415471988891;-2.6564709983606115e-05;0.0014823282273095336;-0.0007812547976036563;-0.001616464957847138;2.220446049250313e-16;2.220446049250313e-16;2.220446049250313e-16;2.220446049250313e-16;2.220446049250313e-16;2.220446049250313e-16;2.220446049250313e-16;2.220446049250313e-16;2.220446049250313e-16;2.220446049250313e-16;2.220446049250313e-16;2.220446049250313e-16;-1.171499714254396e-06;6.503948198913878e-07;-2.4680579301884414e-12;-1.2231389230774592e-08;-1.1349961546869214e-06;-9.995832410515821e-14;2.220446049250313e-16;-0.0;-2.220446049250313e-16;-4.496589176778408e-09;5.768014147354179e-05;2.220446049250313e-16;-1.8484097881975558e-07;-3.455364202373749e-05;4.0588218231792824e-05;-4.479342907427337e-05;2.5027252475481934e-05;0.0035197656857726615
1.2998430728912354;-0.00042131162651536656;0.0007671864429073202;-2.71707519430378e-05;0.0015807338511014952;-0.0007196751005042123;-0.0014504606888289242;2.220446049250313e-16;2.220446049250313e-16;2.220446049250313e-16;2.220446049250313e-16;2.220446049250313e-16;2.220446049250313e-16;2.220446049250313e-16;2.220446049250313e-16;2.220446049250313e-16;2.220446049250313e-16;2.220446049250313e-16;2.220446049250313e-16;-6.998337603324654e-05;-6.849943154834397e-05;-2.010248609500549e-12;-9.962542974648596e-09;-9.244614617184641e-07;-8.141667972317702e-14;2.220446049250313e-16;-0.0;-2.220446049250313e-16;-3.6624999881683664e-09;4.6980835731083974e-05;2.220446049250313e-16;-1.5055413250480854e-07;-0.00011993508572185996;-5.613352099594757e-06;2.1881815858265797e-06;2.0384853561608004e-05;0.0028668711495973692
1.3198294639587402;-0.0003798490357420954;0.0006292193033018383;-3.0372511975600888e-05;0.0016822821759825365;-0.0006727343938034264;-0.0012843117297552027;2.220446049250313e-16;2.220446049250313e-16;2.220446049250313e-16;2.220446049250313e-16;2.220446049250313e-16;2.220446049250313e-16;2.220446049250313e-16;2.220446049250313e-16;2.220446049250313e-16;2.220446049250313e-16;2.220446049250313e-16;2.220446049250313e-16;-5.7001897175179504e-05;-5.579321511757333e-05;-1.6373600564920061e-12;-8.114553518744872e-09;-7.529796384538248e-07;-6.631439448877593e-14;2.220446049250313e-16;-0.0;-2.220446049250313e-16;-2.9831291309880605e-09;3.826618433319121e-05;2.220446049250313e-16;-1.2262728188849467e-07;5.369945182489522e-05;-6.868120009080531e-06;-5.137220627193203e-07;1.6603590631264478e-05;0.0023350844692917416
1.3398308753967285;-0.0003517943518926517;0.0004928729942501576;-3.6577310764629313e-05;0.001786839963999649;-0.000643982821140986;-0.001121229923751829;2.220446049250313e-16;2.220446049250313e-16;2.220446049250313e-16;2.220446049250313e-16;2.220446049250313e-16;2.220446049250313e-16;2.220446049250313e-16;2.220446049250313e-16;2.220446049250313e-16;2.220446049250313e-16;2.220446049250313e-16;2.220446049250313e-16;-4.642840151104105e-05;-4.544392242085795e-05;-1.3336399995130919e-12;-6.609354556977189e-09;-6.133066216433804e-07;-5.4013488776073544e-14;2.220446049250313e-16;-0.0;-2.220446049250313e-16;-2.429777321746843e-09;3.116804630303632e-05;2.220446049250313e-16;-9.988068751869068e-08;4.373853913295105e-05;-5.594126673146149e-06;-4.1842983084777843e-07;1.352372834160636e-05;0.0035985215439795736
1.359833002090454;-0.0003367953419780051;0.00036051347998111423;-4.5481104311271054e-05;0.0018922718795569553;-0.0006327704335880855;-0.0009639634290482683;2.220446049250313e-16;2.220446049250313e-16;2.220446049250313e-16;2.220446049250313e-16;2.220446049250313e-16;2.220446049250313e-16;2.220446049250313e-16;2.220446049250313e-16;2.220446049250313e-16;2.220446049250313e-16;2.220446049250313e-16;2.220446049250313e-16;-3.781622320825237e-05;-3.701435883630393e-05;-1.0862581148534098e-12;-5.383360595123899e-09;-4.995420764949185e-07;-4.399432419241674e-14;2.220446049250313e-16;-0.0;-2.220446049250313e-16;-1.979068814671065e-09;2.5386568514112476e-05;-0.0001302496646005807;-8.135344423827055e-08;-4.190390897290023e-05;-6.335941399902275e-06;1.4386765489210727e-06;1.1015161257540512e-05;-0.012427332371935516
1.379948616027832;-0.00033506812411276016;0.00023288938845115537;-5.7065466452071314e-05;0.001996154232629271;-0.0006391623542718939;-0.0008129571246205144;2.220446049250313e-16;2.220446049250313e-16;2.220446049250313e-16;2.220446049250313e-16;2.220446049250313e-16;2.220446049250313e-16;2.220446049250313e-16;2.220446049250313e-16;2.220446049250313e-16;2.220446049250313e-16;2.220446049250313e-16;2.220446049250313e-16;-3.080155015451661e-05;-3.0148426611912273e-05;-8.847640236613199e-13;-4.384780850732135e-09;-4.0688014344308896e-07;-3.583365201924962e-14;2.220446049250313e-16;-0.0;-2.220446049250313e-16;-1.6119639187296735e-09;2.0677518720797814e-05;-0.00010608916587757675;0.000150719882327258;-3.413099575785831e-05;-5.160663869854151e-06;1.1718110408246446e-06;8.971917689024605e-06;0.004975038877576707
1.3999927043914795;-0.0003486557188437316;0.0001104393238183825;-7.177060991466211e-05;0.002094451046188627;-0.0006655034178689597;-0.0006678431360610335;2.220446049250313e-16;2.220446049250313e-16;2.220446049250313e-16;2.220446049250313e-16;2.220446049250313e-16;2.220446049250313e-16;2.220446049250313e-16;2.220446049250313e-16;2.220446049250313e-16;2.220446049250313e-16;2.220446049250313e-16;2.220446049250313e-16;-2.5088055110542236e-05;-2.4556081903068868e-05;-7.206458270472927e-13;-3.5714314078016408e-09;-0.00014877162745448292;-2.918673353000393e-14;2.220446049250313e-16;-0.0;-2.220446049250313e-16;-1.312954686579811e-09;1.684196823258182e-05;-8.641028866457298e-05;0.00012276228615481618;-2.7799909363499072e-05;-4.2033929761453926e-06;9.544474165706776e-07;7.3076830321960955e-06;0.004052200259779212
1.4198660850524902;-0.0003780863401945052;-8.080673749171556e-06;-8.983770211723996e-05;0.0021853897912844926;-0.0007123179822751566;-0.000526470976315468;2.220446049250313e-16;2.220446049250313e-16;2.220446049250313e-16;2.220446049250313e-16;2.220446049250313e-16;2.220446049250313e-16;2.220446049250313e-16;-8.537831746801232e-05;2.220446049250313e-16;2.220446049250313e-16;2.220446049250313e-16;2.220446049250313e-16;-2.043437768788109e-05;-2.000108218556148e-05;-5.869705301664388e-13;-2.9089532031007347e-09;-0.0001211754203843479;-2.3772776877272757e-14;2.220446049250313e-16;-0.0;-2.220446049250313e-16;-1.069409798186047e-09;1.3717888387739345e-05;-7.038172018159883e-05;9.999064933738622e-05;5.690788003607642e-05;-3.4236898502765225e-06;7.774033860931702e-07;5.952153502742671e-06;0.003300542437841791
1.439932107925415;-0.0004234198786298005;-0.00012443308269058668;-0.00011144715791086724;0.0022681764706201325;-0.000779594366977691;-0.00038621134748096747;2.220446049250313e-16;2.220446049250313e-16;2.220446049250313e-16;2.220446049250313e-16;2.220446049250313e-16;2.220446049250313e-16;2.220446049250313e-16;-6.954117319218019e-05;2.220446049250313e-16;2.220446049250313e-16;2.220446049250313e-16;2.220446049250313e-16;-1.6643928341639696e-05;-1.6291006446903487e-05;-4.780911653863779e-13;-2.369360564883067e-09;-9.869813724942876e-05;-1.9363075346394144e-14;2.220446049250313e-16;-0.0;-2.220446049250313e-16;-8.710409644337738e-10;1.1173305828616117e-05;-5.732635097366337e-05;8.144300882685942e-05;4.6351823963634475e-05;-4.22563578448011e-06;2.070218920112369e-06;4.848066228943296e-06;0.0026883124440123746
1.4598760604858398;-0.00048227924310068927;-0.00023565425203182227;-0.00013576168041176366;0.002336580944940535;-0.0008635969325397338;-0.0002496213907045046;2.220446049250313e-16;2.220446049250313e-16;2.220446049250313e-16;2.220446049250313e-16;2.220446049250313e-16;2.220446049250313e-16;2.220446049250313e-16;-5.664172019736321e-05;2.220446049250313e-16;2.220446049250313e-16;2.220446049250313e-16;2.220446049250313e-16;-1.3556583658817664e-05;-1.326912656979318e-05;-3.894082422769884e-13;-1.929858988600788e-09;-8.03902496530175e-05;-1.577134588885894e-14;2.220446049250313e-16;-0.0;-2.220446049250313e-16;-7.094683095373362e-10;9.100727430569256e-06;-4.669267115774239e-05;6.633583970828215e-05;-4.0775746399547605e-05;-3.441806756682702e-06;1.6862062492997753e-06;3.948780243888244e-06;0.0021896472876008536
1.479832410812378;-0.0005525070325162357;-0.0003420172524781082;-0.00016229950151706648;0.0023840454165483514;-0.0009608222089833387;-0.000114705011012083;2.220446049250313e-16;2.220446049250313e-16;2.220446049250313e-16;2.220446049250313e-16;2.220446049250313e-16;2.220446049250313e-16;2.220446049250313e-16;-4.613503511150356e-05;2.220446049250313e-16;2.220446049250313e-16;2.220446049250313e-16;2.220446049250313e-16;-1.1041922118754853e-05;-1.0807786523137604e-05;-3.1717544713612125e-13;-1.5718822078340202e-09;-6.547836078144308e-05;-1.2845859797387413e-14;2.220446049250313e-16;-0.0;-2.220446049250313e-16;0.000470553938367974;7.412599371745099e-06;-3.803147248717591e-05;5.403095604139398e-05;-3.321210029084651e-05;-2.8033731146102896e-06;1.373425528843725e-06;3.216306188523499e-06;0.001783481401046442
1.499854326248169;-0.000630454423366093;-0.00044354010472429285;-0.0001902035757047496;0.002406680383940034;-0.0010660342241998572;1.9539282806954996e-05;2.220446049250313e-16;2.220446049250313e-16;2.220446049250313e-16;2.220446049250313e-16;2.220446049250313e-16;2.220446049250313e-16;2.220446049250313e-16;-3.7577274442289094e-05;2.220446049250313e-16;2.220446049250313e-16;2.220446049250313e-16;2.220446049250313e-16;-8.993714577739069e-06;-8.803009671761347e-06;-2.5834138403891524e-13;-1.2803078825446081e-09;-5.333253409624026e-05;-1.046303309159578e-14;2.220446049250313e-16;-0.0;-2.220446049250313e-16;0.0007723430584081308;6.0376085170324565e-06;-3.097687203750781e-05;0.00016310461041890814;6.466448136498554e-05;-1.1743370352754794e-05;-8.341341752669977e-06;2.6197014924660684e-06;0.0014526567479110832
1.5199215412139893;-0.0007113448969737611;-0.0005402331317078863;-0.00021835025849863387;0.002403453345353767;-0.0011727649158564412;0.00015341161102678199;2.220446049250313e-16;2.220446049250313e-16;2.220446049250313e-16;2.220446049250313e-16;2.220446049250313e-16;2.220446049250313e-16;2.220446049250313e-16;-3.060692489120971e-05;2.220446049250313e-16;2.220446049250313e-16;2.220446049250313e-16;2.220446049250313e-16;-7.3254367342845826e-06;-7.1701063964600635e-06;-2.1042067193334664e-13;-1.0428187722568494e-09;-4.343968234972578e-05;-8.522205847061582e-15;2.220446049250313e-16;-0.0;-2.220446049250313e-16;0.0007726327587397657;4.917669872176165e-06;-2.5230855880000343e-05;0.00043076378585224837;5.2669624224789256e-05;-1.2611536400132076e-05;-3.7475871391870574e-06;2.13376323874794e-06;0.0011831980002782515
1.540039300918579;-0.0007920651928811374;-0.0006324075273259965;-0.00024603550257722807;0.002374866869723835;-0.00127690712098535;0.00028724144271350196;2.220446049250313e-16;2.220446049250313e-16;2.220446049250313e-16;2.220446049250313e-16;2.220446049250313e-16;2.220446049250313e-16;2.220446049250313e-16;-2.492953161717088e-05;2.220446049250313e-16;2.220446049250313e-16;2.220446049250313e-16;2.220446049250313e-16;-5.966614004054381e-06;-5.8400964730817e-06;-1.7138895241891039e-13;0.00014655174245652806;-3.5381892771866334e-05;-6.9413899262182014e-15;2.220446049250313e-16;-0.0;-2.220446049250313e-16;0.0006293142109482813;4.005472846324188e-06;-0.0006101346204873638;0.0020962130588459632;-4.43735354406149e-05;3.3364461558418473e-05;4.0584203631141066e-05;1.7379634939804387e-06;0.0009637221662141373
1.5599477291107178;-0.0008665567161844892;-0.0007193906214198239;-0.0002717688024516118;0.002326572824244679;-0.0013709239782689095;0.0004187599517282663;2.220446049250313e-16;2.220446049250313e-16;2.220446049250313e-16;2.220446049250313e-16;2.220446049250313e-16;2.220446049250313e-16;2.220446049250313e-16;-2.0305259311758284e-05;2.220446049250313e-16;2.220446049250313e-16;2.220446049250313e-16;2.220446049250313e-16;-4.859844397639818e-06;-4.756795077928001e-06;-1.3959737292615511e-13;0.00026929636100276477;-2.8818772799514947e-05;-5.653805478591761e-15;2.220446049250313e-16;-0.0;-2.220446049250313e-16;0.0005125803580311933;3.26248266753634e-06;-0.0006343745677895236;0.0018572037444422925;-3.614252195097733e-05;-1.3721908898302964e-05;-7.841383856682458e-06;1.4155821281189046e-06;-0.01421599886446932
1.5798389911651611;-0.0009317691838770394;-0.0008014447902233017;-0.0002948566124577606;0.002262591450475975;-0.0014511270008927292;0.00054736826956897;2.220446049250313e-16;2.220446049250313e-16;2.220446049250313e-16;2.220446049250313e-16;2.220446049250313e-16;2.220446049250313e-16;2.220446049250313e-16;-1.6538760617297814e-05;2.220446049250313e-16;2.220446049250313e-16;2.220446049250313e-16;2.220446049250313e-16;-3.958373635905116e-06;-3.874439320941594e-06;-1.1370293273193411e-13;0.0003504245371287215;-2.3473070562534914e-05;-4.60505989859723e-15;2.220446049250313e-16;-0.0;-2.220446049250313e-16;0.00041749990524364463;2.657312523225021e-06;-0.0005167020503056153;0.0015127040573716505;-2.943831001983323e-05;3.407032233812423e-05;-5.1633759057639584e-05;1.1530004907411484e-06;0.0015452150875064755
1.5999338626861572;-0.0009889162302370213;-0.0008768757285567706;-0.0003154264726135173;0.0021832375411501934;-0.0015191775859878288;0.0006706377941429165;2.220446049250313e-16;2.220446049250313e-16;2.220446049250313e-16;2.220446049250313e-16;2.220446049250313e-16;2.220446049250313e-16;2.220446049250313e-16;-1.3470923890042927e-05;2.220446049250313e-16;2.220446049250313e-16;2.220446049250313e-16;2.220446049250313e-16;-3.2241200662799413e-06;-3.1557550421526837e-06;-9.261174935348987e-14;0.0005776974120523963;-1.91189626798757e-05;-3.7508500690318095e-15;2.220446049250313e-16;-0.0;-2.220446049250313e-16;0.00034005628219535626;2.164397658370049e-06;-0.0004208570493617381;0.0012321069091295678;6.539072560259611e-05;-1.060590571161651e-05;-3.6996232679082323e-06;9.391261059617323e-07;-0.012972396216087562
1.6197831630706787;-0.0010380364897580416;-0.000940902302008395;-0.0003330385108680483;0.0020922119208573735;-0.0015755170478640031;0.0007810525658125906;2.220446049250313e-16;2.220446049250313e-16;2.220446049250313e-16;2.220446049250313e-16;2.220446049250313e-16;2.220446049250313e-16;2.220446049250313e-16;-1.0972151701714276e-05;2.220446049250313e-16;2.220446049250313e-16;2.220446049250313e-16;2.220446049250313e-16;-2.6260659447354256e-06;-2.570382205302373e-06;-7.543284867185095e-14;0.0009240603396641566;-1.5572514596275503e-05;-3.0550908240393393e-15;2.220446049250313e-16;-0.0;-2.220446049250313e-16;0.0002769779671998813;1.7629154202277698e-06;-0.00034279069706169416;0.0011409922173378675;5.326115469534952e-05;3.8398233390322355e-05;-5.005017615370138e-05;7.64924082843993e-07;0.0031941664297509467
1.6397888660430908;-0.0010812117237223938;-0.000991662153596938;-0.0003480091248145235;0.0019895021963286957;-0.0016229344797045078;0.0008760248059082064;2.220446049250313e-16;2.220446049250313e-16;2.220446049250313e-16;2.220446049250313e-16;2.220446049250313e-16;2.220446049250313e-16;2.220446049250313e-16;-8.93688613699441e-06;2.220446049250313e-16;2.220446049250313e-16;2.220446049250313e-16;2.220446049250313e-16;-2.1389471248991583e-06;-2.093592371107566e-06;-6.144052669852677e-14;0.001542515016704044;-1.2683910466882626e-05;-2.4883905704976912e-15;2.220446049250313e-16;-0.0;-2.220446049250313e-16;0.0002256002853965983;1.4359056279968945e-06;-0.0002792051651986065;0.0009293452922230514;-4.828584729742281e-05;-7.521999656320058e-06;-1.9685805490944265e-06;6.230354462519499e-07;0.0026016685205723315
1.6598362922668457;-0.0011174281140529656;-0.0010274818948650226;-0.0003599416430173306;0.0018772316479318575;-0.001660291881863366;0.0009527292913266344;2.220446049250313e-16;2.220446049250313e-16;2.220446049250313e-16;2.220446049250313e-16;2.220446049250313e-16;2.220446049250313e-16;2.220446049250313e-16;-7.279149614120302e-06;2.220446049250313e-16;2.220446049250313e-16;2.220446049250313e-16;2.220446049250313e-16;-1.742185801649895e-06;-1.7052440712194316e-06;-5.004369299924192e-14;0.0013991590452882045;-1.0331124349716313e-05;-2.026809672111435e-15;2.220446049250313e-16;-0.0;-2.220446049250313e-16;0.00018375284245731297;1.1695541084136451e-06;-0.00022741435208654747;0.0007569575489237517;-3.932912441029649e-05;-1.4058321845333677e-05;-1.6034211608658441e-06;5.074662649437522e-07;0.0021190752704344173
1.6801424026489258;-0.0011462036060138586;-0.001050050490870569;-0.0003688803079009569;0.0017552168292692763;-0.001686913558745636;0.0010135506599257896;2.220446049250313e-16;2.220446049250313e-16;2.220446049250313e-16;2.220446049250313e-16;2.220446049250313e-16;2.220446049250313e-16;2.220446049250313e-16;-5.928912855386072e-06;2.220446049250313e-16;2.220446049250313e-16;2.220446049250313e-16;2.220446049250313e-16;-1.4190212241050992e-06;-1.388931953783672e-06;-4.076090072096378e-14;0.0011396237871312753;-8.414765352371119e-06;-1.6508491454952143e-15;2.220446049250313e-16;-0.0;-2.220446049250313e-16;0.00014966783863674675;-0.00012824894756382872;-0.00018523041111419335;0.0006165466545830763;-3.203381763921405e-05;-1.1450591007535807e-05;-1.3059965569074851e-06;4.13334444460842e-07;0.001726000051989273
1.6998469829559326;-0.0011664511526842019;-0.0010602199684293786;-0.00037464600649631414;0.0016308926343601;-0.0017020465193997004;0.0010578576171499494;2.220446049250313e-16;2.220446049250313e-16;2.220446049250313e-16;2.220446049250313e-16;2.220446049250313e-16;2.220446049250313e-16;2.220446049250313e-16;-4.8291365764173016e-06;2.220446049250313e-16;2.220446049250313e-16;2.220446049250313e-16;2.220446049250313e-16;-1.1558016559162537e-06;-1.1312937571815115e-06;-3.32000083928545e-14;0.0009282306972670932;-6.8538789717897276e-06;-1.3446269468130113e-15;2.220446049250313e-16;-0.0;-2.220446049250313e-16;0.0001219053899936217;-0.00010445956934666072;-0.00015087132754257993;0.0005021811035745066;6.378041898833506e-05;-9.326577941831713e-06;-1.063742358079628e-06;3.366634883536337e-07;0.003108842728008796
1.719775676727295;-0.0011798199028191468;-0.0010600558665890933;-0.0003778218297068147;0.0015049643741428735;-0.0017079407771792281;0.0010883187654904397;2.220446049250313e-16;2.220446049250313e-16;2.220446049250313e-16;2.220446049250313e-16;2.220446049250313e-16;2.220446049250313e-16;2.220446049250313e-16;-3.933361923595493e-06;2.220446049250313e-16;2.220446049250313e-16;2.220446049250313e-16;2.220446049250313e-16;-9.41407672504138e-07;-9.214458358103232e-07;-2.7041614336032437e-14;0.0007560497043659053;-5.5825272592663065e-06;-1.0952070520976151e-15;2.220446049250313e-16;-0.0;-2.220446049250313e-16;9.929270205849233e-05;-0.00024255435064202217;-0.00012288563922922848;0.00040902964749333287;5.194954989361757e-05;-7.989430415463835e-06;-1.2592991897753658e-06;2.742145154108368e-07;0.002532171832230214
1.7399420738220215;-0.0011880942492809657;-0.0010509661249844607;-0.000378959736549208;0.0013834272963009157;-0.0017075340508362034;0.0011053984430829742;2.220446049250313e-16;2.220446049250313e-16;2.220446049250313e-16;2.220446049250313e-16;2.220446049250313e-16;2.220446049250313e-16;2.220446049250313e-16;-3.203747870280552e-06;2.220446049250313e-16;2.220446049250313e-16;2.220446049250313e-16;2.220446049250313e-16;-7.667824330525733e-07;-7.505233923039819e-07;-2.202556388678801e-14;0.0006158072095166818;-4.547003343467776e-06;-8.92052988977583e-16;2.220446049250313e-16;-0.0;-2.220446049250313e-16;8.087452640602983e-05;-0.00019756203456261853;-0.00010009112118745174;0.0003331572043186164;-4.629528248255763e-05;-1.0573397072414723e-05;3.040249004387363e-06;2.2334943664284786e-07;0.003492994652673369
1.7598028182983398;-0.0011914144475474139;-0.0010347068106073356;-0.00037825537272344426;0.0012740325488595963;-0.0017017343745953997;0.0011096266293649057;2.220446049250313e-16;2.220446049250313e-16;2.220446049250313e-16;2.220446049250313e-16;2.220446049250313e-16;2.220446049250313e-16;2.220446049250313e-16;-2.6094726637676984e-06;2.220446049250313e-16;2.220446049250313e-16;2.220446049250313e-16;2.220446049250313e-16;-6.245490841115272e-07;-6.113059938027951e-07;-1.793995944556313e-14;0.0005015788209463967;-3.7035626420253998e-06;-7.265827348534222e-16;2.220446049250313e-16;-0.0;-2.220446049250313e-16;6.587280722350132e-05;-0.00016091551191396882;-8.152484377668684e-05;0.00027135862515004;-3.7707796927558697e-05;-8.612097999213492e-06;2.4763018156297845e-06;1.8191951207957857e-07;0.002845065975819038
1.7798361778259277;-0.0011877691317869787;-0.0010117974024262352;-0.0003752826865245774;0.001178027030040193;-0.0016879742186619744;0.0011014299450309239;2.220446049250313e-16;2.220446049250313e-16;2.220446049250313e-16;2.220446049250313e-16;2.220446049250313e-16;2.220446049250313e-16;2.220446049250313e-16;-2.1254317938429384e-06;2.220446049250313e-16;2.220446049250313e-16;2.220446049250313e-16;2.220446049250313e-16;-5.086991324406146e-07;-4.979125526148375e-07;-1.4612209093157695e-14;0.00040853908452847095;-3.0165749191962e-06;-5.918061786802053e-16;2.220446049250313e-16;-0.0;-2.220446049250313e-16;5.3653813188586966e-05;-0.00028382324034617617;-6.640249478638503e-05;0.0002210232961761147;-3.071323627122735e-05;-1.3594261181897447e-05;1.5753753312024764e-06;1.4817457958576722e-07;0.002317324018966955
1.7998218536376953;-0.0011732063321136833;-0.0009823517804979016;-0.00036911839371485926;0.0010978364283308996;-0.0016612115025165593;0.001080402657120959;2.220446049250313e-16;2.220446049250313e-16;2.220446049250313e-16;2.220446049250313e-16;2.220446049250313e-16;2.220446049250313e-16;2.220446049250313e-16;-1.7311774800337844e-06;2.220446049250313e-16;2.220446049250313e-16;2.220446049250313e-16;2.220446049250313e-16;-4.143386227424583e-07;-4.055528860582391e-07;-1.1901735632683773e-14;0.00033275763771771787;-2.457019125278549e-06;-4.820298313236439e-16;2.220446049250313e-16;-0.0;-2.220446049250313e-16;4.37013661784365e-05;-0.00036808460319362484;-5.408524701910302e-05;0.00018002485613104646;6.89525888932192e-05;-1.1072610696787856e-05;1.283153053360236e-06;1.2068912116372982e-07;-0.013794653134529707
1.8199703693389893;-0.0011447818719983037;-0.0009445577464003118;-0.0003588968591294227;0.001031317547869283;-0.001617329593079823;0.0010445861446206108;2.220446049250313e-16;2.220446049250313e-16;2.220446049250313e-16;2.220446049250313e-16;2.220446049250313e-16;2.220446049250313e-16;2.220446049250313e-16;-1.4100548773467674e-06;2.220446049250313e-16;2.220446049250313e-16;2.220446049250313e-16;2.220446049250313e-16;-3.374813978401243e-07;-3.3032536039997353e-07;-9.694038058668636e-15;0.0002710331756563169;-2.0012574339089107e-06;-3.926163102995536e-16;2.220446049250313e-16;-0.0;-2.220446049250313e-16;3.5595035885875144e-05;-0.001030887672809195;-4.405277172985327e-05;0.0001466313704740881;5.6162314607207604e-05;-9.018710616350562e-06;1.0451361816684956e-06;9.830204349486516e-08;0.0022570008266227003
1.8398115634918213;-0.0011046352931412605;-0.0008979195920066022;-0.00034507469369534635;0.0009778112128736118;-0.0015591203804517291;0.000993442261346958;2.220446049250313e-16;2.220446049250313e-16;2.220446049250313e-16;2.220446049250313e-16;2.220446049250313e-16;2.220446049250313e-16;2.220446049250313e-16;-1.1484985104419257e-06;2.220446049250313e-16;2.220446049250313e-16;2.220446049250313e-16;2.220446049250313e-16;-2.748807077995177e-07;-2.690520705792809e-07;-7.89585458652347e-15;0.00022075821552941798;-1.6300366877777696e-06;-3.1978843859092566e-16;2.220446049250313e-16;-0.0;-2.220446049250313e-16;2.8992379198019576e-05;-0.0012602853190306126;-3.58812579037888e-05;0.00011943216769721021;-4.3281921072621915e-05;-7.3457961639588834e-06;8.512699520701252e-07;8.00676288143395e-08;0.00325310952351183
1.859795331954956;-0.0010550909778062768;-0.0008407310642905333;-0.00032804028345272547;0.0009372124250759449;-0.001489687823542094;0.0009246169987864809;2.220446049250313e-16;2.220446049250313e-16;2.220446049250313e-16;2.220446049250313e-16;2.220446049250313e-16;2.220446049250313e-16;2.220446049250313e-16;-9.354592148706384e-07;2.220446049250313e-16;2.220446049250313e-16;2.220446049250313e-16;2.220446049250313e-16;-2.2389205450713095e-07;-2.191445930622654e-07;-6.4312229098145284e-15;0.00017980894628755794;-1.327675069924292e-06;-2.604696819100501e-16;2.220446049250313e-16;-0.0;-2.220446049250313e-16;2.361447405915693e-05;-0.0011554728418836113;-0.0001723776751880429;9.727824704042581e-05;-3.525339522565726e-05;-9.416605487172762e-06;4.126773296800547e-06;6.52155840919596e-08;0.0043419482035080255
1.8799793720245361;-0.0009991764832386568;-0.0007730757312413108;-0.0003085156925103235;0.0009133894578781125;-0.0014134372834099654;0.0008372525136842925;2.220446049250313e-16;2.220446049250313e-16;2.220446049250313e-16;2.220446049250313e-16;2.220446049250313e-16;2.220446049250313e-16;2.220446049250313e-16;-7.619373771322276e-07;2.220446049250313e-16;2.220446049250313e-16;2.220446049250313e-16;2.220446049250313e-16;-1.8236147772139878e-07;-1.7849464070292175e-07;-5.238271255187119e-15;0.00014645551055713022;-1.0813996424225228e-06;2.220446049250313e-16;2.220446049250313e-16;-0.0;-2.220446049250313e-16;1.9234136711646187e-05;-0.0010895424768439352;-0.00014040269380113086;7.923374020347083e-05;-2.8714110745017987e-05;3.649737044097749e-05;-4.0805971821486856e-05;5.311850084030165e-08;0.0035365439489335585
1.8998024463653564;-0.0009412639982197083;-0.0006992369551451404;-0.00028793446752799597;0.0009067652085716484;-0.0013362039026193965;0.000737136649654307;2.220446049250313e-16;2.220446049250313e-16;2.220446049250313e-16;2.220446049250313e-16;2.220446049250313e-16;2.220446049250313e-16;2.220446049250313e-16;-6.206027557828064e-07;2.220446049250313e-16;2.220446049250313e-16;2.220446049250313e-16;2.220446049250313e-16;-1.4853456336331507e-07;-1.4538500044403418e-07;-4.266604676545253e-15;0.00011928892869572351;-8.808067675009099e-07;2.220446049250313e-16;2.220446049250313e-16;-0.0;-2.220446049250313e-16;1.5666324564990266e-05;-0.0008874391570298652;-0.00011435887161785732;6.453637660660324e-05;5.802237552623146e-05;-1.0804951889765241e-05;7.295569136581741e-06;4.326535092505594e-08;0.002880537149806064
1.9199528694152832;-0.0008810724058913973;-0.0006178899766606954;-0.0002661064231376071;0.0009141157830590422;-0.001257316557498662;0.0006232279858730345;2.220446049250313e-16;2.220446049250313e-16;2.220446049250313e-16;2.220446049250313e-16;2.220446049250313e-16;2.220446049250313e-16;2.220446049250313e-16;-5.054848233523193e-07;2.220446049250313e-16;2.220446049250313e-16;2.220446049250313e-16;2.220446049250313e-16;-1.209823302004411e-07;-1.1841699151791859e-07;0.00015133164881773662;9.716157797847111e-05;-7.174226171717878e-07;2.220446049250313e-16;2.220446049250313e-16;-0.0;-2.220446049250313e-16;1.2760319272713095e-05;-0.0007228247398955567;-9.314601567569236e-05;5.256528209843213e-05;4.725958750596256e-05;3.568182468133155e-05;-3.8540238867441716e-05;3.523989873690134e-08;0.002346215511874225
1.9398415088653564;-0.0008226480304987405;-0.0005307287191057525;-0.0002441449253578597;0.0009331606869929593;-0.001181938898123068;0.0004983993295647782;2.220446049250313e-16;2.220446049250313e-16;2.220446049250313e-16;2.220446049250313e-16;2.220446049250313e-16;2.220446049250313e-16;2.220446049250313e-16;-4.1172054790061e-07;2.220446049250313e-16;2.220446049250313e-16;2.220446049250313e-16;2.220446049250313e-16;-9.854086408782301e-08;-9.645137969754167e-08;0.00012326057378485154;7.913871252332707e-05;-5.843452055777785e-07;2.220446049250313e-16;2.220446049250313e-16;-0.0;-2.220446049250313e-16;1.0393359799620269e-05;-0.0005887452682995551;-7.58680119304494e-05;4.2814750802186075e-05;-4.180575634737987e-05;-1.1545521155792595e-05;8.098671259868034e-06;2.8703117770573242e-08;-0.011595890286915272
1.9599742889404297;-0.0007680497224356464;-0.0004354240680989478;-0.00022231796159227914;0.0009616854829447169;-0.0011126243332137795;0.0003599552674749078;2.220446049250313e-16;2.220446049250313e-16;2.220446049250313e-16;2.220446049250313e-16;2.220446049250313e-16;2.220446049250313e-16;2.220446049250313e-16;-3.353489595184711e-07;2.220446049250313e-16;2.220446049250313e-16;2.220446049250313e-16;2.220446049250313e-16;-8.026214967993237e-08;-7.856025158477078e-08;0.0001003965077263477;6.445897596720317e-05;-4.7595282210063523e-07;2.220446049250313e-16;2.220446049250313e-16;-0.0;-2.220446049250313e-16;8.465456515289456e-06;-0.00047953670068791445;-6.17949698924256e-05;3.487288212057306e-05;-3.4051049830918075e-05;-9.403899140900287e-06;6.596418357857887e-06;2.3378868818617968e-08;0.004782821517677633
1.9798753261566162;-0.0007212432480940726;-0.00033415135004311096;-0.00020176594900202005;0.0009946893213106196;-0.0010541664191617828;0.00021210245297480505;2.220446049250313e-16;2.220446049250313e-16;2.220446049250313e-16;2.220446049250313e-16;2.220446049250313e-16;2.220446049250313e-16;2.220446049250313e-16;-2.731438234587917e-07;2.220446049250313e-16;2.220446049250313e-16;2.220446049250313e-16;2.220446049250313e-16;-6.537402255274043e-08;-6.39878159173682e-08;8.177358302128349e-05;5.2502238793886764e-05;-3.8766654830610537e-07;2.220446049250313e-16;2.220446049250313e-16;-0.0;-2.220446049250313e-16;6.895167240806482e-06;-0.0003905856398146856;-5.033238919594247e-05;2.840418044272001e-05;-2.773479290634421e-05;-7.659534624632914e-06;5.372823980089984e-06;1.9042234770694448e-08;0.0038956380187829174
1.999964714050293;-0.0006801015591566165;-0.00022495196354253437;-0.00018180266208151315;0.0010280093606896607;-0.0010033465239523691;5.3169366209641515e-05;2.220446049250313e-16;2.220446049250313e-16;2.220446049250313e-16;2.220446049250313e-16;2.220446049250313e-16;2.220446049250313e-16;2.220446049250313e-16;-2.224773513560824e-07;2.220446049250313e-16;2.220446049250313e-16;2.220446049250313e-16;2.220446049250313e-16;-5.324754995684802e-08;-5.211847598854588e-08;6.660509445572928e-05;4.2763401636613206e-05;-3.157568265112497e-07;2.220446049250313e-16;2.220446049250313e-16;-0.0;-2.220446049250313e-16;5.6161568124321335e-06;-0.00031813444478931023;-4.099604557752761e-05;2.313538249672321e-05;6.104029793562692e-05;-7.060983766600453e-06;5.198443654678708e-06;1.5510019234697948e-08;0.004088488465614821
2.0199661254882812;-0.0006415874177678983;-0.00011084264464021337;-0.00016199395466923676;0.0010573638938631087;-0.0009556810897599784;-0.00011159640111816851;2.220446049250313e-16;2.220446049250313e-16;2.220446049250313e-16;2.220446049250313e-16;2.220446049250313e-16;2.220446049250313e-16;2.220446049250313e-16;-1.8120919316297505e-07;2.220446049250313e-16;2.220446049250313e-16;2.220446049250313e-16;2.220446049250313e-16;-4.337046223703993e-08;-4.2450824433145535e-08;5.4250265716031844e-05;3.4831057904281676e-05;-2.5718590867357857e-07;2.220446049250313e-16;2.220446049250313e-16;-0.0;-2.220446049250313e-16;4.574394824706048e-06;-0.000259122493621173;-3.339153534818109e-05;1.8843913639721654e-05;4.971770417043021e-05;-5.751215409044609e-06;4.234164847008648e-06;1.2633007604281694e-08;0.0033300994082961807
2.0399515628814697;-0.0006038356565221296;5.0696916814264715e-06;-0.00014219196253627866;0.0010794637043071993;-0.0009083442352403036;-0.0002770761439904111;2.220446049250313e-16;2.220446049250313e-16;2.220446049250313e-16;2.220446049250313e-16;2.220446049250313e-16;2.220446049250313e-16;2.220446049250313e-16;-1.4759602038870044e-07;2.220446049250313e-16;2.220446049250313e-16;2.220446049250313e-16;2.220446049250313e-16;-3.5325512557458003e-08;-3.457646181844974e-08;4.418718048986865e-05;2.8370114357149328e-05;-2.094795300265589e-07;2.220446049250313e-16;2.220446049250313e-16;-0.0;-2.220446049250313e-16;3.725873174690731e-06;-0.0002110568905700305;-2.7197614238189426e-05;1.5348485434013536e-05;-4.1125934558253745e-05;-4.6844008957631385e-06;3.4487537314188378e-06;1.0289663649984964e-08;0.002712386781178541
2.059969425201416;-0.0005675806191401043;0.00011889316279617903;-0.00012293692616148754;0.0010927507968097028;-0.0008621365701018466;-0.00043751110842774326;2.220446049250313e-16;2.220446049250313e-16;2.220446049250313e-16;2.220446049250313e-16;2.220446049250313e-16;2.220446049250313e-16;2.220446049250313e-16;-1.2021788108172393e-07;2.220446049250313e-16;2.220446049250313e-16;2.220446049250313e-16;2.220446049250313e-16;-2.8772850762503017e-08;-2.8162744254013676e-08;3.599073467887608e-05;2.3107635457112854e-05;-1.7062238645369488e-07;2.220446049250313e-16;2.220446049250313e-16;-0.0;-2.220446049250313e-16;3.034746987492942e-06;-0.00017190715647485586;-2.2152626782094268e-05;1.2501437314037985e-05;-3.349733073478866e-05;-3.815473807104675e-06;2.809031468951465e-06;-0.014879155049237125;0.0022092559856873037
2.0798308849334717;-0.0005339670711006704;0.00022611036000081064;-0.00010492459420549602;0.0010988839671647649;-0.0008187093460199301;-0.000587070352522945;2.220446049250313e-16;2.220446049250313e-16;2.220446049250313e-16;2.220446049250313e-16;2.220446049250313e-16;2.220446049250313e-16;2.220446049250313e-16;-9.791821550282088e-08;2.220446049250313e-16;2.220446049250313e-16;2.220446049250313e-16;2.220446049250313e-16;-6.729827609884376e-05;-6.729777916327942e-05;2.9314678338036303e-05;1.8821313502540024e-05;-1.3897300015644985e-07;2.220446049250313e-16;2.220446049250313e-16;-0.0;-2.220446049250313e-16;2.471820388481672e-06;-0.00014001945336849806;-1.8043452967933168e-05;1.0182498826267153e-05;-0.00011817563739663284;-3.1077272625980526e-06;2.287973687907649e-06;0.0013523685730970224;0.0017994528081922187
2.0999276638031006;-0.0005042480772312518;0.0003258114213940002;-8.853750918506957e-05;0.00110077203603219;-0.0007800054277226105;-0.0007252214838652858;2.220446049250313e-16;2.220446049250313e-16;2.220446049250313e-16;2.220446049250313e-16;2.220446049250313e-16;2.220446049250313e-16;2.220446049250313e-16;-7.975499851589449e-08;2.220446049250313e-16;2.220446049250313e-16;2.220446049250313e-16;2.220446049250313e-16;-5.4814866496733835e-05;-5.481446173961084e-05;2.387698872307017e-05;1.5330077481028233e-05;-1.1319437720867937e-07;0.00014488643413459413;2.220446049250313e-16;-0.0;-2.220446049250313e-16;2.01331315529575e-06;-0.00011404671989022519;-1.4696505213962612e-05;8.293708934612258e-06;5.715452424707783e-05;-2.5312632786815047e-06;1.86356886863633e-06;0.0011015126550911062;0.0023687261014435496
2.1197807788848877;-0.00048270512809956643;0.00041332688896935044;-7.522698017576472e-05;0.0011006338921373848;-0.0007519125508726614;-0.0008460858164018226;2.220446049250313e-16;2.220446049250313e-16;2.220446049250313e-16;2.220446049250313e-16;2.220446049250313e-16;2.220446049250313e-16;2.220446049250313e-16;-6.496094475993678e-08;2.220446049250313e-16;2.220446049250313e-16;2.220446049250313e-16;2.220446049250313e-16;-4.46470513545053e-05;-4.4646721677298886e-05;1.944795654612017e-05;1.2486443921281755e-05;-9.219752770132686e-08;0.00011801090614284021;2.220446049250313e-16;-0.0;-2.220446049250313e-16;1.6398561481956086e-06;-9.289176614258771e-05;-1.1970395349930133e-05;6.755277762922524e-06;4.655271721502142e-05;-2.921665451374283e-06;2.3778241813024254e-06;0.0008971889420258002;0.0039156689569958564
2.140089273452759;-0.0004698080695438224;0.000488597887423411;-6.511047267274515e-05;0.0011000992483229295;-0.0007352129833246504;-0.0009499876033771117;2.220446049250313e-16;2.220446049250313e-16;2.220446049250313e-16;2.220446049250313e-16;2.220446049250313e-16;2.220446049250313e-16;2.220446049250313e-16;-5.2911095512873245e-08;2.220446049250313e-16;2.220446049250313e-16;2.220446049250313e-16;2.220446049250313e-16;-3.636530237231553e-05;-3.636503384817043e-05;1.584048215654329e-05;1.0170286614158492e-05;-7.509546254727883e-08;9.612062062150674e-05;2.220446049250313e-16;-0.0;-2.220446049250313e-16;1.3356730818062492e-06;-7.566092409667607e-05;-9.749961827489027e-06;5.502215958386413e-06;-3.985906894505494e-05;-2.3797147705534245e-06;1.9367526570719583e-06;0.0007307660007109018;0.003189336838404105
2.1598098278045654;-0.00046475627070999433;0.0005460975389292752;-5.851812459335825e-05;0.001102691406523518;-0.000729135175768808;-0.0010301402408225103;2.220446049250313e-16;2.220446049250313e-16;2.220446049250313e-16;2.220446049250313e-16;2.220446049250313e-16;2.220446049250313e-16;2.220446049250313e-16;-4.309641798958221e-08;2.220446049250313e-16;2.220446049250313e-16;2.220446049250313e-16;2.220446049250313e-16;-2.961976606539082e-05;-2.9619547350796363e-05;0.00015044916036765664;8.28376201152343e-06;-6.116572359139951e-08;7.829084625009612e-05;2.220446049250313e-16;-0.0;-2.220446049250313e-16;1.087914073087951e-06;-6.162629555751826e-05;-7.941404845751235e-06;4.4815892869554725e-06;-3.246546077492815e-05;4.547428615706808e-05;4.787759614656372e-05;0.0005952134748665339;-0.013165447264699079
2.1798152923583984;-0.00046438935644627565;0.0005878221916155463;-5.451563181952642e-05;0.001114460410511944;-0.0007300567294651572;-0.0010907663301800415;2.220446049250313e-16;2.220446049250313e-16;2.220446049250313e-16;2.220446049250313e-16;2.220446049250313e-16;2.220446049250313e-16;2.220446049250313e-16;-3.510230180512712e-08;2.220446049250313e-16;2.220446049250313e-16;2.220446049250313e-16;2.220446049250313e-16;-2.412548458379873e-05;-2.412530643939457e-05;0.0001225417814267086;6.747175931898405e-06;-4.981986415096733e-08;6.376838358849234e-05;2.220446049250313e-16;-0.0;-2.220446049250313e-16;8.861128119930927e-07;-5.019500289594585e-05;-6.468323880644665e-06;3.650282484158275e-06;-0.00011745633733479395;-1.0414719112656977e-06;9.160390958659443e-07;0.00048480509536300974;0.002956830945680741
2.1997928619384766;-0.00046385326938293135;0.0006124355425636732;-5.2081262756660456e-05;0.0011391420603069139;-0.0007318514461280882;-0.001130894477968084;2.220446049250313e-16;2.220446049250313e-16;2.220446049250313e-16;2.220446049250313e-16;2.220446049250313e-16;2.220446049250313e-16;2.220446049250313e-16;-2.859104420966232e-08;2.220446049250313e-16;2.220446049250313e-16;2.220446049250313e-16;2.220446049250313e-16;-1.9650357977782708e-05;-1.965021287805212e-05;9.981104685818806e-05;5.495616966380824e-06;-4.057859072511382e-08;5.193974698522442e-05;2.220446049250313e-16;-0.0;-2.220446049250313e-16;7.217444235734487e-07;-4.088414357751599e-05;-5.268490227809331e-06;2.9731778976124403e-06;5.8295541485271596e-05;-8.482853809253559e-07;7.461195688271605e-07;0.0003948767802050174;-0.013337494438208577
2.2200183868408203;-0.0004583893176196342;0.0006206393825878284;-5.002423127276832e-05;0.0011784763345134403;-0.0007283442477319048;-0.0011518832686235208;2.220446049250313e-16;2.220446049250313e-16;2.220446049250313e-16;2.220446049250313e-16;2.220446049250313e-16;2.220446049250313e-16;2.220446049250313e-16;-2.3287584202796267e-08;2.220446049250313e-16;2.220446049250313e-16;2.220446049250313e-16;2.220446049250313e-16;-1.6005339387641373e-05;-1.6005221203003932e-05;8.129672148503703e-05;4.47621436672322e-06;-3.305151576179724e-08;4.230524854288394e-05;2.220446049250313e-16;-0.0;-2.220446049250313e-16;5.878653439032213e-07;-3.3300390469784134e-05;-4.291218218614624e-06;2.4216719799671928e-06;4.748208288688798e-05;4.458781203408565e-05;-4.467102672657595e-05;0.00032162960545686285;0.0025538693094602784
2.2398412227630615;-0.0004457914665827599;0.000614481826196956;-4.7630217284651504e-05;0.001232544889902881;-0.0007166176412204937;-0.0011565656263094327;2.220446049250313e-16;2.220446049250313e-16;2.220446049250313e-16;2.220446049250313e-16;2.220446049250313e-16;2.220446049250313e-16;2.220446049250313e-16;-1.8967882880578824e-08;2.220446049250313e-16;2.220446049250313e-16;2.220446049250313e-16;2.220446049250313e-16;-1.303644896460507e-05;-1.3036352702479222e-05;6.621668775407192e-05;3.6459045780358528e-06;-2.6920666159957354e-08;3.4457889345982355e-05;2.220446049250313e-16;-0.0;-2.220446049250313e-16;4.788199967675732e-07;-2.7123376165079606e-05;-3.495224059175477e-06;1.972466963133153e-06;-4.2839607191040897e-05;-4.439978657126603e-06;4.372199770001421e-06;0.00026196932382964883;0.0039581545069125295
2.259859323501587;-0.00042330165418652603;0.0005970040393636611;-4.396137117931073e-05;0.001300984232201201;-0.0006929808807213306;-0.0011490351148269662;2.220446049250313e-16;2.220446049250313e-16;2.220446049250313e-16;2.220446049250313e-16;2.220446049250313e-16;2.220446049250313e-16;2.220446049250313e-16;-1.5449459155499452e-08;2.220446049250313e-16;2.220446049250313e-16;2.220446049250313e-16;2.220446049250313e-16;-1.0618269159476854e-05;-1.0618190753373714e-05;5.3933906029990033e-05;2.969612065713815e-06;-2.192705084144876e-08;2.8066166234111043e-05;2.220446049250313e-16;-0.0;-2.220446049250313e-16;3.900018799921679e-07;-2.209215940755836e-05;-2.8468818413487958e-06;1.6065866693904725e-06;-3.489312780464775e-05;-2.565288502758947e-06;2.5100821755774416e-06;0.00021337565156752289;0.003223941584345923
2.2799527645111084;-0.00038855352060104484;0.0005702230165584913;-3.826849169652266e-05;0.0013796774327219147;-0.0006539014892296608;-0.001131048888639958;2.220446049250313e-16;2.220446049250313e-16;2.220446049250313e-16;2.220446049250313e-16;2.220446049250313e-16;2.220446049250313e-16;2.220446049250313e-16;-1.2583681041274024e-08;2.220446049250313e-16;2.220446049250313e-16;2.220446049250313e-16;2.220446049250313e-16;-8.648646594576142e-06;-8.648582732315096e-06;4.392950354833955e-05;2.4187675875993125e-06;-1.785971995442777e-08;2.28600678112224e-05;2.220446049250313e-16;-0.0;-2.220446049250313e-16;3.1765896876537073e-07;-1.7994201913452582e-05;-2.318803052790101e-06;1.3085748833852233e-06;6.027902857210421e-05;-2.089443518550304e-06;2.044477620021424e-06;0.00017379580179956964;0.002625920570084656
2.2999801635742188;-0.00034160853197660163;0.0005362208445186357;-3.0370261190610477e-05;0.001465239586926756;-0.0005991553125738146;-0.0011046539109483783;2.220446049250313e-16;2.220446049250313e-16;2.220446049250313e-16;2.220446049250313e-16;2.220446049250313e-16;2.220446049250313e-16;2.220446049250313e-16;9.415807716708879e-05;2.220446049250313e-16;2.220446049250313e-16;2.220446049250313e-16;2.220446049250313e-16;-7.044376705323481e-06;-7.044324689112721e-06;0.0001873928867381264;1.970101317397062e-06;-1.4546853526131136e-08;1.861966810766446e-05;2.220446049250313e-16;-0.0;-2.220446049250313e-16;2.587352154279492e-07;-1.4656389922269086e-05;-1.8886795790166173e-06;1.0658424211102852e-06;4.909764551590745e-05;-1.7018648048812137e-06;1.665239799492574e-06;0.00014155776678951068;0.0021388287163375146
2.319946050643921;-0.0002812505507252377;0.0004961491933094175;-1.987079094027764e-05;0.0015551220761213763;-0.000526886772028714;-0.0010708052805082162;2.220446049250313e-16;2.220446049250313e-16;2.220446049250313e-16;2.220446049250313e-16;2.220446049250313e-16;2.220446049250313e-16;2.220446049250313e-16;7.669234234057607e-05;2.220446049250313e-16;2.220446049250313e-16;2.220446049250313e-16;2.220446049250313e-16;-5.737688853840382e-06;-5.737646486311618e-06;0.00015263267745374605;1.6046598361531402e-06;-1.1848503114868346e-08;1.5165836046618369e-05;2.220446049250313e-16;-0.0;-2.220446049250313e-16;2.1074145006116106e-07;-1.193772119412518e-05;-1.5383413213564031e-06;8.681353135094593e-07;-4.8371541520980294e-05;-1.3861795202307786e-06;1.3563482244354485e-06;0.00011529968578609888;0.002420297715990392
2.3397812843322754;-0.0002074242238284898;0.0004507125229246695;-6.690780304997967e-06;0.001646989480208205;-0.0004368056036206732;-0.0010299018986520872;2.220446049250313e-16;2.220446049250313e-16;2.220446049250313e-16;2.220446049250313e-16;2.220446049250313e-16;2.220446049250313e-16;2.220446049250313e-16;6.246639216353886e-05;2.220446049250313e-16;2.220446049250313e-16;2.220446049250313e-16;2.220446049250313e-16;-4.673383432008326e-06;-4.67334892339135e-06;0.00012432026974031022;-0.00014914653096966026;-9.650679840204734e-09;1.2352668246445952e-05;2.220446049250313e-16;-0.0;-2.220446049250313e-16;1.7165022820887852e-07;-9.723348523372422e-06;-1.2529886208780487e-06;7.071016386991637e-07;-3.9398922890972944e-05;-1.1290518828499705e-06;1.104754105979075e-06;9.391231469581368e-05;-0.011541801820765672
2.359809398651123;-0.00012190966190154035;0.00040063385651348504;8.8163578282865e-06;0.001741420100499383;-0.0003313462920302066;-0.0009830994002030568;2.220446049250313e-16;2.220446049250313e-16;2.220446049250313e-16;2.220446049250313e-16;2.220446049250313e-16;2.220446049250313e-16;2.220446049250313e-16;5.087926683215341e-05;2.220446049250313e-16;2.220446049250313e-16;2.220446049250313e-16;2.220446049250313e-16;-3.806500014017231e-06;-3.8064719065330254e-06;0.00010125963670516852;-0.000263807460084668;-7.860539046595756e-09;1.0061325490906764e-05;2.220446049250313e-16;-0.0;-2.220446049250313e-16;1.3981018369005782e-07;-7.919728143215107e-06;-1.020567062884051e-06;-0.00014254100440450325;-3.2090668937965526e-05;-9.196198151555685e-07;8.998291240331188e-07;7.649216727170709e-05;0.004928444630852965
2.3799543380737305;-2.905990139146883e-05;0.00034734881053497685;2.575566698822445e-05;0.0018395515001474374;-0.00021643403825977306;-0.0009326991158637364;2.220446049250313e-16;2.220446049250313e-16;2.220446049250313e-16;2.220446049250313e-16;2.220446049250313e-16;2.220446049250313e-16;2.220446049250313e-16;4.144148083020664e-05;2.220446049250313e-16;2.220446049250313e-16;2.220446049250313e-16;2.220446049250313e-16;-3.1004180520421228e-06;-3.100395158320564e-06;8.247660696908915e-05;-0.0003639456814891905;-6.402458181821283e-09;8.195012495627878e-06;2.220446049250313e-16;-0.0;-2.220446049250313e-16;1.1387626842920013e-07;-6.4506680709496e-06;-8.312582512632024e-07;-0.00024844104314310466;6.266446048851991e-05;-5.039267480033625e-06;5.023147838422568e-06;6.230334831885086e-05;0.004014248954608682
2.399791955947876;6.560646448116407e-05;0.0002920414151883843;4.29332996346472e-05;0.001942093524934464;-9.950657661771436e-05;-0.0008805608236601587;2.220446049250313e-16;2.220446049250313e-16;2.220446049250313e-16;2.220446049250313e-16;2.220446049250313e-16;2.220446049250313e-16;2.220446049250313e-16;3.375434514545849e-05;2.220446049250313e-16;2.220446049250313e-16;2.220446049250313e-16;2.220446049250313e-16;-2.525309881001133e-06;-2.5252912339218387e-06;6.717771185511665e-05;-0.0005755009339526195;-5.214842204457071e-09;6.674888896517003e-06;2.220446049250313e-16;-0.0;-2.220446049250313e-16;-0.0001582475135620458;-5.254109460463891e-06;-6.770650410179486e-07;-0.00036069704889127297;5.104059472077751e-05;-4.418331011682401e-06;3.7775691552959076e-06;5.074646660163101e-05;-0.012583890066545795
2.419914484024048;0.00016461176390582597;0.00023304769594046748;6.078899822260398e-05;0.0020516936009739592;2.2560628616909558e-05;-0.0008250106390762466;2.220446049250313e-16;2.220446049250313e-16;2.220446049250313e-16;2.220446049250313e-16;2.220446049250313e-16;2.220446049250313e-16;2.220446049250313e-16;2.7493125085633087e-05;2.220446049250313e-16;2.220446049250313e-16;2.220446049250313e-16;2.220446049250313e-16;-2.056880681262179e-06;-2.056865493099549e-06;5.47166661666916e-05;-0.000599637058406783;-4.247521568294062e-09;5.436738724268702e-06;2.220446049250313e-16;-0.0;-2.220446049250313e-16;-0.000674392259744983;-4.279504993731967e-06;-5.514737075656254e-07;-0.0004421893377142504;-4.984320975873855e-05;-4.2587972059692044e-06;3.7368926691808036e-06;4.133331421244471e-05;0.003077299533981741
