flxalr/sts-optimization-reemc/input/477_104/acc.csv
time;base_link_tx;base_link_ty;base_link_tz;base_link_rz;base_link_ry;base_link_rx;leg_left_1_joint;leg_left_2_joint;leg_left_3_joint;leg_left_4_joint;leg_left_5_joint;leg_left_6_joint;leg_right_1_joint;leg_right_2_joint;leg_right_3_joint;leg_right_4_joint;leg_right_5_joint;leg_right_6_joint;torso_1_joint;torso_2_joint;arm_left_1_joint;arm_left_2_joint;arm_left_3_joint;arm_left_4_joint;arm_left_5_joint;arm_left_6_joint;arm_left_7_joint;arm_right_1_joint;arm_right_2_joint;arm_right_3_joint;arm_right_4_joint;arm_right_5_joint;arm_right_6_joint;arm_right_7_joint;head_1_joint;head_2_joint
0.0;0.0;0.0;0.0;0.0;0.0;0.0;-3.4843445680697714e-29;4.990633176656048e-30;-3.240037444628211e-25;5.463962626134879e-26;-1.5909824099301928e-26;1.988114251630246e-29;-1.2530015619442277e-29;-6.231269336186952e-29;-3.2382635796696556e-25;5.465098015116194e-26;-0.0017616049088475976;2.4891229796811397e-30;6.40901488947904e-07;6.17978529038751e-07;-6.599044313581949e-09;-0.003064173362310554;-1.6646806540816678e-09;-2.7808033529824208e-08;6.502614171030922e-05;-4.570158465818634e-08;4.5701584658185503e-08;5.7039661663176005e-05;-0.0023172396204597487;-3.044533585904465e-07;-0.0025283316316172732;0.0;0.0;0.0;9.157785307365444e-09;0.01864038256392437
0.01981520652770996;-0.0001212071932616119;-7.228972994539204e-05;-2.5456358182195934e-05;0.00011586468911250821;-0.00017686836811396398;8.328343591399482e-05;-3.338014522344548e-29;5.010671086419531e-30;-3.2441179267098095e-25;5.46644399090222e-26;-1.5932936292472145e-26;1.963118750073649e-29;-1.2796728428308604e-29;-6.104363083220296e-29;-3.242377453410473e-25;5.467634561388644e-26;-0.0017561305660973188;4.993451321343936e-33;5.209852993498423e-07;4.981206583455282e-07;-6.523661625107887e-09;-0.0030572005049767244;-1.660886981071868e-09;-2.797316800563508e-08;6.533051240076238e-05;-4.592164186274099e-08;4.592164186274057e-08;5.7041863073009665e-05;-0.0023154465573523818;-3.037594175205275e-07;-0.002530735301399183;0.0;0.0;0.0;9.1125377291613e-09;0.01844329791600174
0.039784908294677734;-0.00042480588814030815;-0.00010303020147538726;-7.514777902748231e-05;0.00026542060888532973;-0.0006081421366904846;0.00010137393261758119;-3.4552520440773244e-29;5.095183004605405e-30;-3.259419091896851e-25;5.474241015119395e-26;-1.6010842692425822e-26;1.9384831809645348e-29;-1.0932873415617666e-29;-5.914149746641348e-29;-3.257780224881897e-25;5.475171527417869e-26;-0.0017352644790194485;2.4712157465258825e-30;2.9215807288660705e-09;-1.96972894995919e-08;-6.214952106765417e-09;-0.0030319745045010406;-1.6471631919006802e-09;-2.8631367889561834e-08;6.653209848829538e-05;-4.6794286874006765e-08;4.679428687400463e-08;5.7028460384200255e-05;-0.002307287377851749;-3.012490927647883e-07;-0.0025366193985168163;0.0;0.0;0.0;8.949770381228129e-09;0.017651406734113907
0.05984091758728027;-0.0008485033212307886;-0.00010458338592648974;-0.00014062974168815482;0.00033564188799666873;-0.0011973744126942175;9.008514533801978e-05;-3.462480720639323e-29;2.7866322065245235e-30;-3.2906159145754373e-25;5.486374267856941e-26;-1.6175225825279854e-26;2.1576584596298816e-29;-8.169446868746669e-30;-5.65484431051072e-29;-3.2891481822285966e-25;5.486976166839977e-26;-0.0016911364228623848;2.4784005744017795e-30;-1.256455083025423e-06;-1.2784897097330415e-06;-5.5050113980032495e-09;-0.002982257473131228;-1.6201177804703676e-09;-3.009578874546108e-08;6.72870330728865e-05;-4.872344696564136e-08;4.872344696564293e-08;5.693615942947345e-05;-0.002286279573775144;-2.9630212411153756e-07;-0.002539843759128741;0.0;0.0;0.0;8.632461710954023e-09;0.016186950624839706
0.0799403190612793;-0.0013114460554308298;-0.0001746130925903976;-0.0002185518705807158;0.0003332240852091968;-0.0018329780727822215;0.00018704081302276963;-3.278809083937349e-29;5.499481972851759e-30;-3.3396917320451366e-25;5.496766325111052e-26;-1.643311678622533e-26;2.160046537506587e-29;-4.458174094990052e-30;-5.134233822425741e-29;-3.3386062094051466e-25;5.496334221556425e-26;-0.0016174775843078282;4.247257285254726e-32;-3.649792929555825e-06;-3.6707342791178674e-06;-4.219282246410639e-09;-0.002905730107328172;-1.5784928469332968e-09;-3.2657588317432044e-08;6.617488210697353e-05;-5.207507888961098e-08;5.207507888960745e-08;5.665544349478866e-05;-0.0022440759864224957;-2.8868860294888054e-07;-0.002533253684880816;0.0;0.0;0.0;8.1527380397077e-09;0.014276726104233608
0.09978818893432617;-0.0016993883201506304;-0.0003019145041264894;-0.00029028181959663544;0.00016070570931155207;-0.0023488127236365865;0.00039254018602570095;-3.2821601289268186e-29;7.898816605357364e-31;-3.405018177414599e-25;5.495275418338336e-26;-1.6782395812168103e-26;2.356618719677844e-29;2.6486177363720124e-30;-4.192395401557718e-29;-3.40448934274384e-25;5.493884119648972e-26;-0.0015108438633156052;2.5292109104874854e-30;-7.54216835839958e-06;-7.561348107974349e-06;-2.2113819765851813e-09;-0.002804437600768959;-1.5234063323628069e-09;-3.6520041764985487e-08;6.364813920443612e-05;-5.709209728913258e-08;5.709209728913231e-08;5.604207390743018e-05;-0.002171742538253323;-2.7861325580151666e-07;-0.002511507174092128;0.0;0.0;0.0;7.534949171817855e-09;0.012143118484260147
0.11980509757995605;-0.001966164608792136;-0.00046819337252047225;-0.0003470043660067651;-8.65970836339504e-05;-0.00269061115088546;0.0006658395823808076;-2.9509121981822586e-29;1.0989137649559138e-30;-3.484505613794988e-25;5.467734137525991e-26;-1.72110095372241e-26;2.567427417991474e-29;1.1919931538657426e-29;-2.839296520456195e-29;-3.484834515331642e-25;5.464439508009796e-26;-0.0013648007325799912;2.5573167485050457e-30;-1.3459723751548057e-05;-1.3476237150816896e-05;7.377787607327999e-10;-0.0026787436485848706;-1.4550638038915908e-09;-4.1993190823058194e-08;6.001853781492542e-05;-6.414752429792315e-08;6.414752429792284e-08;5.488661090410277e-05;-0.0020561300040335935;-2.6611401320120647e-07;-0.002469342967424563;0.0;0.0;0.0;6.799098311649788e-09;0.009900600796591138
0.13983678817749023;-0.0020997592180694623;-0.0005216591485125648;-0.0003727265312318466;-0.0003700641902803297;-0.0028471538052002813;0.0007860642623544786;-2.8843385752936663e-29;-1.008746845788842e-30;-3.571717490935159e-25;5.39478315984146e-26;-1.7695243750701182e-26;2.784512040810577e-29;2.71598968822011e-29;-1.0393822686460316e-29;-3.573168295793823e-25;5.389367214024463e-26;-0.0011759610786664168;1.3265254554121675e-31;-2.185658836594181e-05;-2.186932026185895e-05;4.801517440866565e-09;-0.002532786332694715;-1.375725569338428e-09;-4.926423382482778e-08;5.56006686942445e-05;-7.344591382710803e-08;7.344591382710551e-08;5.294810530789074e-05;-0.0018840448389972537;-2.516046908572934e-07;-0.0024050435537940535;0.0;0.0;0.0;5.994699109912928e-09;0.007696411364142187
0.15982770919799805;-0.0020793991077730236;-0.0004635574821459247;-0.0003643561083019652;-0.000518764401828297;-0.002805971678500902;0.0007279465255340825;-2.4457844727124006e-29;-3.031375179542487e-30;-3.6575963633778693e-25;5.254351576774395e-26;-1.818621254507277e-26;3.225425296881234e-29;4.4248349335359985e-29;1.3137679692606343e-29;-3.660564393428887e-25;5.245447392411281e-26;-0.0009518624432057978;1.7778204751624292e-31;-3.318643186379856e-05;-3.3194047954280196e-05;1.0149394912301157e-08;-0.0023711098590480408;-1.287874399434911e-09;-5.848387898414236e-08;5.065881819696554e-05;-8.51371125804101e-08;8.513711258041076e-08;4.994802169859102e-05;-0.001643984610850808;-2.3553983853180034e-07;-0.0023192599077355514;0.0;0.0;0.0;5.179653043442337e-09;0.005645939488450658
0.17990684509277344;-0.001982863636380847;-0.0005050635500614602;-0.000353493386979523;-0.0006721347531467917;-0.002658510504450656;0.0008119340403057759;-1.9179126660135896e-29;-1.0033548066438892e-29;-3.731005353708195e-25;5.0170676736011234e-26;-1.8636325110685575e-26;3.709863501574953e-29;6.684050304540013e-29;4.543951099302112e-29;-3.73589834743597e-25;5.004560629556532e-26;-0.0007095124744094345;2.2866023452220455e-31;-4.8018042103661364e-05;-4.8018926236948664e-05;1.7001536929733763e-08;-0.002196970009941759;-1.1932949749187672e-09;-6.985519052962252e-08;4.536472194295783e-05;-9.942759121039918e-08;9.942759121039537e-08;4.5533366206435516e-05;-0.0013229460711674473;-2.1824640880717897e-07;-0.002213283288037746;0.0;0.0;0.0;4.412660812871292e-09;0.003855484563812512
0.199845552444458;-0.0017116519503696192;-0.0006462522856858584;-0.0003249752574988781;-0.0008340818937935225;-0.0022689896619127736;0.0010393332435382563;-1.265377170283847e-29;-1.196988376631782e-29;-3.776698007368007e-25;4.654753963373874e-26;-1.8968052391699145e-26;4.1634162768159605e-29;9.473609169334859e-29;8.423281840478984e-29;-3.7839410632321044e-25;4.637072930395332e-26;-0.0004687619833731906;2.8910827816057494e-31;-6.663544775207594e-05;-6.662781955170444e-05;2.5445117927163754e-08;-0.0020166308896182503;-1.0954072182808814e-09;-8.332924381092097e-08;3.996361208562762e-05;-1.1619809451846373e-07;1.1619809451846311e-07;3.9395022105351e-05;-0.0009378421773549677;-2.0035037971939526e-07;-0.002091205415332005;0.0;0.0;0.0;3.77164645797092e-09;0.0022050792992800734
0.21981430053710938;-0.0012182687827923086;-0.000790235613807401;-0.00026246731033670144;-0.0009545842004980915;-0.0015779066852231213;0.0012653711128904612;-5.086330436532785e-30;-1.8693079579179987e-29;-3.7778807222141153e-25;4.130233097737075e-26;-1.9104455632882902e-26;4.600210981535085e-29;1.2912785983837928e-28;1.3288488618964298e-28;-3.787990021482024e-25;4.107041169843396e-26;-0.00024095083270120945;3.5937541110840946e-31;-8.960666659470608e-05;-8.958843929723716e-05;3.569707026891253e-08;-0.0018326010479596784;-9.955928146071768e-10;-9.903704577402246e-08;3.457589915375742e-05;-1.3554527913421194e-07;1.3554527913420847e-07;3.109307440433925e-05;-0.0005216052243705908;-1.8210507727179732e-07;-0.00195543054906254;0.0;0.0;0.0;3.3246888461502957e-09;0.000571217688762692
0.2398838996887207;-0.0006264413878377365;-0.0009076576644380277;-0.00018227040121668886;-0.000905300978854386;-0.0007677463483336932;0.0014273395506539089;7.190210694354535e-30;-2.5418231691831635e-29;-3.713543469738398e-25;3.400302081180662e-26;-1.894095053010865e-26;5.548215202768518e-29;1.6860389057388238e-28;1.9003698339890866e-28;-3.7270562817717643e-25;3.3703323778043754e-26;-3.594944959926093e-05;-2.015919791433741e-30;-0.00011745583039662738;-0.00011742461480137637;4.795073028690729e-08;-0.001647818991644482;-8.954693071420198e-10;-1.1702390036061688e-07;2.930827906984496e-05;-1.5744459802990417e-07;1.574445980299039e-07;2.0140963286047307e-05;-0.00010357484553603711;-1.6380701279412449e-07;-0.001808852995827583;0.0;0.0;0.0;3.151103368116718e-09;-0.000865960904952335
0.2599825859069824;5.583664971435343e-05;-0.0010658421365499467;-9.186675488201787e-05;-0.0007825724594880692;0.00016033035321661018;0.0016357466222219697;1.8489258957299984e-29;-3.5114439331502097e-29;-3.5596424102206956e-25;2.4232673646039523e-26;-1.8362980605214433e-26;5.850071273422507e-29;2.1621036605504643e-28;2.571242309986774e-28;-3.5771256779504293e-25;2.385215310099359e-26;0.00013698981759163124;-1.96550165216822e-30;-0.00015046623862513458;-0.00015041943885033126;6.22923731916828e-08;-0.0014661061358877715;-7.971333477203573e-10;-1.3713528051750508e-07;2.4271843383021717e-05;-1.8161425706395642e-07;1.8161425706396076e-07;6.090839692698658e-06;0.00029031419265253554;-1.4584025011676132e-07;-0.0016553561404684656;0.0;0.0;0.0;3.3363472472897356e-09;-0.0019383221126338035
0.27985215187072754;0.0007914343108029921;-0.001117659139947249;1.669733821856703e-05;-0.00024431803891024936;0.0011214582262366213;0.001627773708115213;3.504792238296752e-29;-4.381938230088656e-29;-3.293386666851628e-25;1.170453541890122e-26;-1.7252505259535092e-26;6.752265582606047e-29;2.677151450552376e-28;3.3628824190217254e-28;-3.31539628078815e-25;1.1233867560693191e-26;0.00026969959349838513;-1.8418358612064817e-30;-0.00018838113560697758;-0.00018831619290129637;7.857828458438402e-08;-0.0012923412418421201;-7.032492731026879e-10;-1.5888004391956861e-07;1.9587853286626883e-05;-2.073633763824773e-07;2.07363376382473e-07;-1.1299408113101535e-05;0.0006395876297731031;-1.2869237184318275e-07;-0.0015001819852601907;0.0;0.0;0.0;3.9553042349042275e-09;-0.002498703544391456
0.2999396324157715;0.0016396549744699548;-0.0011256180195131512;0.00014675578221044918;0.0007368189766250319;0.0021952711079002846;0.0014878625605512915;5.339394716311471e-29;-5.452455011340429e-29;-2.8794620346664536e-25;-4.330753305944242e-27;-1.5443565218843833e-26;7.528823293065534e-29;3.276203345964177e-28;4.262004245234798e-28;-2.9066045591019436e-25;-4.9022982572040685e-27;0.00035993510827635834;-4.223918436012511e-30;-0.00023218165365113417;-0.0002320954355915373;9.719598373191578e-08;-0.0011247379186718129;-6.12879028448485e-10;-1.8243068685081368e-07;1.5187521014558784e-05;-2.347705167377052e-07;2.347705167376929e-07;-3.2900205343551516e-05;0.0009425833683689103;-1.1219290102136978e-07;-0.00134274828597189;0.0;0.0;0.0;5.106783684695809e-09;-0.002437139508537234
0.31993865966796875;0.0024919557718895806;-0.0012043650534019632;0.0002709287577769376;0.001771271056316874;0.0032705158815922943;0.001439540072922868;7.465982845385803e-29;-6.688160989321614e-29;-2.291054072778547e-25;-2.4144438826074583e-26;-1.279767362892389e-26;8.358990591204435e-29;3.924564388044468e-28;5.292857762860509e-28;-2.323893001635768e-25;-2.4826073825072704e-26;0.00040160254641105934;-6.654526601818056e-30;-0.0002812381317080373;-0.00028112768766418866;1.1784265569184293e-07;-0.0009675432665587002;-5.283412165911211e-10;-2.0700555234116585e-07;1.1158137891837899e-05;-2.627728323833583e-07;2.627728323833674e-07;-5.888848626456011e-05;0.0011896887939231672;-9.676603294607593e-08;-0.0011879442992813085;0.0;0.0;0.0;6.862483543024381e-09;-0.001924565347121645
0.3397793769836426;0.0032046812110815767;-0.001350522434744686;0.00036736702405488705;0.002798044868350895;0.004155422477968895;0.0014869013506775808;1.0132261096676106e-28;-7.900744300017123e-29;-1.4999029674506107e-25;-4.805882667034111e-26;-9.173789749652252e-27;8.792479106787597e-29;4.661441509730127e-28;6.3776831750163685e-28;-1.5388980357627135e-25;-4.8860741957010363e-26;0.0003918264069740765;-7.694491992828776e-30;-0.0003350855288012689;-0.0003349480035317149;1.4029189279202597e-07;-0.0008222669753744617;-4.5046844657316755e-10;-2.3192260630252902e-07;7.508897391810652e-06;-2.904249157529986e-07;2.904249157529945e-07;-8.952684934964413e-05;0.0013802351289484913;-8.256425913584704e-08;-0.001038335613984967;0.0;0.0;0.0;9.286630003176007e-09;-0.0011226493534058353
0.3598325252532959;0.0037109572607928573;-0.00151833668762439;0.000429988054876137;0.0038675466411005645;0.004752798090353818;0.0015567999396164558;1.2854529088644672e-28;-9.421502121652569e-29;-4.5435285421164974e-26;-7.699727357925008e-26;-4.317928729014436e-27;9.562385454867302e-29;5.386662941964254e-28;7.609263257413069e-28;-5.00072295683482e-26;-7.792602733070693e-26;0.0003269703718860662;-1.0018840293608524e-29;-0.00039433362001169354;-0.0003941656814887217;1.6476019204044673e-07;-0.0006869808259498738;-3.7825083796916513e-10;-2.5689981012048173e-07;4.1630699736687175e-06;-3.1718527611084894e-07;3.171852761108577e-07;-0.00012580418460292458;0.0015194373190226857;-6.94040152461859e-08;-0.0008928325621310383;0.0;0.0;0.0;1.2506846514388102e-08;-0.00013411591435911823
0.3799405097961426;0.004267501556005488;-0.0016581906210203527;0.0005030079742145442;0.00472482638445872;0.0054389652765404195;0.0016210946949611566;1.6363094872063802e-28;-1.077207804666628e-28;8.794990771817464e-26;-1.1125075910689834e-25;1.944062610336924e-27;9.7790734578383e-29;6.225975214490868e-28;8.9304630041143e-28;8.2666395925719e-26;-1.1231358949202862e-25;0.00021008217509377916;-1.1324177230974048e-29;-0.00045792897536991447;-0.0004577276215400703;1.907672061183106e-07;-0.0005633567200417753;-3.12605415428845e-10;-2.807999479414988e-07;1.1356200692660309e-06;-3.4152777026386503e-07;3.415277702638508e-07;-0.00016786722497399433;0.0016088927028145086;-5.745299445663004e-08;-0.0007539981052759751;0.0;0.0;0.0;1.6587145115226688e-08;0.0009898550063184872
0.39978718757629395;0.004887345551089106;-0.001842767020077941;0.0005816831935041482;0.005636530335034989;0.006207569341228946;0.0017402762697018965;1.9914563220617533e-28;-1.2467815848200287e-28;2.5131166066131344e-25;-1.5054045881533617e-25;9.675612274490657e-27;1.0280025174848194e-28;7.010931867214568e-28;1.03208398998122e-27;2.453035026658144e-25;-1.5173847142028772e-25;6.452665084753097e-05;-1.355523990991192e-29;-0.0005238292032649396;-0.0005235922829514914;2.1743510284261778e-07;-0.0004532137107458213;-2.545033598076171e-10;-3.0214586783970884e-07;-1.5537467527149994e-06;-3.6159374099203653e-07;3.615937409920439e-07;-0.000215186997189634;0.0016528291644671029;-4.6887883301240884e-08;-0.0006248342380104437;0.0;0.0;0.0;2.151412174380167e-08;0.0025031383322981636
0.4198427200317383;0.005376343134166716;-0.001948661296606698;0.0006474910246360557;0.006674462124546277;0.006783565664142484;0.001727182764297883;2.3828068995772048e-28;-1.4131030416938677e-28;4.520749550309483e-25;-1.960523453890031e-25;1.9247596543048135e-26;1.0146140379592483e-28;7.849800084903781e-28;1.1760314885098558e-27;4.45322815475825e-25;-1.9738866279268814e-25;-8.40878024965838e-05;-1.5872407151684517e-29;-0.0005922225287421001;-0.0005919475051294182;2.4478482006782406e-07;-0.0003536966488228751;-2.0243916489151604e-10;-3.200884751254661e-07;-3.9956438859955426e-06;-3.760596169180516e-07;3.760596169180467e-07;-0.00026895099038656535;0.0016581154016558726;-3.7434580710336774e-08;-0.0005028829770659682;0.0;0.0;0.0;2.745373579935927e-08;0.004402435070276401
0.4399731159210205;0.005638698709998778;-0.001962244877321392;0.0006868822762668022;0.007449539377908206;0.007071681473733075;0.0016240380457776741;2.8091382880600583e-28;-1.5630447807829745e-28;6.931379345995309e-25;-2.477480997752655e-25;3.0812937452627885e-26;1.015822856022472e-28;8.65517260532895e-28;1.3198911922995381e-27;6.856543062443938e-25;-2.4921259939534033e-25;-0.00021134201806326407;-1.8422773495989763e-29;-0.0006609073688537484;-0.0006605925515708745;2.7185941705177627e-07;-0.00026531493865944894;-1.5668038405381798e-10;-3.3282148399362033e-07;-5.959737769221346e-06;-3.8259618941519955e-07;3.8259618941520315e-07;-0.0003288433746672748;0.0016298481438599209;-2.9141255273613646e-08;-0.0003895141709983957;0.0;0.0;0.0;3.442328263215001e-08;0.0063495204153113825
0.4599573612213135;0.005787322339934212;-0.002179686208374567;0.0006898041110677676;0.007932698174198297;0.007233327111863193;0.0018551902090681901;3.2742767977721295e-28;-1.7325764981070414e-28;9.747286672633243e-25;-3.050197588987439e-25;4.439994099387314e-26;9.218731589734245e-29;9.40103313672565e-28;1.4649787347017352e-27;9.665621232749075e-25;-3.0660171998962247e-25;-0.0002971015580030956;-2.2307760454784977e-29;-0.0007268954376967698;-0.0007265404314077851;2.973945957039073e-07;-0.00018841934125212037;-1.173823120077006e-10;-3.3838684234715887e-07;-7.031678391622298e-06;-3.7878908112033286e-07;3.7878908112033905e-07;-0.00039387852860877124;0.0015744018247881772;-2.2034673905340757e-08;-0.00028608416855372174;0.0;0.0;0.0;4.2355849926668954e-08;0.00830791239458656
0.47977566719055176;0.0057253502198872566;-0.0023750386846073095;0.0006622510737043198;0.00811825429418591;0.007133217939679857;0.0021013332956675425;3.752205388515177e-28;-1.8501093302973366e-28;1.2980802803153417e-24;-3.674624788472019e-25;6.008352432447463e-26;8.350744293464998e-29;1.001867356788446e-27;1.5971054460713244e-27;1.2893063839342335e-24;-3.691441848085367e-25;-0.00032703635248229;-2.302492042136611e-29;-0.0007874536181884351;-0.000787059167757678;3.202282656630669e-07;-0.00012217381750173706;-8.406396918810222e-11;-3.348637078286717e-07;-6.913621258136895e-06;-3.622319397845951e-07;3.622319397845848e-07;-0.0004633117343778273;0.0014980455574014368;-1.6025518352071302e-08;-0.00019248731278563675;0.0;0.0;0.0;5.1208241152363186e-08;0.010258697850202845
0.5000107288360596;0.0055970651972539745;-0.0024848371493322104;0.0006323965705992737;0.00775913677752116;0.006992175603156409;0.002312810570533592;4.209968014997061e-28;-1.9921260913059015e-28;1.6753299021693847e-24;-4.3656338956207185e-25;7.847357915180242e-26;6.546248019170308e-29;1.051445591840565e-27;1.7165052942062485e-27;1.666053518671794e-24;-4.383199043937977e-25;-0.0002880364211917655;-2.716373551951061e-29;-0.0008408693108783306;-0.0008404364182197914;3.395354055731015e-07;-6.407127121684726e-05;-5.541440565214786e-11;-3.1955033686381153e-07;-5.311067900948592e-06;-3.291462377969231e-07;3.291462377969125e-07;-0.0005383908539164749;0.0014035110261609188;-1.087496163198722e-08;-0.00010604523298037271;0.0;0.0;0.0;6.121364793747981e-08;0.011908566998547183
0.5199568271636963;0.005409977072297814;-0.0024030701057318284;0.00061120781543568;0.006889726975976659;0.00681600699248559;0.002334208268275695;4.707175208886154e-28;-2.0690734616297e-28;2.0944827558639386e-24;-5.092279460838381e-25;9.900918352471157e-26;4.20147755069891e-29;1.0803400681056003e-27;1.8172142133386928e-27;2.084866538919939e-24;-5.110206846467489e-25;-0.0001881164328977005;-2.862644846205865e-29;-0.0008826433807144138;-0.0008821760872931764;3.5294325651041447e-07;-1.5468737342017682e-05;-3.202633820789507e-11;-2.9024782635263834e-07;-2.0510560880652322e-06;-2.7728441280844247e-07;2.772844128084877e-07;-0.0006153072548041386;0.0012986972496323885;-6.686220835799736e-09;-2.9714510352779616e-05;0.0;0.0;0.0;7.194747791922605e-08;0.013184679776545308
0.539830207824707;0.0052660080996631605;-0.0022166104922728023;0.0006063776665724795;0.005571262718011214;0.006740095783601331;0.0022792230378415345;5.175880211401596e-28;-2.117873034071326e-28;2.5581875204252124e-24;-5.850363329506715e-25;1.218384191769347e-25;1.1831726136145836e-29;1.085495391573606e-27;1.879885671056717e-27;2.54845241663053e-24;-5.868206331236906e-25;-5.43731424723723e-05;-3.2099515789006404e-29;-0.000911422622927992;-0.000910926521986651;3.5882379619329015e-07;2.5151417937342673e-05;-1.3043400864693842e-11;-2.441548608670164e-07;3.032822916538463e-06;-2.0310464805849343e-07;2.0310464805850773e-07;-0.0006931641998263967;0.0011869974519214772;-3.3009333840792415e-09;3.771916837156e-05;0.0;0.0;0.0;8.33699045559263e-08;0.014105900793999433
0.5599541664123535;0.005279361031829402;-0.0020248641928691385;0.0006263255626989296;0.0040805742621194945;0.0068965841392125485;0.002245017764459464;5.570239145214793e-28;-2.101831996786203e-28;3.0723109743399006e-24;-6.637634189531774e-25;1.4728255335671254e-25;-3.0816156146091305e-29;1.0512569093310999e-27;1.9061065469230528e-27;3.0627268475813093e-24;-6.654781432418849e-25;9.087329517089461e-05;-3.2766279928895404e-29;-0.0009255470784911115;-0.0009250297977107636;3.549294658108611e-07;5.908228095938419e-05;2.266351759232505e-12;-1.7714240727895548e-07;8.379739604332655e-06;-1.0131222633349879e-07;1.0131222633350787e-07;-0.0007710706073819934;0.0010702231608430335;-5.832235969273592e-10;9.734113763419442e-05;0.0;0.0;0.0;9.54842003876302e-08;0.01437030125133743
0.579840898513794;0.005357564550845856;-0.0018998265474608946;0.0006500950488457619;0.002567076070502329;0.00714514012165607;0.0023091820439815106;5.932455904065533e-28;-2.0346522076277268e-28;3.620176560454711e-24;-7.415673998859303e-25;1.7454754035779804e-25;-7.699432692429037e-29;9.82273505365335e-28;1.8779406104347624e-27;3.6110854571863915e-24;-7.431420015959909e-25;0.00022432009913241947;-3.419676522852395e-29;-0.0009227396609762688;-0.0009222121137667403;3.3887115153617764e-07;8.616059474570234e-05;1.3989800034400854e-11;-8.754266961227836e-08;1.2247628332214116e-05;2.9510410612476563e-08;-2.9510410612558394e-08;-0.0008444672272286848;0.0009542946007760455;1.4888323467272393e-09;0.0001477159317941454;0.0;0.0;0.0;1.077439061856169e-07;0.014000549865484645
0.5998189449310303;0.005344775713862932;-0.0018445672638225086;0.0006533264957474032;0.0009883601205762451;0.007275554597451573;0.002481971298857351;6.177422685479396e-28;-1.8836319000654335e-28;4.203655307425192e-24;-8.172567730098149e-25;2.0375819421660578e-25;-1.3740652803119478e-28;8.571069228962667e-28;1.7812029585122005e-27;4.1954781855722676e-24;-8.186034367128059e-25;0.00033198001857483937;-3.581976053369904e-29;-0.0008997092258314286;-0.00089918524179389;3.077372093363044e-07;0.00010750289223063878;2.2807592333580153e-11;2.931349760453551e-08;1.4884928420151834e-05;1.9517044875946346e-07;-1.9517044875936335e-07;-0.0009112971697213171;0.0008398911188732836;3.0432925091404857e-09;0.0001896673337107026;0.0;0.0;0.0;1.20016850239691e-07;0.013301424726598683
0.6198368072509766;0.005255105744250899;-0.001915087638013508;0.0006330064683001406;-0.00046393069256746945;0.007289848860121572;0.002812153105386729;6.316770479386958e-28;-1.6077890293500297e-28;4.811956027353789e-24;-8.875422084448645e-25;2.3442653062557422e-25;-2.093116476239915e-28;6.738737279327752e-28;1.6046411227154493e-27;4.805200816781091e-24;-8.885553331248609e-25;0.00039991876099776266;-3.3868904446566344e-29;-0.0008515385687492499;-0.00085103572527336;2.584118915686506e-07;0.00012350304035373404;2.909356911555163e-11;1.7690294465338646e-07;1.6397722747081888e-05;3.995308815609988e-07;-3.995308815610205e-07;-0.0009673423801041252;0.0007294149169265157;4.1545309952152e-09;0.00022274651976200073;0.0;0.0;0.0;1.3185417779130068e-07;0.012194328964780404
0.6398978233337402;0.005127185883000548;-0.00203943877400145;0.0006017781825207265;-0.0018382495094818817;0.0072448529938281304;0.0032058596892759537;6.304498207467195e-28;-1.214446109385815e-28;5.432320011535129e-24;-9.486720564789983e-25;2.659618301819737e-25;-2.9581782855849023e-28;4.194068080597388e-28;1.3252805166849779e-27;5.427588295371482e-24;-9.492300737145348e-25;0.00041670061738169025;-3.353256278940064e-29;-0.0007735394296344039;-0.0007730794695571864;1.8746863219267248e-07;0.00013453453885449435;3.323207855238036e-11;3.589432642911697e-07;1.6865298915392643e-05;6.466758986756347e-07;-6.466758986756153e-07;-0.0010078231946325997;0.0006245075691313342;4.8995944129219415e-09;0.00024948935235504866;0.0;0.0;0.0;1.4274081473747332e-07;0.010557211647596283
0.6598443984985352;0.004915417459264661;-0.0021574576113058625;0.000558174363762375;-0.0033168914834586487;0.007094316203036329;0.003606782295225478;6.041289227352963e-28;-7.00685927047269e-29;6.043132588754578e-24;-9.958169618319927e-25;2.9733272955791467e-25;-3.9239014289828292e-28;8.570138399831568e-29;9.317133086188296e-28;6.041098876119607e-24;-9.957832746836841e-25;0.00037309981681586706;-3.0725266865418414e-29;-0.0006635644137997169;-0.0006631730358036571;9.210394129066523e-08;0.000140824940171968;3.556605719781616e-11;5.771484694113041e-07;1.6339397678291617e-05;9.378927550129861e-07;-9.378927550129868e-07;-0.001027067241821696;0.0005271703243205712;5.348642917995898e-09;0.0002745156576778123;0.0;0.0;0.0;1.5198325841468608e-07;0.008558530493046631
0.6797573566436768;0.004783530913575722;-0.002298990242068158;0.0005247222192949425;-0.004760431783377113;0.007050556518946783;0.004035815890602978;5.565985382652045e-28;-8.229154321266884e-31;6.626016469849681e-24;-1.0241905893761054e-24;3.276793301143808e-25;-5.045586147356149e-28;-3.3923081405991325e-28;4.080188387228169e-28;6.627462514018263e-24;-1.0234092769731288e-24;0.00026786909128348056;-2.411371586207452e-29;-0.0005198274557372853;-0.0005195351039806968;-3.14038878045058e-08;0.00014262039249757398;3.6454820250391944e-11;8.350202527115703e-07;1.4847099487160631e-05;1.2767878838886612e-06;-1.2767878838885416e-06;-0.0010191716466986477;0.0004377788486859399;5.575497298606134e-09;0.00030150872602835;0.0;0.0;0.0;1.5891291842476676e-07;0.006299467540848248
0.6998965740203857;0.0045276071396748736;-0.0023834969711531402;0.00047738969328832084;-0.006194885328528177;0.006834762085238596;0.00438203266681288;4.755513515378943e-28;8.761593196587234e-29;7.162062198118859e-24;-1.0278749504149035e-24;3.561400764428329e-25;-6.30452332822232e-28;-8.732417814449268e-28;-2.8119092039595472e-28;7.167923545774093e-24;-1.0261584269338166e-24;0.00011840733631161039;-1.9302853412932947e-29;-0.00034474720923149895;-0.0003445912184100909;-1.8882701407857586e-07;0.00013992785295672584;3.619096876453236e-11;1.139127302557038e-06;1.249409770710111e-05;1.670715285695956e-06;-1.6707152856959367e-06;-0.0009764910848669341;0.0003558323521554367;5.64459217057684e-09;0.00033340930246993897;0.0;0.0;0.0;1.6272852888282653e-07;0.003847316559556869
0.719825267791748;0.004081005851353723;-0.0024012316282491213;0.00040678552063895404;-0.007511037744560911;0.006344942591629994;0.0046138866134685435;3.573601463779998e-28;1.9472920336368184e-28;7.608725965449328e-24;-1.0000488408623303e-24;3.8061698269813267e-25;-7.709784714307153e-28;-1.5187315741609537e-27;-1.133555731838722e-27;7.619940993095012e-24;-9.972159157905293e-25;-4.4693174464667445e-05;-8.29500424889248e-30;-0.00015458431929597923;-0.0001546043907281908;-3.8043788105359445e-07;0.00013272812448989098;3.5041989334364137e-11;1.4848325481150864e-06;9.56178131825403e-06;2.1123669554670666e-06;-2.1123669554670264e-06;-0.0008920995549798486;0.00028340454769366333;5.612506378945537e-09;0.00037112624966502276;0.0;0.0;0.0;1.6237682797177266e-07;0.0013834215186506655
0.739783525466919;0.003533618830211605;-0.0023324051623834557;0.00032864033020173905;-0.008508927416192727;0.005685662703195286;0.004671997259477789;2.0089582179742499e-28;3.262475870198095e-28;7.935855874805724e-24;-9.33255989072186e-25;3.996866986339563e-25;-9.21294090440182e-28;-2.287290079381025e-27;-2.1798145172341994e-27;7.953517561199497e-24;-9.2909232750479e-25;-0.00020380150601288674;3.7190286639289384e-30;3.9230903384942836e-05;3.898807778354099e-05;-6.11572577516988e-07;0.00012080626872026901;3.323830049193395e-11;1.8767045016486177e-06;6.186556190746915e-06;2.606214190439114e-06;-2.606214190439105e-06;-0.000760003030707407;0.00021958334826140615;5.5336438979738094e-09;0.00041581442483393927;0.0;0.0;0.0;1.5680960485424343e-07;-0.0009992762855693517
0.7597756385803223;0.0030164281449985533;-0.0021888248059033838;0.0002620929376548617;-0.009134954703847712;0.005032072373246781;0.004565281374821762;-8.760636042348763e-30;4.812595848339023e-28;8.100278034596191e-24;-8.189492784999524e-25;4.112630983845024e-25;-1.0866330182440435e-27;-3.1892652552907228e-27;-3.4421034469941004e-27;8.125559108699572e-24;-8.132316304700777e-25;-0.0003433511593484579;1.7705671881436082e-29;0.000225012900991682;0.00022449495109232382;-8.856786774293459e-07;0.00010383728822774256;3.0977918186461295e-11;2.314879657478572e-06;2.473261892251111e-06;3.1507897156200404e-06;-3.1507897156201578e-06;-0.0005871384903437173;0.00016430973893485058;5.456203623525551e-09;0.0004675529351402238;0.0;0.0;0.0;1.44772775640616e-07;-0.0032176169059170232
0.7799410820007324;0.002391838048569063;-0.002034429231495018;0.0001799796242719418;-0.009436831785880775;0.0042002329843579414;0.004391056373901551;-2.748633111341368e-28;6.667746832540689e-28;8.050900725439855e-24;-6.463851905761226e-25;4.1288337662076084e-25;-1.2624609213176768e-27;-4.244311963892099e-27;-4.943063923602015e-27;8.085126731270848e-24;-6.388568800242838e-25;-0.00045120366756677287;3.741236180505615e-29;0.0003947007848106775;0.000393847319288435;-1.2080962645786647e-06;8.121867911233201e-05;2.8413432878804398e-11;2.8014452170217035e-06;-1.5447917350903278e-06;3.746723393370216e-06;-3.746723393370232e-06;-0.0003892206207273382;0.00011711688510884755;5.423944441028381e-09;0.0005261386311910842;0.0;0.0;0.0;1.24709464346994e-07;-0.005193392768382803
0.7998192310333252;0.0018251441739162535;-0.0018460847288328005;0.00010996672756304698;-0.009416318581495966;0.00341725506741513;0.00411781224795192;-6.003695758964586e-28;8.743269768980584e-28;7.73585825189892e-24;-4.1035951898033093e-25;4.019185624954468e-25;-1.4409160995871602e-27;-5.4276990746140415e-27;-6.667666818585374e-27;7.780187259817008e-24;-4.0080981319978643e-25;-0.0005149386555055918;6.090114489465993e-29;0.0005390309410267962;0.0005377849758548161;-1.5730665445977467e-06;5.303323146594642e-05;2.5750643736961407e-11;3.321445038788934e-06;-5.74429889935465e-06;4.373676030400652e-06;-4.373676030400518e-06;-0.00018544855820244892;7.870873656964078e-05;5.475743957642568e-09;0.000588857426724248;0.0;0.0;0.0;9.569365888197881e-08;-0.006757513304781607
0.819814920425415;0.0011544832142755621;-0.0015367196314020404;3.514049012581932e-05;-0.009216924223671982;0.0024730975377951886;0.0036443207154507693;-9.926199382981292e-28;1.1136226097184494e-27;7.090298047983744e-24;-9.666293546080403e-26;3.75265667348819e-25;-1.6244250759368553e-27;-6.764889251692495e-27;-8.652988151155824e-27;7.146098341976258e-24;-8.483507207695751e-26;-0.0005277677727164771;8.724161518304478e-29;0.000658327909418103;0.0006566211350887716;-1.9884745951136726e-06;1.8228946845578714e-05;2.3059413858423582e-11;3.879217602478874e-06;-1.0027968537427703e-05;5.03452207888567e-06;-5.034522078885555e-06;1.5869648531419546e-05;4.783169815676258e-05;5.645967958831371e-09;0.0006549210462450344;0.0;0.0;0.0;5.568536812060301e-08;-0.008124519713383805
0.8397798538208008;0.00046680268922866415;-0.0012514425307571578;-4.451868674842864e-05;-0.008861018216743687;0.001491070849365902;0.003179957684733065;-1.460369423999558e-27;1.3791378625732464e-27;6.04934611876452e-24;3.033760909417011e-25;3.296815499952293e-25;-1.8043067212655842e-27;-8.243835330460834e-27;-1.0890825965357916e-26;6.117902089792651e-24;3.177093709046179e-25;-0.0004819750408909266;1.1719455734082902e-28;0.0007506652504444222;0.0007484292385271747;-2.451357897930148e-06;-2.3571377924206342e-05;2.0459573982188303e-11;4.462533110239228e-06;-1.406009541495312e-05;5.711779705655935e-06;-5.711779705655907e-06;0.00020271319626515737;2.436340511008643e-05;5.963710337556231e-09;0.0007212062297026031;0.0;0.0;0.0;3.2794643147198476e-09;-0.009444012375707432
0.859886884689331;-0.0002906789275264848;-0.0009067338946045527;-0.00012941041558832907;-0.008347108448254016;0.0003974893466063299;0.002606035560462221;-2.0116433126360053e-27;1.676985762996601e-27;4.52660121493268e-24;8.046574099446082e-25;2.609288196568517e-25;-1.978211486657113e-27;-9.870305442612045e-27;-1.3402257851212756e-26;4.609261900507268e-24;8.217385841859638e-25;-0.000382702925996002;1.5422344325635398e-28;0.0008172210979986068;0.0008143804806887787;-2.964333890888067e-06;-7.340606527991134e-05;1.8011126568479057e-11;5.065125789543762e-06;-1.763402974618107e-05;6.39447912483141e-06;-6.3944791248314344e-06;0.00036992698790829545;7.737294242612213e-06;6.458223598018909e-09;0.0007849124293889572;0.0;0.0;0.0;-6.377921554485182e-08;-0.010570535201463038
0.8798484802246094;-0.0010112511899809983;-0.00043485131922861055;-0.00019679422251813077;-0.0076033045736364786;-0.0006685264711479935;0.0018158417093497425;-2.64009023158633e-27;1.9966130699520094e-27;2.4661408090231035e-24;1.4103113669249247e-24;1.6610583640213907e-25;-2.1330916397722578e-27;-1.1603280728230922e-26;-1.614152877875109e-26;2.5639451477920055e-24;1.4303043549469122e-24;-0.00025071055312368126;1.9606241765335782e-28;0.0008586710055691184;0.0008551591014283887;-3.5163413261853675e-06;-0.00013115175822793305;1.5812666759165095e-11;5.66345890788431e-06;-2.0513232303398128e-05;7.051585245563621e-06;-7.051585245563713e-06;0.0005116188438186761;-2.2329188957804183e-06;7.142424440829867e-09;0.000841094814195939;0.0;0.0;0.0;-1.46203620945536e-07;-0.011366473638045856
0.8999340534210205;-0.0015895490868391988;-2.111487658180113e-05;-0.0002476043978489982;-0.0067724775562622175;-0.0015465168228656805;0.00109488018512377;-3.359167457193752e-27;2.3424254599687538e-27;-2.4131298222511817e-25;2.1381225446789956e-24;3.9836118866346487e-26;-2.2624106433865504e-27;-1.3446935531555343e-26;-1.9119205056300025e-26;-1.2730871189793452e-25;2.1612012627064952e-24;-0.00010247866675368884;2.4050570605751634e-28;0.0008779380118134825;0.0008736814978504867;-4.108623861305211e-06;-0.00019811488478639226;1.3883370239291982e-11;6.246450903592852e-06;-2.258680735732512e-05;7.665345281454424e-06;-7.665345281454304e-06;0.000628554432203838;-6.112774072805603e-06;8.040190096622892e-09;0.0008857013621609979;0.0;0.0;0.0;-2.467243724931453e-07;-0.011716147992427034
0.919842004776001;-0.0019939610186216292;0.0003301150821249928;-0.0002773772163761921;-0.0059265262295314924;-0.0021862122169583197;0.00046091638281523266;-4.1571549167164525e-27;2.700983179857309e-27;-3.635369913101277e-24;2.985194141631043e-24;-1.2006582866000594e-25;-2.3543180660796403e-27;-1.5338783313590118e-26;-2.2261283624109348e-26;-3.504598290418005e-24;3.0114179916229228e-24;4.550131890683967e-05;2.893781530555359e-28;0.0008775014411261712;0.0008724434869765118;-4.723338627709858e-06;-0.0002736823622335644;1.2286383705394995e-11;6.782146255687784e-06;-2.3703541284559936e-05;8.19499870825818e-06;-8.194998708258132e-06;0.0007196426539181462;-4.2693683445653315e-06;9.146146376945156e-09;0.0009155482534419413;0.0;0.0;0.0;-3.652598116984867e-07;-0.01177886118509052
0.9398097991943359;-0.0021215023763586516;0.0005327434094076201;-0.0002782484675556493;-0.005088202487313112;-0.002442858287282112;3.989074745918157e-05;-5.037629568132707e-27;3.0755824527026785e-27;-7.833285079823209e-24;3.967364581299888e-24;-3.194532213343933e-25;-2.3967293216034655e-27;-1.725850662456586e-26;-2.555086049771465e-26;-7.685334337529547e-24;3.996759288689966e-24;0.00018363253835181422;3.4452497026829314e-28;0.000860410376185189;0.0008544935926002759;-5.35546279708954e-06;-0.0003589481852888292;1.102389433710745e-11;7.248944238303085e-06;-2.3752742161420412e-05;8.60956644544759e-06;-8.609566445447573e-06;0.0007880071737615128;2.878817438166411e-06;1.0474103833448926e-08;0.0009301726311827174;0.0;0.0;0.0;-5.04367398748197e-07;-0.011681850657576542
0.9600129127502441;-0.001964032724342326;0.000680559486213624;-0.0002402678238868803;-0.003993784748054466;-0.002331235575092882;-0.0003427733366650299;-6.009088510087407e-27;3.454056345104876e-27;-1.2971214792320922e-23;5.1007764579567084e-24;-5.651839534909805e-25;-2.3742407102234355e-27;-1.9167831783848183e-26;-2.895004570673058e-26;-1.280596339788254e-23;5.1332962981993166e-24;0.00030368652940706306;4.026414874993821e-28;0.0008291018488469741;0.0008222727481618954;-5.99476022968399e-06;-0.00045493095906640825;1.010649608465e-11;7.615039050665879e-06;-2.2565262125880556e-05;8.864816395777504e-06;-8.864816395777623e-06;0.0008364616570043063;1.5125953080161704e-05;1.20357176214044e-08;0.0009265916962260171;0.0;0.0;0.0;-6.667584035856102e-07;-0.011210657535066011
0.9800655841827393;-0.001557675548081565;0.0007974085445357604;-0.00016679151575614486;-0.0026398039942502386;-0.001901614955866997;-0.0007215512618387595;-7.03932895893208e-27;3.819071726046813e-27;-1.9030839983945367e-23;6.3659807737097614e-24;-8.567573783736166e-25;-2.2692650168495843e-27;-2.0963847134184256e-26;-3.231154929918561e-26;-1.8849074079779528e-23;6.401397462558267e-24;0.00039591302876472434;4.633783085908405e-28;0.0007869060407229675;0.0007791455304460212;-6.608807024744964e-06;-0.0005596292701793862;9.558765266492956e-12;7.833084439176723e-06;-2.0023712334537674e-05;8.903271468311342e-06;-8.903271468311322e-06;0.0008671782702176973;3.189110720971017e-05;1.3789265313856397e-08;0.0009004234021777503;0.0;0.0;0.0;-8.500882079680156e-07;-0.010197376836777652
0.9999251365661621;-0.0009109785757949365;0.0010350936353516135;-4.5066838011905235e-05;-0.0011374649616606248;-0.0011571365304125897;-0.0012936400393547503;-8.1109887795782e-27;4.162525928664337e-27;-2.603754390439799e-23;7.753960909337609e-24;-1.1957478373331564e-24;-2.068320740251233e-27;-2.2556978396922934e-26;-3.551485155533066e-26;-2.5840753586244678e-23;7.791908975068456e-24;0.00045487104650580407;5.240329029878061e-28;0.0007367953766008934;0.0007281093934500817;-7.172172063644107e-06;-0.0006719938297567061;9.369038013725125e-12;7.861224502354132e-06;-1.6044784933158246e-05;8.672545841397422e-06;-8.672545841397495e-06;0.0008839959334526682;5.263983430849064e-05;1.5703169542360863e-08;0.0008466120076515627;0.0;0.0;0.0;-1.0534839831650348e-06;-0.008795398275521673
1.0198285579681396;-0.0001931383369999279;0.001426203985303462;0.0001018720398272083;0.0003272575386078548;-0.00031329224169271197;-0.0020764356581929886;-9.218711242565837e-27;4.463573167968811e-27;-3.4111543493785557e-23;9.27201321130432e-24;-1.5883833686538024e-24;-1.7474567392157672e-27;-2.387452332249005e-26;-3.846764756218778e-26;-3.390184861718326e-23;9.311977343563956e-24;0.0004766334934362408;5.853622213976539e-28;0.0006806353916034752;0.0006710473798601088;-7.662205460700749e-06;-0.0007922419110971059;9.519753772113334e-12;7.650586819182898e-06;-1.047811041090673e-05;8.10804250062352e-06;-8.108042500623664e-06;0.0008908204989566536;7.717009100011648e-05;1.7764711469361514e-08;0.0007578601854134415;0.0;0.0;0.0;-1.2785418882895417e-06;-0.007122899803701811
1.039928674697876;0.0004019866625599942;0.0018759332805938621;0.000235366207948933;0.0016914480510294328;0.0003705467728494671;-0.0029266765983338504;-1.0340515207769316e-26;4.708277029267239e-27;-4.336176160319538e-23;1.0920058152586077e-23;-2.0404607741429953e-24;-1.2802647717652707e-27;-2.4798185669236175e-26;-4.101884331342579e-26;-4.3142236374917456e-23;1.0961330310192432e-23;0.00045630128939850683;6.47467202818232e-28;0.0006200244748452729;0.000609587259910626;-8.04529957499639e-06;-0.0009198596872286742;9.999108224783842e-12;7.136903029452159e-06;-3.135109887798685e-06;7.126675836219925e-06;-7.1266758362204826e-06;0.0008910578782256194;0.00010529029520953515;1.9945733532046226e-08;0.0006246441910787692;0.0;0.0;0.0;-1.5259418519907003e-06;-0.00526603125328643
1.0599241256713867;0.0006551156830312992;0.0022569384021992656;0.0003097873517165183;0.0027375552853930937;0.0006150751559452564;-0.0036305344971192047;-1.1430217722435348e-26;4.8661343609164656e-27;-5.365746380653626e-23;1.2652902265384331e-23;-2.546134615173223e-24;-6.497983847500016e-28;-2.517633395369316e-26;-4.2938756350238256e-26;-5.343250628103336e-23;1.2694517460358224e-23;0.00039000473828934936;7.026251397181851e-28;0.0005576823133669181;0.0005465049845546859;-8.273196977851492e-06;-0.0010507865972006634;1.0775450376679956e-11;6.261998844035821e-06;4.1814695232500545e-06;5.661922159481358e-06;-5.6619221594801935e-06;0.0008879704564569474;0.00013609896437568139;2.215393383976473e-08;0.0004484729685566539;0.0;0.0;0.0;-1.789676996297136e-06;-0.0035936987324871883
1.0798554420471191;0.0004906464072522425;0.002600641914055545;0.0003163923284847314;0.003594558118388385;0.00030382487907894794;-0.004253304116755879;-1.2444463434841879e-26;4.916181694487546e-27;-6.49717920818215e-23;1.4443051279217412e-23;-3.1046520602420958e-24;1.647742732550833e-28;-2.4861070590900293e-26;-4.400916367507332e-26;-6.474706198261485e-23;1.4483781910588744e-23;0.0002746448599117806;7.480272468343497e-28;0.0004950585481996598;0.0004832985612008015;-8.300355980183584e-06;-0.001182329456927778;1.1811899227363757e-11;4.959508560755238e-06;9.815277648447331e-06;3.6332604741619256e-06;-3.6332604741632215e-06;0.0008846056925669788;0.00016904030597629868;2.431745378684872e-08;0.00024338197028937698;0.0;0.0;0.0;-2.066425654672553e-06;-0.0020763473664962345
1.0998313426971436;-2.3835228634713746e-05;0.002709994591166235;0.0002473099862943642;0.004190085803491023;-0.0004609145670440094;-0.004504323856173658;-1.3341168021700272e-26;4.818462920758867e-27;-7.728843484246453e-23;1.6260272019887125e-23;-3.715888902426105e-24;1.197170283539867e-27;-2.3674357514259508e-26;-4.397815703895661e-26;-7.707109231083227e-23;1.6298601105021162e-23;0.00011901821780308029;7.857574892073795e-28;0.0004330957485598006;0.0004209672792483586;-8.072648504144948e-06;-0.0013114589227410307;1.3070324341946432e-11;3.148699753971248e-06;1.3959422761962532e-05;9.421192952415218e-07;-9.421192952418604e-07;0.0008836022651226243;0.00020360091292446984;2.6354603563596303e-08;2.778892729367625e-05;0.0;0.0;0.0;-2.3526195590733302e-06;-0.0006822771049426038
1.1198437213897705;-0.0007834481994175846;0.0026201469062847728;0.00012198388070583111;0.004584422427541111;-0.0015410869025854188;-0.004442466680769631;-1.405498583277995e-26;4.5462168801431225e-27;-9.048016096705308e-23;1.8052544168412632e-23;-4.3743465171579815e-24;2.4677128580517157e-27;-2.1418313061532335e-26;-4.25456420248272e-26;-9.02790939754916e-23;1.8086602786035298e-23;-5.202780838546883e-05;8.083779109916601e-28;0.0003728573587731013;0.00036064558834135956;-7.527381961584701e-06;-0.0014334171256647275;1.449860203757262e-11;7.489349451113946e-07;1.6735662436022247e-05;-2.505756389214222e-06;2.5057563892152407e-06;0.0008872140368143547;0.0002389522858473453;2.815075627917222e-08;-0.00018172300666634007;0.0;0.0;0.0;-2.6414911389303864e-06;0.0002837129134814828
1.1398351192474365;-0.0016630782015618502;0.0024498143288383184;-2.9276913959486915e-05;0.004881778870480188;-0.002776057384843299;-0.00425175293688276;-1.4514504183099582e-26;4.056876589991821e-27;-1.0432083283572428e-22;1.9750477922656492e-23;-5.0696970136148585e-24;4.0003842533980265e-27;-1.7880756837166473e-26;-3.938034362270364e-26;-1.0414674951046729e-22;1.977804974929385e-23;-0.00021289148182592125;8.121087647334527e-28;0.000315320476210438;0.0003033901626048375;-6.598259795774585e-06;-0.0015421264359945343;1.6029521549373455e-11;-2.31417917956777e-06;1.82396133773721e-05;-5.899371977849e-06;5.899371977848748e-06;0.0008971972027893959;0.00027401104152192165;2.9566796635332058e-08;-0.00037328509091852705;0.0;0.0;0.0;-2.9236562849657017e-06;0.0005165666015398123
1.1598498821258545;-0.0025845734313086595;0.002021059084869681;-0.00021097115924908756;0.005008670086433473;-0.004049125098253784;-0.0036683975071592017;-1.463666194654185e-26;3.305385585721928e-27;-1.185796948425406e-22;2.1279142535454268e-23;-5.7914897106033306e-24;5.818179055122858e-27;-1.2822775789729546e-26;-3.4114279758807277e-26;-1.184453889423867e-22;2.1297604538403415e-23;-0.0003435864938685295;7.880862490898137e-28;0.0002609577510356801;0.00024976318278054635;-5.2095696754475505e-06;-0.001633759943983926;1.7591469352505692e-11;-6.12886845855483e-06;1.8553348600265187e-05;-8.468026904680052e-06;8.468026904679952e-06;0.0009148192859148138;0.00030768122268775276;3.044950257266684e-08;-0.0005401807912724481;0.0;0.0;0.0;-3.189066965381904e-06;5.120325538736457e-05
1.1799218654632568;-0.0033768327880693144;0.0014810056859122923;-0.00038309906128483693;0.005157190908544442;-0.005145132194886787;-0.00293037983853301;-1.4328589930394295e-26;2.2450743038140004e-27;-1.3293723335352214e-22;2.2545311011251955e-23;-6.525010122153038e-24;7.946476271839003e-27;-5.9816134102900115e-27;-2.632956872418522e-26;-1.328578057743031e-22;2.2551596871958396e-23;-0.0004275503137540767;7.324723990306088e-28;0.00021012289162728094;0.00020022106206644426;-3.2770587781932003e-06;-0.0017053490330809443;1.9099050156178047e-11;-1.0785859007147886e-05;1.772418835403567e-05;-1.0347194918273514e-05;1.0347194918272425e-05;0.0009408398629797297;0.0003386143622175659;3.061658043535092e-08;-0.000678588991325252;0.0;0.0;0.0;-3.425016077414563e-06;-0.0007413168139978792
1.1998498439788818;-0.004049834630926826;0.0007959858518348499;-0.0005503263040121246;0.005221647156708844;-0.0060673667956482324;-0.001973353521057499;-1.348407297695796e-26;8.381089120713355e-28;-1.468138366090605e-22;2.3427657488035757e-23;-7.242369964209986e-24;1.0370689962954832e-26;2.817951736571898e-27;-1.5699619477734779e-26;-1.4680598283454652e-22;2.3418417685895594e-23;-0.0004508007389689993;6.440719527853775e-28;0.00016357691735149378;0.00015561452410905573;-7.413987869809397e-07;-0.0017511047909168616;2.043650458804643e-11;-1.6306913851827655e-05;1.5957613528238315e-05;-1.1641250925533531e-05;1.1641250925534058e-05;0.0009750177722709122;0.00036489751498553554;2.986875185878056e-08;-0.0007858057449762615;0.0;0.0;0.0;-3.6139312541892957e-06;-0.0014971964396386023
1.2198245525360107;-0.004706205944402666;1.2115638144580095e-05;-0.0007241616349070357;0.005231226620705546;-0.006960245415098135;-0.0008676257830747545;-1.1990138534730505e-26;-9.738614310549915e-28;-1.5980263782501196e-22;2.3808705676344757e-23;-7.924798763525513e-24;1.3127041734614275e-26;1.3905867885167926e-26;-1.704448996956891e-27;-1.5988593190667938e-22;2.378004335527754e-23;-0.0004027953515151791;5.060622362172317e-28;0.0001210048249734595;0.00011575684548056884;2.502274006337732e-06;-0.0017643113527711905;2.1501178471053718e-11;-2.280386267815399e-05;1.3544247378992432e-05;-1.2470408541315496e-05;1.24704085413153e-05;0.0010170467531835912;0.0003849190638292431;2.7978219813381272e-08;-0.0008633476333312294;0.0;0.0;0.0;-3.7397735407519996e-06;-0.0022149930996517263
1.2398402690887451;-0.005363415129103258;-0.0007798913792597506;-0.0008988739617630696;0.005259854675753774;-0.007855938882463966;0.0002466296135395253;-9.709890777726735e-27;-3.242446475716049e-27;-1.71234357120138e-22;2.3537651096194664e-23;-8.540360947891912e-24;1.6208351966671526e-26;2.754678454218959e-26;1.6127017285610378e-26;-1.714307942478415e-22;2.3485228525736008e-23;-0.0002939579389153829;3.186353413109574e-28;8.251575688395774e-05;8.08823935031413e-05;6.543415551222009e-06;-0.001738242107090178;2.2157956221988603e-11;-3.033383138813303e-05;1.0709047394902063e-05;-1.2919872706609328e-05;1.2919872706609314e-05;0.001065700669275616;0.0003964450616394509;2.4686776370220564e-08;-0.000912536151270954;0.0;0.0;0.0;-3.7810247052652865e-06;-0.0032134061870949466
1.2599546909332275;-0.005885312165066311;-0.0015506340870754531;-0.0010507965874282342;0.005332921732651397;-0.008570083984281884;0.0013243135082883642;-6.492120787945152e-27;-6.035220162542766e-27;-1.8033213527500065e-22;2.2439182442250715e-23;-9.052003245211396e-24;1.9620325143490726e-26;4.406162646124459e-26;3.834784748510215e-26;-1.8066654621212414e-22;2.2358134758852984e-23;-0.00015304743241822207;6.563743410352568e-29;4.804913069753597e-05;5.1076502662514026e-05;1.1486406467449496e-05;-0.0016662601867577416;2.2253048154525144e-11;-3.8963962212937745e-05;7.6099386822475675e-06;-1.3061310962270549e-05;1.3061310962270533e-05;0.0011191632180921787;0.00039690609649674157;1.9694542376732136e-08;-0.0009356340186492619;0.0;0.0;0.0;-3.71267589714099e-06;-0.004480480027658117
1.2798442840576172;-0.0063775648569914835;-0.002220571517099678;-0.0011888018686496485;0.005352758475915819;-0.009239775923580199;0.0022679231662381468;-2.2545607211432762e-27;-9.343370475771532e-27;-1.8605965345012123e-22;2.0355816927106923e-23;-9.408406152883473e-24;2.3278144345334467e-26;6.337258554857683e-26;6.499288695140035e-26;-1.8655648802899014e-22;2.02414448620815e-23;-6.715223929710772e-06;-2.5132373385296063e-28;1.808749954863719e-05;2.6861976597726772e-05;1.7321037406505576e-05;-0.0015440554791328197;2.1624360718711833e-11;-4.8555562846368774e-05;4.418596524373404e-06;-1.2954180093647333e-05;1.2954180093647774e-05;0.0011737596223487198;0.0003864122883345514;1.2807937533812738e-08;-0.0009354145736995521;0.0;0.0;0.0;-3.5101217945210592e-06;-0.005951843266892933
1.2999613285064697;-0.0068928432327117995;-0.0028078845193646907;-0.0013226812500991174;0.005085627643329406;-0.009915154229177015;0.0031400668891625183;3.2514889489095616e-27;-1.3290859353987955e-26;-1.874704675455366e-22;1.703532476776778e-23;-9.56537715451984e-24;2.7228262599332446e-26;8.611578454248527e-26;9.708742678854071e-26;-1.8815972750388766e-22;1.688186640084845e-23;0.00012855130437095197;-6.480274391916652e-28;-8.099795871746604e-06;7.76403769188952e-06;2.425008282002631e-05;-0.0013627352280760894;2.0070288603238483e-11;-5.930590897755708e-05;1.1455164831055245e-06;-1.264227166281357e-05;1.2642271662814674e-05;0.0012270470539229074;0.00036674759035589866;3.5585534074681043e-09;-0.0009151128440164744;0.0;0.0;0.0;-3.138464484970576e-06;-0.007598085383738651
1.3198060989379883;-0.007188614985656275;-0.0032681544342369317;-0.0014110163160138706;0.004578155486927536;-0.010267848345542356;0.003871350299539918;1.0033365762018832e-26;-1.780341151223022e-26;-1.833518159316357e-22;1.2349232371420185e-23;-9.461484212133444e-24;3.131266933982269e-26;1.1184806546478198e-25;1.341668361164708e-25;-1.8426003304861352e-22;1.2151721990132378e-23;0.0002338407317035436;-1.1259687495846516e-27;-2.9921818478566705e-05;-5.692092938457799e-06;3.215239226098622e-05;-0.0011234443786658412;1.7433498162649488e-11;-7.088590914739072e-05;-2.0220156745023e-06;-1.2166332365389917e-05;1.2166332365389166e-05;0.0012732397663993231;0.0003391675637176968;-8.129129608386014e-09;-0.0008785498101248817;0.0;0.0;0.0;-2.575307643348017e-06;-0.00901997793246096
1.3397791385650635;-0.0073618944221220915;-0.0036402851138418713;-0.0014723266561536452;0.0038228654587212107;-0.010429983644881454;0.00451765296790068;1.8359513454655566e-26;-2.2999018096542752e-26;-1.7232389101267104e-22;5.9869702158606166e-24;-9.030892560507519e-24;3.552882017235452e-26;1.4112101613700126e-25;1.7720273285885836e-25;-1.7348257728013335e-22;5.7395330769351995e-24;0.00029872389492944173;-1.6988358421275823e-27;-4.788899175884625e-05;-1.3759316738114901e-05;4.121176620390854e-05;-0.0008260601021710559;1.3455225027469167e-11;-8.341238226992983e-05;-5.018699521578119e-06;-1.1539200480891488e-05;1.1539200480892159e-05;0.001307868036435157;0.0003028914395472345;-2.278298938739857e-08;-0.0008284176176640026;0.0;0.0;0.0;-1.7763255152175083e-06;-0.009910884402234336
1.3597722053527832;-0.0074348578012984;-0.003817856889291713;-0.001500152088767795;0.0030495779236656547;-0.010455130679565295;0.004891851730719246;2.8346286757108143e-26;-2.886075772337158e-26;-1.5287174873116038e-22;-2.2758013479040448e-24;-8.19843779822552e-24;3.9755411179889126e-26;1.7379892959360187e-25;2.261952630834584e-25;-1.5431155444705945e-22;-2.5787545377811343e-24;0.0003118597099108941;-2.3738553060451053e-27;-6.185076910578106e-05;-1.6240105026034006e-05;5.1401802373892396e-05;-0.000482261392778887;7.91149973811886e-12;-9.666505169154987e-05;-7.73098428624667e-06;-1.0771846864366919e-05;1.077184686436738e-05;0.001324171317104757;0.00025965596990612885;-4.066838394104014e-08;-0.0007679441180533874;0.0;0.0;0.0;-7.062215314590212e-07;-0.009941434685403757
1.3798294067382812;-0.007443728905270807;-0.00382887164302271;-0.0015026501350482932;0.00221197762341611;-0.010388350889559519;0.005040768882993975;4.0148071882655255e-26;-3.540118180330029e-26;-1.2325466990371586e-22;-1.2715988858203868e-23;-6.878230842247574e-24;4.3867706036843746e-26;2.0983564033234077e-25;2.8133063506295267e-25;-1.2500628923421104e-22;-1.3079926878009151e-23;0.00026414729182140174;-3.1545152566456416e-27;-7.175665768065025e-05;-1.2991307822273928e-05;6.272959730625956e-05;-0.00011547244764980987;5.37303806486495e-13;-0.000110447985058569;-1.0092751769764091e-05;-9.860369792305642e-06;9.860369792306062e-06;0.0013145645388758335;0.00021253645670237195;-6.214135977134426e-08;-0.000699851686491993;0.0;0.0;0.0;6.77754371625814e-07;-0.009133756398257387
1.399792194366455;-0.007494933103971065;-0.0035181545767576164;-0.001481812519744908;0.0014156777222870981;-0.010387966422836872;0.004727667685894764;5.377117317983767e-26;-4.253490533555067e-26;-8.19787497676565e-23;-2.548884708241276e-23;-4.994524865135594e-24;4.7667955589341807e-26;2.4867762608183713e-25;3.420025025844613e-25;-8.40684462232659e-23;-2.5918223833738398e-23;0.00016389349480271174;-4.041480062590113e-27;-7.742609824372549e-05;-3.919370762197531e-06;7.504005503721831e-05;0.0002418066172081782;-8.851955496149524e-12;-0.00012434685061373942;-1.20342182260006e-05;-8.86753104279224e-06;8.867531042792612e-06;0.0012707103886199788;0.00016352869780419366;-8.728547062822185e-08;-0.0006273513669874162;0.0;0.0;0.0;2.4028469291290785e-06;-0.00783811697321229
1.419996738433838;-0.007392418697588362;-0.0030229646060113266;-0.0014201801075137016;0.0008155688479982514;-0.01019725433752208;0.0041229303978130225;6.953871200690542e-26;-5.0327053483519107e-26;-2.63302056299129e-23;-4.1073346255223486e-23;-2.414581841704494e-24;5.101470376440204e-26;2.905609604210812e-25;4.0892669005963205e-25;-2.87868785297822e-23;-4.1572962565389327e-23;3.5820732950678726e-05;-5.0494754000791284e-27;-7.873012090514508e-05;1.13446820944086e-05;8.843672930289308e-05;0.0005748570656010645;-2.068978087756698e-11;-0.0001381974496674269;-1.3542258876087533e-05;-7.878328497329607e-06;7.878328497329144e-06;0.001181785363327396;0.00011212087885664325;-1.1678240815715175e-07;-0.0005516229221802601;0.0;0.0;0.0;4.54112258726704e-06;-0.0063634642449624575
1.4399757385253906;-0.0070104355922150485;-0.0024076177506578873;-0.0013043638304885753;0.00041715681340094416;-0.00964303414987396;0.003317138156259906;8.711494465324626e-26;-5.850714568013121e-26;4.433223198421715e-23;-5.932414405849925e-23;8.993341735204825e-25;5.359695513520355e-26;3.3389198502754345e-25;4.799134272193875e-25;4.1493094596681443e-23;-5.989603044339297e-23;-9.063390590923116e-05;-6.1543472004898046e-27;-7.539300412621073e-05;3.26107808237374e-05;0.00010243833391357832;0.0008630613658432009;-3.494522294122944e-11;-0.00015118853894265717;-1.4379583728392541e-05;-6.98609632621061e-06;6.986096326209383e-06;0.0010392976568487668;6.159181756213851e-05;-1.5009684958345777e-07;-0.0004765625205564838;0.0;0.0;0.0;7.079978638160054e-06;-0.004720952945401742
1.4597740173339844;-0.006376989555725307;-0.0016923533919826583;-0.00114052902430403;0.0002823944770510819;-0.008769374150111312;0.002328984878652708;1.0644993444913595e-25;-6.694798309078712e-26;1.3159858120647979e-22;-8.03727785308633e-23;5.028674495895239e-24;5.516342287892207e-26;3.778497360269014e-25;5.540244106185965e-25;1.283680393659795e-22;-8.101751486116905e-23;-0.0001945412646157924;-7.35018859250217e-27;-6.724544660574494e-05;5.9887521898151544e-05;0.00011681387512679318;0.0011012046177246342;-5.179340082757398e-11;-0.00016277845070678464;-1.423585468908508e-05;-6.237543607742173e-06;6.23754360774266e-06;0.0008390346987808171;1.531952181390838e-05;-1.872262308821159e-07;-0.0004038896410744936;0.0;0.0;0.0;1.0044550473046986e-05;-0.0028584829983631945
1.4798412322998047;-0.00559485065094224;-0.0008070679060009957;-0.0009379625293241;0.00031758223920048457;-0.00770965525272739;0.0010737343997823147;1.2790146996498348e-25;-7.566204356323395e-26;2.394753794037327e-22;-1.0485025200861405e-22;1.0171283679623281e-23;5.543000450132517e-26;4.223101691895631e-25;6.316128372226399e-25;2.358447345774086e-22;-1.0556808827966636e-22;-0.00026049979600899117;-8.650292808236911e-27;-5.369859825946998e-05;9.396419955266238e-05;0.00013156727669859624;0.0012914980332618595;-7.183232559785633e-11;-0.0001724972614964351;-1.281868301622305e-05;-5.653361677965305e-06;5.6533616779654e-06;0.0005877988953186813;-2.5760553188022375e-05;-2.2897137060868096e-07;-0.00033367033452412487;0.0;0.0;0.0;1.3532506987756014e-05;-0.0010028686244558066
1.5000371932983398;-0.004750749432737127;0.00010125263638937143;-0.000723636693319478;0.0002337537996910875;-0.0065538473288350415;-0.00019508518730978764;1.511936622831149e-25;-8.435810143473561e-26;3.696062050002444e-22;-1.3274861842041828e-22;1.6414900880403766e-23;5.397940638555002e-26;4.65508790897147e-25;7.103989335265817e-25;3.655813384480629e-22;-1.3353671658579e-22;-0.00027232258055174163;-1.0032778105655628e-26;-3.425847647246948e-05;0.00013487780523264878;0.00014617821481102184;0.0014314534310105305;-9.516723719410638e-11;-0.00017935504642564837;-9.859202218439285e-06;-5.259944848580071e-06;5.25994484858062e-06;0.00031178806517482617;-6.0504801372638606e-05;-2.7494165786147457e-07;-0.00026802732304553276;0.0;0.0;0.0;1.7553334423433468e-05;0.0009049618201834807
1.5249364376068115;-0.003541684448613549;0.0012490535130822433;-0.0004307631542319505;0.00015320056255621958;-0.004899944045682841;-0.0018020804121887234;1.8182932289942422e-25;-9.454322273848627e-26;5.6216189503627025e-22;-1.716241714944885e-22;2.5712923886459287e-23;4.9224215785389134e-26;5.140171179402063e-25;8.050957444261132e-25;5.5768431590431095e-22;-1.7248977703974103e-22;-0.00019863490799705512;-1.1807108062566112e-26;-1.5809706256858522e-06;0.00019446738017223314;0.00016309158130597308;0.0015367967143615079;-1.284505431461984e-10;-0.00018231421391275826;-3.795375394121354e-06;-5.0434562208736705e-06;5.043456220873806e-06;-2.6115987500399882e-05;-9.475159435907941e-05;-3.3648274984505113e-07;-0.00019602059458605157;0.0;0.0;0.0;2.3227232035925545e-05;0.0034138133262082973
1.5398273468017578;-0.002606958222442415;0.0019264482088357843;-0.00022378736654340436;0.0003221354211744196;-0.003640278494823188;-0.0027841263772349642;2.0091538072201023e-25;-1.0012978171617067e-25;6.950408413099518e-22;-1.9715781218242164e-22;3.2161187817780105e-23;4.4536275010708873e-26;5.3920706659531875e-25;8.586784033802248e-25;6.903210889967965e-22;-1.9806267562645888e-22;-0.00011465844685709325;-1.2881771754343659e-26;2.2860458577844105e-05;0.00023486583048603653;0.00017223249865573397;0.0015669425055609579;-1.5074587205465497e-10;-0.00018049117620526996;1.2105997056670143e-06;-5.038691914761615e-06;5.03869191476172e-06;-0.0002171409293006043;-0.00011140615577048558;-3.754654433114004e-07;-0.00015840599208188016;0.0;0.0;0.0;2.6994408124001916e-05;0.0048685969622674135
1.5599980354309082;-0.0011172179456814487;0.0027420797190175253;8.164431663863092e-05;0.00047990063258690724;-0.0016185126215113792;-0.003958156934467459;2.270892015731642e-25;-1.0662702918378976e-25;8.970810113879332e-22;-2.3419008005147585e-22;4.200980157960653e-23;3.546634003455865e-26;5.66025243364689e-25;9.238650740046497e-25;8.920902876107194e-22;-2.3513493546026267e-22;1.708826918131405e-05;-1.4311911148278844e-26;6.23518327882023e-05;0.00029499949281462006;0.00018262705894152702;0.0015742479320212093;-1.8370856500669486e-10;-0.00017236752872208598;7.911249910865484e-06;-5.123098182930179e-06;5.123098182930135e-06;-0.00045184023312732036;-0.00013131102821880216;-4.299106810287488e-07;-0.00011514240076952278;0.0;0.0;0.0;3.251703474626159e-05;0.006589507744780661
1.5799198150634766;0.0004186679693423277;0.0032104270479911953;0.00036198183684818725;0.0006595208594736864;0.0004693923054470304;-0.004644164486480638;2.5264949929551025e-25;-1.1136068321771755e-25;1.121810883160637e-21;-2.7314595894148376e-22;5.301952937863932e-23;2.294964211071498e-26;5.815389088122616e-25;9.76039833462346e-25;1.1166401061144514e-21;-2.741107119479142e-22;0.00014638084714529355;-1.565002152752839e-26;0.0001090123471481609;0.0003601029948723857;0.0001898162770507842;0.00154895498740491;-2.1919977604215046e-10;-0.0001592252797983945;1.3018358724608378e-05;-5.254376217615806e-06;5.254376217615773e-06;-0.0006506668530828836;-0.0001500140102038953;-4.844455999215983e-07;-8.206534877755109e-05;0.0;0.0;0.0;3.840367516771425e-05;0.007848498724620769
1.5999102592468262;0.0017585942862621976;0.0034720868954816768;0.0005929614876487465;0.0008141202356480158;0.002293135113696953;-0.00503447378335341;2.7712666846700916e-25;-1.138347843778414e-25;1.3720902190896044e-21;-3.1402015027465245e-22;6.53428131396273e-23;6.284147451423409e-27;5.827338409389544e-25;1.0113189683100338e-24;1.3668552319399736e-21;-3.149794527846192e-22;0.00025644969815010165;-1.6852741538805808e-26;0.0001639200388403004;0.00043047647890632313;0.00019291150820140103;0.0014971371559398916;-2.574040478460458e-10;-0.000144084257215531;1.6797673155224367e-05;-5.467701723261884e-06;5.467701723261979e-06;-0.0008141094179659879;-0.00016765540355633573;-5.38413003559132e-07;-5.952880071865784e-05;0.0;0.0;0.0;4.467181365141808e-05;0.008852005949777524
1.6197969913482666;0.0029585540143816946;0.0034878575063428474;0.0007795666425415312;0.0011573203084346063;0.003910014691308335;-0.00510740848924805;2.992435073674757e-25;-1.1335553808566149e-25;1.6444381148822222e-21;-3.5565473626834787e-22;7.882279121460928e-23;-1.4937855234859146e-26;5.658114108069381e-25;1.023844494657229e-24;1.6392876428428852e-21;-3.5657682857996875e-22;0.00033120267773887685;-1.7836341363000152e-26;0.0002269273501131678;0.0005045660029329279;0.00019071660570865197;0.0014252456054378796;-2.9747599171343233e-10;-0.00012921349759371584;1.9344098471703725e-05;-5.868777445131836e-06;5.868777445131255e-06;-0.0009402375566496109;-0.00018196060228179887;-5.894727225615799e-07;-4.867125235077194e-05;0.0;0.0;0.0;5.1166712827531815e-05;0.009762325104545585
1.639805793762207;0.003940798900520396;0.00324642309377055;0.000908721944386151;0.0016940999931135301;0.005212837679544716;-0.00484802166162086;3.1794099483739397e-25;-1.0914232383047072e-25;1.9396197560295145e-21;-3.974654347569912e-22;9.351461509552255e-23;-4.153853766057678e-26;5.262375175702168e-25;1.0072780254952614e-24;1.9347408386179996e-21;-3.983107403012426e-22;0.0003587782279249509;-1.852402509239764e-26;0.00029898257246729654;0.0005819337209201891;0.00018453645551927696;0.0013382312854806281;-3.391547215605578e-10;-0.00011577727291331432;2.0774192790345376e-05;-6.624140701127057e-06;6.624140701127576e-06;-0.0010316242849055292;-0.00019202505333173106;-6.358771065083723e-07;-5.035149667137347e-05;0.0;0.0;0.0;5.78262450915316e-05;0.010405530836230872
1.6598429679870605;0.00476585989601867;0.002901007378902448;0.0010040249196691092;0.002239106953304874;0.006300254241229406;-0.004443409767734197;3.3156432034916245e-25;-1.0030611796561735e-25;2.25282376078713e-21;-4.379141794121511e-22;1.0919991847197854e-22;-7.401187345682197e-26;4.591686496850315e-25;9.54098872783334e-25;2.2484455189884663e-21;-4.3863495865347875e-22;0.0003279476402993137;-1.880953188151285e-26;0.0003798871678683798;0.0006605633561776767;0.0001777290687548898;0.0012418043751497878;-3.813049738489735e-10;-0.00010450731047263986;2.1123997272139206e-05;-7.937892857457338e-06;7.937892857456164e-06;-0.0010898940944685802;-0.00019754046880962684;-6.745599093872469e-07;-6.565644849393955e-05;0.0;0.0;0.0;6.444368598772865e-05;0.010874702456498637
1.679828405380249;0.005419389235220739;0.00228791453355318;0.0010480060097504394;0.0028879547850196707;0.007145751016149743;-0.0036771949509777913;3.3827642758276953e-25;-8.59430594153888e-26;2.5775729479856807e-21;-4.75190092129296e-22;1.2557833806871252e-22;-1.1274712717213937e-25;3.5974801809614267e-25;8.565472854928202e-25;2.573967046830487e-21;-4.757304543222523e-22;0.00023640375136860304;-1.857129811186052e-26;0.00046910601447646436;0.0007379975467610534;0.0001726405756985566;0.0011414041787092362;-4.225365038482723e-10;-9.553221790267196e-05;2.0417885860011497e-05;-9.977012351853697e-06;9.977012351854348e-06;-0.0011181284052027808;-0.00019893633696486577;-7.020935502945058e-07;-9.542965587166234e-05;0.0;0.0;0.0;7.077050316159118e-05;0.011261839152468646
1.699836015701294;0.005985943085917415;0.0015226580102616599;0.0010644706735768003;0.0035293355879195756;0.007874513137160434;-0.0026948224959537927;3.3606430621653305e-25;-6.498912051168331e-26;2.908046281145459e-21;-5.074354251329095e-22;1.4238560939990398e-22;-1.5833983954405618e-25;2.2213494929559022e-25;7.05546516578203e-25;2.905535128644789e-21;-5.0772963797756725e-22;0.00010043213299636394;-1.7679432081293035e-26;0.0005650323185810097;0.0008132744710783406;0.0001706946267155676;0.0010412585491145188;-4.6147743997052007e-10;-8.843366989862291e-05;1.878444835139473e-05;-1.1970427910250486e-05;1.1970427910250103e-05;-0.0011202266405220013;-0.0001971745347458908;-7.147766455119739e-07;-0.00014064258887018112;0.0;0.0;0.0;7.655694476003326e-05;0.011378013231575473
1.7199451923370361;0.006471582205184001;0.0007173229861959649;0.001064771102111609;0.00405413899086806;0.008503637028358029;-0.0016374951451277558;3.2250577213282037e-25;-3.6188336930648717e-26;3.2364895027782258e-21;-5.323325467259993e-22;1.5926583270095885e-22;-2.1141469568177814e-25;3.956245127717793e-26;4.904527628526736e-25;3.2354545715957516e-21;-5.323034788212323e-22;-5.506145268770822e-05;-1.5980104155052794e-26;0.0006646326936895154;0.000885987225397899;0.0001726276881215813;0.0009451198001179264;-4.963840761771034e-10;-8.242509908467658e-05;1.6422161079818852e-05;-1.311120329242852e-05;1.3111203292427333e-05;-0.0010999118686280812;-0.00019355722454295011;-7.081021550132878e-07;-0.00020245420372433387;0.0;0.0;0.0;8.14883171772721e-05;0.011338113707989062
1.739943504333496;0.0068717751866726896;6.389152574048418e-05;0.0010660342122709252;0.004505776746646858;0.0090201190956783;-0.0007837966002201188;2.9516347706837145e-25;1.2874146419385333e-27;3.5480972107642536e-21;-5.468458487622237e-22;1.7550523701760105e-22;-2.7165692539894726e-25;-1.92000306773625e-25;2.035579634981154e-25;3.548957300722004e-21;-5.46409900990744e-22;-0.00020779137341395436;-1.3326973012695004e-26;0.0007634377745246232;0.0009535696187785288;0.00017850185004642734;0.0008576289966826273;-5.246658748577842e-10;-7.647568180704141e-05;1.350001689745488e-05;-1.3487293302514527e-05;1.348729330251514e-05;-0.001061326689937512;-0.0001869097507604869;-6.772116279846912e-07;-0.000280925970527318;0.0;0.0;0.0;8.512303048123865e-05;0.01121075958102733
1.7598621845245361;0.007185568434276266;-0.00034193786332569826;0.0010769843434990515;0.004937438172254521;0.009416295882006888;-0.00027761345986045827;2.513802344766718e-25;4.854180470384266e-26;3.8297468518812726e-21;-5.479636795850761e-22;1.9047909965981804e-22;-3.391376310967159e-25;-4.781829676299977e-25;-1.6488988403047957e-25;3.832971299903295e-21;-5.470279861378865e-22;-0.00034144301634639465;-9.560813033749693e-27;0.0008580722519245759;0.0010133209463232846;0.00018782360315751546;0.0007816766276950876;-5.438561143972915e-10;-6.921733185168891e-05;1.0108356062446958e-05;-1.3172945782658012e-05;1.3172945782657674e-05;-0.0010084086033201752;-0.0001739732101293961;-6.169330129907155e-07;-0.00037650703084587137;0.0;0.0;0.0;8.70328853897961e-05;0.01102027544418895
1.7799761295318604;0.007369371627046472;-0.00047021728420336124;0.0010936515141855949;0.005194795128906932;0.009646382460093464;-0.00013686112828530778;1.8730785656084456e-25;1.0748990336612042e-25;4.068199406071479e-21;-5.31918765170609e-22;2.0357511047100913e-22;-4.1471618497845535e-25;-8.293259567915167e-25;-6.313503778311803e-25;4.074348074548862e-21;-5.303730925558729e-22;-0.0004439920937165998;-4.432589221800541e-27;0.0009459308354159573;0.0010619989441187111;0.00019982798816662052;0.0007190509294447046;-5.510791196264592e-10;-5.8926295675191855e-05;6.237773635162341e-06;-1.2276983828695929e-05;1.2276983828696823e-05;-0.0009438383694328699;-0.00015227522840073444;-5.200829327469955e-07;-0.0004910272022342165;0.0;0.0;0.0;8.670233917577279e-05;0.010777979735831377
1.799863576889038;0.007268648059353084;-0.0004451509732657956;0.001080586426089866;0.005241017263145572;0.009503148079385538;-0.00018036703220693166;1.0110585674951447e-25;1.7799233630222393e-25;4.239038927310448e-21;-4.95069757386841e-22;2.1358254389638484e-22;-4.963902406230462e-25;-1.2433312630218263e-24;-1.1961166713649493e-24;4.248659166375686e-21;-4.928082098470262e-22;-0.0005022983694700683;2.1323938086943682e-27;0.0010195865631298707;0.0010950319435214814;0.0002129445509722578;0.0006732867346385524;-5.427881486573942e-10;-4.405666532164699e-05;1.9749185943965095e-06;-1.0978522052266856e-05;1.0978522052266793e-05;-0.0008721413050875891;-0.00012096064165601626;-3.8232927669666356e-07;-0.0006221027963837617;0.0;0.0;0.0;8.355957680225984e-05;0.01021816162863674
1.8198437690734863;0.006900215942248575;-0.000205615035311897;0.0010460585065916166;0.005031232198889528;0.009013088485717387;-0.000487411650769934;-1.1781642317184081e-26;2.620975080194963e-25;4.3227228899516386e-21;-4.325581186272477e-22;2.1958024252975666e-22;-5.846694353194239e-25;-1.730972778809553e-24;-1.877104842705986e-24;4.336457560921642e-21;-4.294568943128522e-22;-0.0005083648625415222;1.0421870535408841e-26;0.0010743416946870843;0.0011109109114292167;0.00022567198422507645;0.0006453465242512936;-5.15111807134664e-10;-2.5470137017078447e-05;-2.58549436834139e-06;-9.360446297749576e-06;9.360446297749723e-06;-0.0007950647856454875;-7.898398567978177e-05;-1.949626531952615e-07;-0.0007713326604507029;0.0;0.0;0.0;7.692410243170777e-05;0.00905876570046533
1.8400654792785645;0.006232761077530135;-2.0507575026354785e-05;0.0009602299823657109;0.004510492557049492;0.008142132293188083;-0.0006688094934186108;-1.564101267939135e-25;3.6168524604962216e-25;4.2908901478832405e-21;-3.3831915974600485e-22;2.202070619949584e-22;-6.792212935386381e-25;-2.3015657888826842e-24;-2.6913452357092202e-24;4.3094671832537275e-21;-3.342393135002427e-22;-0.0004527731916273779;2.0730766583726025e-26;0.0011049376476358307;0.00110665400263206;0.0002360131615866495;0.000636953740245492;-4.629558157144331e-10;-6.374610104377387e-06;-7.1919385119280925e-06;-7.452586632037507e-06;7.452586632036678e-06;-0.0007143980045039474;-2.5701116516242276e-05;5.199694548829096e-08;-0.0009394390653439724;0.0;0.0;0.0;6.59213881960295e-05;0.007320080259997689
1.859954833984375;0.0054343431941145885;0.00012400835996509687;0.0008503807849885544;0.0036146040589174937;0.007127194781077728;-0.0007333877968840571;-3.3190308819674323e-25;4.745126274167086e-25;4.115812236971386e-21;-2.1007934046263045e-22;2.140421475210087e-22;-7.757514731353437e-25;-2.9407921359881268e-24;-3.6222394777012184e-24;4.1398442640385636e-21;-2.0490733235993312e-22;-0.0003458792550449251;3.294069433680853e-26;0.00110486759814449;0.0010780976087146868;0.00024135059582312953;0.0006492397655749502;-3.8328136789085006e-10;1.043399806209396e-05;-1.150339035755368e-05;-5.313651726884567e-06;5.3136517268866335e-06;-0.0006344990519717823;3.688985740419529e-05;3.5844895204730774e-07;-0.001120122104443293;0.0;0.0;0.0;5.01154370807723e-05;0.0053850050600710905
1.8798422813415527;0.004540016943995276;0.00024705235784169187;0.0007237102762148593;0.002238147171199969;0.006026165266323833;-0.0006913015776668876;-5.436624274129451e-25;6.0248185860178875e-25;3.76533689033757e-21;-4.11687250592743e-23;1.9953734087665706e-22;-8.73658353162242e-25;-3.657900585968e-24;-4.6872168036389116e-24;3.7955218180122716e-21;-3.4776110509825285e-23;-0.00020893900100411145;4.736358300080557e-26;0.001068262537323818;0.0010192930393402657;0.00023924668794526145;0.0006824998451478714;-2.7042250647768866e-10;2.390841328087914e-05;-1.5442741549734285e-05;-2.9846713763812376e-06;2.984671376379234e-06;-0.000555755395775332;0.00010873696777767915;7.351534295113371e-07;-0.0013138417454561463;0.0;0.0;0.0;2.8538367476234023e-05;0.0031766406474217023
1.89992094039917;0.003683207406222044;0.00029155527710580557;0.0005955392768622376;0.0005139535212693305;0.005010708139385729;-0.0004825793265407172;-7.97360129021358e-25;7.4708080505323515e-25;3.19702641176246e-21;1.7629920145342607e-22;1.7462665095145821e-22;-9.71154058482763e-25;-4.4592148376649285e-24;-5.900961242774783e-24;3.2341249442595854e-21;1.840504599078575e-22;-5.7655077016742325e-05;6.431403199732988e-26;0.000988088500186366;0.000922945775682302;0.00022660696818098958;0.0007375220551591252;-1.1738796207677094e-10;3.3456911225057194e-05;-1.8929244289961437e-05;-5.678630822996949e-07;5.678630823003105e-07;-0.0004788087151794378;0.00018942852169136838;1.1938395891800528e-06;-0.0015195929728505162;0.0;0.0;0.0;1.7790695044209067e-08;0.0006139536439611661
1.9198668003082275;0.002795283967721149;0.00011754361954712225;0.0004422253577512331;-0.00131838266438025;0.003965768820270574;5.247664885498255e-05;-1.0916931101750394e-24;9.055837158562743e-25;2.380088549443308e-21;4.446431973897769e-22;1.3772713549088785e-22;-1.06324751054309e-24;-5.327518878969118e-24;-7.243163580158033e-24;2.424722144427781e-21;4.538606567461061e-22;9.192474950183214e-05;8.363158529083943e-26;0.0008611561158462336;0.0007854966273962236;0.00020039346917362534;0.0008131899778570252;7.908719015016691e-11;3.880485867934276e-05;-2.1821429157409015e-05;1.83044303565064e-06;-1.8304430356507454e-06;-0.0004059865233016866;0.00027609082273335924;1.7338402409595652e-06;-0.0017300294529818253;0.0;0.0;0.0;-3.590685439073378e-05;-0.002009672150809492
1.9399571418762207;0.0020031115877769306;-0.00012167531725915256;0.0002976472408556159;-0.003332959964698715;0.0030706079158016857;0.0007091142898008008;-1.4328205897631927e-24;1.0791595260569675e-24;1.2608023842277639e-21;7.732009110005791e-22;8.62075837466832e-23;-1.1469742910679416e-24;-6.2666853460670885e-24;-8.72652483036307e-24;1.31363692294314e-21;7.83997163668202e-22;0.00023089810518858316;1.056378831987976e-25;0.0006828632246679387;0.000601120170501116;0.0001623364449872445;0.0009097000693087016;3.2750992277095744e-10;4.037428060284855e-05;-2.3941422642680493e-05;4.221853970225539e-06;-4.221853970225985e-06;-0.00033710107180943304;0.00036790870186545634;2.3682619324093933e-06;-0.0019427363732164489;0.0;0.0;0.0;-8.064565806230887e-05;-0.004528159289859495
1.9599738121032715;0.0013221757733706849;-0.00040351357106206914;0.0001662966516034933;-0.005098772360101615;0.0023054357294335285;0.0013867739954617217;-1.8184000333609554e-24;1.264225339360914e-24;-1.9389474677529075e-22;1.1638676295213007e-21;1.83536998957005e-23;-1.2163268137332542e-24;-7.25442150050163e-24;-1.0323839687970892e-23;-1.323751608933245e-22;1.1763160067850052e-21;0.00034902763796057203;1.3008965657227338e-25;0.0004661926268810063;0.00038149920331803834;0.00011918575193355755;0.0010246329299038713;6.310700265488608e-10;3.883575100011124e-05;-2.4933545148229696e-05;6.5304864824002835e-06;-6.53048648240077e-06;-0.00027350823923139944;0.0004614840398331693;3.0947853864319027e-06;-0.002148732919110035;0.0;0.0;0.0;-0.00013462500842194655;-0.006723450719495868
1.9801254272460938;0.0009002625030484139;-0.0007428969909440173;6.961041510833995e-05;-0.006548877410086976;0.0018672862452305261;0.00209642284752343;-2.252650719514276e-24;1.4600967232612397e-24;-2.0459424203542985e-21;1.6256005025681665e-21;-6.891285578482598e-23;-1.2659218187109504e-24;-8.283598900683502e-24;-1.2033301061351486e-23;-1.9753006790411348e-21;1.6397602416477234e-21;0.00044037945258439267;1.5715819423916356e-25;0.00023154871245215105;0.00014536779560826032;7.488844242205325e-05;0.001157068740788443;9.986149468331017e-10;3.516585256114479e-05;-2.4525317673887968e-05;8.704198967296733e-06;-8.704198967295949e-06;-0.00021496435232965644;0.0005548854819611908;3.923644200340614e-06;-0.0023418095544141325;0.0;0.0;0.0;-0.0001992633753704038;-0.00843110474570678
1.9999971389770508;0.0007465068535550032;-0.0009297890343160965;2.8517694441424536e-05;-0.007814690852558155;0.0017782388843628658;0.002561794439743231;-2.7246899688425188e-24;1.659055940597417e-24;-4.296923490178529e-21;2.1517132671786055e-21;-1.7584116302068582e-22;-1.2881178867736313e-24;-9.309733515809765e-24;-1.3791976755892344e-23;-4.217099137998933e-21;2.167567194166718e-21;0.0004977086204598259;1.8605484895232318e-25;2.4318777523387396e-06;-8.55512808956219e-05;3.3047630145646394e-05;0.0013011689646220742;1.4266975685066248e-09;3.066940147544031e-05;-2.2509191874704965e-05;1.0666716688914183e-05;-1.0666716688914443e-05;-0.00016284654165940978;0.0006428649626791618;4.836453285845754e-06;-0.002508339137926856;0.0;0.0;0.0;-0.0002738044168421409;-0.009474015236566834
2.0198564529418945;0.0006844793744625891;-0.001059580395614092;6.908148171235395e-06;-0.00895157812029407;0.001802307427600972;0.002926108268386572;-3.2366897472469027e-24;1.8589088173607698e-24;-7.010050190874384e-21;2.7500074440556024e-21;-3.056058158732794e-22;-1.2759635213816578e-24;-1.0316972291478914e-23;-1.5585839494671716e-23;-6.92110347209584e-21;2.7675092656676517e-21;0.0005177301691768543;2.167954827718715e-25;-0.0002100375866887449;-0.0003020811771197059;-5.567563419413696e-06;0.0014547542797049868;1.9236354450266634e-09;2.6692845275819958e-05;-1.8691452433855864e-05;1.2432530299510666e-05;-1.24325302995111e-05;-0.00011644024933384155;0.0007228236702039182;5.8400441055487395e-06;-0.0026394469269609396;0.0;0.0;0.0;-0.00035954219975371495;-0.010050650114740498
2.0398473739624023;0.0006911811016626064;-0.001214359625890396;-6.402307347230303e-06;-0.009723595225318004;0.0018867022760054807;0.003267872352008274;-3.787336150079371e-24;2.055032003915657e-24;-1.024833742180173e-20;3.426069219633841e-21;-4.614254958729492e-22;-1.2201582933697361e-24;-1.1275469335992846e-23;-1.738098288855736e-23;-1.0150567856812747e-20;3.4451195201231276e-21;0.0004960606064533577;2.491458001182235e-25;-0.0003988312931998121;-0.0004966845463087936;-4.0881670367287184e-05;0.00161416296550692;2.4965563490234223e-09;2.4758060993829446e-05;-1.2846605496882368e-05;1.4008024150052125e-05;-1.4008024150051396e-05;-7.54832456913256e-05;0.0007907734136395232;6.935318857189598e-06;-0.0027220605431917083;0.0;0.0;0.0;-0.0004575156291932507;-0.010328659852557357
2.0599007606506348;0.0007615770738521324;-0.001154949416456321;1.0031181768216743e-05;-0.010173374935056614;0.0020252486013877407;0.003255416025753078;-4.3672513471312506e-24;2.239093919410316e-24;-1.404172675744401e-20;4.177045007484129e-21;-6.449652977001759e-22;-1.1102996056251144e-24;-1.2135760028751563e-23;-1.9111207046689673e-23;-1.3935846601003047e-20;4.197458553587493e-21;0.000428371019183282;2.8236851688122585e-25;-0.0005591569100834221;-0.0006619561842714525;-7.323039471915913e-05;0.0017728863792342226;3.145921294874723e-09;2.657475054043474e-05;-6.679683289628968e-06;1.5400101296658434e-05;-1.5400101296658617e-05;-4.0164623728178295e-05;0.000841135003800429;8.107854350465555e-06;-0.0027393135329662963;0.0;0.0;0.0;-0.0005675870499966334;-0.010484598431823337
2.079977035522461;0.0010027509003685143;-0.0009176089641232135;6.938277862808889e-05;-0.010484656452893017;0.0023829858070535375;0.002969664149254655;-4.964420899198252e-24;2.4013943121604658e-24;-1.841182495472034e-20;4.9975762462544855e-21;-8.575080968492447e-22;-9.352988783898485e-25;-1.2841008997056496e-23;-2.069873529087638e-23;-1.8299023425275308e-20;5.019069591261802e-21;0.0003109786258851669;3.1555130293255685e-25;-0.0006890705413515892;-0.0007942215536996338;-0.00010369725996282264;0.0019232774308107607;3.870310348246959e-09;3.3936322626307284e-05;-1.9057333083194266e-06;1.663335310597899e-05;-1.6633353105978733e-05;-1.0520338355338996e-05;0.0008678294043261236;9.338345759872354e-06;-0.0026726722220152795;0.0;0.0;0.0;-0.000689278967943869;-0.010673461987423229
2.0998051166534424;0.0013004250028062212;-0.0005646788010230509;0.00014821197758818855;-0.010530120815399575;0.0027916499034121474;0.0024781970034257633;-5.556274717777876e-24;2.5293089186685467e-24;-2.330405540160551e-20;5.867906156184015e-21;-1.096633867424525e-21;-6.870191520900365e-25;-1.332148971926825e-23;-2.203725996369102e-23;-2.318612444297397e-20;5.890077769968958e-21;0.0001552289992972272;3.4719527443893115e-25;-0.0007876054503012644;-0.0008915550705526631;-0.0001335367989226841;0.0020548978322800443;4.6556254316430236e-09;4.5661294737904536e-05;1.609122374024234e-06;1.764417106102718e-05;-1.7644171061027094e-05;1.3224910454059492e-05;0.0008644496978227797;1.0585783780718975e-05;-0.0025046084598685696;0.0;0.0;0.0;-0.000819981675044997;-0.010713648039795095
2.119839906692505;0.0015465922930811454;-0.00015906324023006433;0.00022398632830559107;-0.01024481903770634;0.0030974891810908334;0.001859329726614404;-6.137952584832263e-24;2.6129585833042986e-24;-2.882846254053405e-20;6.79617600489719e-21;-1.3680032431111886e-21;-3.4745788696642883e-25;-1.3514741453752854e-23;-2.305288727762047e-23;-2.8707699592401196e-20;6.818513844914296e-21;-1.725184383326795e-05;3.767111986030916e-25;-0.0008586166790665194;-0.0009573801795669716;-0.0001654723936872191;0.002160593790144548;5.513456553400559e-09;5.871170969612941e-05;4.103116734869727e-06;1.8337840860385885e-05;-1.8337840860386247e-05;3.170585357781254e-05;0.0008264385608502031;1.1847391765649373e-05;-0.002209274653833966;0.0;0.0;0.0;-0.0009613244434773239;-0.010447488966651274
2.1398518085479736;0.001599494306315231;0.00021718271965410845;0.0002671627980807208;-0.009608576105543856;0.0031048461818145422;0.0012255125344487832;-6.67983273520201e-24;2.6359262843191982e-24;-3.491086596851285e-20;7.756199693615971e-21;-1.6683104782247957e-21;9.371957126570666e-26;-1.3330267965221787e-23;-2.3607198731448454e-23;-3.479035146721123e-20;7.778038560807033e-21;-0.00017912270386543223;4.021342381468995e-25;-0.0009032011415352926;-0.0009928360772885306;-0.0001983148018729591;0.00222698978871117;6.424996084231091e-09;7.066085625943429e-05;5.663928474899468e-06;1.86122357681135e-05;-1.8612235768113665e-05;4.468261937655137e-05;0.0007506968686804259;1.3069229243142132e-05;-0.0017962872152536076;0.0;0.0;0.0;-0.0011098366441179466;-0.009732456650172958
2.1597774028778076;0.0014606554346602383;0.0005923975320765342;0.00028061614977717376;-0.00889328811318239;0.002841135093961744;0.0005800074017609228;-7.153083457904947e-24;2.5818266361648393e-24;-4.148584116327433e-20;8.723175027973593e-21;-1.9946820882454976e-21;6.474893419765912e-25;-1.2677309066202462e-23;-2.3562581316532872e-23;-4.136943879793549e-20;8.74369588072036e-21;-0.0003094400510333989;4.215372306806326e-25;-0.0009242084036045699;-0.0010012236371305236;-0.00022874487240727735;0.002240776028512335;7.372749594055914e-09;7.997430473318719e-05;6.404280040629136e-06;1.8398503289250715e-05;-1.8398503289250718e-05;5.2170588200213834e-05;0.000633157296397547;1.419911979307599e-05;-0.0013030050852748357;0.0;0.0;0.0;-0.0012622616572743758;-0.008744373448806107
2.1799161434173584;0.0010602466273231545;0.0008750952266219313;0.00024504007312901594;-0.008017201509790257;0.0022039131965115085;3.9049104867946085e-05;-7.53088589625404e-24;2.4298827864642326e-24;-4.8586815708536356e-20;9.683633140706469e-21;-2.349230425585937e-21;1.3366223382891255e-24;-1.1434760316738339e-23;-2.2751611235637142e-23;-4.84794082430906e-20;9.701808034164576e-21;-0.000392946426152956;4.329253254861695e-25;-0.0009247975123099602;-0.000986162195690041;-0.0002550912507444019;0.002186216342958222;8.351769384100194e-09;8.586270919929926e-05;6.421018515195442e-06;1.7627979638755427e-05;-1.7627979638754004e-05;5.419735382476309e-05;0.00047190964577670084;1.5193232861552294e-05;-0.0007585984237392972;0.0;0.0;0.0;-0.0014172671939722866;-0.007929147995093347
2.19986891746521;0.000524314565999396;0.0010471401965634459;0.00017823844120404476;-0.006870439602177838;0.001356316567670388;-0.000388799617375636;-7.7672036267261e-24;2.161995092223184e-24;-5.597202397361955e-20;1.0583997945843775e-20;-2.7203986785375453e-21;2.16032439932212e-24;-9.511190352180514e-24;-2.101205405420261e-23;-5.587932130439953e-20;1.0598649193906796e-20;-0.00041430753159286943;4.335300332389808e-25;-0.000907971087675401;-0.0009518562090702859;-0.00027562528706668763;0.002049906125594534;9.317633845269595e-09;8.779773523398985e-05;5.83047869561608e-06;1.626392651403196e-05;-1.6263926514031878e-05;5.063095155006843e-05;0.0002846693057917479;1.5961431431277515e-05;-0.00021150771141835597;0.0;0.0;0.0;-0.0015671831268777303;-0.007394085123968228
2.219938039779663;4.818600825621108e-05;0.0011607032030921229;0.0001152432912355045;-0.005690098579347516;0.0005885733945441396;-0.0007390230906885085;-7.82149043386095e-24;1.751609466239272e-24;-6.360939077313239e-20;1.1395494509793904e-20;-3.1071875351359634e-21;3.1420109808737462e-24;-6.755654851030108e-24;-1.8125338141829465e-23;-6.353838887968467e-20;1.1405186268364994e-20;-0.0003660084994322503;4.205099465733676e-25;-0.0008765572889472846;-0.0009019754275312434;-0.0002901400593889707;0.0018160748257641253;1.0252940044050149e-08;8.580276688766821e-05;4.767226670315996e-06;1.4242480467577611e-05;-1.4242480467576705e-05;4.131587610430875e-05;8.912258653317727e-05;1.6433332287128975e-05;0.0003160052432858758;0.0;0.0;0.0;-0.0017085084645395918;-0.006855065970631247
2.239875078201294;-0.00033481006322531057;0.0012532875624847871;6.468958239735283e-05;-0.004655870509752243;-3.7026745653458894e-05;-0.0010360032842236667;-7.64296500230131e-24;1.1794858314070073e-24;-7.121980452790336e-20;1.2057762738970249e-20;-3.496218216859256e-21;4.2791417241328964e-24;-3.0721545549445382e-24;-1.3917736310930674e-23;-7.117837328956627e-20;1.206090270293998e-20;-0.0002597798568480679;3.90834934421501e-25;-0.0008337087258979151;-0.0008411383104625123;-0.00029840576184123556;0.0014797097905146458;1.1107197024910059e-08;8.017551844330684e-05;3.3570483898233367e-06;1.1483637912737963e-05;-1.1483637912737065e-05;2.6201011698907544e-05;-9.803763011187092e-05;1.6508897912567607e-05;0.0007958157659215396;0.0;0.0;0.0;-0.0018325592681231492;-0.006049433969714079
2.2598931789398193;-0.000619523003440256;0.0011303592547750483;9.26021678316078e-06;-0.00358161914911519;-0.0005282091351471906;-0.0010340614546435348;-7.173674029975615e-24;4.140814041138779e-25;-7.864815035633866e-20;1.2518551436239486e-20;-3.880516512563392e-21;5.5906134444512856e-24;1.712508090356988e-24;-8.122582438008774e-24;-7.864566093230537e-20;1.2513254627263001e-20;-0.00012152517263781729;3.4070019810361433e-25;-0.0007815061150896003;-0.0007726141343594989;-0.000300820736957168;0.0010546648075038948;1.1842407880216027e-08;7.137094010864904e-05;1.677623700496445e-06;8.701701175919757e-06;-8.701701175919796e-06;4.936327677343233e-06;-0.00026913311910024774;1.6082091470412583e-05;0.0012182446268499871;0.0;0.0;0.0;-0.0019323654231429817;-0.004730770110322223
2.2798492908477783;-0.0007310839138729006;0.000989088292463139;-2.11365007331572e-05;-0.00240524230891384;-0.0007907743562129284;-0.001021889852429699;-6.354040762389963e-24;-5.661849179953043e-25;-8.55502288927434e-20;1.270534122061757e-20;-4.243536536039719e-21;7.071214661668321e-24;7.704439077554459e-24;-5.4305965077236835e-25;-8.559702607712262e-20;1.2689550799111985e-20;2.317729228393433e-05;2.6657638464836465e-25;-0.0007224688587471374;-0.0007005338656447623;-0.0002978735835275431;0.0005830489663868351;1.2397325377363582e-08;6.0123500878939094e-05;-1.8576167290980091e-07;6.634058166520322e-06;-6.634058166520406e-06;-2.2567621886645478e-05;-0.0004169327637692039;1.5034714774086573e-05;0.0015704172309602732;0.0;0.0;0.0;-0.001997437586222267;-0.00297436507750552
2.299837827682495;-0.0006257357874367396;0.0007668839514504162;-2.5577342930547958e-05;-0.0011943890500854147;-0.000757252007630951;-0.0009000583349142142;-5.112582813770706e-24;-1.792653348617478e-24;-9.160577144260893e-20;1.2540559185248773e-20;-4.5701315405344154e-21;8.727045902810508e-24;1.506705299938358e-23;9.095768575686505e-24;-9.171365408728033e-20;1.2511947370724402e-20;0.00015499294303547822;1.640557146426505e-25;-0.0006581605217785451;-0.0006279999287884286;-0.0002902206893121269;0.00010307705760549877;1.2709597831597765e-08;4.720511332481647e-05;-2.1806951927939177e-06;5.063729569898322e-06;-5.063729569898281e-06;-5.666646291705616e-05;-0.0005390158923962683;1.3229565104967307e-05;0.0018504464394480742;0.0;0.0;0.0;-0.002016858583360004;-0.0008179498526011291
2.3199148178100586;-0.0004075984979381668;0.000595984274738136;-7.825743572066489e-06;-8.985916324711447e-05;-0.0005593731745017085;-0.0008335845163460013;-3.3681352373032356e-24;-3.2978709755805228e-24;-9.639940850657053e-20;1.1930858093998192e-20;-4.8404781911753934e-21;1.0558157367242888e-23;2.396576504273424e-23;2.1084460317625044e-23;-9.658166710662794e-20;1.1886825569841526e-20;0.00025781471228369707;2.8222407865325485e-26;-0.0005898462411686603;-0.0005580187072673883;-0.00027853574567056306;-0.0003554511745291961;1.2702215443028393e-08;3.350407811456018e-05;-4.210275202906168e-06;3.8003957528159798e-06;-3.800395752816025e-06;-9.773991519272451e-05;-0.0006344691554762878;1.0508275815043258e-05;0.0020592765364107297;0.0;0.0;0.0;-0.001977301630516282;0.0016902513925601455
2.3398661613464355;-5.283814381521601e-05;0.0003516697834064621;2.4191957369194618e-05;0.0008441438715423974;-0.0001564456367545632;-0.0006357230606194987;-1.0636222486979552e-24;-5.0901793112410285e-24;-9.939139536667611e-20;1.078539267238915e-20;-5.028066936276001e-21;1.2531533551692418e-23;3.442042994445678e-23;3.5523618968549675e-23;-9.966160533993386e-20;1.0723322212202323e-20;0.00031738351650876183;-1.4381538244231674e-25;-0.0005207451512795217;-0.0004929227335626795;-0.00026370664634306034;-0.0007671011613035225;1.2291285830394996e-08;2.0191208137162165e-05;-6.114548985609834e-06;2.6404389206735596e-06;-2.6404389206729684e-06;-0.00014550946632444926;-0.0007029315036875387;6.747176631728798e-06;0.0021989026840801233;0.0;0.0;0.0;-0.0018649399022599648;0.004149355398258007
2.359822988510132;0.00027880690766308124;7.11688789935812e-05;4.9288035502712166e-05;0.0018334965409479492;0.0002100068662802256;-0.0003954576536435479;1.8907149482750636e-24;-7.201236116798247e-24;-1.0004850310144585e-19;8.993412856112793e-21;-5.107225784365488e-21;1.463735796528904e-23;4.65852092835941e-23;5.270363307770638e-23;-1.0042166156930446e-19;8.910438553414364e-21;0.00032350918334238536;-3.5732886755462165e-25;-0.00045367578934774543;-0.0004325094575945554;-0.00024640323569027645;-0.0011223787013602397;1.1382773422567427e-08;8.280307338616046e-06;-7.788972808943322e-06;1.3363947371860007e-06;-1.3363947371859617e-06;-0.0002003285525728792;-0.0007468187478038461;1.7674600633081223e-06;0.0022770701606824855;0.0;0.0;0.0;-0.0016637063766198642;0.006214658165178392
2.3799052238464355;0.0005562644366860016;-0.0002535008571629884;6.192357039867978e-05;0.0027834573407896713;0.0005063688160136871;-8.649057592413891e-05;5.6003111329906604e-24;-9.665532048438675e-24;-9.769852736870109e-20;6.420161031473599e-21;-5.045472162168206e-21;1.685799891170567e-23;6.062331941677659e-23;7.294639677084752e-23;-9.819115997658317e-20;6.313156915121271e-21;0.0002664431194520311;-6.183892867074852e-25;-0.0003907988230075871;-0.0003769621897495313;-0.0002272011631386834;-0.0014163961267836887;9.860714321699672e-09;-1.1006104823935931e-06;-9.136818742667204e-06;-3.9126153034606226e-07;3.912615303450403e-07;-0.00026258354543392604;-0.0007686926450604529;-4.643186508817691e-06;0.0023013064924871525;0.0;0.0;0.0;-0.0013539032032789014;0.007538606166116235
2.399810791015625;0.0007866759460494843;-0.0005062637092650275;7.399777466904148e-05;0.0035499368998759967;0.0007543648642417833;0.00014985422283721826;1.0085004516493097e-23;-1.2457374954191028e-23;-9.166704203136907e-20;2.9845123437133935e-21;-4.808883488518936e-21;1.9117034327310827e-23;7.635206870957194e-23;9.608306869162695e-23;-9.229427197678564e-20;2.8506862936306477e-21;0.00015477650955701726;-9.26929640850308e-25;-0.00033492339499827144;-0.0003277489741492096;-0.00020703097903143047;-0.0016432151548813716;7.637487572690274e-09;-6.589565139824141e-06;-1.0045712915133138e-05;-1.9014224195551727e-06;1.90142241955458e-06;-0.00033114135256681924;-0.0007713101160444895;-1.255195639641287e-05;0.0022797287216259872;0.0;0.0;0.0;-0.0009601988861039649;0.008095921135396958
2.419767379760742;0.0009165492508798923;-0.0007222386799171492;7.398850016962282e-05;0.0038723296378995664;0.0009056718136197595;0.00040461873392096267;1.546286513650753e-23;-1.5610495894670304e-23;-8.111780479569465e-20;-1.4729370356547763e-21;-4.356847443372179e-21;2.138357893509589e-23;9.392172441612124e-23;1.2243917743699136e-22;-8.189620951763927e-20;-1.6366100526175058e-21;1.447731232633781e-05;-1.2895724353517158e-24;-0.0002867131606364381;-0.0002850198327705699;-0.00018624273922123147;-0.0018076604885857855;4.5732069976449445e-09;-6.989340807943999e-06;-1.0441789862828486e-05;-2.57262601938647e-06;2.572626019385884e-06;-0.0004063437069593823;-0.000758184101735998;-2.2200757373196413e-05;0.0022210911438765345;0.0;0.0;0.0;-0.0005289544886137477;0.007939224479734362
2.43986439704895;0.0008264816230183728;-0.000892902539770622;4.4252320990992896e-05;0.003875142163964836;0.0007842308438918867;0.0006457193260999708;2.1837723926592314e-23;-1.913929362609794e-23;-6.50557667680983e-20;-7.118792855289924e-21;-3.640470724168007e-21;2.359582426896224e-23;1.1336329912878114e-22;1.521922607706112e-22;-6.600240159978968e-20;-7.31536129636136e-21;-0.00012813444861018407;-1.711569989329302e-24;-0.00024699398532300096;-0.0002495311307392875;-0.0001652372410738818;-0.0019136023672081104;5.136759002179329e-10;-8.669906516496586e-07;-1.017748161683071e-05;-2.6763082039787867e-06;2.676308203978584e-06;-0.0004879753373353981;-0.0007324842814899865;-3.381522967337849e-05;0.0021331377961352426;0.0;0.0;0.0;-9.439129987911854e-05;0.007097016750770504
2.459899425506592;0.00048670663595892365;-0.0010065961180659713;-1.872129192335568e-05;0.003665374261879159;0.0003388119027314408;0.0008395821473480758;2.920524950018033e-23;-2.299303291177952e-23;-4.2668559372269004e-20;-1.4033014457831355e-20;-2.6184548450931822e-21;2.564245046199993e-23;1.3434295906392578e-22;1.8497744461457684e-22;-4.3797826222707943e-20;-1.4264929323001942e-20;-0.0002496113521617574;-2.190802511235111e-24;-0.00021676753870067208;-0.00022257896427076607;-0.00014465113631394958;-0.0019652153720378677;-4.63721490674003e-09;1.0610828905631097e-05;-9.066052178830605e-06;-2.4639769446417217e-06;2.4639769446406735e-06;-0.000574282795909899;-0.0006978268220488304;-4.742842503989794e-05;0.002024695278323767;0.0;0.0;0.0;0.00031362693269624024;0.005909830784211201
2.4798531532287598;-0.00016459943453747046;-0.0010468886476341077;-0.00012295150215457435;0.003260286167615469;-0.0005174598432876897;0.0009601084661123363;3.758406538848556e-23;-2.713204008399972e-23;-1.3058096429868332e-20;-2.231872966931416e-20;-1.2455067170492997e-21;2.741637863894513e-23;1.5658603187517511e-22;2.205253353299025e-22;-1.438226360280759e-20;-2.2587943489762838e-20;-0.0003322672752029739;-2.7266270307766218e-24;-0.00019619462087305873;-0.00020501163034808997;-0.0001248525370678212;-0.001969509100118601;-1.0993540987691925e-08;2.421465233076743e-05;-6.950463792718177e-06;-2.174101798551185e-06;2.174101798550779e-06;-0.0006637832776527593;-0.0006576547253248795;-6.31166060282403e-05;0.0019035816061063711;0.0;0.0;0.0;0.0006782855589776163;0.004688493527206737
2.4998691082000732;-0.000876255814789459;-0.0011280428159685843;-0.00024028063616677214;0.0029968741980567325;-0.0014694738438767584;0.001115870021134703;4.7046383848123283e-23;-3.153486360698863e-23;2.5003629153738086e-20;-3.21463596476641e-20;5.395809186054177e-22;2.880313711565979e-23;1.7990533987691184e-22;2.5873501342757467e-22;2.347361410583424e-20;-3.245446681729485e-20;-0.0003621368477902869;-3.321500236576177e-24;-0.00018507628859270952;-0.00019760993447839244;-0.00010598570359617752;-0.0019335301289894206;-1.8726906347301087e-08;3.773479107190521e-05;-3.66263779094689e-06;-2.024375243990765e-06;2.024375243990997e-06;-0.0007553064999114777;-0.0006148552103281251;-8.10633501255632e-05;0.0017757751168244237;0.0;0.0;0.0;0.0009922941177402562;0.0037036760244355017
2.51991868019104;-0.0017106679874917155;-0.0011570135297555675;-0.00037168314036140364;0.00270839420715999;-0.002588641038805399;0.0012015940150279995;5.75697093342954e-23;-3.612451175264818e-23;7.255902356404793e-20;-4.360784854331845e-20;2.790063616392069e-21;2.96482981740377e-23;2.0380424454132049e-22;2.990413698473126e-22;7.081619649242993e-20;-4.3955559607045327e-20;-0.0003299580727089839;-3.9715025930730605e-24;-0.0001832231853070856;-0.00020136405606709136;-8.83135508474277e-05;-0.001864065391767074;-2.7954974217744648e-08;4.954083521414699e-05;9.441653377072612e-07;-2.3003413243187413e-06;2.300341324317879e-06;-0.00084639398312098;-0.0005724438679835619;-0.00010128233128277127;0.0016474873389917995;0.0;0.0;0.0;0.0012500490948547454;0.002908482278758224
