flxalr/sts-optimization-reemc/input/477_104/augmented.txt
time, StatePelvisPosX, StatePelvisPosZ, StatePelvisRotY, StateHipRotY, StateKneeRotY, StateAnkleRotY, StateMiddleTrunkRotY, StateLShoulderRotY, StateLElbowRotY, StateRShoulderRotY, StateRElbowRotY, StateHeadRotY, StatePelvisVelX, StatePelvisVelZ, StatePelvisRotVelY, StateHipRotVelY, StateKneeRotVelY, StateAnkleRotVelY, StateMiddleTrunkRotVelY, StateLShoulderRotVelY, StateLElbowRotVelY, StateRShoulderRotVelY, StateRElbowRotVelY, StateHeadRotVelY, StateHipTorque, StateKneeTorque, StateAnkleTorque, StateMiddleTrunkTorque, StateShoulderTorque, StateElbowTorque, StateHeadTorque, ControlHipDTorque, ControlKneeDTorque, ControlAnkleDTorque, ControlMiddleTrunkDTorque, ControlShoulderDTorque, ControlElbowDTorque, ControlHeadDTorque, TauPelvisPosX, TauPelvisPosZ, TauPelvisRotY, Tauleg_3_joint, Tauleg_4_joint, Tauleg_5_joint, Tautorso_2_joint, Tauarm_1_joint, Tauarm_4_joint, Tauarm_1_joint, Tauarm_4_joint, Tauhead_2_joint, Heel_Fx, Heel_Fy, Heel_Fz, Toe_Fx, Toe_Fy, Toe_Fz, CoP, Hand_x, Hand_y, Hand_z, Box_Hand_Fx, Box_Hand_Fz, Box_Hand_Ty, Phase
0, -0.0305739, 0.719981, 0.1, -1.04621, 1.26653, -0.320314, 0.1, 0.23, 1, 0.23, 1, 0.03, 8.46594e-18, 3.14946e-18, 1.62438e-17, -2.79903e-18, -7.84723e-18, 9.68305e-19, -3.44377e-18, -6.36341e-19, 3.17377e-18, 2.00368e-18, -2.52932e-18, 1.79226e-18, 11.3682, -10.3816, -1.90983, -17.9969, 14.8227, 10.5177, -0.351319, 24.5995, -3.53767, 4.48421, -0.99265, -0.743324, 4.98067, 1.15248, 4.64027e-310, 0, 0, 11.3682, -10.3816, -1.90983, -17.9969, 7.41135, 5.25886, 7.41135, 0, 0, -19.5833, 0, 83.9573, 0, 0, 42.0145, 2.84852e-05, 0, 0, 0, 0, 0, 0, 0
0.000154153, -0.0305739, 0.719981, 0.1, -1.04621, 1.26653, -0.320314, 0.1, 0.23, 1, 0.23, 1, 0.0299998, 8.35218e-05, -8.38014e-06, 0.000584834, -0.000584834, -5.61993e-18, 2.13071e-18, -0.000196892, -2.85176e-07, -2.80632e-05, -1.05828e-06, -2.70311e-05, -0.0017373, 11.3721, -10.3821, -1.90913, -17.997, 14.8226, 10.5185, -0.351139, 25.3292, -3.77926, 4.54528, -1.28308, -0.798138, 4.95647, 1.18046, 4.64027e-310, 0, 0, 11.3721, -10.3821, -1.90913, -17.997, 7.41129, 5.25924, 7.41129, 0, 0, -19.5785, 0, 83.975, 0, 0, 42.0247, 2.95564e-05, 0, 0, 0, 0, 0, 0, 0
0.000308305, -0.0305739, 0.719981, 0.1, -1.04621, 1.26653, -0.320314, 0.0999999, 0.23, 1, 0.23, 1, 0.0299994, 0.000166998, -1.67557e-05, 0.00116935, -0.00116935, -4.91375e-18, 2.20603e-18, -0.000393108, -5.91572e-07, -5.53335e-05, -2.13774e-06, -5.32694e-05, -0.00347404, 11.376, -10.3828, -1.90842, -17.9973, 14.8224, 10.5192, -0.350954, 26.0588, -4.02085, 4.60635, -1.57351, -0.852952, 4.93227, 1.20845, 4.64027e-310, 0, 0, 11.376, -10.3828, -1.90842, -17.9973, 7.41122, 5.25962, 7.41122, 0, 0, -19.5736, 0, 83.9931, 0, 0, 42.0351, 3.06091e-05, 0, 0, 0, 0, 0, 0, 0
0.000462458, -0.0305739, 0.719981, 0.1, -1.04621, 1.26653, -0.320314, 0.0999999, 0.23, 1, 0.23, 1, 0.0299987, 0.000250426, -2.51265e-05, 0.00175352, -0.00175352, -8.62385e-19, 3.27175e-18, -0.000588602, -9.2047e-07, -8.17585e-05, -3.23963e-06, -7.86626e-05, -0.00521011, 11.3801, -10.3834, -1.90771, -17.9975, 14.8223, 10.52, -0.350766, 26.7885, -4.26245, 4.66741, -1.86394, -0.907766, 4.90807, 1.23644, 4.64027e-310, 0, 0, 11.3801, -10.3834, -1.90771, -17.9975, 7.41115, 5.26, 7.41115, 0, 0, -19.5686, 0, 84.0118, 0, 0, 42.0458, 3.16418e-05, 0, 0, 0, 0, 0, 0, 0
0.000616611, -0.0305738, 0.719981, 0.100001, -1.04622, 1.26653, -0.320314, 0.0999998, 0.23, 1, 0.23, 1, 0.0299978, 0.000333802, -3.34922e-05, 0.00233734, -0.00233734, 7.39988e-19, 2.09652e-18, -0.000783353, -1.27239e-06, -0.000107314, -4.36448e-06, -0.000103186, -0.00694543, 11.3843, -10.3841, -1.90699, -17.9978, 14.8222, 10.5208, -0.350573, 27.5182, -4.50404, 4.72848, -2.15436, -0.96258, 4.88387, 1.26442, 4.64027e-310, 0, 0, 11.3843, -10.3841, -1.90699, -17.9978, 7.41108, 5.26038, 7.41108, 0, 0, -19.5635, 0, 84.0311, 0, 0, 42.0567, 3.26536e-05, 0, 0, 0, 0, 0, 0, 0
0.000770764, -0.0305738, 0.719981, 0.100001, -1.04622, 1.26653, -0.320314, 0.0999996, 0.23, 1, 0.23, 1, 0.0299966, 0.000417128, -4.18529e-05, 0.0029208, -0.0029208, -1.51373e-18, 6.04153e-18, -0.000977368, -1.64692e-06, -0.000132009, -5.51186e-06, -0.00012685, -0.00867992, 11.3886, -10.3848, -1.90625, -17.9982, 14.822, 10.5215, -0.350376, 28.2478, -4.74564, 4.78955, -2.44479, -1.01739, 4.85967, 1.29241, 4.64027e-310, 0, 0, 11.3886, -10.3848, -1.90625, -17.9982, 7.41101, 5.26075, 7.41101, 0, 0, -19.5583, 0, 84.0509, 0, 0, 42.0679, 3.36447e-05, 0, 0, 0, 0, 0, 0, 0
0.000924916, -0.0305737, 0.719981, 0.100002, -1.04622, 1.26653, -0.320314, 0.0999995, 0.23, 1, 0.23, 1, 0.0299951, 0.000500403, -5.02087e-05, 0.00350391, -0.00350391, -5.56191e-18, 1.18895e-17, -0.00117066, -2.04369e-06, -0.000155853, -6.68141e-06, -0.000149663, -0.0104135, 11.393, -10.3855, -1.90551, -17.9986, 14.8219, 10.5223, -0.350175, 28.9775, -4.98723, 4.85061, -2.73522, -1.07221, 4.83547, 1.32039, 4.64027e-310, 0, 0, 11.393, -10.3855, -1.90551, -17.9986, 7.41093, 5.26113, 7.41093, 0, 0, -19.553, 0, 84.0713, 0, 0, 42.0793, 3.46149e-05, 0, 0, 0, 0, 0, 0, 0
0.00107907, -0.0305736, 0.719981, 0.100002, -1.04622, 1.26653, -0.320314, 0.0999993, 0.23, 1, 0.23, 1, 0.0299934, 0.000583628, -5.85594e-05, 0.00408666, -0.00408666, -5.72885e-18, 9.46521e-18, -0.00136323, -2.46207e-06, -0.000178863, -7.87247e-06, -0.000171642, -0.0121461, 11.3975, -10.3863, -1.90476, -17.999, 14.8217, 10.523, -0.349969, 29.7072, -5.22883, 4.91168, -3.02565, -1.12702, 4.81127, 1.34838, 4.64027e-310, 0, 0, 11.3975, -10.3863, -1.90476, -17.999, 7.41084, 5.2615, 7.41084, 0, 0, -19.5476, 0, 84.0922, 0, 0, 42.091, 3.55642e-05, 0, 0, 0, 0, 0, 0, 0
0.00123322, -0.0305735, 0.719981, 0.100003, -1.04622, 1.26653, -0.320314, 0.099999, 0.23, 1, 0.23, 1, 0.0299914, 0.000666801, -6.69053e-05, 0.00466906, -0.00466906, -2.75702e-18, -1.26123e-19, -0.0015551, -2.90173e-06, -0.000201047, -9.08472e-06, -0.000192795, -0.0138777, 11.4022, -10.3871, -1.90399, -17.9995, 14.8215, 10.5237, -0.349759, 30.4369, -5.47042, 4.97275, -3.31608, -1.18184, 4.78707, 1.37637, 4.64027e-310, 0, 0, 11.4022, -10.3871, -1.90399, -17.9995, 7.41075, 5.26187, 7.41075, 0, 0, -19.5421, 0, 84.1136, 0, 0, 42.1029, 3.64927e-05, 0, 0, 0, 0, 0, 0, 0
0.00138737, -0.0305734, 0.719981, 0.100004, -1.04622, 1.26653, -0.320314, 0.0999988, 0.23, 1, 0.23, 1, 0.0299891, 0.000749925, -7.52463e-05, 0.0052511, -0.0052511, -1.20565e-18, -9.27208e-18, -0.00174626, -3.36235e-06, -0.000222413, -1.03178e-05, -0.000213131, -0.0156082, 11.4069, -10.388, -1.90322, -18.0001, 14.8213, 10.5245, -0.349544, 31.1665, -5.71201, 5.03381, -3.60651, -1.23665, 4.76287, 1.40435, 4.64027e-310, 0, 0, 11.4069, -10.388, -1.90322, -18.0001, 7.41066, 5.26224, 7.41066, 0, 0, -19.5365, 0, 84.1356, 0, 0, 42.115, 3.74003e-05, 0, 0, 0, 0, 0, 0, 0
0.00154153, -0.0305733, 0.719981, 0.100005, -1.04622, 1.26653, -0.320314, 0.0999985, 0.23, 1, 0.23, 1, 0.0299866, 0.000832997, -8.35824e-05, 0.00583279, -0.00583279, -7.13005e-19, -1.8777e-17, -0.00193673, -3.84353e-06, -0.000242972, -1.15714e-05, -0.00023266, -0.0173376, 11.4118, -10.3889, -1.90244, -18.0006, 14.8211, 10.5252, -0.349326, 31.8962, -5.95361, 5.09488, -3.89694, -1.29146, 4.73867, 1.43234, 4.64027e-310, 0, 0, 11.4118, -10.3889, -1.90244, -18.0006, 7.41056, 5.2626, 7.41056, 0, 0, -19.5308, 0, 84.1582, 0, 0, 42.1275, 3.8287e-05, 0, 0, 0, 0, 0, 0, 0
0.00169568, -0.0305732, 0.719981, 0.100005, -1.04622, 1.26653, -0.320314, 0.0999982, 0.23, 1, 0.23, 1, 0.0299838, 0.00091602, -9.19137e-05, 0.00641413, -0.00641413, -4.25505e-19, -2.61673e-17, -0.00212652, -4.34472e-06, -0.000262737, -1.28448e-05, -0.000251394, -0.0190657, 11.4167, -10.3898, -1.90165, -18.0013, 14.8209, 10.5259, -0.349103, 32.6259, -6.1952, 5.15595, -4.18737, -1.34628, 4.71447, 1.46033, 4.64027e-310, 0, 0, 11.4167, -10.3898, -1.90165, -18.0013, 7.41046, 5.26297, 7.41046, 0, 0, -19.525, 0, 84.1813, 0, 0, 42.1401, 3.91529e-05, 0, 0, 0, 0, 0, 0, 0
0.00184983, -0.030573, 0.719981, 0.100006, -1.04622, 1.26653, -0.320314, 0.0999978, 0.23, 1, 0.23, 1, 0.0299807, 0.000998992, -0.00010024, 0.00699512, -0.00699512, -3.85226e-20, -2.91901e-17, -0.00231564, -4.86542e-06, -0.00028172, -1.41377e-05, -0.000269348, -0.0207926, 11.4218, -10.3908, -1.90085, -18.0019, 14.8207, 10.5267, -0.348876, 33.3555, -6.4368, 5.21701, -4.4778, -1.40109, 4.69027, 1.48831, 4.64027e-310, 0, 0, 11.4218, -10.3908, -1.90085, -18.0019, 7.41035, 5.26333, 7.41035, 0, 0, -19.5191, 0, 84.205, 0, 0, 42.153, 3.99979e-05, 0, 0, 0, 0, 0, 0, 0
0.00200399, -0.0305729, 0.719981, 0.100008, -1.04622, 1.26653, -0.320314, 0.0999975, 0.23, 1, 0.23, 1, 0.0299774, 0.00108191, -0.000108562, 0.00757575, -0.00757575, 7.27251e-19, -3.3793e-17, -0.0025041, -5.40517e-06, -0.000299934, -1.54494e-05, -0.000286533, -0.022518, 11.427, -10.3918, -1.90004, -18.0026, 14.8205, 10.5274, -0.348644, 34.0852, -6.67839, 5.27808, -4.76822, -1.45591, 4.66607, 1.5163, 0, 0, 0, 11.427, -10.3918, -1.90004, -18.0026, 7.41024, 5.26369, 7.41024, 0, 0, -19.5131, 0, 84.2292, 0, 0, 42.1662, 4.0822e-05, 0, 0, 0, 0, 0, 0, 0
0.00215814, -0.0305727, 0.719981, 0.100009, -1.04622, 1.26653, -0.320314, 0.0999971, 0.23, 1, 0.23, 1, 0.0299737, 0.00116479, -0.000116879, 0.00815604, -0.00815604, 2.30887e-18, -4.29575e-17, -0.00269191, -5.96347e-06, -0.000317391, -1.67796e-05, -0.00030296, -0.0242421, 11.4323, -10.3929, -1.89923, -18.0034, 14.8203, 10.5281, -0.348408, 34.8149, -6.91999, 5.33915, -5.05865, -1.51072, 4.64187, 1.54428, 0, 0, 0, 11.4323, -10.3929, -1.89923, -18.0034, 7.41013, 5.26405, 7.41013, 0, 0, -19.507, 0, 84.254, 0, 0, 42.1796, 4.16252e-05, 0, 0, 0, 0, 0, 0, 0
0.00231229, -0.0305725, 0.719981, 0.10001, -1.04622, 1.26653, -0.320314, 0.0999966, 0.23, 1, 0.23, 1, 0.0299699, 0.00124761, -0.000125191, 0.00873598, -0.00873598, 4.56093e-18, -5.42658e-17, -0.00287907, -6.53985e-06, -0.000334102, -1.81277e-05, -0.000318642, -0.0259646, 11.4378, -10.394, -1.8984, -18.0042, 14.82, 10.5288, -0.348168, 35.5446, -7.16158, 5.40021, -5.34908, -1.56553, 4.61767, 1.57227, 0, 0, 0, 11.4378, -10.394, -1.8984, -18.0042, 7.41001, 5.26441, 7.41001, 0, 0, -19.5007, 0, 84.2793, 0, 0, 42.1933, 4.24075e-05, 0, 0, 0, 0, 0, 0, 0
0.00246644, -0.0305723, 0.719981, 0.100012, -1.04623, 1.26653, -0.320314, 0.0999962, 0.23, 1, 0.23, 1, 0.0299657, 0.00133038, -0.000133499, 0.00931557, -0.00931557, 7.31703e-18, -6.46687e-17, -0.0030656, -7.13386e-06, -0.000350079, -1.94933e-05, -0.000333591, -0.0276855, 11.4433, -10.3951, -1.89756, -18.0051, 14.8198, 10.5295, -0.347923, 36.2742, -7.40318, 5.46128, -5.63951, -1.62035, 4.59347, 1.60026, 0, 0, 0, 11.4433, -10.3951, -1.89756, -18.0051, 7.40989, 5.26476, 7.40989, 0, 0, -19.4944, 0, 84.3052, 0, 0, 42.2072, 4.3169e-05, 0, 0, 0, 0, 0, 0, 0
0.0026206, -0.0305721, 0.719981, 0.100013, -1.04623, 1.26653, -0.320314, 0.0999957, 0.23, 0.999999, 0.23, 0.999999, 0.0299613, 0.00141311, -0.000141802, 0.00989481, -0.00989481, 1.07401e-17, -7.46523e-17, -0.0032515, -7.74501e-06, -0.000365334, -2.08759e-05, -0.000347817, -0.0294048, 11.4489, -10.3962, -1.89671, -18.0059, 14.8195, 10.5302, -0.347675, 37.0039, -7.64477, 5.52235, -5.92994, -1.67516, 4.56927, 1.62824, 0, 0, 0, 11.4489, -10.3962, -1.89671, -18.0059, 7.40976, 5.26511, 7.40976, 0, 0, -19.488, 0, 84.3316, 0, 0, 42.2214, 4.39095e-05, 0, 0, 0, 0, 0, 0, 0
0.00277475, -0.0305719, 0.719981, 0.100015, -1.04623, 1.26653, -0.320314, 0.0999952, 0.23, 0.999999, 0.23, 0.999999, 0.0299567, 0.00149578, -0.000150101, 0.0104737, -0.0104737, 1.46986e-17, -8.36244e-17, -0.0034368, -8.37282e-06, -0.000379878, -2.22749e-05, -0.000361334, -0.0311224, 11.4547, -10.3974, -1.89586, -18.0069, 14.8193, 10.5309, -0.347421, 37.7336, -7.88636, 5.58341, -6.22037, -1.72998, 4.54507, 1.65623, 0, 0, 0, 11.4547, -10.3974, -1.89586, -18.0069, 7.40963, 5.26547, 7.40963, 0, 0, -19.4815, 0, 84.3586, 0, 0, 42.2358, 4.46292e-05, 0, 0, 0, 0, 0, 0, 0
0.0029289, -0.0305716, 0.719981, 0.100016, -1.04623, 1.26653, -0.320314, 0.0999946, 0.23, 0.999999, 0.23, 0.999999, 0.0299517, 0.0015784, -0.000158395, 0.0110523, -0.0110523, 1.71602e-17, -9.2414e-17, -0.00362148, -9.01681e-06, -0.000393723, -2.369e-05, -0.000374152, -0.0328382, 11.4606, -10.3987, -1.89499, -18.0079, 14.819, 10.5316, -0.347164, 38.4632, -8.12796, 5.64448, -6.5108, -1.78479, 4.52087, 1.68422, 0, 0, 0, 11.4606, -10.3987, -1.89499, -18.0079, 7.40949, 5.26581, 7.40949, 0, 0, -19.4749, 0, 84.3861, 0, 0, 42.2505, 4.53281e-05, 0, 0, 0, 0, 0, 0, 0
0.00308305, -0.0305714, 0.719981, 0.100018, -1.04623, 1.26653, -0.320314, 0.0999941, 0.23, 0.999999, 0.23, 0.999999, 0.0299466, 0.00166098, -0.000166684, 0.0116305, -0.0116305, 1.85483e-17, -1.00014e-16, -0.00380557, -9.67651e-06, -0.000406882, -2.51206e-05, -0.000386283, -0.0345522, 11.4666, -10.3999, -1.89412, -18.0089, 14.8187, 10.5323, -0.346902, 39.1929, -8.36955, 5.70555, -6.80123, -1.8396, 4.49667, 1.7122, 0, 0, 0, 11.4666, -10.3999, -1.89412, -18.0089, 7.40935, 5.26616, 7.40935, 0, 0, -19.4681, 0, 84.4142, 0, 0, 42.2654, 4.6006e-05, 0, 0, 0, 0, 0, 0, 0
0.00323721, -0.0305711, 0.719981, 0.10002, -1.04623, 1.26653, -0.320314, 0.0999935, 0.23, 0.999999, 0.23, 0.999999, 0.0299411, 0.0017435, -0.000174969, 0.0122083, -0.0122083, 1.84586e-17, -1.06036e-16, -0.00398908, -1.03514e-05, -0.000419364, -2.65662e-05, -0.000397739, -0.0362642, 11.4727, -10.4013, -1.89323, -18.01, 14.8184, 10.533, -0.346636, 39.9226, -8.61115, 5.76661, -7.09166, -1.89442, 4.47246, 1.74019, 0, 0, 0, 11.4727, -10.4013, -1.89323, -18.01, 7.40921, 5.26651, 7.40921, 0, 0, -19.4613, 0, 84.4428, 0, 0, 42.2805, 4.66631e-05, 0, 0, 0, 0, 0, 0, 0
0.00339136, -0.0305708, 0.719981, 0.100022, -1.04624, 1.26653, -0.320314, 0.0999928, 0.23, 0.999999, 0.23, 0.999999, 0.0299354, 0.00182598, -0.000183249, 0.0127858, -0.0127858, 1.86768e-17, -1.12035e-16, -0.00417201, -1.10411e-05, -0.000431183, -2.80264e-05, -0.000408531, -0.0379743, 11.4789, -10.4026, -1.89234, -18.0111, 14.8181, 10.5337, -0.346366, 40.6522, -8.85274, 5.82768, -7.38208, -1.94923, 4.44826, 1.76817, 0, 0, 0, 11.4789, -10.4026, -1.89234, -18.0111, 7.40906, 5.26685, 7.40906, 0, 0, -19.4544, 0, 84.472, 0, 0, 42.296, 4.72994e-05, 0, 0, 0, 0, 0, 0, 0
0.00354551, -0.0305706, 0.719981, 0.100024, -1.04624, 1.26653, -0.320314, 0.0999922, 0.23, 0.999999, 0.23, 0.999999, 0.0299294, 0.00190841, -0.000191525, 0.013363, -0.013363, 2.00544e-17, -1.18739e-16, -0.00435437, -1.1745e-05, -0.00044235, -2.95007e-05, -0.000418672, -0.0396823, 11.4852, -10.404, -1.89144, -18.0122, 14.8178, 10.5344, -0.346091, 41.3819, -9.09434, 5.88875, -7.67251, -2.00405, 4.42406, 1.79616, 0, 0, 0, 11.4852, -10.404, -1.89144, -18.0122, 7.40891, 5.26719, 7.40891, 0, 0, -19.4473, 0, 84.5017, 0, 0, 42.3116, 4.79148e-05, 0, 0, 0, 0, 0, 0, 0
0.00369967, -0.0305703, 0.719981, 0.100026, -1.04624, 1.26653, -0.320314, 0.0999915, 0.23, 0.999999, 0.23, 0.999999, 0.0299231, 0.00199079, -0.000199797, 0.0139399, -0.0139399, 2.20594e-17, -1.25644e-16, -0.00453617, -1.24627e-05, -0.000452877, -3.09885e-05, -0.000428173, -0.0413881, 11.4916, -10.4054, -1.89052, -18.0134, 14.8175, 10.5351, -0.345812, 42.1116, -9.33593, 5.94981, -7.96294, -2.05886, 4.39986, 1.82415, 0, 0, 0, 11.4916, -10.4054, -1.89052, -18.0134, 7.40875, 5.26753, 7.40875, 0, 0, -19.4402, 0, 84.532, 0, 0, 42.3275, 4.85093e-05, 0, 0, 0, 0, 0, 0, 0
0.00385382, -0.0305699, 0.719981, 0.100028, -1.04624, 1.26653, -0.320314, 0.0999908, 0.23, 0.999999, 0.23, 0.999999, 0.0299166, 0.00207312, -0.000208064, 0.0145163, -0.0145163, 2.49365e-17, -1.3294e-16, -0.00471743, -1.31937e-05, -0.000462775, -3.24894e-05, -0.000437045, -0.0430918, 11.4982, -10.4069, -1.8896, -18.0147, 14.8172, 10.5357, -0.345528, 42.8413, -9.57753, 6.01088, -8.25337, -2.11367, 4.37566, 1.85213, 4.64027e-310, 0, 0, 11.4982, -10.4069, -1.8896, -18.0147, 7.40859, 5.26787, 7.40859, 0, 0, -19.433, 0, 84.5629, 0, 0, 42.3437, 4.9083e-05, 0, 0, 0, 0, 0, 0, 0
0.00400797, -0.0305696, 0.719981, 0.10003, -1.04624, 1.26653, -0.320314, 0.09999, 0.23, 0.999999, 0.23, 0.999999, 0.0299099, 0.0021554, -0.000216327, 0.0150925, -0.0150925, 2.89302e-17, -1.40812e-16, -0.00489814, -1.39375e-05, -0.000472056, -3.40028e-05, -0.000445301, -0.0447932, 11.5048, -10.4084, -1.88867, -18.016, 14.8169, 10.5364, -0.345241, 43.5709, -9.81912, 6.07195, -8.5438, -2.16849, 4.35146, 1.88012, 4.64027e-310, 0, 0, 11.5048, -10.4084, -1.88867, -18.016, 7.40843, 5.26821, 7.40843, 0, 0, -19.4256, 0, 84.5943, 0, 0, 42.3601, 4.96359e-05, 0, 0, 0, 0, 0, 0, 0
0.00416212, -0.0305693, 0.719981, 0.100033, -1.04625, 1.26653, -0.320314, 0.0999893, 0.23, 0.999999, 0.23, 0.999999, 0.0299028, 0.00223763, -0.000224586, 0.0156683, -0.0156683, 3.33185e-17, -1.48541e-16, -0.00507833, -1.46936e-05, -0.000480732, -3.55284e-05, -0.000452952, -0.0464923, 11.5116, -10.4099, -1.88773, -18.0173, 14.8165, 10.5371, -0.344949, 44.3006, -10.0607, 6.13301, -8.83423, -2.2233, 4.32726, 1.9081, 4.64027e-310, 0, 0, 11.5116, -10.4099, -1.88773, -18.0173, 7.40826, 5.26854, 7.40826, 0, 0, -19.4182, 0, 84.6262, 0, 0, 42.3768, 5.0168e-05, 0, 0, 0, 0, 0, 0, 0
0.00431628, -0.0305689, 0.719981, 0.100035, -1.04625, 1.26653, -0.320314, 0.0999885, 0.23, 0.999999, 0.23, 0.999999, 0.0298955, 0.00231981, -0.00023284, 0.0162438, -0.0162438, 3.52807e-17, -1.53437e-16, -0.005258, -1.54615e-05, -0.000488814, -3.70655e-05, -0.00046001, -0.0481889, 11.5185, -10.4115, -1.88678, -18.0187, 14.8162, 10.5378, -0.344653, 45.0303, -10.3023, 6.19408, -9.12466, -2.27812, 4.30306, 1.93609, 4.64027e-310, 0, 0, 11.5185, -10.4115, -1.88678, -18.0187, 7.40808, 5.26888, 7.40808, 0, 0, -19.4106, 0, 84.6587, 0, 0, 42.3937, 5.06793e-05, 0, 0, 0, 0, 0, 0, 0
0.00447043, -0.0305686, 0.719981, 0.100038, -1.04625, 1.26653, -0.320314, 0.0999876, 0.23, 0.999999, 0.23, 0.999999, 0.029888, 0.00240195, -0.00024109, 0.0168189, -0.0168189, 3.65716e-17, -1.57104e-16, -0.00543715, -1.62407e-05, -0.000496314, -3.86137e-05, -0.000466486, -0.0498831, 11.5255, -10.4131, -1.88582, -18.0201, 14.8158, 10.5384, -0.344352, 45.7599, -10.5439, 6.25515, -9.41509, -2.33293, 4.27886, 1.96408, 4.64027e-310, 0, 0, 11.5255, -10.4131, -1.88582, -18.0201, 7.40791, 5.26921, 7.40791, 0, 0, -19.403, 0, 84.6917, 0, 0, 42.4109, 5.11698e-05, 0, 0, 0, 0, 0, 0, 0
0.00462458, -0.0305682, 0.719981, 0.10004, -1.04625, 1.26653, -0.320314, 0.0999868, 0.23, 0.999999, 0.23, 0.999999, 0.0298801, 0.00248404, -0.000249336, 0.0173937, -0.0173937, 3.70164e-17, -1.59337e-16, -0.00561581, -1.70308e-05, -0.000503244, -4.01725e-05, -0.000472393, -0.0515747, 11.5326, -10.4147, -1.88485, -18.0216, 14.8155, 10.5391, -0.344047, 46.4896, -10.7855, 6.31621, -9.70551, -2.38774, 4.25466, 1.99206, 4.64027e-310, 0, 0, 11.5326, -10.4147, -1.88485, -18.0216, 7.40773, 5.26953, 7.40773, 0, 0, -19.3952, 0, 84.7253, 0, 0, 42.4283, 5.16395e-05, 0, 0, 0, 0, 0, 0, 0
0.00477873, -0.0305678, 0.719981, 0.100043, -1.04626, 1.26653, -0.320314, 0.0999859, 0.23, 0.999999, 0.23, 0.999999, 0.0298721, 0.00256607, -0.000257578, 0.0179682, -0.0179682, 3.64403e-17, -1.59929e-16, -0.00579397, -1.78313e-05, -0.000509615, -4.17415e-05, -0.000477741, -0.0532638, 11.5398, -10.4164, -1.88387, -18.0231, 14.8151, 10.5397, -0.343738, 47.2193, -11.0271, 6.37728, -9.99594, -2.44256, 4.23046, 2.02005, 4.64027e-310, 0, 0, 11.5398, -10.4164, -1.88387, -18.0231, 7.40754, 5.26986, 7.40754, 0, 0, -19.3874, 0, 84.7595, 0, 0, 42.446, 5.20885e-05, 0, 0, 0, 0, 0, 0, 0
0.00493289, -0.0305674, 0.719981, 0.100046, -1.04626, 1.26653, -0.320314, 0.099985, 0.23, 0.999998, 0.23, 0.999999, 0.0298637, 0.00264807, -0.000265816, 0.0185423, -0.0185423, 3.46683e-17, -1.58674e-16, -0.00597165, -1.86416e-05, -0.00051544, -4.332e-05, -0.000482543, -0.0549501, 11.5472, -10.4181, -1.88289, -18.0247, 14.8147, 10.5404, -0.343424, 47.949, -11.2687, 6.43835, -10.2864, -2.49737, 4.20626, 2.04804, 4.64027e-310, 0, 0, 11.5472, -10.4181, -1.88289, -18.0247, 7.40735, 5.27019, 7.40735, 0, 0, -19.3794, 0, 84.7942, 0, 0, 42.4639, 5.25167e-05, 0, 0, 0, 0, 0, 0, 0
0.00508704, -0.030567, 0.719981, 0.100049, -1.04626, 1.26653, -0.320314, 0.0999841, 0.23, 0.999998, 0.23, 0.999998, 0.0298551, 0.00273001, -0.000274049, 0.0191161, -0.0191161, 3.48901e-17, -1.60102e-16, -0.00614885, -1.94612e-05, -0.000520729, -4.49076e-05, -0.000486809, -0.0566338, 11.5546, -10.4199, -1.88189, -18.0263, 14.8143, 10.541, -0.343106, 48.6786, -11.5103, 6.49941, -10.5768, -2.55219, 4.18206, 2.07602, 4.64027e-310, 0, 0, 11.5546, -10.4199, -1.88189, -18.0263, 7.40715, 5.27051, 7.40715, 0, 0, -19.3714, 0, 84.8294, 0, 0, 42.4821, 5.29242e-05, 0, 0, 0, 0, 0, 0, 0
0.00524119, -0.0305666, 0.719981, 0.100052, -1.04627, 1.26653, -0.320314, 0.0999831, 0.23, 0.999998, 0.23, 0.999998, 0.0298463, 0.0028119, -0.000282279, 0.0196895, -0.0196895, 3.58838e-17, -1.62532e-16, -0.0063256, -2.02896e-05, -0.000525495, -4.65036e-05, -0.000490553, -0.0583146, 11.5622, -10.4217, -1.88088, -18.028, 14.8139, 10.5417, -0.342784, 49.4083, -11.7519, 6.56048, -10.8672, -2.607, 4.15786, 2.10401, 4.64027e-310, 0, 0, 11.5622, -10.4217, -1.88088, -18.028, 7.40696, 5.27083, 7.40696, 0, 0, -19.3632, 0, 84.8652, 0, 0, 42.5005, 5.3311e-05, 0, 0, 0, 0, 0, 0, 0
0.00539535, -0.0305661, 0.719981, 0.100055, -1.04627, 1.26653, -0.320314, 0.0999821, 0.23, 0.999998, 0.23, 0.999998, 0.0298372, 0.00289375, -0.000290504, 0.0202626, -0.0202626, 3.74379e-17, -1.65706e-16, -0.00650189, -2.11264e-05, -0.000529749, -4.81078e-05, -0.000493786, -0.0599925, 11.5698, -10.4235, -1.87987, -18.0297, 14.8135, 10.5423, -0.342458, 50.138, -11.9935, 6.62155, -11.1577, -2.66181, 4.13366, 2.13199, 4.64027e-310, 0, 0, 11.5698, -10.4235, -1.87987, -18.0297, 7.40675, 5.27115, 7.40675, 0, 0, -19.355, 0, 84.9016, 0, 0, 42.5192, 5.3677e-05, 0, 0, 0, 0, 0, 0, 0
0.0055495, -0.0305657, 0.719981, 0.100058, -1.04627, 1.26653, -0.320314, 0.0999811, 0.23, 0.999998, 0.23, 0.999998, 0.0298278, 0.00297555, -0.000298725, 0.0208354, -0.0208354, 3.96915e-17, -1.69861e-16, -0.00667773, -2.1971e-05, -0.000533502, -4.97195e-05, -0.000496519, -0.0616674, 11.5776, -10.4254, -1.87884, -18.0314, 14.8131, 10.5429, -0.342127, 50.8676, -12.2351, 6.68261, -11.4481, -2.71663, 4.10946, 2.15998, 4.64027e-310, 0, 0, 11.5776, -10.4254, -1.87884, -18.0314, 7.40655, 5.27147, 7.40655, 0, 0, -19.3466, 0, 84.9385, 0, 0, 42.5381, 5.40224e-05, 0, 0, 0, 0, 0, 0, 0
0.00570365, -0.0305652, 0.719981, 0.100061, -1.04628, 1.26653, -0.320314, 0.0999801, 0.23, 0.999998, 0.23, 0.999998, 0.0298181, 0.0030573, -0.000306943, 0.0214079, -0.0214079, 4.27837e-17, -1.75232e-16, -0.00685314, -2.2823e-05, -0.000536768, -5.13382e-05, -0.000498764, -0.0633394, 11.5855, -10.4273, -1.87781, -18.0332, 14.8127, 10.5436, -0.341792, 51.5973, -12.4767, 6.74368, -11.7385, -2.77144, 4.08526, 2.18797, 4.64027e-310, 0, 0, 11.5855, -10.4273, -1.87781, -18.0332, 7.40633, 5.27178, 7.40633, 0, 0, -19.3381, 0, 84.976, 0, 0, 42.5573, 5.43471e-05, 0, 0, 0, 0, 0, 0, 0
0.0058578, -0.0305647, 0.71998, 0.100065, -1.04628, 1.26653, -0.320314, 0.099979, 0.23, 0.999998, 0.23, 0.999998, 0.0298083, 0.00313901, -0.000315156, 0.02198, -0.02198, 4.68534e-17, -1.82054e-16, -0.00702812, -2.36818e-05, -0.000539556, -5.29635e-05, -0.000500532, -0.0650082, 11.5935, -10.4292, -1.87676, -18.035, 14.8122, 10.5442, -0.341452, 52.327, -12.7183, 6.80474, -12.0289, -2.82626, 4.06106, 2.21595, 4.64027e-310, 0, 0, 11.5935, -10.4292, -1.87676, -18.035, 7.40612, 5.2721, 7.40612, 0, 0, -19.3296, 0, 85.014, 0, 0, 42.5767, 5.46512e-05, 0, 0, 0, 0, 0, 0, 0
0.00601196, -0.0305642, 0.71998, 0.100068, -1.04628, 1.26653, -0.320314, 0.0999779, 0.23, 0.999998, 0.23, 0.999998, 0.0297981, 0.00322066, -0.000323366, 0.0225518, -0.0225518, 5.20397e-17, -1.90562e-16, -0.00720268, -2.45469e-05, -0.00054188, -5.45948e-05, -0.000501836, -0.0666739, 11.6017, -10.4312, -1.87571, -18.0369, 14.8118, 10.5448, -0.341109, 53.0566, -12.9598, 6.86581, -12.3194, -2.88107, 4.03686, 2.24394, 4.64027e-310, 0, 0, 11.6017, -10.4312, -1.87571, -18.0369, 7.4059, 5.27241, 7.4059, 0, 0, -19.3209, 0, 85.0525, 0, 0, 42.5964, 5.49347e-05, 0, 0, 0, 0, 0, 0, 0
0.00616611, -0.0305637, 0.71998, 0.100072, -1.04629, 1.26653, -0.320314, 0.0999768, 0.23, 0.999998, 0.23, 0.999998, 0.0297877, 0.00330227, -0.000331571, 0.0231232, -0.0231232, 5.84816e-17, -2.00993e-16, -0.00737684, -2.54179e-05, -0.00054375, -5.62316e-05, -0.000502687, -0.0683363, 11.6099, -10.4332, -1.87464, -18.0388, 14.8113, 10.5454, -0.34076, 53.7863, -13.2014, 6.92688, -12.6098, -2.93588, 4.01266, 2.27193, 4.64027e-310, 0, 0, 11.6099, -10.4332, -1.87464, -18.0388, 7.40567, 5.27272, 7.40567, 0, 0, -19.3121, 0, 85.0917, 0, 0, 42.6163, 5.51975e-05, 0, 0, 0, 0, 0, 0, 0
0.00632026, -0.0305632, 0.71998, 0.100075, -1.04629, 1.26653, -0.320314, 0.0999756, 0.23, 0.999998, 0.23, 0.999998, 0.029777, 0.00338384, -0.000339773, 0.0236944, -0.0236944, 6.43485e-17, -2.10028e-16, -0.0075506, -2.62942e-05, -0.000545178, -5.78735e-05, -0.000503097, -0.0699955, 11.6182, -10.4352, -1.87357, -18.0408, 14.8109, 10.5461, -0.340408, 54.516, -13.443, 6.98794, -12.9002, -2.9907, 3.98846, 2.29991, 4.64027e-310, 0, 0, 11.6182, -10.4352, -1.87357, -18.0408, 7.40545, 5.27303, 7.40545, 0, 0, -19.3033, 0, 85.1313, 0, 0, 42.6365, 5.54398e-05, 0, 0, 0, 0, 0, 0, 0
0.00647441, -0.0305627, 0.71998, 0.100079, -1.04629, 1.26653, -0.320314, 0.0999744, 0.23, 0.999998, 0.23, 0.999998, 0.0297661, 0.00346535, -0.000347971, 0.0242652, -0.0242652, 6.8037e-17, -2.14759e-16, -0.00772397, -2.71753e-05, -0.000546177, -5.95198e-05, -0.000503078, -0.0716513, 11.6267, -10.4373, -1.87249, -18.0428, 14.8104, 10.5467, -0.340051, 55.2457, -13.6846, 7.04901, -13.1907, -3.04551, 3.96426, 2.3279, 4.64027e-310, 0, 0, 11.6267, -10.4373, -1.87249, -18.0428, 7.40521, 5.27334, 7.40521, 0, 0, -19.2943, 0, 85.1716, 0, 0, 42.6569, 5.56615e-05, 0, 0, 0, 0, 0, 0, 0
0.00662857, -0.0305621, 0.71998, 0.100083, -1.0463, 1.26653, -0.320314, 0.0999732, 0.23, 0.999998, 0.23, 0.999998, 0.029755, 0.00354682, -0.000356165, 0.0248356, -0.0248356, 7.15276e-17, -2.18743e-16, -0.00789696, -2.80607e-05, -0.000546757, -6.117e-05, -0.00050264, -0.0733037, 11.6353, -10.4395, -1.8714, -18.0448, 14.81, 10.5473, -0.33969, 55.9753, -13.9262, 7.11008, -13.4811, -3.10033, 3.94006, 2.35588, 4.64027e-310, 0, 0, 11.6353, -10.4395, -1.8714, -18.0448, 7.40498, 5.27364, 7.40498, 0, 0, -19.2852, 0, 85.2123, 0, 0, 42.6776, 5.58627e-05, 0, 0, 0, 0, 0, 0, 0
0.00678272, -0.0305616, 0.71998, 0.100087, -1.0463, 1.26653, -0.320314, 0.099972, 0.23, 0.999997, 0.23, 0.999998, 0.0297435, 0.00362824, -0.000364356, 0.0254058, -0.0254058, 7.47483e-17, -2.21837e-16, -0.00806958, -2.89499e-05, -0.00054693, -6.28238e-05, -0.000501797, -0.0749525, 11.644, -10.4416, -1.8703, -18.0469, 14.8095, 10.5479, -0.339325, 56.705, -14.1678, 7.17114, -13.7715, -3.15514, 3.91586, 2.38387, 4.64027e-310, 0, 0, 11.644, -10.4416, -1.8703, -18.0469, 7.40473, 5.27394, 7.40473, 0, 0, -19.276, 0, 85.2536, 0, 0, 42.6985, 5.60434e-05, 0, 0, 0, 0, 0, 0, 0
0.00693687, -0.030561, 0.71998, 0.100091, -1.04631, 1.26653, -0.320314, 0.0999707, 0.23, 0.999997, 0.23, 0.999998, 0.0297319, 0.00370962, -0.000372542, 0.0259756, -0.0259756, 7.76271e-17, -2.23893e-16, -0.00824184, -2.98424e-05, -0.000546709, -6.44805e-05, -0.000500559, -0.0765978, 11.6528, -10.4438, -1.86919, -18.0491, 14.809, 10.5485, -0.338955, 57.4347, -14.4094, 7.23221, -14.0619, -3.20995, 3.89166, 2.41186, 4.64027e-310, 0, 0, 11.6528, -10.4438, -1.86919, -18.0491, 7.40449, 5.27424, 7.40449, 0, 0, -19.2667, 0, 85.2955, 0, 0, 42.7197, 5.62036e-05, 0, 0, 0, 0, 0, 0, 0
0.00709102, -0.0305604, 0.71998, 0.100095, -1.04631, 1.26653, -0.320314, 0.0999695, 0.23, 0.999997, 0.23, 0.999997, 0.0297199, 0.00379095, -0.000380725, 0.0265451, -0.0265451, 8.00919e-17, -2.24768e-16, -0.00841375, -3.07378e-05, -0.000546104, -6.61396e-05, -0.000498938, -0.0782394, 11.6617, -10.4461, -1.86807, -18.0513, 14.8085, 10.5491, -0.338581, 58.1643, -14.651, 7.29328, -14.3524, -3.26477, 3.86746, 2.43984, 4.64027e-310, 0, 0, 11.6617, -10.4461, -1.86807, -18.0513, 7.40424, 5.27454, 7.40424, 0, 0, -19.2574, 0, 85.338, 0, 0, 42.7411, 5.63433e-05, 0, 0, 0, 0, 0, 0, 0
0.00724518, -0.0305599, 0.71998, 0.100099, -1.04631, 1.26653, -0.320314, 0.0999682, 0.23, 0.999997, 0.23, 0.999997, 0.0297077, 0.00387223, -0.000388905, 0.0271142, -0.0271142, 8.20709e-17, -2.24315e-16, -0.00858531, -3.16354e-05, -0.000545127, -6.78007e-05, -0.000496947, -0.0798773, 11.6707, -10.4484, -1.86694, -18.0535, 14.808, 10.5497, -0.338203, 58.894, -14.8926, 7.35434, -14.6428, -3.31958, 3.84326, 2.46783, 4.64027e-310, 0, 0, 11.6707, -10.4484, -1.86694, -18.0535, 7.40399, 5.27484, 7.40399, 0, 0, -19.2479, 0, 85.3809, 0, 0, 42.7628, 5.64626e-05, 0, 0, 0, 0, 0, 0, 0
0.00739933, -0.0305592, 0.71998, 0.100103, -1.04632, 1.26653, -0.320314, 0.0999668, 0.23, 0.999997, 0.23, 0.999997, 0.0296953, 0.00395346, -0.00039708, 0.0276831, -0.0276831, 8.34918e-17, -2.22391e-16, -0.00875655, -3.25349e-05, -0.000543791, -6.94632e-05, -0.000494596, -0.0815115, 11.6798, -10.4507, -1.8658, -18.0558, 14.8075, 10.5503, -0.337821, 59.6237, -15.1342, 7.41541, -14.9332, -3.3744, 3.81906, 2.49582, 4.64027e-310, 0, 0, 11.6798, -10.4507, -1.8658, -18.0558, 7.40373, 5.27514, 7.40373, 0, 0, -19.2383, 0, 85.4245, 0, 0, 42.7847, 5.65615e-05, 0, 0, 0, 0, 0, 0, 0
0.00755348, -0.0305586, 0.71998, 0.100107, -1.04632, 1.26653, -0.320314, 0.0999655, 0.23, 0.999997, 0.23, 0.999997, 0.0296826, 0.00403465, -0.000405252, 0.0282516, -0.0282516, 8.42829e-17, -2.18848e-16, -0.00892746, -3.34357e-05, -0.000542107, -7.11267e-05, -0.000491897, -0.0831418, 11.6891, -10.453, -1.86465, -18.0581, 14.8069, 10.5509, -0.337434, 60.3533, -15.3758, 7.47648, -15.2237, -3.42921, 3.79486, 2.5238, 4.64027e-310, 0, 0, 11.6891, -10.453, -1.86465, -18.0581, 7.40347, 5.27543, 7.40347, 0, 0, -19.2286, 0, 85.4685, 0, 0, 42.8069, 5.664e-05, 0, 0, 0, 0, 0, 0, 0
0.00770764, -0.030558, 0.71998, 0.100112, -1.04633, 1.26653, -0.320314, 0.0999641, 0.23, 0.999997, 0.23, 0.999997, 0.0296697, 0.00411579, -0.000413421, 0.0288198, -0.0288198, 8.51775e-17, -2.15485e-16, -0.00909806, -3.43372e-05, -0.000540086, -7.27905e-05, -0.000488862, -0.0847682, 11.6984, -10.4554, -1.8635, -18.0605, 14.8064, 10.5514, -0.337043, 61.083, -15.6174, 7.53754, -15.5141, -3.48402, 3.77066, 2.55179, 4.64027e-310, 0, 0, 11.6984, -10.4554, -1.8635, -18.0605, 7.4032, 5.27572, 7.4032, 0, 0, -19.2188, 0, 85.5132, 0, 0, 42.8294, 5.66981e-05, 0, 0, 0, 0, 0, 0, 0
0.00786179, -0.0305574, 0.71998, 0.100116, -1.04633, 1.26653, -0.320314, 0.0999626, 0.23, 0.999997, 0.23, 0.999997, 0.0296565, 0.00419689, -0.000421586, 0.0293877, -0.0293877, 8.75127e-17, -2.15549e-16, -0.00926835, -3.52387e-05, -0.00053774, -7.44539e-05, -0.000485504, -0.0863906, 11.7079, -10.4578, -1.86233, -18.0629, 14.8059, 10.552, -0.336647, 61.8127, -15.859, 7.59861, -15.8045, -3.53884, 3.74646, 2.57977, 4.64027e-310, 0, 0, 11.7079, -10.4578, -1.86233, -18.0629, 7.40293, 5.27601, 7.40293, 0, 0, -19.2089, 0, 85.5584, 0, 0, 42.852, 5.6736e-05, 0, 0, 0, 0, 0, 0, 0
0.00801594, -0.0305567, 0.71998, 0.100121, -1.04634, 1.26653, -0.320314, 0.0999612, 0.23, 0.999997, 0.23, 0.999997, 0.029643, 0.00427794, -0.000429747, 0.0299552, -0.0299552, 8.98988e-17, -2.15723e-16, -0.00943835, -3.61399e-05, -0.000535082, -7.61166e-05, -0.000481833, -0.0880089, 11.7175, -10.4603, -1.86115, -18.0654, 14.8053, 10.5526, -0.336247, 62.5424, -16.1006, 7.65968, -16.0949, -3.59365, 3.72226, 2.60776, 4.64027e-310, 0, 0, 11.7175, -10.4603, -1.86115, -18.0654, 7.40265, 5.2763, 7.40265, 0, 0, -19.1989, 0, 85.6041, 0, 0, 42.875, 5.67535e-05, 0, 0, 0, 0, 0, 0, 0
0.00817009, -0.030556, 0.71998, 0.100125, -1.04634, 1.26653, -0.320314, 0.0999597, 0.23, 0.999997, 0.23, 0.999997, 0.0296294, 0.00435894, -0.000437905, 0.0305224, -0.0305224, 9.23516e-17, -2.1607e-16, -0.00960806, -3.70403e-05, -0.000532122, -7.77781e-05, -0.000477861, -0.0896231, 11.7272, -10.4628, -1.85997, -18.0679, 14.8047, 10.5532, -0.335843, 63.272, -16.3422, 7.72074, -16.3854, -3.64847, 3.69805, 2.63575, 4.64027e-310, 0, 0, 11.7272, -10.4628, -1.85997, -18.0679, 7.40237, 5.27658, 7.40237, 0, 0, -19.1888, 0, 85.6504, 0, 0, 42.8982, 5.67508e-05, 0, 0, 0, 0, 0, 0, 0
0.00832425, -0.0305554, 0.71998, 0.10013, -1.04634, 1.26653, -0.320314, 0.0999582, 0.23, 0.999997, 0.23, 0.999997, 0.0296154, 0.0044399, -0.00044606, 0.0310893, -0.0310893, 9.4887e-17, -2.16659e-16, -0.00977749, -3.79394e-05, -0.000528872, -7.94378e-05, -0.0004736, -0.0912331, 11.737, -10.4653, -1.85877, -18.0704, 14.8042, 10.5537, -0.335435, 64.0017, -16.5838, 7.78181, -16.6758, -3.70328, 3.67385, 2.66373, 4.64027e-310, 0, 0, 11.737, -10.4653, -1.85877, -18.0704, 7.40209, 5.27687, 7.40209, 0, 0, -19.1786, 0, 85.6972, 0, 0, 42.9216, 5.67279e-05, 0, 0, 0, 0, 0, 0, 0
0.0084784, -0.0305547, 0.719979, 0.100135, -1.04635, 1.26653, -0.320314, 0.0999567, 0.23, 0.999997, 0.23, 0.999997, 0.0296012, 0.00452082, -0.000454211, 0.0316559, -0.0316559, 9.75208e-17, -2.17555e-16, -0.00994666, -3.88366e-05, -0.000525344, -8.10953e-05, -0.000469062, -0.0928389, 11.7469, -10.4679, -1.85757, -18.073, 14.8036, 10.5543, -0.335022, 64.7314, -16.8254, 7.84288, -16.9662, -3.75809, 3.64965, 2.69172, 4.64027e-310, 0, 0, 11.7469, -10.4679, -1.85757, -18.073, 7.4018, 5.27715, 7.4018, 0, 0, -19.1683, 0, 85.7446, 0, 0, 42.9453, 5.66847e-05, 0, 0, 0, 0, 0, 0, 0
0.00863255, -0.030554, 0.719979, 0.10014, -1.04635, 1.26653, -0.320314, 0.0999552, 0.23, 0.999996, 0.23, 0.999997, 0.0295868, 0.00460168, -0.000462358, 0.0322222, -0.0322222, 1.00269e-16, -2.18825e-16, -0.0101156, -3.97315e-05, -0.000521551, -8.275e-05, -0.000464258, -0.0944403, 11.757, -10.4705, -1.85635, -18.0756, 14.803, 10.5549, -0.334605, 65.461, -17.067, 7.90394, -17.2567, -3.81291, 3.62545, 2.71971, 4.64027e-310, 0, 0, 11.757, -10.4705, -1.85635, -18.0756, 7.40151, 5.27743, 7.40151, 0, 0, -19.1579, 0, 85.7926, 0, 0, 42.9692, 5.66214e-05, 0, 0, 0, 0, 0, 0, 0
0.0087867, -0.0305533, 0.719979, 0.100145, -1.04636, 1.26653, -0.320314, 0.0999536, 0.23, 0.999996, 0.23, 0.999997, 0.0295721, 0.0046825, -0.000470503, 0.0327882, -0.0327882, 1.03146e-16, -2.20535e-16, -0.0102842, -4.06234e-05, -0.000517502, -8.44013e-05, -0.0004592, -0.0960373, 11.7671, -10.4732, -1.85513, -18.0783, 14.8024, 10.5554, -0.334183, 66.1907, -17.3085, 7.96501, -17.5471, -3.86772, 3.60125, 2.74769, 4.64027e-310, 0, 0, 11.7671, -10.4732, -1.85513, -18.0783, 7.40122, 5.27771, 7.40122, 0, 0, -19.1474, 0, 85.8411, 0, 0, 42.9934, 5.6538e-05, 0, 0, 0, 0, 0, 0, 0
0.00894086, -0.0305525, 0.719979, 0.10015, -1.04636, 1.26653, -0.320314, 0.099952, 0.23, 0.999996, 0.23, 0.999997, 0.0295572, 0.00476328, -0.000478644, 0.0333538, -0.0333538, 1.0617e-16, -2.22751e-16, -0.0104527, -4.1512e-05, -0.000513211, -8.60488e-05, -0.0004539, -0.0976299, 11.7774, -10.4759, -1.8539, -18.0811, 14.8018, 10.556, -0.333758, 66.9204, -17.5501, 8.02608, -17.8375, -3.92254, 3.57705, 2.77568, 4.64027e-310, 0, 0, 11.7774, -10.4759, -1.8539, -18.0811, 7.40092, 5.27799, 7.40092, 0, 0, -19.1367, 0, 85.8901, 0, 0, 43.0178, 5.64345e-05, 0, 0, 0, 0, 0, 0, 0
0.00909501, -0.0305518, 0.719979, 0.100155, -1.04637, 1.26653, -0.320314, 0.0999504, 0.23, 0.999996, 0.23, 0.999996, 0.029542, 0.00484401, -0.000486781, 0.0339191, -0.0339191, 1.09355e-16, -2.25539e-16, -0.0106209, -4.23967e-05, -0.000508688, -8.7692e-05, -0.000448369, -0.0992179, 11.7877, -10.4786, -1.85266, -18.0838, 14.8012, 10.5565, -0.333328, 67.6501, -17.7917, 8.08714, -18.128, -3.97735, 3.55285, 2.80366, 4.64027e-310, 0, 0, 11.7877, -10.4786, -1.85266, -18.0838, 7.40061, 5.27826, 7.40061, 0, 0, -19.126, 0, 85.9397, 0, 0, 43.0425, 5.63109e-05, 0, 0, 0, 0, 0, 0, 0
0.00924916, -0.030551, 0.719979, 0.10016, -1.04637, 1.26653, -0.320314, 0.0999487, 0.23, 0.999996, 0.23, 0.999996, 0.0295266, 0.0049247, -0.000494916, 0.0344841, -0.0344841, 1.12717e-16, -2.28967e-16, -0.0107888, -4.3277e-05, -0.000503946, -8.93303e-05, -0.000442619, -0.100801, 11.7982, -10.4813, -1.85141, -18.0866, 14.8006, 10.5571, -0.332893, 68.3797, -18.0333, 8.14821, -18.4184, -4.03216, 3.52865, 2.83165, 4.64027e-310, 0, 0, 11.7982, -10.4813, -1.85141, -18.0866, 7.4003, 5.27853, 7.4003, 0, 0, -19.1152, 0, 85.9899, 0, 0, 43.0674, 5.61673e-05, 0, 0, 0, 0, 0, 0, 0
0.00940332, -0.0305503, 0.719979, 0.100166, -1.04638, 1.26653, -0.320314, 0.099947, 0.23, 0.999996, 0.23, 0.999996, 0.029511, 0.00500534, -0.000503047, 0.0350488, -0.0350488, 1.16272e-16, -2.33101e-16, -0.0109566, -4.41524e-05, -0.000498997, -9.09633e-05, -0.000436663, -0.10238, 11.8088, -10.4841, -1.85015, -18.0895, 14.8, 10.5576, -0.332455, 69.1094, -18.2749, 8.20928, -18.7088, -4.08698, 3.50445, 2.85964, 4.64027e-310, 0, 0, 11.8088, -10.4841, -1.85015, -18.0895, 7.39999, 5.2788, 7.39999, 0, 0, -19.1043, 0, 86.0406, 0, 0, 43.0926, 5.60037e-05, 0, 0, 0, 0, 0, 0, 0
0.00955747, -0.0305495, 0.719979, 0.100171, -1.04639, 1.26653, -0.320314, 0.0999453, 0.23, 0.999996, 0.23, 0.999996, 0.0294951, 0.00508593, -0.000511175, 0.0356132, -0.0356132, 1.20036e-16, -2.38006e-16, -0.0111241, -4.50223e-05, -0.000493851, -9.25903e-05, -0.00043051, -0.103954, 11.8195, -10.487, -1.84888, -18.0924, 14.7993, 10.5581, -0.332012, 69.8391, -18.5165, 8.27034, -18.9992, -4.14179, 3.48025, 2.88762, 4.64027e-310, 0, 0, 11.8195, -10.487, -1.84888, -18.0924, 7.39967, 5.27907, 7.39967, 0, 0, -19.0933, 0, 86.0919, 0, 0, 43.1181, 5.58202e-05, 0, 0, 0, 0, 0, 0, 0
0.00971162, -0.0305487, 0.719979, 0.100177, -1.04639, 1.26653, -0.320314, 0.0999436, 0.23, 0.999996, 0.23, 0.999996, 0.0294789, 0.00516648, -0.000519299, 0.0361772, -0.0361772, 1.24025e-16, -2.43749e-16, -0.0112915, -4.58863e-05, -0.00048852, -9.42109e-05, -0.000424175, -0.105523, 11.8303, -10.4899, -1.8476, -18.0954, 14.7987, 10.5587, -0.331564, 70.5687, -18.7581, 8.33141, -19.2897, -4.1966, 3.45605, 2.91561, 4.64027e-310, 0, 0, 11.8303, -10.4899, -1.8476, -18.0954, 7.39935, 5.27934, 7.39935, 0, 0, -19.0821, 0, 86.1437, 0, 0, 43.1437, 5.56167e-05, 0, 0, 0, 0, 0, 0, 0
0.00986577, -0.0305479, 0.719979, 0.100182, -1.0464, 1.26653, -0.320314, 0.0999419, 0.23, 0.999996, 0.23, 0.999996, 0.0294625, 0.00524699, -0.000527421, 0.0367409, -0.0367409, 1.27938e-16, -2.49362e-16, -0.0114587, -4.67437e-05, -0.000483017, -9.58244e-05, -0.000417667, -0.107087, 11.8413, -10.4928, -1.84631, -18.0984, 14.7981, 10.5592, -0.331113, 71.2984, -18.9997, 8.39248, -19.5801, -4.25142, 3.43185, 2.9436, 4.64027e-310, 0, 0, 11.8413, -10.4928, -1.84631, -18.0984, 7.39903, 5.27961, 7.39903, 0, 0, -19.0709, 0, 86.196, 0, 0, 43.1697, 5.53934e-05, 0, 0, 0, 0, 0, 0, 0
0.0100199, -0.0305471, 0.719979, 0.100188, -1.0464, 1.26653, -0.320314, 0.0999401, 0.23, 0.999996, 0.23, 0.999996, 0.0294459, 0.00532745, -0.00053554, 0.0373044, -0.0373044, 1.31424e-16, -2.5372e-16, -0.0116257, -4.75939e-05, -0.000477354, -9.74302e-05, -0.000410999, -0.108647, 11.8523, -10.4957, -1.84501, -18.1014, 14.7974, 10.5597, -0.330657, 72.0281, -19.2413, 8.45354, -19.8705, -4.30623, 3.40765, 2.97158, 4.64027e-310, 0, 0, 11.8523, -10.4957, -1.84501, -18.1014, 7.3987, 5.27987, 7.3987, 0, 0, -19.0596, 0, 86.2489, 0, 0, 43.1959, 5.51503e-05, 0, 0, 0, 0, 0, 0, 0
0.0101741, -0.0305463, 0.719979, 0.100194, -1.04641, 1.26653, -0.320314, 0.0999383, 0.23, 0.999996, 0.23, 0.999996, 0.0294291, 0.00540786, -0.000543655, 0.0378675, -0.0378675, 1.34908e-16, -2.58216e-16, -0.0117926, -4.84365e-05, -0.000471541, -9.9028e-05, -0.000404183, -0.110201, 11.8635, -10.4987, -1.8437, -18.1045, 14.7967, 10.5603, -0.330196, 72.7577, -19.4829, 8.51461, -20.161, -4.36105, 3.38345, 2.99957, 4.64027e-310, 0, 0, 11.8635, -10.4987, -1.8437, -18.1045, 7.39836, 5.28013, 7.39836, 0, 0, -19.0482, 0, 86.3024, 0, 0, 43.2223, 5.48873e-05, 0, 0, 0, 0, 0, 0, 0
0.0103282, -0.0305454, 0.719979, 0.1002, -1.04641, 1.26653, -0.320314, 0.0999364, 0.23, 0.999996, 0.23, 0.999996, 0.029412, 0.00548823, -0.000551767, 0.0384303, -0.0384303, 1.38368e-16, -2.62801e-16, -0.0119593, -4.9271e-05, -0.00046559, -0.000100617, -0.000397229, -0.11175, 11.8748, -10.5017, -1.84238, -18.1076, 14.796, 10.5608, -0.329732, 73.4874, -19.7245, 8.57568, -20.4514, -4.41586, 3.35925, 3.02755, 4.64027e-310, 0, 0, 11.8748, -10.5017, -1.84238, -18.1076, 7.39802, 5.28039, 7.39802, 0, 0, -19.0366, 0, 86.3564, 0, 0, 43.249, 5.46046e-05, 0, 0, 0, 0, 0, 0, 0
0.0104824, -0.0305446, 0.719978, 0.100206, -1.04642, 1.26653, -0.320314, 0.0999346, 0.23, 0.999996, 0.229999, 0.999996, 0.0293946, 0.00556856, -0.000559877, 0.0389928, -0.0389928, 1.41784e-16, -2.6742e-16, -0.0121258, -5.00968e-05, -0.000459514, -0.000102197, -0.000390151, -0.113294, 11.8861, -10.5048, -1.84106, -18.1108, 14.7954, 10.5613, -0.329263, 74.2171, -19.9661, 8.63674, -20.7418, -4.47067, 3.33505, 3.05554, 4.64027e-310, 0, 0, 11.8861, -10.5048, -1.84106, -18.1108, 7.39768, 5.28065, 7.39768, 0, 0, -19.025, 0, 86.411, 0, 0, 43.2759, 5.43022e-05, 0, 0, 0, 0, 0, 0, 0
0.0106365, -0.0305437, 0.719978, 0.100212, -1.04643, 1.26653, -0.320314, 0.0999327, 0.23, 0.999995, 0.229999, 0.999996, 0.029377, 0.00564884, -0.000567983, 0.039555, -0.039555, 1.45133e-16, -2.72014e-16, -0.0122922, -5.09135e-05, -0.000453324, -0.000103767, -0.000382959, -0.114833, 11.8976, -10.5079, -1.83972, -18.114, 14.7947, 10.5618, -0.32879, 74.9468, -20.2077, 8.69781, -21.0322, -4.52549, 3.31085, 3.08353, 4.64027e-310, 0, 0, 11.8976, -10.5079, -1.83972, -18.114, 7.39733, 5.28091, 7.39733, 0, 0, -19.0133, 0, 86.4661, 0, 0, 43.3031, 5.39802e-05, 0, 0, 0, 0, 0, 0, 0
0.0107907, -0.0305428, 0.719978, 0.100218, -1.04643, 1.26653, -0.320314, 0.0999308, 0.23, 0.999995, 0.229999, 0.999996, 0.0293592, 0.00572908, -0.000576086, 0.0401169, -0.0401169, 1.48389e-16, -2.76514e-16, -0.0124585, -5.17205e-05, -0.000447031, -0.000105327, -0.000375666, -0.116367, 11.9093, -10.511, -1.83837, -18.1173, 14.794, 10.5623, -0.328312, 75.6764, -20.4493, 8.75888, -21.3227, -4.5803, 3.28665, 3.11151, 4.64027e-310, 0, 0, 11.9093, -10.511, -1.83837, -18.1173, 7.39698, 5.28116, 7.39698, 0, 0, -19.0014, 0, 86.5218, 0, 0, 43.3305, 5.36385e-05, 0, 0, 0, 0, 0, 0, 0
0.0109448, -0.0305419, 0.719978, 0.100224, -1.04644, 1.26653, -0.320314, 0.0999289, 0.23, 0.999995, 0.229999, 0.999996, 0.0293412, 0.00580928, -0.000584187, 0.0406784, -0.0406784, 1.51527e-16, -2.80848e-16, -0.0126247, -5.25172e-05, -0.000440647, -0.000106877, -0.000368283, -0.117895, 11.921, -10.5142, -1.83702, -18.1206, 14.7933, 10.5628, -0.327831, 76.4061, -20.6909, 8.81994, -21.6131, -4.63512, 3.26245, 3.1395, 4.64027e-310, 0, 0, 11.921, -10.5142, -1.83702, -18.1206, 7.39663, 5.28141, 7.39663, 0, 0, -18.9895, 0, 86.578, 0, 0, 43.3582, 5.32773e-05, 0, 0, 0, 0, 0, 0, 0
0.011099, -0.030541, 0.719978, 0.10023, -1.04644, 1.26653, -0.320314, 0.0999269, 0.23, 0.999995, 0.229999, 0.999996, 0.0293229, 0.00588943, -0.000592284, 0.0412397, -0.0412397, 1.54516e-16, -2.84937e-16, -0.0127907, -5.33032e-05, -0.000434185, -0.000108415, -0.000360821, -0.119418, 11.9328, -10.5174, -1.83566, -18.1239, 14.7925, 10.5633, -0.327344, 77.1358, -20.9325, 8.88101, -21.9035, -4.68993, 3.23825, 3.16749, 4.64027e-310, 0, 0, 11.9328, -10.5174, -1.83566, -18.1239, 7.39627, 5.28166, 7.39627, 0, 0, -18.9774, 0, 86.6348, 0, 0, 43.3862, 5.28965e-05, 0, 0, 0, 0, 0, 0, 0
0.0112531, -0.0305401, 0.719978, 0.100237, -1.04645, 1.26653, -0.320314, 0.0999249, 0.23, 0.999995, 0.229999, 0.999996, 0.0293044, 0.00596953, -0.000600379, 0.0418006, -0.0418006, 1.57327e-16, -2.88697e-16, -0.0129567, -5.40779e-05, -0.000427655, -0.000109941, -0.000353293, -0.120935, 11.9448, -10.5206, -1.83428, -18.1273, 14.7918, 10.5638, -0.326854, 77.8654, -21.1741, 8.94208, -22.194, -4.74474, 3.21405, 3.19547, 4.64027e-310, 0, 0, 11.9448, -10.5206, -1.83428, -18.1273, 7.39591, 5.28191, 7.39591, 0, 0, -18.9653, 0, 86.6921, 0, 0, 43.4144, 5.24962e-05, 0, 0, 0, 0, 0, 0, 0
0.0114073, -0.0305392, 0.719978, 0.100243, -1.04646, 1.26653, -0.320314, 0.0999229, 0.23, 0.999995, 0.229999, 0.999996, 0.0292856, 0.00604959, -0.000608471, 0.0423613, -0.0423613, 1.59927e-16, -2.92036e-16, -0.0131226, -5.48408e-05, -0.00042107, -0.000111455, -0.00034571, -0.122447, 11.9568, -10.5239, -1.8329, -18.1308, 14.7911, 10.5643, -0.326359, 78.5951, -21.4157, 9.00314, -22.4844, -4.79956, 3.18985, 3.22346, 4.64027e-310, 0, 0, 11.9568, -10.5239, -1.8329, -18.1308, 7.39554, 5.28216, 7.39554, 0, 0, -18.953, 0, 86.75, 0, 0, 43.4428, 5.20765e-05, 0, 0, 0, 0, 0, 0, 0
0.0115615, -0.0305383, 0.719978, 0.10025, -1.04646, 1.26653, -0.320314, 0.0999209, 0.23, 0.999995, 0.229999, 0.999995, 0.0292666, 0.00612961, -0.000616559, 0.0429216, -0.0429216, 1.62282e-16, -2.94857e-16, -0.0132884, -5.55914e-05, -0.000414441, -0.000112955, -0.000338084, -0.123953, 11.969, -10.5272, -1.83151, -18.1343, 14.7903, 10.5648, -0.32586, 79.3248, -21.6572, 9.06421, -22.7748, -4.85437, 3.16565, 3.25144, 4.64027e-310, 0, 0, 11.969, -10.5272, -1.83151, -18.1343, 7.39517, 5.2824, 7.39517, 0, 0, -18.9407, 0, 86.8084, 0, 0, 43.4715, 5.16373e-05, 0, 0, 0, 0, 0, 0, 0
0.0117156, -0.0305373, 0.719978, 0.100257, -1.04647, 1.26653, -0.320314, 0.0999188, 0.23, 0.999995, 0.229999, 0.999995, 0.0292474, 0.00620959, -0.000624646, 0.0434817, -0.0434817, 1.64356e-16, -2.97057e-16, -0.0134541, -5.63291e-05, -0.00040778, -0.000114443, -0.000330427, -0.125453, 11.9813, -10.5306, -1.8301, -18.1378, 14.7896, 10.5653, -0.325357, 80.0544, -21.8988, 9.12528, -23.0652, -4.90919, 3.14145, 3.27943, 4.64027e-310, 0, 0, 11.9813, -10.5306, -1.8301, -18.1378, 7.39479, 5.28265, 7.39479, 0, 0, -18.9282, 0, 86.8674, 0, 0, 43.5004, 5.11789e-05, 0, 0, 0, 0, 0, 0, 0
0.0118698, -0.0305363, 0.719978, 0.100263, -1.04648, 1.26653, -0.320314, 0.0999167, 0.23, 0.999995, 0.229999, 0.999995, 0.029228, 0.00628952, -0.000632729, 0.0440414, -0.0440414, 1.6611e-16, -2.98527e-16, -0.0136197, -5.70533e-05, -0.000401098, -0.000115916, -0.00032275, -0.126947, 11.9937, -10.534, -1.82869, -18.1414, 14.7888, 10.5658, -0.324849, 80.7841, -22.1404, 9.18634, -23.3557, -4.964, 3.11725, 3.30742, 4.64027e-310, 0, 0, 11.9937, -10.534, -1.82869, -18.1414, 7.39441, 5.28289, 7.39441, 0, 0, -18.9157, 0, 86.927, 0, 0, 43.5296, 5.07011e-05, 0, 0, 0, 0, 0, 0, 0
0.0120239, -0.0305354, 0.719978, 0.10027, -1.04648, 1.26653, -0.320314, 0.0999146, 0.23, 0.999995, 0.229999, 0.999995, 0.0292083, 0.0063694, -0.00064081, 0.0446008, -0.0446008, 1.67506e-16, -2.99152e-16, -0.0137853, -5.77637e-05, -0.000394408, -0.000117375, -0.000315065, -0.128436, 12.0062, -10.5374, -1.82727, -18.145, 14.788, 10.5663, -0.324337, 81.5138, -22.382, 9.24741, -23.6461, -5.01881, 3.09305, 3.3354, 4.64027e-310, 0, 0, 12.0062, -10.5374, -1.82727, -18.145, 7.39402, 5.28313, 7.39402, 0, 0, -18.903, 0, 86.9871, 0, 0, 43.5591, 5.02041e-05, 0, 0, 0, 0, 0, 0, 0
0.0121781, -0.0305344, 0.719977, 0.100277, -1.04649, 1.26653, -0.320314, 0.0999125, 0.23, 0.999995, 0.229999, 0.999995, 0.0291884, 0.00644925, -0.000648888, 0.04516, -0.04516, 1.69742e-16, -3.02408e-16, -0.0139509, -5.84597e-05, -0.000387721, -0.000118819, -0.000307384, -0.129919, 12.0188, -10.5409, -1.82584, -18.1487, 14.7873, 10.5667, -0.323821, 82.2435, -22.6236, 9.30848, -23.9365, -5.07363, 3.06885, 3.36339, 4.64027e-310, 0, 0, 12.0188, -10.5409, -1.82584, -18.1487, 7.39364, 5.28336, 7.39364, 0, 0, -18.8902, 0, 87.0477, 0, 0, 43.5888, 4.96878e-05, 0, 0, 0, 0, 0, 0, 0
0.0123322, -0.0305334, 0.719977, 0.100284, -1.0465, 1.26653, -0.320314, 0.0999103, 0.23, 0.999995, 0.229999, 0.999995, 0.0291682, 0.00652905, -0.000656963, 0.0457188, -0.0457188, 1.72139e-16, -3.06323e-16, -0.0141164, -5.91408e-05, -0.000381048, -0.000120248, -0.000299718, -0.131396, 12.0315, -10.5444, -1.8244, -18.1524, 14.7865, 10.5672, -0.3233, 82.9731, -22.8652, 9.36954, -24.227, -5.12844, 3.04465, 3.39137, 4.64027e-310, 0, 0, 12.0315, -10.5444, -1.8244, -18.1524, 7.39324, 5.2836, 7.39324, 0, 0, -18.8774, 0, 87.1089, 0, 0, 43.6187, 4.91524e-05, 0, 0, 0, 0, 0, 0, 0
0.0124864, -0.0305324, 0.719977, 0.100291, -1.04651, 1.26653, -0.320314, 0.0999081, 0.23, 0.999995, 0.229999, 0.999995, 0.0291479, 0.00660881, -0.000665036, 0.0462773, -0.0462773, 1.74476e-16, -3.10255e-16, -0.014282, -5.98065e-05, -0.000374402, -0.00012166, -0.00029208, -0.132866, 12.0444, -10.5479, -1.82295, -18.1561, 14.7857, 10.5677, -0.322775, 83.7028, -23.1068, 9.43061, -24.5174, -5.18326, 3.02045, 3.41936, 4.64027e-310, 0, 0, 12.0444, -10.5479, -1.82295, -18.1561, 7.39284, 5.28383, 7.39284, 0, 0, -18.8644, 0, 87.1706, 0, 0, 43.6489, 4.85979e-05, 0, 0, 0, 0, 0, 0, 0
0.0126405, -0.0305313, 0.719977, 0.100298, -1.04651, 1.26653, -0.320314, 0.0999059, 0.23, 0.999995, 0.229999, 0.999995, 0.0291273, 0.00668852, -0.000673106, 0.0468355, -0.0468355, 1.76751e-16, -3.142e-16, -0.0144474, -6.04561e-05, -0.000367794, -0.000123056, -0.000284481, -0.134331, 12.0573, -10.5515, -1.82149, -18.1599, 14.7849, 10.5681, -0.322246, 84.4325, -23.3484, 9.49168, -24.8078, -5.23807, 2.99625, 3.44735, 4.64027e-310, 0, 0, 12.0573, -10.5515, -1.82149, -18.1599, 7.39244, 5.28407, 7.39244, 0, 0, -18.8513, 0, 87.2329, 0, 0, 43.6793, 4.80244e-05, 0, 0, 0, 0, 0, 0, 0
0.0127947, -0.0305303, 0.719977, 0.100306, -1.04652, 1.26653, -0.320314, 0.0999037, 0.23, 0.999995, 0.229999, 0.999995, 0.0291065, 0.00676819, -0.000681173, 0.0473935, -0.0473935, 1.78966e-16, -3.18152e-16, -0.0146129, -6.10892e-05, -0.000361236, -0.000124435, -0.000276932, -0.135789, 12.0704, -10.5551, -1.82003, -18.1638, 14.7841, 10.5686, -0.321712, 85.1621, -23.59, 9.55274, -25.0982, -5.29288, 2.97205, 3.47533, 4.64027e-310, 0, 0, 12.0704, -10.5551, -1.82003, -18.1638, 7.39204, 5.2843, 7.39204, 0, 0, -18.8382, 0, 87.2958, 0, 0, 43.71, 4.74318e-05, 0, 0, 0, 0, 0, 0, 0
0.0129488, -0.0305293, 0.719977, 0.100313, -1.04653, 1.26653, -0.320314, 0.0999014, 0.23, 0.999994, 0.229999, 0.999995, 0.0290854, 0.00684782, -0.000689238, 0.0479511, -0.0479511, 1.81118e-16, -3.22108e-16, -0.0147784, -6.17053e-05, -0.000354739, -0.000125796, -0.000269446, -0.137241, 12.0836, -10.5588, -1.81855, -18.1677, 14.7833, 10.569, -0.321175, 85.8918, -23.8316, 9.61381, -25.3887, -5.3477, 2.94785, 3.50332, 4.64027e-310, 0, 0, 12.0836, -10.5588, -1.81855, -18.1677, 7.39163, 5.28452, 7.39163, 0, 0, -18.8249, 0, 87.3592, 0, 0, 43.741, 4.68203e-05, 0, 0, 0, 0, 0, 0, 0
0.013103, -0.0305282, 0.719977, 0.10032, -1.04653, 1.26653, -0.320314, 0.0998991, 0.23, 0.999994, 0.229999, 0.999995, 0.0290642, 0.00692741, -0.0006973, 0.0485084, -0.0485084, 1.83209e-16, -3.26061e-16, -0.0149439, -6.23037e-05, -0.000348316, -0.000127139, -0.000262034, -0.138687, 12.0969, -10.5625, -1.81706, -18.1716, 14.7824, 10.5695, -0.320632, 86.6215, -24.0732, 9.67488, -25.6791, -5.40251, 2.92364, 3.53131, 4.64027e-310, 0, 0, 12.0969, -10.5625, -1.81706, -18.1716, 7.39121, 5.28475, 7.39121, 0, 0, -18.8115, 0, 87.4231, 0, 0, 43.7722, 4.61899e-05, 0, 0, 0, 0, 0, 0, 0
0.0132571, -0.0305271, 0.719977, 0.100328, -1.04654, 1.26653, -0.320314, 0.0998968, 0.23, 0.999994, 0.229999, 0.999995, 0.0290427, 0.00700695, -0.00070536, 0.0490654, -0.0490654, 1.85237e-16, -3.30007e-16, -0.0151095, -6.2884e-05, -0.000341978, -0.000128463, -0.000254708, -0.140126, 12.1103, -10.5662, -1.81557, -18.1756, 14.7816, 10.5699, -0.320086, 87.3512, -24.3148, 9.73594, -25.9695, -5.45733, 2.89944, 3.55929, 4.64027e-310, 0, 0, 12.1103, -10.5662, -1.81557, -18.1756, 7.39079, 5.28497, 7.39079, 0, 0, -18.798, 0, 87.4877, 0, 0, 43.8036, 4.55406e-05, 0, 0, 0, 0, 0, 0, 0
0.0134113, -0.030526, 0.719977, 0.100336, -1.04655, 1.26653, -0.320314, 0.0998944, 0.23, 0.999994, 0.229999, 0.999995, 0.029021, 0.00708645, -0.000713418, 0.0496222, -0.0496222, 1.87204e-16, -3.3394e-16, -0.015275, -6.34456e-05, -0.000335737, -0.000129767, -0.00024748, -0.141559, 12.1238, -10.57, -1.81406, -18.1796, 14.7807, 10.5704, -0.319535, 88.0808, -24.5564, 9.79701, -26.26, -5.51214, 2.87524, 3.58728, 4.64027e-310, 0, 0, 12.1238, -10.57, -1.81406, -18.1796, 7.39037, 5.2852, 7.39037, 0, 0, -18.7845, 0, 87.5527, 0, 0, 43.8353, 4.48726e-05, 0, 0, 0, 0, 0, 0, 0
0.0135654, -0.0305249, 0.719976, 0.100343, -1.04656, 1.26653, -0.320314, 0.0998921, 0.23, 0.999994, 0.229999, 0.999995, 0.0289991, 0.00716591, -0.000721472, 0.0501786, -0.0501786, 1.89109e-16, -3.37854e-16, -0.0154406, -6.39881e-05, -0.000329604, -0.000131052, -0.000240361, -0.142986, 12.1375, -10.5738, -1.81255, -18.1837, 14.7799, 10.5708, -0.31898, 88.8105, -24.798, 9.85808, -26.5504, -5.56695, 2.85104, 3.61526, 4.64027e-310, 0, 0, 12.1375, -10.5738, -1.81255, -18.1837, 7.38994, 5.28542, 7.38994, 0, 0, -18.7708, 0, 87.6183, 0, 0, 43.8673, 4.41858e-05, 0, 0, 0, 0, 0, 0, 0
0.0137196, -0.0305238, 0.719976, 0.100351, -1.04657, 1.26653, -0.320314, 0.0998897, 0.23, 0.999994, 0.229999, 0.999995, 0.0289769, 0.00724532, -0.000729525, 0.0507347, -0.0507347, 1.90953e-16, -3.41746e-16, -0.0156063, -6.45108e-05, -0.000323591, -0.000132317, -0.000233363, -0.144405, 12.1512, -10.5776, -1.81102, -18.1878, 14.779, 10.5713, -0.31842, 89.5402, -25.0396, 9.91914, -26.8408, -5.62177, 2.82684, 3.64325, 4.64027e-310, 0, 0, 12.1512, -10.5776, -1.81102, -18.1878, 7.38951, 5.28564, 7.38951, 0, 0, -18.757, 0, 87.6845, 0, 0, 43.8995, 4.34803e-05, 0, 0, 0, 0, 0, 0, 0
0.0138737, -0.0305227, 0.719976, 0.100359, -1.04657, 1.26653, -0.320314, 0.0998873, 0.23, 0.999994, 0.229999, 0.999995, 0.0289546, 0.00732469, -0.000737575, 0.0512906, -0.0512906, 1.92738e-16, -3.45609e-16, -0.015772, -6.50133e-05, -0.00031771, -0.00013356, -0.000226497, -0.145819, 12.1651, -10.5815, -1.80949, -18.192, 14.7782, 10.5717, -0.317857, 90.2698, -25.2812, 9.98021, -27.1312, -5.67658, 2.80264, 3.67124, 4.64027e-310, 0, 0, 12.1651, -10.5815, -1.80949, -18.192, 7.38908, 5.28585, 7.38908, 0, 0, -18.7431, 0, 87.7512, 0, 0, 43.9319, 4.27562e-05, 0, 0, 0, 0, 0, 0, 0
0.0140279, -0.0305216, 0.719976, 0.100367, -1.04658, 1.26653, -0.320314, 0.0998848, 0.23, 0.999994, 0.229999, 0.999995, 0.028932, 0.00740403, -0.000745623, 0.0518461, -0.0518461, 1.94464e-16, -3.49437e-16, -0.0159378, -6.5495e-05, -0.000311973, -0.000134782, -0.000219777, -0.147225, 12.179, -10.5854, -1.80794, -18.1962, 14.7773, 10.5721, -0.317289, 90.9995, -25.5228, 10.0413, -27.4217, -5.7314, 2.77844, 3.69922, 4.64027e-310, 0, 0, 12.179, -10.5854, -1.80794, -18.1962, 7.38864, 5.28607, 7.38864, 0, 0, -18.7291, 0, 87.8185, 0, 0, 43.9646, 4.20135e-05, 0, 0, 0, 0, 0, 0, 0
0.014182, -0.0305204, 0.719976, 0.100375, -1.04659, 1.26653, -0.320314, 0.0998823, 0.23, 0.999994, 0.229999, 0.999995, 0.0289092, 0.00748331, -0.000753669, 0.0524014, -0.0524014, 1.96132e-16, -3.53225e-16, -0.0161036, -6.59554e-05, -0.000306391, -0.000135982, -0.000213212, -0.148624, 12.1931, -10.5894, -1.80639, -18.2004, 14.7764, 10.5726, -0.316716, 91.7292, -25.7643, 10.1023, -27.7121, -5.78621, 2.75424, 3.72721, 4.64027e-310, 0, 0, 12.1931, -10.5894, -1.80639, -18.2004, 7.38819, 5.28628, 7.38819, 0, 0, -18.715, 0, 87.8863, 0, 0, 43.9975, 4.12523e-05, 0, 0, 0, 0, 0, 0, 0
0.0143362, -0.0305193, 0.719976, 0.100383, -1.0466, 1.26653, -0.320314, 0.0998799, 0.23, 0.999994, 0.229999, 0.999995, 0.0288862, 0.00756256, -0.000761712, 0.0529563, -0.0529563, 1.97745e-16, -3.56968e-16, -0.0162696, -6.63939e-05, -0.000300977, -0.00013716, -0.000206816, -0.150017, 12.2073, -10.5934, -1.80483, -18.2047, 14.7755, 10.573, -0.316139, 92.4588, -26.0059, 10.1634, -28.0025, -5.84102, 2.73004, 3.7552, 4.64027e-310, 0, 0, 12.2073, -10.5934, -1.80483, -18.2047, 7.38775, 5.28649, 7.38775, 0, 0, -18.7008, 0, 87.9546, 0, 0, 44.0307, 4.04726e-05, 0, 0, 0, 0, 0, 0, 0
0.0144904, -0.0305181, 0.719976, 0.100391, -1.04661, 1.26653, -0.320314, 0.0998773, 0.23, 0.999994, 0.229999, 0.999995, 0.0288629, 0.00764177, -0.000769753, 0.053511, -0.053511, 1.99303e-16, -3.60659e-16, -0.0164356, -6.68101e-05, -0.000295741, -0.000138314, -0.000200599, -0.151403, 12.2216, -10.5974, -1.80326, -18.2091, 14.7746, 10.5734, -0.315558, 93.1885, -26.2475, 10.2245, -28.293, -5.89584, 2.70584, 3.78318, 4.64027e-310, 0, 0, 12.2216, -10.5974, -1.80326, -18.2091, 7.38729, 5.2867, 7.38729, 0, 0, -18.6865, 0, 88.0236, 0, 0, 44.0642, 3.96746e-05, 0, 0, 0, 0, 0, 0, 0
0.0146445, -0.0305169, 0.719976, 0.100399, -1.04661, 1.26653, -0.320314, 0.0998748, 0.23, 0.999994, 0.229999, 0.999995, 0.0288395, 0.00772093, -0.000777791, 0.0540654, -0.0540654, 2.00809e-16, -3.64294e-16, -0.0166018, -6.72033e-05, -0.000290695, -0.000139445, -0.000194574, -0.152781, 12.236, -10.6015, -1.80168, -18.2134, 14.7737, 10.5738, -0.314973, 93.9182, -26.4891, 10.2855, -28.5834, -5.95065, 2.68164, 3.81117, 4.64027e-310, 0, 0, 12.236, -10.6015, -1.80168, -18.2134, 7.38684, 5.28691, 7.38684, 0, 0, -18.6721, 0, 88.093, 0, 0, 44.0979, 3.88582e-05, 0, 0, 0, 0, 0, 0, 0
0.0147987, -0.0305157, 0.719976, 0.100408, -1.04662, 1.26653, -0.320314, 0.0998722, 0.23, 0.999994, 0.229999, 0.999995, 0.0288158, 0.00780005, -0.000785828, 0.0546195, -0.0546195, 2.02265e-16, -3.67865e-16, -0.0167681, -6.75731e-05, -0.000285852, -0.000140552, -0.000188752, -0.154153, 12.2506, -10.6056, -1.80009, -18.2179, 14.7728, 10.5742, -0.314383, 94.6479, -26.7307, 10.3466, -28.8738, -6.00547, 2.65744, 3.83915, 4.64027e-310, 0, 0, 12.2506, -10.6056, -1.80009, -18.2179, 7.38638, 5.28712, 7.38638, 0, 0, -18.6576, 0, 88.1631, 0, 0, 44.1318, 3.80235e-05, 0, 0, 0, 0, 0, 0, 0
0.0149528, -0.0305145, 0.719975, 0.100416, -1.04663, 1.26653, -0.320314, 0.0998696, 0.23, 0.999994, 0.229999, 0.999995, 0.028792, 0.00787913, -0.000793862, 0.0551733, -0.0551733, 2.03672e-16, -3.71367e-16, -0.0169345, -6.79189e-05, -0.000281223, -0.000141634, -0.000183145, -0.155517, 12.2652, -10.6097, -1.79849, -18.2223, 14.7718, 10.5746, -0.313789, 95.3775, -26.9723, 10.4077, -29.1642, -6.06028, 2.63324, 3.86714, 4.64027e-310, 0, 0, 12.2652, -10.6097, -1.79849, -18.2223, 7.38591, 5.28732, 7.38591, 0, 0, -18.643, 0, 88.2336, 0, 0, 44.166, 3.71706e-05, 0, 0, 0, 0, 0, 0, 0
0.015107, -0.0305133, 0.719975, 0.100425, -1.04664, 1.26653, -0.320314, 0.099867, 0.229999, 0.999994, 0.229999, 0.999995, 0.0287679, 0.00795817, -0.000801894, 0.0557268, -0.0557268, 2.05035e-16, -3.74795e-16, -0.017101, -6.82401e-05, -0.00027682, -0.000142691, -0.000177764, -0.156874, 12.28, -10.6139, -1.79688, -18.2269, 14.7709, 10.575, -0.313191, 96.1072, -27.2139, 10.4687, -29.4547, -6.11509, 2.60904, 3.89513, 4.64027e-310, 0, 0, 12.28, -10.6139, -1.79688, -18.2269, 7.38544, 5.28752, 7.38544, 0, 0, -18.6283, 0, 88.3048, 0, 0, 44.2005, 3.62995e-05, 0, 0, 0, 0, 0, 0, 0
0.0152611, -0.030512, 0.719975, 0.100433, -1.04665, 1.26653, -0.320314, 0.0998643, 0.229999, 0.999994, 0.229999, 0.999995, 0.0287436, 0.00803716, -0.000809925, 0.05628, -0.05628, 2.06447e-16, -3.7798e-16, -0.0172677, -6.85363e-05, -0.000272654, -0.000143721, -0.000172622, -0.158224, 12.2949, -10.6181, -1.79526, -18.2314, 14.7699, 10.5754, -0.312589, 96.8369, -27.4555, 10.5298, -29.7451, -6.16991, 2.58484, 3.92311, 4.64027e-310, 0, 0, 12.2949, -10.6181, -1.79526, -18.2314, 7.38497, 5.28772, 7.38497, 0, 0, -18.6135, 0, 88.3765, 0, 0, 44.2352, 3.54103e-05, 0, 0, 0, 0, 0, 0, 0
0.0154153, -0.0305108, 0.719975, 0.100442, -1.04666, 1.26653, -0.320314, 0.0998617, 0.229999, 0.999994, 0.229999, 0.999994, 0.0287191, 0.00811612, -0.000817953, 0.0568329, -0.0568329, 2.08499e-16, -3.79893e-16, -0.0174345, -6.8807e-05, -0.000268737, -0.000144726, -0.00016773, -0.159566, 12.3098, -10.6223, -1.79363, -18.236, 14.769, 10.5758, -0.311982, 97.5665, -27.6971, 10.5909, -30.0355, -6.22472, 2.56064, 3.9511, 4.64027e-310, 0, 0, 12.3098, -10.6223, -1.79363, -18.236, 7.38449, 5.28792, 7.38449, 0, 0, -18.5986, 0, 88.4487, 0, 0, 44.2701, 3.45031e-05, 0, 0, 0, 0, 0, 0, 0
0.0154153, -0.0305108, 0.719975, 0.100442, -1.04666, 1.26653, -0.320314, 0.0998617, 0.229999, 0.999994, 0.229999, 0.999994, 0.0287191, 0.00811612, -0.000817953, 0.0568329, -0.0568329, 2.08499e-16, -3.79893e-16, -0.0174345, -6.8807e-05, -0.000268737, -0.000144726, -0.00016773, -0.159566, 12.3098, -10.6223, -1.79363, -18.236, 14.769, 10.5758, -0.311982, 97.5665, -27.6971, 10.5909, -30.0355, -6.22472, 2.56064, 3.9511, 4.64027e-310, 0, 0, 12.3098, -10.6223, -1.79363, -18.236, 7.38449, 5.28792, 7.38449, 0, 0, -18.5986, 0, 88.4487, 0, 0, 44.2701, 3.45031e-05, 0, 0, 0, 0, 0, 0, 0
0.0154153, -0.0305108, 0.719975, 0.100442, -1.04666, 1.26653, -0.320314, 0.0998617, 0.229999, 0.999994, 0.229999, 0.999995, 0.0287189, 0.00811612, -0.000817953, 0.0568329, -0.0568329, 1.27575e-12, -1.0938e-12, -0.0174345, -6.88172e-05, -0.000268697, -0.000144736, -0.00016769, -0.159567, 12.3098, -10.6223, -1.79363, -18.236, 14.769, 10.5758, -0.311982, 97.5665, -27.6971, 10.5909, -30.0355, -6.22472, 2.56064, 3.9511, 4.64027e-310, 0, 0, 12.3098, -10.6223, -1.79363, -18.236, 7.38449, 5.28792, 7.38449, 0, 0, -18.5986, 0, 88.4487, 0, 0, 44.2701, 3.45029e-05, 0, 0, 0, 0, 0, 0, 0
0.0155694, -0.0305095, 0.719975, 0.100451, -1.04667, 1.26653, -0.320314, 0.099859, 0.229999, 0.999994, 0.229999, 0.999994, 0.0286942, 0.00819503, -0.000825979, 0.0573856, -0.0573856, 1.27575e-12, -1.0938e-12, -0.0176015, -6.90606e-05, -0.000265048, -0.000145713, -0.000163067, -0.160902, 12.3249, -10.6266, -1.792, -18.2407, 14.768, 10.5762, -0.311372, 98.0909, -27.9351, 10.6443, -30.1939, -6.23434, 2.60562, 3.96205, 4.64027e-310, 0, 0, 12.3249, -10.6266, -1.792, -18.2407, 7.38401, 5.28812, 7.38401, 0, 0, -18.5836, 0, 88.5214, 0, 0, 44.3053, 3.35932e-05, 0, 0, 0, 0, 0, 0, 0
0.0157236, -0.0305083, 0.719975, 0.10046, -1.04667, 1.26653, -0.320314, 0.0998563, 0.229999, 0.999994, 0.229999, 0.999994, 0.0286693, 0.0082739, -0.000834003, 0.0579379, -0.0579379, 1.27575e-12, -1.0938e-12, -0.0177686, -6.92793e-05, -0.000261646, -0.000146664, -0.000158692, -0.162229, 12.3401, -10.6309, -1.79035, -18.2453, 14.7671, 10.5766, -0.31076, 98.6152, -28.1732, 10.6978, -30.3522, -6.24396, 2.6506, 3.973, 4.64027e-310, 0, 0, 12.3401, -10.6309, -1.79035, -18.2453, 7.38353, 5.28832, 7.38353, 0, 0, -18.5686, 0, 88.5946, 0, 0, 44.3408, 3.26951e-05, 0, 0, 0, 0, 0, 0, 0
0.0158777, -0.030507, 0.719975, 0.100469, -1.04668, 1.26653, -0.320314, 0.0998535, 0.229999, 0.999994, 0.229999, 0.999994, 0.0286442, 0.00835273, -0.000842024, 0.05849, -0.05849, 1.27575e-12, -1.0938e-12, -0.0179359, -6.94726e-05, -0.000258496, -0.000147589, -0.000154569, -0.163549, 12.3553, -10.6353, -1.7887, -18.25, 14.7661, 10.5771, -0.310147, 99.1395, -28.4112, 10.7513, -30.5105, -6.25358, 2.69558, 3.98395, 4.64027e-310, 0, 0, 12.3553, -10.6353, -1.7887, -18.25, 7.38305, 5.28853, 7.38305, 0, 0, -18.5535, 0, 88.6681, 0, 0, 44.3764, 3.1809e-05, 0, 0, 0, 0, 0, 0, 0
0.0160319, -0.0305057, 0.719975, 0.100478, -1.04669, 1.26653, -0.320314, 0.0998507, 0.229999, 0.999994, 0.229999, 0.999994, 0.0286189, 0.00843152, -0.000850044, 0.0590417, -0.0590417, 1.27575e-12, -1.09381e-12, -0.0181034, -6.9641e-05, -0.000255593, -0.000148489, -0.000150695, -0.164862, 12.3707, -10.6397, -1.78704, -18.2547, 14.7651, 10.5775, -0.309532, 99.6639, -28.6492, 10.8047, -30.6689, -6.2632, 2.74056, 3.9949, 4.64027e-310, 0, 0, 12.3707, -10.6397, -1.78704, -18.2547, 7.38257, 5.28874, 7.38257, 0, 0, -18.5383, 0, 88.7421, 0, 0, 44.4123, 3.0935e-05, 0, 0, 0, 0, 0, 0, 0
0.016186, -0.0305044, 0.719974, 0.100487, -1.0467, 1.26653, -0.320314, 0.0998479, 0.229999, 0.999994, 0.229999, 0.999994, 0.0285934, 0.00851027, -0.000858062, 0.0595932, -0.0595932, 1.27575e-12, -1.09382e-12, -0.018271, -6.97849e-05, -0.000252932, -0.000149363, -0.000147064, -0.166167, 12.3861, -10.6441, -1.78537, -18.2595, 14.7642, 10.5779, -0.308915, 100.188, -28.8873, 10.8582, -30.8272, -6.27283, 2.78554, 4.00585, 4.64027e-310, 0, 0, 12.3861, -10.6441, -1.78537, -18.2595, 7.38208, 5.28895, 7.38208, 0, 0, -18.5231, 0, 88.8166, 0, 0, 44.4484, 3.00731e-05, 0, 0, 0, 0, 0, 0, 0
0.0163402, -0.0305031, 0.719974, 0.100496, -1.04671, 1.26653, -0.320314, 0.0998451, 0.229999, 0.999993, 0.229999, 0.999994, 0.0285677, 0.00858897, -0.000866077, 0.0601444, -0.0601444, 1.27575e-12, -1.09383e-12, -0.0184388, -6.99046e-05, -0.00025051, -0.000150212, -0.000143672, -0.167464, 12.4015, -10.6486, -1.78369, -18.2643, 14.7632, 10.5783, -0.308297, 100.713, -29.1253, 10.9117, -30.9855, -6.28245, 2.83052, 4.0168, 4.64027e-310, 0, 0, 12.4015, -10.6486, -1.78369, -18.2643, 7.3816, 5.28917, 7.3816, 0, 0, -18.5078, 0, 88.8914, 0, 0, 44.4847, 2.92232e-05, 0, 0, 0, 0, 0, 0, 0
0.0164943, -0.0305017, 0.719974, 0.100506, -1.04672, 1.26653, -0.320314, 0.0998422, 0.229999, 0.999993, 0.229999, 0.999994, 0.0285418, 0.00866763, -0.00087409, 0.0606953, -0.0606953, 1.27575e-12, -1.09382e-12, -0.0186067, -7.00005e-05, -0.000248322, -0.000151037, -0.000140516, -0.168754, 12.4171, -10.6531, -1.782, -18.269, 14.7622, 10.5788, -0.307677, 101.237, -29.3633, 10.9651, -31.1438, -6.29207, 2.87549, 4.02775, 4.64027e-310, 0, 0, 12.4171, -10.6531, -1.782, -18.269, 7.38112, 5.28939, 7.38112, 0, 0, -18.4924, 0, 88.9667, 0, 0, 44.5212, 2.83853e-05, 0, 0, 0, 0, 0, 0, 0
0.0166485, -0.0305004, 0.719974, 0.100515, -1.04673, 1.26653, -0.320314, 0.0998394, 0.229999, 0.999993, 0.229999, 0.999994, 0.0285157, 0.00874624, -0.000882101, 0.0612458, -0.0612458, 1.27575e-12, -1.09381e-12, -0.0187747, -7.00726e-05, -0.000246367, -0.000151837, -0.000137594, -0.170037, 12.4328, -10.6577, -1.78031, -18.2739, 14.7613, 10.5792, -0.307055, 101.761, -29.6013, 11.0186, -31.3022, -6.30169, 2.92047, 4.0387, 4.64027e-310, 0, 0, 12.4328, -10.6577, -1.78031, -18.2739, 7.38063, 5.28961, 7.38063, 0, 0, -18.477, 0, 89.0424, 0, 0, 44.558, 2.75593e-05, 0, 0, 0, 0, 0, 0, 0
0.0168026, -0.030499, 0.719974, 0.100525, -1.04674, 1.26653, -0.320314, 0.0998365, 0.229999, 0.999993, 0.229999, 0.999994, 0.0284893, 0.00882481, -0.00089011, 0.0617961, -0.0617961, 1.27575e-12, -1.09381e-12, -0.0189429, -7.01215e-05, -0.00024464, -0.000152613, -0.000134901, -0.171312, 12.4485, -10.6622, -1.7786, -18.2787, 14.7603, 10.5797, -0.306431, 102.286, -29.8394, 11.072, -31.4605, -6.31131, 2.96545, 4.04965, 4.64027e-310, 0, 0, 12.4485, -10.6622, -1.7786, -18.2787, 7.38014, 5.28984, 7.38014, 0, 0, -18.4616, 0, 89.1185, 0, 0, 44.595, 2.67454e-05, 0, 0, 0, 0, 0, 0, 0
0.0169568, -0.0304977, 0.719974, 0.100534, -1.04675, 1.26653, -0.320314, 0.0998335, 0.229999, 0.999993, 0.229999, 0.999994, 0.0284628, 0.00890334, -0.000898117, 0.062346, -0.062346, 1.27575e-12, -1.0938e-12, -0.0191113, -7.01472e-05, -0.000243138, -0.000153365, -0.000132433, -0.172579, 12.4643, -10.6669, -1.77689, -18.2836, 14.7593, 10.5801, -0.305806, 102.81, -30.0774, 11.1255, -31.6188, -6.32093, 3.01043, 4.0606, 4.64027e-310, 0, 0, 12.4643, -10.6669, -1.77689, -18.2836, 7.37966, 5.29007, 7.37966, 0, 0, -18.4461, 0, 89.195, 0, 0, 44.6322, 2.59434e-05, 0, 0, 0, 0, 0, 0, 0
0.017111, -0.0304963, 0.719974, 0.100544, -1.04676, 1.26653, -0.320314, 0.0998306, 0.229999, 0.999993, 0.229999, 0.999994, 0.0284361, 0.00898183, -0.000906121, 0.0628957, -0.0628957, 1.27575e-12, -1.0938e-12, -0.0192798, -7.01505e-05, -0.000241855, -0.000154094, -0.000130186, -0.173838, 12.4802, -10.6715, -1.77517, -18.2884, 14.7583, 10.5806, -0.30518, 103.334, -30.3154, 11.179, -31.7772, -6.33055, 3.05541, 4.07155, 4.64027e-310, 0, 0, 12.4802, -10.6715, -1.77517, -18.2884, 7.37917, 5.2903, 7.37917, 0, 0, -18.4305, 0, 89.272, 0, 0, 44.6697, 2.51533e-05, 0, 0, 0, 0, 0, 0, 0
0.0172651, -0.0304949, 0.719973, 0.100553, -1.04677, 1.26653, -0.320314, 0.0998276, 0.229999, 0.999993, 0.229999, 0.999994, 0.0284092, 0.00906026, -0.000914124, 0.063445, -0.063445, 1.27575e-12, -1.09379e-12, -0.0194484, -7.01316e-05, -0.000240786, -0.0001548, -0.000128154, -0.17509, 12.4961, -10.6762, -1.77345, -18.2933, 14.7574, 10.5811, -0.304551, 103.859, -30.5535, 11.2324, -31.9355, -6.34017, 3.10039, 4.0825, 4.64027e-310, 0, 0, 12.4961, -10.6762, -1.77345, -18.2933, 7.37868, 5.29054, 7.37868, 0, 0, -18.4149, 0, 89.3494, 0, 0, 44.7074, 2.43752e-05, 0, 0, 0, 0, 0, 0, 0
0.0174193, -0.0304935, 0.719973, 0.100563, -1.04678, 1.26653, -0.320314, 0.0998246, 0.229999, 0.999993, 0.229999, 0.999994, 0.0283822, 0.00913866, -0.000922124, 0.063994, -0.063994, 1.27575e-12, -1.09379e-12, -0.0196171, -7.00909e-05, -0.000239928, -0.000155483, -0.000126334, -0.176335, 12.5122, -10.6809, -1.77171, -18.2983, 14.7564, 10.5816, -0.303921, 104.383, -30.7915, 11.2859, -32.0938, -6.34979, 3.14537, 4.09345, 4.64027e-310, 0, 0, 12.5122, -10.6809, -1.77171, -18.2983, 7.37819, 5.29078, 7.37819, 0, 0, -18.3992, 0, 89.4272, 0, 0, 44.7453, 2.36089e-05, 0, 0, 0, 0, 0, 0, 0
0.0175734, -0.0304921, 0.719973, 0.100573, -1.04679, 1.26653, -0.320314, 0.0998215, 0.229999, 0.999993, 0.229999, 0.999994, 0.0283549, 0.009217, -0.000930122, 0.0645427, -0.0645427, 1.27575e-12, -1.09379e-12, -0.019786, -7.00286e-05, -0.000239277, -0.000156144, -0.000124722, -0.177571, 12.5283, -10.6857, -1.76997, -18.3032, 14.7554, 10.582, -0.303289, 104.907, -31.0295, 11.3394, -32.2522, -6.35941, 3.19035, 4.1044, 4.64027e-310, 0, 0, 12.5283, -10.6857, -1.76997, -18.3032, 7.3777, 5.29102, 7.3777, 0, 0, -18.3834, 0, 89.5054, 0, 0, 44.7834, 2.28546e-05, 0, 0, 0, 0, 0, 0, 0
0.0177276, -0.0304907, 0.719973, 0.100583, -1.0468, 1.26653, -0.320314, 0.0998185, 0.229999, 0.999993, 0.229999, 0.999994, 0.0283274, 0.00929531, -0.000938117, 0.0650911, -0.0650911, 1.27575e-12, -1.09379e-12, -0.019955, -6.99453e-05, -0.000238829, -0.000156783, -0.000123314, -0.1788, 12.5445, -10.6905, -1.76822, -18.3082, 14.7544, 10.5825, -0.302656, 105.432, -31.2676, 11.3928, -32.4105, -6.36903, 3.23533, 4.11535, 4.64027e-310, 0, 0, 12.5445, -10.6905, -1.76822, -18.3082, 7.37721, 5.29127, 7.37721, 0, 0, -18.3676, 0, 89.5841, 0, 0, 44.8218, 2.21121e-05, 0, 0, 0, 0, 0, 0, 0
0.0178817, -0.0304892, 0.719973, 0.100593, -1.04681, 1.26653, -0.320314, 0.0998154, 0.229999, 0.999993, 0.229999, 0.999994, 0.0282998, 0.00937356, -0.00094611, 0.0656392, -0.0656392, 1.27575e-12, -1.09379e-12, -0.0201241, -6.98412e-05, -0.000238578, -0.000157401, -0.000122104, -0.180022, 12.5608, -10.6953, -1.76646, -18.3132, 14.7534, 10.583, -0.30202, 105.956, -31.5056, 11.4463, -32.5688, -6.37865, 3.28031, 4.1263, 4.64027e-310, 0, 0, 12.5608, -10.6953, -1.76646, -18.3132, 7.37672, 5.29152, 7.37672, 0, 0, -18.3518, 0, 89.6632, 0, 0, 44.8604, 2.13814e-05, 0, 0, 0, 0, 0, 0, 0
0.0180359, -0.0304878, 0.719973, 0.100603, -1.04682, 1.26653, -0.320314, 0.0998123, 0.229999, 0.999993, 0.229998, 0.999994, 0.0282719, 0.00945177, -0.000954101, 0.0661869, -0.0661869, 1.27574e-12, -1.09379e-12, -0.0202934, -6.97167e-05, -0.000238521, -0.000157997, -0.00012109, -0.181235, 12.5772, -10.7002, -1.76469, -18.3183, 14.7525, 10.5836, -0.301383, 106.48, -31.7436, 11.4997, -32.7271, -6.38827, 3.32529, 4.13724, 0, 0, 0, 12.5772, -10.7002, -1.76469, -18.3183, 7.37623, 5.29178, 7.37623, 0, 0, -18.3358, 0, 89.7427, 0, 0, 44.8992, 2.06626e-05, 0, 0, 0, 0, 0, 0, 0
0.01819, -0.0304863, 0.719973, 0.100614, -1.04683, 1.26653, -0.320314, 0.0998091, 0.229999, 0.999993, 0.229998, 0.999994, 0.0282439, 0.00952993, -0.00096209, 0.0667343, -0.0667343, 1.27574e-12, -1.09379e-12, -0.0204628, -6.95722e-05, -0.000238654, -0.000158573, -0.000120266, -0.182441, 12.5937, -10.7051, -1.76291, -18.3233, 14.7515, 10.5841, -0.300745, 107.005, -31.9816, 11.5532, -32.8855, -6.39789, 3.37027, 4.14819, 0, 0, 0, 12.5937, -10.7051, -1.76291, -18.3233, 7.37574, 5.29203, 7.37574, 0, 0, -18.3199, 0, 89.8226, 0, 0, 44.9382, 1.99555e-05, 0, 0, 0, 0, 0, 0, 0
0.0183442, -0.0304848, 0.719972, 0.100624, -1.04684, 1.26653, -0.320314, 0.0998059, 0.229999, 0.999993, 0.229998, 0.999994, 0.0282157, 0.00960805, -0.000970076, 0.0672814, -0.0672814, 1.27574e-12, -1.09379e-12, -0.0206323, -6.9408e-05, -0.000238971, -0.000159128, -0.000119628, -0.183639, 12.6102, -10.7101, -1.76112, -18.3284, 14.7505, 10.5846, -0.300104, 107.529, -32.2197, 11.6067, -33.0438, -6.40751, 3.41525, 4.15914, 0, 0, 0, 12.6102, -10.7101, -1.76112, -18.3284, 7.37524, 5.2923, 7.37524, 0, 0, -18.3038, 0, 89.903, 0, 0, 44.9775, 1.92603e-05, 0, 0, 0, 0, 0, 0, 0
0.0184983, -0.0304833, 0.719972, 0.100634, -1.04685, 1.26653, -0.320314, 0.0998028, 0.229999, 0.999993, 0.229998, 0.999994, 0.0281873, 0.00968611, -0.00097806, 0.0678281, -0.0678281, 1.27574e-12, -1.09379e-12, -0.0208019, -6.92246e-05, -0.00023947, -0.000159663, -0.000119172, -0.18483, 12.6268, -10.7151, -1.75933, -18.3335, 14.7495, 10.5851, -0.299462, 108.053, -32.4577, 11.6601, -33.2021, -6.41713, 3.46022, 4.17009, 0, 0, 0, 12.6268, -10.7151, -1.75933, -18.3335, 7.37475, 5.29256, 7.37475, 0, 0, -18.2877, 0, 89.9838, 0, 0, 45.017, 1.85768e-05, 0, 0, 0, 0, 0, 0, 0
0.0186525, -0.0304818, 0.719972, 0.100645, -1.04686, 1.26653, -0.320314, 0.0997995, 0.229999, 0.999993, 0.229998, 0.999994, 0.0281587, 0.00976413, -0.000986042, 0.0683745, -0.0683745, 1.27574e-12, -1.09379e-12, -0.0209716, -6.90223e-05, -0.000240145, -0.000160178, -0.000118893, -0.186012, 12.6435, -10.7201, -1.75753, -18.3386, 14.7485, 10.5857, -0.298819, 108.578, -32.6957, 11.7136, -33.3605, -6.42675, 3.5052, 4.18104, 0, 0, 0, 12.6435, -10.7201, -1.75753, -18.3386, 7.37425, 5.29283, 7.37425, 0, 0, -18.2716, 0, 90.065, 0, 0, 45.0567, 1.7905e-05, 0, 0, 0, 0, 0, 0, 0
0.0188066, -0.0304803, 0.719972, 0.100655, -1.04687, 1.26653, -0.320314, 0.0997963, 0.229999, 0.999993, 0.229998, 0.999994, 0.0281299, 0.00984211, -0.000994021, 0.0689206, -0.0689206, 1.27574e-12, -1.0938e-12, -0.0211415, -6.88015e-05, -0.000240993, -0.000160674, -0.000118788, -0.187187, 12.6603, -10.7251, -1.75572, -18.3438, 14.7475, 10.5862, -0.298173, 109.102, -32.9338, 11.7671, -33.5188, -6.43638, 3.55018, 4.19199, 0, 0, 0, 12.6603, -10.7251, -1.75572, -18.3438, 7.37376, 5.2931, 7.37376, 0, 0, -18.2554, 0, 90.1466, 0, 0, 45.0966, 1.7245e-05, 0, 0, 0, 0, 0, 0, 0
0.0189608, -0.0304788, 0.719972, 0.100666, -1.04688, 1.26653, -0.320314, 0.099793, 0.229999, 0.999993, 0.229998, 0.999994, 0.028101, 0.00992003, -0.001002, 0.0694663, -0.0694663, 1.27574e-12, -1.0938e-12, -0.0213114, -6.85624e-05, -0.000242009, -0.000161151, -0.000118853, -0.188354, 12.6771, -10.7302, -1.7539, -18.349, 14.7465, 10.5868, -0.297526, 109.626, -33.1718, 11.8205, -33.6771, -6.446, 3.59516, 4.20294, 4.64027e-310, 0, 0, 12.6771, -10.7302, -1.7539, -18.349, 7.37326, 5.29338, 7.37326, 0, 0, -18.2391, 0, 90.2287, 0, 0, 45.1368, 1.65967e-05, 0, 0, 0, 0, 0, 0, 0
0.0191149, -0.0304773, 0.719972, 0.100677, -1.04689, 1.26653, -0.320314, 0.0997897, 0.229999, 0.999993, 0.229998, 0.999994, 0.0280718, 0.0099979, -0.00100997, 0.0700117, -0.0700117, 1.27574e-12, -1.0938e-12, -0.0214815, -6.83056e-05, -0.000243189, -0.000161609, -0.000119083, -0.189513, 12.6941, -10.7354, -1.75208, -18.3542, 14.7455, 10.5873, -0.296878, 110.151, -33.4098, 11.874, -33.8355, -6.45562, 3.64014, 4.21389, 4.64027e-310, 0, 0, 12.6941, -10.7354, -1.75208, -18.3542, 7.37276, 5.29366, 7.37276, 0, 0, -18.2228, 0, 90.3112, 0, 0, 45.1772, 1.596e-05, 0, 0, 0, 0, 0, 0, 0
0.0192691, -0.0304757, 0.719972, 0.100688, -1.0469, 1.26653, -0.320314, 0.0997864, 0.229999, 0.999993, 0.229998, 0.999994, 0.0280425, 0.0100757, -0.00101794, 0.0705568, -0.0705568, 1.27574e-12, -1.09379e-12, -0.0216516, -6.80313e-05, -0.000244528, -0.000162049, -0.000119474, -0.190665, 12.7111, -10.7405, -1.75024, -18.3594, 14.7445, 10.5879, -0.296227, 110.675, -33.6479, 11.9275, -33.9938, -6.46524, 3.68512, 4.22484, 4.64027e-310, 0, 0, 12.7111, -10.7405, -1.75024, -18.3594, 7.37227, 5.29394, 7.37227, 0, 0, -18.2064, 0, 90.3941, 0, 0, 45.2178, 1.5335e-05, 0, 0, 0, 0, 0, 0, 0
0.0194232, -0.0304742, 0.719971, 0.100699, -1.04691, 1.26653, -0.320314, 0.099783, 0.229999, 0.999993, 0.229998, 0.999994, 0.0280131, 0.0101535, -0.00102591, 0.0711015, -0.0711015, 1.27574e-12, -1.09379e-12, -0.0218219, -6.77399e-05, -0.000246024, -0.000162471, -0.000120021, -0.191808, 12.7282, -10.7457, -1.7484, -18.3647, 14.7435, 10.5884, -0.295575, 111.199, -33.8859, 11.9809, -34.1521, -6.47486, 3.7301, 4.23579, 0, 0, 0, 12.7282, -10.7457, -1.7484, -18.3647, 7.37177, 5.29422, 7.37177, 0, 0, -18.1899, 0, 90.4774, 0, 0, 45.2587, 1.47216e-05, 0, 0, 0, 0, 0, 0, 0
0.0195774, -0.0304726, 0.719971, 0.10071, -1.04692, 1.26653, -0.320314, 0.0997797, 0.229999, 0.999993, 0.229998, 0.999994, 0.0279834, 0.0102312, -0.00103388, 0.0716459, -0.0716459, 1.27574e-12, -1.09379e-12, -0.0219922, -6.74317e-05, -0.000247671, -0.000162875, -0.000120721, -0.192944, 12.7454, -10.751, -1.74655, -18.3699, 14.7425, 10.589, -0.294921, 111.724, -34.1239, 12.0344, -34.3104, -6.48448, 3.77508, 4.24674, 0, 0, 0, 12.7454, -10.751, -1.74655, -18.3699, 7.37127, 5.29451, 7.37127, 0, 0, -18.1734, 0, 90.5612, 0, 0, 45.2998, 1.41199e-05, 0, 0, 0, 0, 0, 0, 0
0.0197315, -0.030471, 0.719971, 0.100721, -1.04694, 1.26653, -0.320314, 0.0997763, 0.229999, 0.999993, 0.229998, 0.999994, 0.0279536, 0.0103089, -0.00104185, 0.0721899, -0.0721899, 1.27574e-12, -1.09378e-12, -0.0221627, -6.71073e-05, -0.000249465, -0.000163263, -0.000121569, -0.194071, 12.7627, -10.7563, -1.74469, -18.3752, 14.7415, 10.5896, -0.294266, 112.248, -34.3619, 12.0878, -34.4688, -6.4941, 3.82006, 4.25769, 0, 0, 0, 12.7627, -10.7563, -1.74469, -18.3752, 7.37077, 5.29481, 7.37077, 0, 0, -18.1569, 0, 90.6454, 0, 0, 45.3411, 1.35297e-05, 0, 0, 0, 0, 0, 0, 0
0.0198857, -0.0304694, 0.719971, 0.100732, -1.04695, 1.26653, -0.320314, 0.0997728, 0.229999, 0.999993, 0.229998, 0.999994, 0.0279236, 0.0103865, -0.00104981, 0.0727336, -0.0727336, 1.27574e-12, -1.09378e-12, -0.0223332, -6.67668e-05, -0.000251402, -0.000163633, -0.000122562, -0.195191, 12.78, -10.7616, -1.74282, -18.3806, 14.7405, 10.5902, -0.293609, 112.772, -34.6, 12.1413, -34.6271, -6.50372, 3.86504, 4.26864, 0, 0, 0, 12.78, -10.7616, -1.74282, -18.3806, 7.37027, 5.2951, 7.37027, 0, 0, -18.1402, 0, 90.73, 0, 0, 45.3826, 1.29511e-05, 0, 0, 0, 0, 0, 0, 0
0.0200399, -0.0304678, 0.719971, 0.100743, -1.04696, 1.26653, -0.320314, 0.0997694, 0.229999, 0.999993, 0.229998, 0.999994, 0.0278934, 0.0104641, -0.00105777, 0.0732769, -0.0732769, 1.27574e-12, -1.09377e-12, -0.0225038, -6.64107e-05, -0.000253478, -0.000163987, -0.000123695, -0.196303, 12.7974, -10.7669, -1.74094, -18.3859, 14.7395, 10.5908, -0.29295, 113.297, -34.838, 12.1948, -34.7854, -6.51334, 3.91002, 4.27959, 4.64027e-310, 0, 0, 12.7974, -10.7669, -1.74094, -18.3859, 7.36976, 5.2954, 7.36976, 0, 0, -18.1236, 0, 90.815, 0, 0, 45.4244, 1.2384e-05, 0, 0, 0, 0, 0, 0, 0
0.020194, -0.0304662, 0.719971, 0.100755, -1.04697, 1.26653, -0.320314, 0.0997659, 0.229999, 0.999993, 0.229998, 0.999994, 0.0278631, 0.0105416, -0.00106573, 0.0738198, -0.0738198, 1.27574e-12, -1.09377e-12, -0.0226746, -6.60394e-05, -0.000255688, -0.000164325, -0.000124963, -0.197407, 12.8149, -10.7723, -1.73906, -18.3913, 14.7385, 10.5914, -0.292289, 113.821, -35.076, 12.2482, -34.9438, -6.52296, 3.955, 4.29054, 4.64027e-310, 0, 0, 12.8149, -10.7723, -1.73906, -18.3913, 7.36926, 5.2957, 7.36926, 0, 0, -18.1068, 0, 90.9005, 0, 0, 45.4664, 1.18285e-05, 0, 0, 0, 0, 0, 0, 0
0.0203482, -0.0304646, 0.71997, 0.100766, -1.04698, 1.26653, -0.320314, 0.0997624, 0.229999, 0.999993, 0.229998, 0.999994, 0.0278325, 0.0106191, -0.00107368, 0.0743624, -0.0743624, 1.27574e-12, -1.09376e-12, -0.0228454, -6.56531e-05, -0.000258029, -0.000164647, -0.000126363, -0.198503, 12.8325, -10.7777, -1.73717, -18.3967, 14.7375, 10.592, -0.291627, 114.345, -35.3141, 12.3017, -35.1021, -6.53258, 3.99998, 4.30149, 4.64027e-310, 0, 0, 12.8325, -10.7777, -1.73717, -18.3967, 7.36876, 5.29601, 7.36876, 0, 0, -18.09, 0, 90.9864, 0, 0, 45.5086, 1.12844e-05, 0, 0, 0, 0, 0, 0, 0
0.0205023, -0.0304629, 0.71997, 0.100777, -1.04699, 1.26653, -0.320314, 0.0997589, 0.229999, 0.999992, 0.229998, 0.999994, 0.0278019, 0.0106965, -0.00108163, 0.0749047, -0.0749047, 1.27573e-12, -1.09375e-12, -0.0230163, -6.52524e-05, -0.000260496, -0.000164954, -0.00012789, -0.19959, 12.8502, -10.7832, -1.73527, -18.4021, 14.7365, 10.5926, -0.290963, 114.87, -35.5521, 12.3552, -35.2604, -6.5422, 4.04495, 4.31244, 4.64027e-310, 0, 0, 12.8502, -10.7832, -1.73527, -18.4021, 7.36826, 5.29632, 7.36826, 0, 0, -18.0732, 0, 91.0727, 0, 0, 45.551, 1.07518e-05, 0, 0, 0, 0, 0, 0, 0
0.0206565, -0.0304613, 0.71997, 0.100789, -1.047, 1.26653, -0.320314, 0.0997553, 0.229999, 0.999992, 0.229998, 0.999994, 0.027771, 0.0107739, -0.00108958, 0.0754465, -0.0754465, 1.27573e-12, -1.09375e-12, -0.0231872, -6.48374e-05, -0.000263085, -0.000165245, -0.000129541, -0.20067, 12.8679, -10.7887, -1.73336, -18.4076, 14.7355, 10.5933, -0.290297, 115.394, -35.7901, 12.4086, -35.4188, -6.55182, 4.08993, 4.32339, 4.64027e-310, 0, 0, 12.8679, -10.7887, -1.73336, -18.4076, 7.36775, 5.29663, 7.36775, 0, 0, -18.0563, 0, 91.1594, 0, 0, 45.5937, 1.02307e-05, 0, 0, 0, 0, 0, 0, 0
0.0208106, -0.0304596, 0.71997, 0.100801, -1.04702, 1.26653, -0.320314, 0.0997517, 0.229999, 0.999992, 0.229998, 0.999994, 0.02774, 0.0108512, -0.00109753, 0.0759881, -0.0759881, 1.27573e-12, -1.09374e-12, -0.0233583, -6.44087e-05, -0.000265792, -0.000165522, -0.00013131, -0.201742, 12.8858, -10.7942, -1.73144, -18.413, 14.7345, 10.5939, -0.28963, 115.918, -36.0282, 12.4621, -35.5771, -6.56144, 4.13491, 4.33434, 4.64027e-310, 0, 0, 12.8858, -10.7942, -1.73144, -18.413, 7.36725, 5.29695, 7.36725, 0, 0, -18.0393, 0, 91.2466, 0, 0, 45.6366, 9.72094e-06, 0, 0, 0, 0, 0, 0, 0
0.0209648, -0.0304579, 0.71997, 0.100812, -1.04703, 1.26653, -0.320314, 0.0997481, 0.229999, 0.999992, 0.229998, 0.999994, 0.0277088, 0.0109285, -0.00110547, 0.0765292, -0.0765292, 1.27573e-12, -1.09373e-12, -0.0235294, -6.39666e-05, -0.000268613, -0.000165785, -0.000133194, -0.202806, 12.9037, -10.7998, -1.72952, -18.4185, 14.7335, 10.5945, -0.288961, 116.443, -36.2662, 12.5155, -35.7354, -6.57106, 4.17989, 4.34529, 4.64027e-310, 0, 0, 12.9037, -10.7998, -1.72952, -18.4185, 7.36674, 5.29727, 7.36674, 0, 0, -18.0223, 0, 91.3341, 0, 0, 45.6797, 9.22262e-06, 0, 0, 0, 0, 0, 0, 0
0.0211189, -0.0304562, 0.71997, 0.100824, -1.04704, 1.26653, -0.320314, 0.0997445, 0.229999, 0.999992, 0.229998, 0.999994, 0.0276775, 0.0110057, -0.00111341, 0.07707, -0.07707, 1.27573e-12, -1.09373e-12, -0.0237006, -6.35114e-05, -0.000271543, -0.000166033, -0.00013519, -0.203862, 12.9217, -10.8054, -1.72758, -18.4241, 14.7325, 10.5952, -0.28829, 116.967, -36.5042, 12.569, -35.8937, -6.58068, 4.22487, 4.35624, 4.64027e-310, 0, 0, 12.9217, -10.8054, -1.72758, -18.4241, 7.36623, 5.2976, 7.36623, 0, 0, -18.0052, 0, 91.4221, 0, 0, 45.723, 8.73566e-06, 0, 0, 0, 0, 0, 0, 0
0.0212731, -0.0304545, 0.719969, 0.100836, -1.04705, 1.26653, -0.320314, 0.0997408, 0.229999, 0.999992, 0.229998, 0.999994, 0.027646, 0.0110828, -0.00112135, 0.0776104, -0.0776104, 1.27573e-12, -1.09372e-12, -0.0238719, -6.30435e-05, -0.000274579, -0.000166269, -0.000137291, -0.20491, 12.9397, -10.8111, -1.72564, -18.4296, 14.7314, 10.5958, -0.287618, 117.491, -36.7423, 12.6225, -36.0521, -6.5903, 4.26985, 4.36719, 4.64027e-310, 0, 0, 12.9397, -10.8111, -1.72564, -18.4296, 7.36572, 5.29792, 7.36572, 0, 0, -17.988, 0, 91.5106, 0, 0, 45.7666, 8.26005e-06, 0, 0, 0, 0, 0, 0, 0
0.0214272, -0.0304528, 0.719969, 0.100848, -1.04706, 1.26653, -0.320314, 0.0997371, 0.229999, 0.999992, 0.229998, 0.999994, 0.0276143, 0.0111599, -0.00112929, 0.0781504, -0.0781504, 1.27573e-12, -1.09372e-12, -0.0240432, -6.25633e-05, -0.000277716, -0.000166491, -0.000139495, -0.205949, 12.9579, -10.8168, -1.72369, -18.4352, 14.7304, 10.5965, -0.286944, 118.016, -36.9803, 12.6759, -36.2104, -6.59993, 4.31483, 4.37814, 4.64027e-310, 0, 0, 12.9579, -10.8168, -1.72369, -18.4352, 7.36522, 5.29825, 7.36522, 0, 0, -17.9708, 0, 91.5994, 0, 0, 45.8104, 7.79576e-06, 0, 0, 0, 0, 0, 0, 0
0.0215814, -0.0304511, 0.719969, 0.10086, -1.04707, 1.26653, -0.320314, 0.0997334, 0.229999, 0.999992, 0.229998, 0.999994, 0.0275825, 0.011237, -0.00113722, 0.07869, -0.07869, 1.27573e-12, -1.09372e-12, -0.0242146, -6.20711e-05, -0.000280949, -0.0001667, -0.000141797, -0.206981, 12.9761, -10.8225, -1.72173, -18.4408, 14.7294, 10.5972, -0.286268, 118.54, -37.2183, 12.7294, -36.3687, -6.60955, 4.35981, 4.38909, 4.64027e-310, 0, 0, 12.9761, -10.8225, -1.72173, -18.4408, 7.36471, 5.29859, 7.36471, 0, 0, -17.9536, 0, 91.6887, 0, 0, 45.8544, 7.34277e-06, 0, 0, 0, 0, 0, 0, 0
0.0217355, -0.0304494, 0.719969, 0.100872, -1.04709, 1.26653, -0.320314, 0.0997296, 0.229999, 0.999992, 0.229998, 0.999994, 0.0275505, 0.011314, -0.00114516, 0.0792293, -0.0792293, 1.27573e-12, -1.09371e-12, -0.0243861, -6.15674e-05, -0.000284276, -0.000166896, -0.000144193, -0.208004, 12.9944, -10.8282, -1.71977, -18.4464, 14.7284, 10.5979, -0.285591, 119.064, -37.4563, 12.7829, -36.5271, -6.61917, 4.40479, 4.40004, 4.64027e-310, 0, 0, 12.9944, -10.8282, -1.71977, -18.4464, 7.3642, 5.29893, 7.3642, 0, 0, -17.9363, 0, 91.7784, 0, 0, 45.8987, 6.90104e-06, 0, 0, 0, 0, 0, 0, 0
0.0218897, -0.0304476, 0.719969, 0.100885, -1.0471, 1.26653, -0.320314, 0.0997259, 0.229999, 0.999992, 0.229998, 0.999994, 0.0275183, 0.0113909, -0.00115308, 0.0797682, -0.0797682, 1.27573e-12, -1.09371e-12, -0.0245576, -6.10524e-05, -0.00028769, -0.000167081, -0.000146679, -0.209019, 13.0128, -10.834, -1.71779, -18.452, 14.7274, 10.5985, -0.284912, 119.589, -37.6944, 12.8363, -36.6854, -6.62879, 4.44977, 4.41099, 4.64027e-310, 0, 0, 13.0128, -10.834, -1.71779, -18.452, 7.36369, 5.29927, 7.36369, 0, 0, -17.9189, 0, 91.8685, 0, 0, 45.9432, 6.47056e-06, 0, 0, 0, 0, 0, 0, 0
0.0220438, -0.0304458, 0.719968, 0.100897, -1.04711, 1.26653, -0.320314, 0.0997221, 0.229999, 0.999992, 0.229998, 0.999994, 0.027486, 0.0114678, -0.00116101, 0.0803067, -0.0803067, 1.27573e-12, -1.09371e-12, -0.0247292, -6.05266e-05, -0.00029119, -0.000167253, -0.000149251, -0.210026, 13.0313, -10.8399, -1.71581, -18.4577, 14.7264, 10.5992, -0.284231, 120.113, -37.9324, 12.8898, -36.8437, -6.63841, 4.49475, 4.42194, 4.64027e-310, 0, 0, 13.0313, -10.8399, -1.71581, -18.4577, 7.36318, 5.29961, 7.36318, 0, 0, -17.9015, 0, 91.9591, 0, 0, 45.9879, 6.05129e-06, 0, 0, 0, 0, 0, 0, 0
0.022198, -0.0304441, 0.719968, 0.10091, -1.04712, 1.26653, -0.320314, 0.0997182, 0.229999, 0.999992, 0.229998, 0.999994, 0.0274536, 0.0115446, -0.00116893, 0.0808448, -0.0808448, 1.27573e-12, -1.09371e-12, -0.0249009, -5.99903e-05, -0.000294769, -0.000167415, -0.000151903, -0.211025, 13.0499, -10.8457, -1.71382, -18.4634, 14.7253, 10.5999, -0.283548, 120.637, -38.1704, 12.9432, -37.0021, -6.64803, 4.53973, 4.43289, 4.64027e-310, 0, 0, 13.0499, -10.8457, -1.71382, -18.4634, 7.36266, 5.29996, 7.36266, 0, 0, -17.884, 0, 92.05, 0, 0, 46.0328, 5.64321e-06, 0, 0, 0, 0, 0, 0, 0
0.0223521, -0.0304423, 0.719968, 0.100922, -1.04714, 1.26653, -0.320314, 0.0997144, 0.229999, 0.999992, 0.229998, 0.999994, 0.027421, 0.0116214, -0.00117685, 0.0813825, -0.0813825, 1.27573e-12, -1.09371e-12, -0.0250726, -5.94439e-05, -0.000298424, -0.000167565, -0.000154633, -0.212016, 13.0685, -10.8516, -1.71182, -18.4691, 14.7243, 10.6006, -0.282864, 121.162, -38.4085, 12.9967, -37.1604, -6.65765, 4.58471, 4.44384, 4.64027e-310, 0, 0, 13.0685, -10.8516, -1.71182, -18.4691, 7.36215, 5.30031, 7.36215, 0, 0, -17.8664, 0, 92.1414, 0, 0, 46.078, 5.2463e-06, 0, 0, 0, 0, 0, 0, 0
0.0225063, -0.0304405, 0.719968, 0.100935, -1.04715, 1.26653, -0.320314, 0.0997105, 0.229999, 0.999992, 0.229998, 0.999994, 0.0273882, 0.0116981, -0.00118477, 0.0819199, -0.0819199, 1.27573e-12, -1.09371e-12, -0.0252443, -5.88878e-05, -0.000302152, -0.000167704, -0.000157436, -0.212999, 13.0872, -10.8576, -1.70981, -18.4748, 14.7233, 10.6013, -0.282178, 121.686, -38.6465, 13.0502, -37.3187, -6.66727, 4.62968, 4.45479, 4.64027e-310, 0, 0, 13.0872, -10.8576, -1.70981, -18.4748, 7.36164, 5.30067, 7.36164, 0, 0, -17.8488, 0, 92.2333, 0, 0, 46.1234, 4.86052e-06, 0, 0, 0, 0, 0, 0, 0
0.0226604, -0.0304387, 0.719968, 0.100947, -1.04716, 1.26653, -0.320314, 0.0997066, 0.229999, 0.999992, 0.229998, 0.999994, 0.0273553, 0.0117748, -0.00119269, 0.0824568, -0.0824568, 1.27573e-12, -1.09371e-12, -0.0254161, -5.83223e-05, -0.000305946, -0.000167834, -0.000160308, -0.213973, 13.106, -10.8635, -1.7078, -18.4806, 14.7222, 10.6021, -0.281491, 122.21, -38.8845, 13.1036, -37.477, -6.67689, 4.67466, 4.46574, 4.64027e-310, 0, 0, 13.106, -10.8635, -1.7078, -18.4806, 7.36112, 5.30103, 7.36112, 0, 0, -17.8311, 0, 92.3255, 0, 0, 46.169, 4.48584e-06, 0, 0, 0, 0, 0, 0, 0
0.0228146, -0.0304369, 0.719968, 0.10096, -1.04717, 1.26653, -0.320314, 0.0997027, 0.229999, 0.999992, 0.229998, 0.999994, 0.0273223, 0.0118514, -0.0012006, 0.0829934, -0.0829934, 1.27573e-12, -1.09371e-12, -0.025588, -5.77478e-05, -0.000309805, -0.000167953, -0.000163245, -0.214939, 13.1249, -10.8695, -1.70577, -18.4864, 14.7212, 10.6028, -0.280802, 122.735, -39.1226, 13.1571, -37.6354, -6.68651, 4.71964, 4.47669, 4.64027e-310, 0, 0, 13.1249, -10.8695, -1.70577, -18.4864, 7.36061, 5.30139, 7.36061, 0, 0, -17.8134, 0, 92.4182, 0, 0, 46.2148, 4.12225e-06, 0, 0, 0, 0, 0, 0, 0
0.0229688, -0.030435, 0.719967, 0.100973, -1.04719, 1.26653, -0.320314, 0.0996987, 0.229999, 0.999992, 0.229998, 0.999994, 0.027289, 0.0119279, -0.00120851, 0.0835295, -0.0835295, 1.27573e-12, -1.09371e-12, -0.0257599, -5.71647e-05, -0.000313722, -0.000168063, -0.000166242, -0.215897, 13.1438, -10.8756, -1.70374, -18.4922, 14.7202, 10.6035, -0.280111, 123.259, -39.3606, 13.2106, -37.7937, -6.69613, 4.76462, 4.48764, 4.64027e-310, 0, 0, 13.1438, -10.8756, -1.70374, -18.4922, 7.36009, 5.30175, 7.36009, 0, 0, -17.7956, 0, 92.5113, 0, 0, 46.2609, 3.76971e-06, 0, 0, 0, 0, 0, 0, 0
0.0231229, -0.0304332, 0.719967, 0.100986, -1.0472, 1.26653, -0.320314, 0.0996947, 0.229999, 0.999992, 0.229998, 0.999993, 0.0272557, 0.0120044, -0.00121641, 0.0840653, -0.0840653, 1.27573e-12, -1.09371e-12, -0.0259318, -5.65733e-05, -0.000317695, -0.000168164, -0.000169296, -0.216846, 13.1629, -10.8817, -1.7017, -18.498, 14.7192, 10.6042, -0.279418, 123.783, -39.5986, 13.264, -37.952, -6.70575, 4.8096, 4.49859, 4.64027e-310, 0, 0, 13.1629, -10.8817, -1.7017, -18.498, 7.35958, 5.30212, 7.35958, 0, 0, -17.7778, 0, 92.6048, 0, 0, 46.3072, 3.42819e-06, 0, 0, 0, 0, 0, 0, 0
0.0232771, -0.0304313, 0.719967, 0.100999, -1.04721, 1.26653, -0.320314, 0.0996907, 0.229999, 0.999992, 0.229998, 0.999993, 0.0272222, 0.0120808, -0.00122432, 0.0846006, -0.0846006, 1.27573e-12, -1.09372e-12, -0.0261038, -5.59741e-05, -0.000321718, -0.000168256, -0.000172402, -0.217788, 13.182, -10.8878, -1.69965, -18.5039, 14.7181, 10.605, -0.278724, 124.308, -39.8366, 13.3175, -38.1104, -6.71537, 4.85458, 4.50954, 4.64027e-310, 0, 0, 13.182, -10.8878, -1.69965, -18.5039, 7.35906, 5.30249, 7.35906, 0, 0, -17.7599, 0, 92.6988, 0, 0, 46.3537, 3.09767e-06, 0, 0, 0, 0, 0, 0, 0
0.0234312, -0.0304294, 0.719967, 0.101012, -1.04723, 1.26653, -0.320314, 0.0996867, 0.229999, 0.999992, 0.229998, 0.999993, 0.0271886, 0.0121572, -0.00123222, 0.0851356, -0.0851356, 1.27573e-12, -1.09372e-12, -0.0262758, -5.53674e-05, -0.000325789, -0.000168339, -0.000175556, -0.21872, 13.2012, -10.894, -1.69759, -18.5098, 14.7171, 10.6057, -0.278028, 124.832, -40.0747, 13.371, -38.2687, -6.72499, 4.89956, 4.52049, 4.64027e-310, 0, 0, 13.2012, -10.894, -1.69759, -18.5098, 7.35854, 5.30287, 7.35854, 0, 0, -17.7419, 0, 92.7931, 0, 0, 46.4004, 2.77812e-06, 0, 0, 0, 0, 0, 0, 0
0.0235854, -0.0304276, 0.719967, 0.101025, -1.04724, 1.26653, -0.320314, 0.0996826, 0.229999, 0.999992, 0.229998, 0.999993, 0.0271548, 0.0122335, -0.00124011, 0.0856701, -0.0856701, 1.27573e-12, -1.09372e-12, -0.0264478, -5.47535e-05, -0.000329902, -0.000168414, -0.000178753, -0.219645, 13.2205, -10.9002, -1.69553, -18.5157, 14.716, 10.6065, -0.27733, 125.356, -40.3127, 13.4244, -38.427, -6.73461, 4.94454, 4.53144, 4.64027e-310, 0, 0, 13.2205, -10.9002, -1.69553, -18.5157, 7.35802, 5.30325, 7.35802, 0, 0, -17.7239, 0, 92.8879, 0, 0, 46.4474, 2.4695e-06, 0, 0, 0, 0, 0, 0, 0
0.0237395, -0.0304257, 0.719966, 0.101038, -1.04725, 1.26653, -0.320314, 0.0996785, 0.229999, 0.999992, 0.229998, 0.999993, 0.0271208, 0.0123098, -0.00124801, 0.0862042, -0.0862042, 1.27573e-12, -1.09373e-12, -0.0266199, -5.41329e-05, -0.000334053, -0.000168482, -0.000181991, -0.220561, 13.2399, -10.9064, -1.69345, -18.5216, 14.715, 10.6073, -0.276631, 125.881, -40.5507, 13.4779, -38.5854, -6.74423, 4.98952, 4.54239, 4.64027e-310, 0, 0, 13.2399, -10.9064, -1.69345, -18.5216, 7.3575, 5.30363, 7.3575, 0, 0, -17.7058, 0, 92.9831, 0, 0, 46.4946, 2.1718e-06, 0, 0, 0, 0, 0, 0, 0
0.0238937, -0.0304238, 0.719966, 0.101052, -1.04727, 1.26653, -0.320314, 0.0996744, 0.229999, 0.999991, 0.229998, 0.999993, 0.0270868, 0.012386, -0.0012559, 0.0867379, -0.0867379, 1.27573e-12, -1.09373e-12, -0.026792, -5.35058e-05, -0.000338238, -0.000168542, -0.000185263, -0.221469, 13.2593, -10.9127, -1.69137, -18.5276, 14.714, 10.608, -0.27593, 126.405, -40.7888, 13.5313, -38.7437, -6.75385, 5.0345, 4.55333, 4.64027e-310, 0, 0, 13.2593, -10.9127, -1.69137, -18.5276, 7.35698, 5.30402, 7.35698, 0, 0, -17.6877, 0, 93.0788, 0, 0, 46.542, 1.88497e-06, 0, 0, 0, 0, 0, 0, 0
0.0240478, -0.0304219, 0.719966, 0.101065, -1.04728, 1.26653, -0.320314, 0.0996703, 0.229999, 0.999991, 0.229997, 0.999993, 0.0270526, 0.0124621, -0.00126379, 0.0872712, -0.0872712, 1.27573e-12, -1.09374e-12, -0.0269642, -5.28728e-05, -0.000342454, -0.000168596, -0.000188568, -0.222369, 13.2788, -10.919, -1.68928, -18.5336, 14.7129, 10.6088, -0.275227, 126.929, -41.0268, 13.5848, -38.902, -6.76348, 5.07948, 4.56428, 4.64027e-310, 0, 0, 13.2788, -10.919, -1.68928, -18.5336, 7.35646, 5.30441, 7.35646, 0, 0, -17.6695, 0, 93.1749, 0, 0, 46.5897, 1.609e-06, 0, 0, 0, 0, 0, 0, 0
0.024202, -0.0304199, 0.719966, 0.101078, -1.04729, 1.26653, -0.320314, 0.0996661, 0.229999, 0.999991, 0.229997, 0.999993, 0.0270182, 0.0125382, -0.00127168, 0.0878041, -0.0878041, 1.27573e-12, -1.09375e-12, -0.0271363, -5.22341e-05, -0.000346695, -0.000168642, -0.000191899, -0.22326, 13.2984, -10.9253, -1.68718, -18.5396, 14.7119, 10.6096, -0.274522, 127.454, -41.2648, 13.6383, -39.0603, -6.7731, 5.12446, 4.57523, 4.64027e-310, 0, 0, 13.2984, -10.9253, -1.68718, -18.5396, 7.35594, 5.3048, 7.35594, 0, 0, -17.6513, 0, 93.2714, 0, 0, 46.6376, 1.34385e-06, 0, 0, 0, 0, 0, 0, 0
0.0243561, -0.030418, 0.719966, 0.101092, -1.04731, 1.26653, -0.320314, 0.0996619, 0.229999, 0.999991, 0.229997, 0.999993, 0.0269837, 0.0126142, -0.00127956, 0.0883366, -0.0883366, 1.27573e-12, -1.09375e-12, -0.0273085, -5.15901e-05, -0.000350958, -0.000168683, -0.000195253, -0.224142, 13.3181, -10.9317, -1.68508, -18.5456, 14.7108, 10.6104, -0.273816, 127.978, -41.5029, 13.6917, -39.2187, -6.78272, 5.16944, 4.58618, 4.64027e-310, 0, 0, 13.3181, -10.9317, -1.68508, -18.5456, 7.35542, 5.3052, 7.35542, 0, 0, -17.633, 0, 93.3683, 0, 0, 46.6857, 1.0895e-06, 0, 0, 0, 0, 0, 0, 0
0.0245103, -0.030416, 0.719965, 0.101106, -1.04732, 1.26653, -0.320314, 0.0996577, 0.229999, 0.999991, 0.229997, 0.999993, 0.0269491, 0.0126902, -0.00128744, 0.0888687, -0.0888687, 1.27573e-12, -1.09376e-12, -0.0274807, -5.09412e-05, -0.000355238, -0.000168717, -0.000198627, -0.225017, 13.3379, -10.9381, -1.68296, -18.5517, 14.7098, 10.6112, -0.273108, 128.502, -41.7409, 13.7452, -39.377, -6.79234, 5.21441, 4.59713, 4.64027e-310, 0, 0, 13.3379, -10.9381, -1.68296, -18.5517, 7.35489, 5.3056, 7.35489, 0, 0, -17.6146, 0, 93.4656, 0, 0, 46.734, 8.45902e-07, 0, 0, 0, 0, 0, 0, 0
0.0246644, -0.0304141, 0.719965, 0.101119, -1.04733, 1.26653, -0.320314, 0.0996534, 0.229999, 0.999991, 0.229997, 0.999993, 0.0269144, 0.0127661, -0.00129532, 0.0894003, -0.0894003, 1.27573e-12, -1.09377e-12, -0.0276529, -5.02878e-05, -0.000359532, -0.000168746, -0.000202014, -0.225882, 13.3577, -10.9446, -1.68084, -18.5578, 14.7087, 10.612, -0.272399, 129.027, -41.9789, 13.7987, -39.5353, -6.80196, 5.25939, 4.60808, 4.64027e-310, 0, 0, 13.3577, -10.9446, -1.68084, -18.5578, 7.35437, 5.306, 7.35437, 0, 0, -17.5962, 0, 93.5634, 0, 0, 46.7825, 6.13042e-07, 0, 0, 0, 0, 0, 0, 0
0.0248186, -0.0304121, 0.719965, 0.101133, -1.04735, 1.26653, -0.320314, 0.0996491, 0.229999, 0.999991, 0.229997, 0.999993, 0.0268795, 0.0128419, -0.00130319, 0.0899315, -0.0899315, 1.27573e-12, -1.09378e-12, -0.0278251, -4.96302e-05, -0.000363835, -0.00016877, -0.000205413, -0.22674, 13.3777, -10.951, -1.67871, -18.5639, 14.7077, 10.6128, -0.271688, 129.551, -42.2169, 13.8521, -39.6937, -6.81158, 5.30437, 4.61903, 4.64027e-310, 0, 0, 13.3777, -10.951, -1.67871, -18.5639, 7.35385, 5.30641, 7.35385, 0, 0, -17.5777, 0, 93.6616, 0, 0, 46.8313, 3.90885e-07, 0, 0, 0, 0, 0, 0, 0
0.0249727, -0.0304101, 0.719965, 0.101147, -1.04736, 1.26653, -0.320314, 0.0996448, 0.229999, 0.999991, 0.229997, 0.999993, 0.0268445, 0.0129177, -0.00131106, 0.0904623, -0.0904623, 1.27573e-12, -1.09378e-12, -0.0279974, -4.89688e-05, -0.000368143, -0.000168789, -0.000208817, -0.227588, 13.3977, -10.9576, -1.67657, -18.57, 14.7066, 10.6136, -0.270975, 130.075, -42.455, 13.9056, -39.852, -6.8212, 5.34935, 4.62998, 4.64027e-310, 0, 0, 13.3977, -10.9576, -1.67657, -18.57, 7.35332, 5.30682, 7.35332, 0, 0, -17.5591, 0, 93.7602, 0, 0, 46.8803, 1.794e-07, 0, 0, 0, 0, 0, 0, 0
0.0251269, -0.0304081, 0.719965, 0.101161, -1.04738, 1.26653, -0.320314, 0.0996405, 0.229999, 0.999991, 0.229997, 0.999993, 0.0268093, 0.0129934, -0.00131893, 0.0909926, -0.0909926, 1.27573e-12, -1.09379e-12, -0.0281696, -4.8304e-05, -0.000372452, -0.000168804, -0.000212224, -0.228429, 13.4178, -10.9641, -1.67442, -18.5762, 14.7056, 10.6145, -0.27026, 130.6, -42.693, 13.959, -40.0103, -6.83082, 5.39433, 4.64093, 4.64027e-310, 0, 0, 13.4178, -10.9641, -1.67442, -18.5762, 7.35279, 5.30723, 7.35279, 0, 0, -17.5406, 0, 93.8592, 0, 0, 46.9296, -2.14422e-08, 0, 0, 0, 0, 0, 0, 0
0.025281, -0.0304061, 0.719964, 0.101175, -1.04739, 1.26653, -0.320314, 0.0996362, 0.229999, 0.999991, 0.229997, 0.999993, 0.026774, 0.0130691, -0.00132679, 0.0915225, -0.0915225, 1.27574e-12, -1.0938e-12, -0.0283419, -4.76361e-05, -0.000376757, -0.000168815, -0.000215629, -0.229261, 13.4379, -10.9707, -1.67227, -18.5823, 14.7045, 10.6153, -0.269544, 131.124, -42.931, 14.0125, -40.1687, -6.84044, 5.43931, 4.65188, 4.64027e-310, 0, 0, 13.4379, -10.9707, -1.67227, -18.5823, 7.35227, 5.30765, 7.35227, 0, 0, -17.5219, 0, 93.9587, 0, 0, 46.979, -2.11673e-07, 0, 0, 0, 0, 0, 0, 0
0.0254352, -0.0304041, 0.719964, 0.101189, -1.0474, 1.26653, -0.320314, 0.0996318, 0.229999, 0.999991, 0.229997, 0.999993, 0.0267386, 0.0131446, -0.00133466, 0.092052, -0.092052, 1.27574e-12, -1.09381e-12, -0.0285141, -4.69656e-05, -0.000381055, -0.000168822, -0.000219028, -0.230084, 13.4582, -10.9774, -1.6701, -18.5885, 14.7035, 10.6161, -0.268826, 131.648, -43.1691, 14.066, -40.327, -6.85006, 5.48429, 4.66283, 4.64027e-310, 0, 0, 13.4582, -10.9774, -1.6701, -18.5885, 7.35174, 5.30807, 7.35174, 0, 0, -17.5032, 0, 94.0586, 0, 0, 47.0287, -3.91324e-07, 0, 0, 0, 0, 0, 0, 0
0.0255894, -0.0304021, 0.719964, 0.101204, -1.04742, 1.26653, -0.320314, 0.0996274, 0.229999, 0.999991, 0.229997, 0.999993, 0.0267031, 0.0132202, -0.00134251, 0.092581, -0.092581, 1.27574e-12, -1.09382e-12, -0.0286864, -4.62927e-05, -0.000385341, -0.000168825, -0.000222416, -0.230898, 13.4785, -10.984, -1.66793, -18.5948, 14.7024, 10.617, -0.268106, 132.173, -43.4071, 14.1194, -40.4853, -6.85968, 5.52927, 4.67378, 4.64027e-310, 0, 0, 13.4785, -10.984, -1.66793, -18.5948, 7.35121, 5.3085, 7.35121, 0, 0, -17.4844, 0, 94.1589, 0, 0, 47.0787, -5.60426e-07, 0, 0, 0, 0, 0, 0, 0
0.0257435, -0.0304, 0.719964, 0.101218, -1.04743, 1.26653, -0.320314, 0.0996229, 0.229999, 0.999991, 0.229997, 0.999993, 0.0266674, 0.0132956, -0.00135037, 0.0931097, -0.0931097, 1.27574e-12, -1.09382e-12, -0.0288587, -4.5618e-05, -0.000389611, -0.000168826, -0.00022579, -0.231705, 13.499, -10.9908, -1.66575, -18.601, 14.7014, 10.6179, -0.267385, 132.697, -43.6451, 14.1729, -40.6436, -6.8693, 5.57425, 4.68473, 4.64027e-310, 0, 0, 13.499, -10.9908, -1.66575, -18.601, 7.35068, 5.30893, 7.35068, 0, 0, -17.4656, 0, 94.2596, 0, 0, 47.1288, -7.19009e-07, 0, 0, 0, 0, 0, 0, 0
0.0258977, -0.030398, 0.719964, 0.101232, -1.04745, 1.26653, -0.320314, 0.0996185, 0.229999, 0.999991, 0.229997, 0.999993, 0.0266317, 0.013371, -0.00135822, 0.0936378, -0.0936378, 1.27574e-12, -1.09383e-12, -0.0290309, -4.49417e-05, -0.000393862, -0.000168824, -0.000229146, -0.232502, 13.5194, -10.9975, -1.66356, -18.6073, 14.7003, 10.6187, -0.266662, 133.221, -43.8832, 14.2264, -40.802, -6.87892, 5.61923, 4.69568, 4.64027e-310, 0, 0, 13.5194, -10.9975, -1.66356, -18.6073, 7.35015, 5.30936, 7.35015, 0, 0, -17.4467, 0, 94.3608, 0, 0, 47.1792, -8.67106e-07, 0, 0, 0, 0, 0, 0, 0
