flxalr/sts-optimization-reemc/input/477_104/pos.csv
time;base_link_tx;base_link_ty;base_link_tz;base_link_rz;base_link_ry;base_link_rx;leg_left_1_joint;leg_left_2_joint;leg_left_3_joint;leg_left_4_joint;leg_left_5_joint;leg_left_6_joint;leg_right_1_joint;leg_right_2_joint;leg_right_3_joint;leg_right_4_joint;leg_right_5_joint;leg_right_6_joint;torso_1_joint;torso_2_joint;arm_left_1_joint;arm_left_2_joint;arm_left_3_joint;arm_left_4_joint;arm_left_5_joint;arm_left_6_joint;arm_left_7_joint;arm_right_1_joint;arm_right_2_joint;arm_right_3_joint;arm_right_4_joint;arm_right_5_joint;arm_right_6_joint;arm_right_7_joint;head_1_joint;head_2_joint
0.0;-0.11185743797792702;-0.067868703947961;0.7275137878825169;0.004686735367549158;0.13075992629847663;-0.010412304888451684;-0.001496628447582991;9.497982731764693e-06;-1.0462017240522812;1.2665214191070282;-0.3203199767238683;9.527892906483729e-06;-0.0014985630915726525;9.507952790004623e-06;-1.0462085061588908;1.2665242824082021;-0.3202740683544488;-9.517922848244122e-06;9.204006810965144e-05;0.10001687401248677;0.22997745018331314;0.13009373820736625;2.8857629354561712e-05;1.0000220988203532;9.130919118318449e-06;-2.2827297795796123e-05;4.108913603243303e-05;0.23000813020601635;0.13010907821871787;4.4197640706178376e-05;0.999915562441516;9.130919118318449e-06;1.8261838236636895e-05;-2.739275735495535e-05;-0.005313147336269974;0.03910272165488005
0.01981520652770996;-0.11190851745048208;-0.06779244180689331;0.7275130428532699;0.004611893979875258;0.1306959654635668;-0.010508673533780806;-0.001496628447582991;9.497982731764693e-06;-1.0462017240522812;1.2665214191070282;-0.3203199767238683;9.527892906483729e-06;-0.0014985630915726525;9.507952790004623e-06;-1.0462085061588908;1.2665242824082021;-0.3202740683544488;-9.517922848244122e-06;9.204006810965144e-05;0.10001687401248677;0.22997745018331314;0.13009373820736625;2.8857629354561712e-05;1.0000220988203532;9.130919118318449e-06;-2.2827297795796123e-05;4.108913603243303e-05;0.23000813020601635;0.13010907821871787;4.4197640706178376e-05;0.9999462424642194;9.130919118318449e-06;1.8261838236636895e-05;-2.739275735495535e-05;-0.005313147336269974;0.03910272165488005
0.039784908294677734;-0.11189787667190199;-0.06778075091585725;0.7275157688788141;0.00452246089868041;0.130718907578834;-0.010510947168049838;-0.001496628447582991;9.497982731764693e-06;-1.0462017240522812;1.2665214191070282;-0.3203199767238683;9.527892906483729e-06;-0.0014985630915726525;9.507952790004623e-06;-1.0462085061588908;1.2665242824082021;-0.3202740683544488;-9.517922848244122e-06;9.204006810965144e-05;0.10001687401248677;0.22997745018331314;0.13009373820736625;2.8857629354561712e-05;1.0000220988203532;0.0;-2.2827297795796123e-05;4.108913603243303e-05;0.23000813020601635;0.13010907821871787;4.4197640706178376e-05;0.9999769224869226;9.130919118318449e-06;1.8261838236636895e-05;-2.739275735495535e-05;-0.005313147336269974;0.04063861139663505
0.05984091758728027;-0.11187889607599774;-0.06781166423536429;0.7275158072318264;0.004493554932857622;0.13074806324592736;-0.010462493102492532;-0.001496628447582991;9.497982731764693e-06;-1.0462017240522812;1.2665214191070282;-0.3203199767238683;9.527892906483729e-06;-0.0014985630915726525;9.507952790004623e-06;-1.0462085061588908;1.2665242824082021;-0.3202740683544488;-9.517922848244122e-06;9.204006810965144e-05;0.10001687401248677;0.22997745018331314;0.13009373820736625;2.8857629354561712e-05;1.0000220988203532;9.130919118318449e-06;-2.2827297795796123e-05;4.108913603243303e-05;0.23000813020601635;0.13010907821871787;4.4197640706178376e-05;0.9999769224869226;9.130919118318449e-06;1.8261838236636895e-05;-2.739275735495535e-05;-0.005313147336269974;0.04063861139663505
0.0799403190612793;-0.11184638773797079;-0.0677885881142954;0.7275229562269272;0.004411006737339125;0.13080029081938854;-0.010481840263684709;-0.001496628447582991;9.497982731764693e-06;-1.0462017240522812;1.2665214191070282;-0.3203199767238683;9.527892906483729e-06;-0.0014985630915726525;9.507952790004623e-06;-1.0462085061588908;1.2665242824082021;-0.3202740683544488;-9.517922848244122e-06;9.204006810965144e-05;0.10001687401248677;0.22997745018331314;0.13009373820736625;2.8857629354561712e-05;1.0000220988203532;9.130919118318449e-06;-2.2827297795796123e-05;4.108913603243303e-05;0.23000813020601635;0.13010907821871787;4.4197640706178376e-05;0.9999922624982742;9.130919118318449e-06;1.8261838236636895e-05;-2.739275735495535e-05;-0.005313147336269974;0.04063861139663505
0.09978818893432617;-0.11184101252600062;-0.0677601609910935;0.7275264307675355;0.004428575401819167;0.1308057086840361;-0.010524820317863745;-0.001496628447582991;9.497982731764693e-06;-1.0462017240522812;1.2665214191070282;-0.3203199767238683;9.527892906483729e-06;-0.0014985630915726525;9.507952790004623e-06;-1.0462085061588908;1.2665242824082021;-0.3202740683544488;-9.517922848244122e-06;9.204006810965144e-05;0.10001687401248677;0.22997745018331314;0.13009373820736625;2.8857629354561712e-05;1.0000220988203532;9.130919118318449e-06;-2.2827297795796123e-05;4.108913603243303e-05;0.23000813020601635;0.13010907821871787;4.4197640706178376e-05;0.9999922624982742;9.130919118318449e-06;1.8261838236636895e-05;-2.739275735495535e-05;-0.005313147336269974;0.04063861139663505
0.11980509757995605;-0.11185964035001301;-0.0676661051073666;0.7275323209631954;0.0044151964544593995;0.1307803329259257;-0.01065590614853896;-0.001496628447582991;9.497982731764693e-06;-1.0462017240522812;1.2665214191070282;-0.3203199767238683;9.527892906483729e-06;-0.0014985630915726525;9.507952790004623e-06;-1.0462085061588908;1.2665242824082021;-0.3202740683544488;-9.517922848244122e-06;9.204006810965144e-05;0.10001687401248677;0.22997745018331314;0.13009373820736625;2.8857629354561712e-05;1.0000220988203532;9.130919118318449e-06;-2.2827297795796123e-05;4.108913603243303e-05;0.23000813020601635;0.13010907821871787;4.4197640706178376e-05;0.9999922624982742;9.130919118318449e-06;1.8261838236636895e-05;-2.739275735495535e-05;-0.005313147336269974;0.04063861139663505
0.13983678817749023;-0.11187311443820838;-0.06764891643278868;0.7275318476445513;0.004468851104725988;0.13075656852221437;-0.010688829252954534;-0.001496628447582991;9.497982731764693e-06;-1.0462017240522812;1.2665214191070282;-0.3203199767238683;9.527892906483729e-06;-0.0014985630915726525;9.507952790004623e-06;-1.0462085061588908;1.2665242824082021;-0.3203389791831978;-9.517922848244122e-06;9.204006810965144e-05;0.10001687401248677;0.22997745018331314;0.13009373820736625;2.8857629354561712e-05;1.0000220988203532;9.130919118318449e-06;-2.2827297795796123e-05;4.108913603243303e-05;0.23000813020601635;0.13009373820736625;4.4197640706178376e-05;0.9999922624982742;9.130919118318449e-06;1.8261838236636895e-05;-2.739275735495535e-05;-0.005313147336269974;0.04063861139663505
0.15982770919799805;-0.11193714335810902;-0.06773789042983408;0.727513720216101;0.00436666238673895;0.1306791646724609;-0.010547103678167004;-0.001496628447582991;9.497982731764693e-06;-1.0462017240522812;1.2665214191070282;-0.3203199767238683;9.527892906483729e-06;-0.0014985630915726525;9.507952790004623e-06;-1.0462085061588908;1.2665242824082021;-0.32035520689038505;-9.517922848244122e-06;9.204006810965144e-05;0.10001687401248677;0.22997745018331314;0.13009373820736625;2.8857629354561712e-05;1.0000220988203532;9.130919118318449e-06;-2.2827297795796123e-05;4.108913603243303e-05;0.23000813020601635;0.13009373820736625;4.4197640706178376e-05;0.9999922624982742;9.130919118318449e-06;1.8261838236636895e-05;-2.739275735495535e-05;-0.005313147336269974;0.04063861139663505
0.17990684509277344;-0.11191217723697647;-0.0677208335143543;0.7275191490675211;0.004331075387955571;0.13071665160107449;-0.010565435245074015;-0.001496628447582991;9.497982731764693e-06;-1.0462017240522812;1.2665214191070282;-0.3203199767238683;9.527892906483729e-06;-0.0014985630915726525;9.507952790004623e-06;-1.0462085061588908;1.2665242824082021;-0.32035520689038505;-9.517922848244122e-06;9.204006810965144e-05;0.10001687401248677;0.22997745018331314;0.13009373820736625;2.8857629354561712e-05;1.0000220988203532;9.130919118318449e-06;-2.2827297795796123e-05;4.108913603243303e-05;0.23000813020601635;0.1299556781052018;4.4197640706178376e-05;0.9999922624982742;9.130919118318449e-06;1.8261838236636895e-05;-2.739275735495535e-05;-0.005313147336269974;0.03910272165488005
0.199845552444458;-0.11191502643052764;-0.06765435728809431;0.7275248956322516;0.004324294071994444;0.13071263737343022;-0.010658442079103303;-0.001496628447582991;9.497982731764693e-06;-1.0462017240522812;1.2665214191070282;-0.3203199767238683;9.527892906483729e-06;-0.0014985630915726525;9.507952790004623e-06;-1.0462085061588908;1.2665242824082021;-0.32035520689038505;-9.517922848244122e-06;9.204006810965144e-05;0.10001687401248677;0.22997745018331314;0.13009373820736625;2.8857629354561712e-05;1.0000220988203532;9.130919118318449e-06;-2.2827297795796123e-05;4.108913603243303e-05;0.23000813020601635;0.1299403380938502;4.4197640706178376e-05;0.9999922624982742;9.130919118318449e-06;1.8261838236636895e-05;-2.739275735495535e-05;-0.005313147336269974;0.04063861139663505
0.21981430053710938;-0.11200580946792044;-0.06762241326117722;0.7275138945998899;0.004355828733245107;0.13058452354973263;-0.01070921019936206;-0.001496628447582991;9.497982731764693e-06;-1.0462017240522812;1.2665214191070282;-0.3203199767238683;9.527892906483729e-06;-0.0014985630915726525;9.507952790004623e-06;-1.0462085061588908;1.2665242824082021;-0.32035520689038505;-9.517922848244122e-06;9.204006810965144e-05;0.10001687401248677;0.22997745018331314;0.13009373820736625;2.8857629354561712e-05;1.0000220988203532;9.130919118318449e-06;-2.2827297795796123e-05;4.108913603243303e-05;0.23000813020601635;0.12992499808249858;4.4197640706178376e-05;0.9999922624982742;9.130919118318449e-06;1.8261838236636895e-05;-2.739275735495535e-05;-0.005313147336269974;0.04063861139663505
0.2398838996887207;-0.11203659308541286;-0.06763987462043186;0.7275075313265665;0.004273268945677624;0.1305501791225742;-0.010671569057040694;-0.001496628447582991;9.497982731764693e-06;-1.0462017240522812;1.2665214191070282;-0.3203199767238683;9.527892906483729e-06;-0.0014985630915726525;9.507952790004623e-06;-1.0462085061588908;1.2665242824082021;-0.32035520689038505;-9.517922848244122e-06;9.204006810965144e-05;0.10001687401248677;0.22997745018331314;0.13009373820736625;2.8857629354561712e-05;1.0000220988203532;9.130919118318449e-06;-2.2827297795796123e-05;4.108913603243303e-05;0.23000813020601635;0.12992499808249858;4.4197640706178376e-05;0.9999922624982742;9.130919118318449e-06;1.8261838236636895e-05;-2.739275735495535e-05;-0.005313147336269974;0.04063861139663505
0.2599825859069824;-0.11207836422300875;-0.06754998888998766;0.7275094489006905;0.0044142583971680995;0.13047849529972677;-0.010821429798187576;-0.001496628447582991;9.497982731764693e-06;-1.0462017240522812;1.2665214191070282;-0.3203199767238683;9.527892906483729e-06;-0.0014985630915726525;9.507952790004623e-06;-1.0462085061588908;1.2665242824082021;-0.32035520689038505;-9.517922848244122e-06;9.204006810965144e-05;0.10001687401248677;0.22997745018331314;0.13009373820736625;2.8857629354561712e-05;1.0000220988203532;9.130919118318449e-06;-2.2827297795796123e-05;4.108913603243303e-05;0.23000813020601635;0.12992499808249858;4.4197640706178376e-05;0.9999922624982742;9.130919118318449e-06;1.8261838236636895e-05;-2.739275735495535e-05;-0.005313147336269974;0.04063861139663505
0.27985215187072754;-0.1120843103281394;-0.06756507975608199;0.7275071314712653;0.004388063130156152;0.1304729512047687;-0.010795947669953483;-0.001496628447582991;9.497982731764693e-06;-1.0462017240522812;1.2665214191070282;-0.3203199767238683;9.527892906483729e-06;-0.0014985630915726525;9.507952790004623e-06;-1.0462085061588908;1.2665242824082021;-0.32035520689038505;-9.517922848244122e-06;9.204006810965144e-05;0.10001687401248677;0.22997745018331314;0.13009373820736625;2.8857629354561712e-05;1.0000220988203532;9.130919118318449e-06;-2.2827297795796123e-05;4.108913603243303e-05;0.23000813020601635;0.12992499808249858;4.4197640706178376e-05;0.9999922624982742;9.130919118318449e-06;1.8261838236636895e-05;-2.739275735495535e-05;-0.005313147336269974;0.04063861139663505
0.2999396324157715;-0.11216037647510314;-0.06760773766618551;0.7274914451197022;0.004163016877814855;0.13039005004062462;-0.010700249554977174;-0.001496628447582991;9.497982731764693e-06;-1.0462017240522812;1.2665214191070282;-0.3203199767238683;9.527892906483729e-06;-0.0014985630915726525;9.507952790004623e-06;-1.0462085061588908;1.2665242824082021;-0.32035520689038505;-9.517922848244122e-06;9.204006810965144e-05;0.10001687401248677;0.22997745018331314;0.13009373820736625;2.8857629354561712e-05;1.0000220988203532;9.130919118318449e-06;-2.2827297795796123e-05;4.108913603243303e-05;0.23000813020601635;0.12992499808249858;4.4197640706178376e-05;0.9999922624982742;9.130919118318449e-06;1.8261838236636895e-05;-2.739275735495535e-05;-0.005313147336269974;0.03910272165488005
0.31993865966796875;-0.11225860694162472;-0.06759167390635684;0.7274777864318552;0.004100195757094777;0.130260752714431;-0.010713554922279581;-0.001496628447582991;9.497982731764693e-06;-1.0462017240522812;1.2665214191070282;-0.3203199767238683;9.527892906483729e-06;-0.0014985630915726525;9.507952790004623e-06;-1.0462085061588908;1.2665242824082021;-0.32035520689038505;-9.517922848244122e-06;9.204006810965144e-05;0.10001687401248677;0.22997745018331314;0.13009373820736625;2.8857629354561712e-05;1.0000220988203532;9.130919118318449e-06;-2.2827297795796123e-05;4.108913603243303e-05;0.23000813020601635;0.12992499808249858;4.4197640706178376e-05;0.9999922624982742;9.130919118318449e-06;1.8261838236636895e-05;-2.739275735495535e-05;-0.005313147336269974;0.04063861139663505
0.3397793769836426;-0.11232429121734273;-0.06755282770266688;0.7274712558153931;0.004082918166687771;0.1301716449978234;-0.010766151211423743;-0.001496628447582991;9.497982731764693e-06;-1.0462017240522812;1.2665214191070282;-0.3203199767238683;9.527892906483729e-06;-0.0014985630915726525;9.507952790004623e-06;-1.0462085061588908;1.2665242824082021;-0.32035520689038505;-9.517922848244122e-06;9.204006810965144e-05;0.10001687401248677;0.22997745018331314;0.13009373820736625;2.8857629354561712e-05;1.0000220988203532;9.130919118318449e-06;-2.2827297795796123e-05;4.108913603243303e-05;0.23000813020601635;0.12992499808249858;4.4197640706178376e-05;0.9999922624982742;9.130919118318449e-06;1.8261838236636895e-05;-2.739275735495535e-05;-0.005313147336269974;0.03910272165488005
0.3598325252532959;-0.1122163775062481;-0.06751448891957641;0.727491468933508;0.00392662338245894;0.13033426179725527;-0.010794900130074378;-0.001496628447582991;9.497982731764693e-06;-1.0462017240522812;1.2665214191070282;-0.3203199767238683;9.527892906483729e-06;-0.0014985630915726525;9.507952790004623e-06;-1.0462085061588908;1.2665242824082021;-0.3203227514760105;-9.517922848244122e-06;9.204006810965144e-05;0.10001687401248677;0.22997745018331314;0.13009373820736625;2.8857629354561712e-05;1.0000220988203532;9.130919118318449e-06;-2.2827297795796123e-05;4.108913603243303e-05;0.23000813020601635;0.12992499808249858;4.4197640706178376e-05;0.9999922624982742;9.130919118318449e-06;1.8261838236636895e-05;-2.739275735495535e-05;-0.005313147336269974;0.04063861139663505
0.3799405097961426;-0.11222807865291808;-0.06753908250556594;0.7274873811014941;0.004037295096626986;0.1303080434708019;-0.010777782150829262;-0.001496628447582991;9.497982731764693e-06;-1.0462017240522812;1.2665214191070282;-0.3203199767238683;9.527892906483729e-06;-0.0014985630915726525;9.507952790004623e-06;-1.0462085061588908;1.2665242824082021;-0.32025784064726154;-9.517922848244122e-06;9.204006810965144e-05;0.10001687401248677;0.22997745018331314;0.13009373820736625;2.8857629354561712e-05;1.0000220988203532;9.130919118318449e-06;-2.2827297795796123e-05;4.108913603243303e-05;0.23000813020601635;0.12992499808249858;4.4197640706178376e-05;0.9999922624982742;9.130919118318449e-06;1.8261838236636895e-05;-2.739275735495535e-05;-0.005313147336269974;0.04063861139663505
0.39978718757629395;-0.11235420972668606;-0.06746225417362553;0.7274750406606639;0.004034170639439204;0.1301340748237323;-0.010886717311334653;-0.001496628447582991;9.497982731764693e-06;-1.0462017240522812;1.2665214191070282;-0.3203199767238683;9.527892906483729e-06;-0.0014985630915726525;9.507952790004623e-06;-1.0462085061588908;1.2665242824082021;-0.32025784064726154;-9.517922848244122e-06;9.204006810965144e-05;0.10001687401248677;0.22997745018331314;0.13009373820736625;2.8857629354561712e-05;1.0000220988203532;9.130919118318449e-06;-2.2827297795796123e-05;4.108913603243303e-05;0.23000813020601635;0.12992499808249858;4.4197640706178376e-05;0.9999922624982742;9.130919118318449e-06;1.8261838236636895e-05;-2.739275735495535e-05;-0.005313147336269974;0.03910272165488005
0.4198427200317383;-0.11241898506637203;-0.06744440818158692;0.7274666882871077;0.0038150555397488267;0.1300654252942432;-0.010877401808970257;-0.001496628447582991;9.497982731764693e-06;-1.0462017240522812;1.2665214191070282;-0.3203199767238683;9.527892906483729e-06;-0.0014985630915726525;9.507952790004623e-06;-1.0462085061588908;1.2665242824082021;-0.32025784064726154;-9.517922848244122e-06;9.204006810965144e-05;0.10001687401248677;0.22997745018331314;0.13009373820736625;2.8857629354561712e-05;1.0000220988203532;9.130919118318449e-06;-2.2827297795796123e-05;4.108913603243303e-05;0.23000813020601635;0.12992499808249858;4.4197640706178376e-05;0.9999922624982742;9.130919118318449e-06;1.8261838236636895e-05;-2.739275735495535e-05;-0.005313147336269974;0.03910272165488005
0.4399731159210205;-0.11237810208946034;-0.06758281823508178;0.7274601596073178;0.0037802387753964346;0.1301265245938361;-0.010675779790429907;-0.001496628447582991;9.497982731764693e-06;-1.0462017240522812;1.2665214191070282;-0.3203199767238683;9.527892906483729e-06;-0.0014985630915726525;9.507952790004623e-06;-1.0462085061588908;1.2665242824082021;-0.32025784064726154;-9.517922848244122e-06;9.204006810965144e-05;0.10001687401248677;0.22997745018331314;0.13009373820736625;2.8857629354561712e-05;1.0000220988203532;9.130919118318449e-06;-2.2827297795796123e-05;4.108913603243303e-05;0.23000813020601635;0.12992499808249858;4.4197640706178376e-05;0.9999922624982742;9.130919118318449e-06;1.8261838236636895e-05;-2.739275735495535e-05;-0.005313147336269974;0.04063861139663505
0.4599573612213135;-0.11244314344458281;-0.06745907478624397;0.7274615946474526;0.0037544965868253804;0.13003808167322037;-0.01084712167925647;-0.001496628447582991;9.497982731764693e-06;-1.0462017240522812;1.2665214191070282;-0.3203199767238683;9.527892906483729e-06;-0.0014985630915726525;9.507952790004623e-06;-1.0462085061588908;1.2665242824082021;-0.32025784064726154;-9.517922848244122e-06;9.204006810965144e-05;0.10001687401248677;0.22997745018331314;0.13009373820736625;2.8857629354561712e-05;1.0000220988203532;9.130919118318449e-06;-2.2827297795796123e-05;4.108913603243303e-05;0.23000813020601635;0.12992499808249858;4.4197640706178376e-05;0.9999922624982742;9.130919118318449e-06;1.8261838236636895e-05;-2.739275735495535e-05;-0.005313147336269974;0.03910272165488005
0.47977566719055176;-0.11238135217887818;-0.06741528282311428;0.7274752025258705;0.0036127658533856915;0.13013583412742105;-0.010886171331148489;-0.001496628447582991;9.497982731764693e-06;-1.0462017240522812;1.2665214191070282;-0.3203199767238683;9.527892906483729e-06;-0.0014985630915726525;9.507952790004623e-06;-1.0462085061588908;1.2665242824082021;-0.32025784064726154;-9.517922848244122e-06;9.204006810965144e-05;0.10001687401248677;0.22997745018331314;0.13009373820736625;2.8857629354561712e-05;1.0000220988203532;9.130919118318449e-06;-2.2827297795796123e-05;4.108913603243303e-05;0.23000813020601635;0.12992499808249858;4.4197640706178376e-05;0.9999922624982742;9.130919118318449e-06;1.8261838236636895e-05;-2.739275735495535e-05;-0.005313147336269974;0.03910272165488005
0.5000107288360596;-0.11239001808142958;-0.06735521061406063;0.7274794281658563;0.0036109448926059727;0.13012337524697715;-0.010970927298035974;-0.001496628447582991;9.497982731764693e-06;-1.0462017240522812;1.2665214191070282;-0.3203199767238683;9.527892906483729e-06;-0.0014985630915726525;9.507952790004623e-06;-1.0462085061588908;1.2665242824082021;-0.32035520689038505;-9.517922848244122e-06;8.43700624338431e-05;0.10000920400681096;0.22997745018331314;0.13009373820736625;2.8857629354561712e-05;1.0000220988203532;9.130919118318449e-06;-2.2827297795796123e-05;4.108913603243303e-05;0.23000813020601635;0.12992499808249858;4.4197640706178376e-05;0.9999922624982742;9.130919118318449e-06;1.8261838236636895e-05;-2.739275735495535e-05;-0.005313147336269974;0.04063861139663505
0.5199568271636963;-0.11234576548601674;-0.06739055842589116;0.727482989889205;0.0036307515363176498;0.13018276812105678;-0.010923839767404122;-0.001496628447582991;9.497982731764693e-06;-1.0462017240522812;1.2665214191070282;-0.3203199767238683;9.527892906483729e-06;-0.0014985630915726525;9.507952790004623e-06;-1.0462085061588908;1.2665242824082021;-0.32037143459757234;-9.517922848244122e-06;8.43700624338431e-05;0.10000920400681096;0.22997745018331314;0.13009373820736625;2.8857629354561712e-05;1.0000220988203532;9.130919118318449e-06;-2.2827297795796123e-05;4.108913603243303e-05;0.23000813020601635;0.12992499808249858;4.4197640706178376e-05;0.9999922624982742;9.130919118318449e-06;1.8261838236636895e-05;-2.739275735495535e-05;-0.005313147336269974;0.03910272165488005
0.539830207824707;-0.11229330830877597;-0.06743591322751986;0.727486886123709;0.003773879967686072;0.13024196121839432;-0.010882186223380271;-0.001496628447582991;9.497982731764693e-06;-1.0462017240522812;1.2665214191070282;-0.3203199767238683;9.527892906483729e-06;-0.0014985630915726525;9.507952790004623e-06;-1.0462085061588908;1.2665242824082021;-0.32037143459757234;-9.517922848244122e-06;7.67000567580417e-05;0.10000153400113516;0.22997745018331314;0.13009373820736625;2.8857629354561712e-05;1.0000220988203532;0.0;-2.2827297795796123e-05;4.108913603243303e-05;0.23000813020601635;0.12992499808249858;4.4197640706178376e-05;0.9999922624982742;9.130919118318449e-06;1.8261838236636895e-05;-2.739275735495535e-05;-0.005313147336269974;0.03910272165488005
0.5599541664123535;-0.11234396080634401;-0.06746439585743308;0.7274764248603964;0.0038249702920502655;0.13016786032187783;-0.010850293920529955;-0.001496628447582991;9.497982731764693e-06;-1.0462017240522812;1.2665214191070282;-0.3203199767238683;9.527892906483729e-06;-0.0014985630915726525;9.507952790004623e-06;-1.0462085061588908;1.2665242824082021;-0.32037143459757234;-9.517922848244122e-06;7.67000567580417e-05;0.10000153400113516;0.22997745018331314;0.13009373820736625;2.8857629354561712e-05;1.0000220988203532;9.130919118318449e-06;-2.2827297795796123e-05;4.108913603243303e-05;0.23000813020601635;0.12992499808249858;4.4197640706178376e-05;0.9999922624982742;9.130919118318449e-06;1.8261838236636895e-05;-2.739275735495535e-05;-0.005313147336269974;0.04063861139663505
0.579840898513794;-0.11242481316465511;-0.06746238311610124;0.7274641209124465;0.0038112203865115803;0.13005798382632183;-0.010851387193166882;-0.001496628447582991;9.497982731764693e-06;-1.0462017240522812;1.2665214191070282;-0.3203199767238683;9.527892906483729e-06;-0.0014985630915726525;9.507952790004623e-06;-1.0462085061588908;1.2665242824082021;-0.32037143459757234;-9.517922848244122e-06;7.67000567580417e-05;0.10000153400113516;0.22997745018331314;0.13009373820736625;2.8857629354561712e-05;1.0000220988203532;9.130919118318449e-06;-2.2827297795796123e-05;4.108913603243303e-05;0.23000813020601635;0.12992499808249858;4.4197640706178376e-05;0.9999922624982742;9.130919118318449e-06;1.8261838236636895e-05;-2.739275735495535e-05;-0.005313147336269974;0.04063861139663505
0.5998189449310303;-0.11241693210828442;-0.06748622702959468;0.7274631272459116;0.0039022577758128976;0.13006053156832764;-0.010832120315552361;-0.001496628447582991;9.497982731764693e-06;-1.0462017240522812;1.2665214191070282;-0.3203199767238683;9.527892906483729e-06;-0.0014985630915726525;9.507952790004623e-06;-1.0462085061588908;1.2665242824082021;-0.32037143459757234;-9.517922848244122e-06;7.67000567580417e-05;0.10000153400113516;0.22997745018331314;0.13009373820736625;2.8857629354561712e-05;1.0000220988203532;9.130919118318449e-06;-2.2827297795796123e-05;4.108913603243303e-05;0.23000813020601635;0.12992499808249858;4.4197640706178376e-05;0.9999922624982742;9.130919118318449e-06;1.8261838236636895e-05;-2.739275735495535e-05;-0.005313147336269974;0.03910272165488005
0.6198368072509766;-0.11239470277984474;-0.06744636024868068;0.7274702593522059;0.0038743036659874617;0.13009325781053813;-0.010883953024401597;-0.001496628447582991;9.497982731764693e-06;-1.0462017240522812;1.2665214191070282;-0.3203199767238683;9.527892906483729e-06;-0.0014985630915726525;9.507952790004623e-06;-1.0462085061588908;1.2665242824082021;-0.32037143459757234;-9.517922848244122e-06;6.903005108223337e-05;0.09999386399545936;0.22997745018331314;0.13009373820736625;2.8857629354561712e-05;1.0000220988203532;9.130919118318449e-06;-2.2827297795796123e-05;4.108913603243303e-05;0.23000813020601635;0.12992499808249858;4.4197640706178376e-05;1.0000076025096258;9.130919118318449e-06;1.8261838236636895e-05;-2.739275735495535e-05;-0.005313147336269974;0.04063861139663505
0.6398978233337402;-0.11241364578521358;-0.06741388017969317;0.7274703430148369;0.0037730698491689318;0.13007635527565842;-0.010913876406293101;-0.001496628447582991;9.497982731764693e-06;-1.0462017240522812;1.2665214191070282;-0.3203199767238683;9.527892906483729e-06;-0.0014985630915726525;9.507952790004623e-06;-1.0462085061588908;1.2665242824082021;-0.32037143459757234;-9.517922848244122e-06;6.136004540643197e-05;0.09998619398978356;0.22997745018331314;0.13009373820736625;2.8857629354561712e-05;1.0000220988203532;9.130919118318449e-06;-2.2827297795796123e-05;4.108913603243303e-05;0.23000813020601635;0.12992499808249858;4.4197640706178376e-05;1.0000076025096258;9.130919118318449e-06;1.8261838236636895e-05;-2.739275735495535e-05;-0.005313147336269974;0.04063861139663505
0.6598443984985352;-0.11232373637542178;-0.06742697965651406;0.7274830167273975;0.003842094179916832;0.13019361610480237;-0.010905856314511608;-0.001496628447582991;9.497982731764693e-06;-1.0462017240522812;1.2665214191070282;-0.3203199767238683;9.527892906483729e-06;-0.0014985630915726525;9.507952790004623e-06;-1.0462085061588908;1.2665242824082021;-0.3203389791831978;-9.517922848244122e-06;5.369003973063058e-05;0.09997852398410777;0.22997745018331314;0.13009373820736625;2.8857629354561712e-05;1.0000220988203532;9.130919118318449e-06;-2.2827297795796123e-05;4.108913603243303e-05;0.23000813020601635;0.12992499808249858;4.4197640706178376e-05;1.0000076025096258;9.130919118318449e-06;1.8261838236636895e-05;-2.739275735495535e-05;-0.005313147336269974;0.04063861139663505
0.6797573566436768;-0.11241685279302249;-0.06738462704613252;0.7274725577035162;0.0038327133025446974;0.1300660009937182;-0.01096479555544053;-0.001496628447582991;9.497982731764693e-06;-1.0462017240522812;1.2665214191070282;-0.3203199767238683;9.527892906483729e-06;-0.0014985630915726525;9.507952790004623e-06;-1.0462085061588908;1.2665242824082021;-0.32025784064726154;-9.517922848244122e-06;1.5340011351609728e-05;0.09994017395572874;0.22997745018331314;0.13009373820736625;2.8857629354561712e-05;1.0000220988203532;9.130919118318449e-06;-2.2827297795796123e-05;4.108913603243303e-05;0.23000813020601635;0.12992499808249858;4.4197640706178376e-05;1.0000076025096258;9.130919118318449e-06;1.8261838236636895e-05;-2.739275735495535e-05;-0.005313147336269974;0.04063861139663505
0.6998965740203857;-0.11244269161954713;-0.06738063666464579;0.7274689339550855;0.0038646828124424396;0.1300274315813117;-0.010975680272757856;-0.001496628447582991;9.497982731764693e-06;-1.0462017240522812;1.2665214191070282;-0.3203199767238683;9.527892906483729e-06;-0.0014985630915726525;9.507952790004623e-06;-1.0462085061588908;1.2665242824082021;-0.3202740683544488;-9.517922848244122e-06;-7.670005675808333e-06;0.09991716393870133;0.22997745018331314;0.13009373820736625;2.8857629354561712e-05;1.0000220988203532;9.130919118318449e-06;-2.2827297795796123e-05;4.108913603243303e-05;0.23000813020601635;0.12992499808249858;4.4197640706178376e-05;1.0000076025096258;9.130919118318449e-06;1.8261838236636895e-05;-2.739275735495535e-05;-0.005313147336269974;0.04063861139663505
0.719825267791748;-0.11238297589520121;-0.06737115487142255;0.7274790396884021;0.003964391595876162;0.13010004824192958;-0.011004663242189254;-0.001496628447582991;9.497982731764693e-06;-1.0462017240522812;1.2665214191070282;-0.3203199767238683;9.527892906483729e-06;-0.0014985630915726525;9.507952790004623e-06;-1.0462085061588908;1.2665242824082021;-0.3202740683544488;-9.517922848244122e-06;-1.5340011351609728e-05;0.0999094939330255;0.22997745018331314;0.13009373820736625;2.8857629354561712e-05;1.0000220988203532;9.130919118318449e-06;-2.2827297795796123e-05;4.108913603243303e-05;0.22999279019466476;0.12992499808249858;4.4197640706178376e-05;1.0000076025096258;9.130919118318449e-06;1.8261838236636895e-05;-2.739275735495535e-05;-0.005313147336269974;0.04063861139663505
0.739783525466919;-0.11230255456460125;-0.06737916291254945;0.7274907171979579;0.0039780908183971375;0.13020940504306155;-0.010995062944190217;-0.001496628447582991;9.497982731764693e-06;-1.0462017240522812;1.2665214191070282;-0.3203199767238683;9.527892906483729e-06;-0.0014985630915726525;9.507952790004623e-06;-1.0462085061588908;1.2665242824082021;-0.3202740683544488;-9.517922848244122e-06;-2.3010017027411123e-05;0.09990182392734973;0.22997745018331314;0.13009373820736625;2.8857629354561712e-05;1.0000220988203532;9.130919118318449e-06;-2.2827297795796123e-05;4.108913603243303e-05;0.2299314301492583;0.12992499808249858;4.4197640706178376e-05;1.0000076025096258;9.130919118318449e-06;1.8261838236636895e-05;-2.739275735495535e-05;-0.005313147336269974;0.04063861139663505
0.7597756385803223;-0.11235437210483;-0.06741490504982234;0.7274794049399496;0.003938068345211281;0.1301423430644668;-0.01093840203907311;-0.001496628447582991;9.497982731764693e-06;-1.0462017240522812;1.2665214191070282;-0.3203199767238683;9.527892906483729e-06;-0.0014985630915726525;9.507952790004623e-06;-1.0462085061588908;1.2665242824082021;-0.3202740683544488;-9.517922848244122e-06;-2.3010017027411123e-05;0.09990182392734973;0.22997745018331314;0.13009373820736625;2.8857629354561712e-05;1.0000220988203532;9.130919118318449e-06;-2.2827297795796123e-05;4.108913603243303e-05;0.2299160901379067;0.12992499808249858;4.4197640706178376e-05;1.0000076025096258;9.130919118318449e-06;1.8261838236636895e-05;-2.739275735495535e-05;-0.005313147336269974;0.04063861139663505
0.7799410820007324;-0.1122611158999719;-0.06740506569494076;0.7274947133424986;0.003914425852437156;0.13027264587936635;-0.010948040555832643;-0.001496628447582991;9.497982731764693e-06;-1.0462017240522812;1.2665214191070282;-0.3203199767238683;9.527892906483729e-06;-0.0014985630915726525;9.507952790004623e-06;-1.0462085061588908;1.2665242824082021;-0.3202740683544488;-9.517922848244122e-06;-2.3010017027411123e-05;0.09990182392734973;0.22997745018331314;0.13009373820736625;2.8857629354561712e-05;1.0000220988203532;9.130919118318449e-06;-2.2827297795796123e-05;4.108913603243303e-05;0.2299160901379067;0.12992499808249858;4.4197640706178376e-05;1.0000076025096258;9.130919118318449e-06;1.8261838236636895e-05;-2.739275735495535e-05;-0.005313147336269974;0.04063861139663505
0.7998192310333252;-0.11231931712983385;-0.06736735229982738;0.7274892231568307;0.00381945467955903;0.130201123779285;-0.01098659811131686;-0.001496628447582991;9.497982731764693e-06;-1.0462017240522812;1.2665214191070282;-0.3203199767238683;9.527892906483729e-06;-0.0014985630915726525;9.507952790004623e-06;-1.0462085061588908;1.2665242824082021;-0.3202740683544488;-9.517922848244122e-06;-2.3010017027411123e-05;0.09990182392734973;0.22997745018331314;0.13009373820736625;2.8857629354561712e-05;1.0000220988203532;9.130919118318449e-06;-2.2827297795796123e-05;4.108913603243303e-05;0.2299007501265551;0.12992499808249858;4.4197640706178376e-05;1.0000076025096258;9.130919118318449e-06;1.8261838236636895e-05;-2.739275735495535e-05;-0.005313147336269974;0.03910272165488005
0.819814920425415;-0.11225927456112239;-0.06744511496180657;0.7274912856581373;0.0037809737122359156;0.13028818658297261;-0.01087011339216764;-0.001496628447582991;9.497982731764693e-06;-1.0462017240522812;1.2665214191070282;-0.3203199767238683;9.527892906483729e-06;-0.0014985630915726525;9.507952790004623e-06;-1.0462085061588908;1.2665242824082021;-0.3202740683544488;-9.517922848244122e-06;-2.3010017027411123e-05;0.09990182392734973;0.22997745018331314;0.13009373820736625;2.8857629354561712e-05;1.0000220988203532;9.130919118318449e-06;-2.2827297795796123e-05;4.108913603243303e-05;0.2299007501265551;0.12992499808249858;4.4197640706178376e-05;1.0000076025096258;9.130919118318449e-06;1.8261838236636895e-05;-2.739275735495535e-05;-0.005313147336269974;0.04063861139663505
0.8397798538208008;-0.11226396910232916;-0.06741018340061636;0.7274937988608678;0.0037485929624102533;0.13028436666992588;-0.01091441121523961;-0.001496628447582991;9.497982731764693e-06;-1.0462017240522812;1.2665214191070282;-0.3203199767238683;9.527892906483729e-06;-0.0014985630915726525;9.507952790004623e-06;-1.0462085061588908;1.2665242824082021;-0.3203389791831978;-9.517922848244122e-06;-2.3010017027411123e-05;0.09990182392734973;0.22997745018331314;0.13009373820736625;2.8857629354561712e-05;1.0000220988203532;9.130919118318449e-06;-2.2827297795796123e-05;4.108913603243303e-05;0.2299007501265551;0.12992499808249858;4.4197640706178376e-05;1.0000076025096258;9.130919118318449e-06;1.8261838236636895e-05;-2.739275735495535e-05;-0.005313147336269974;0.04063861139663505
0.859886884689331;-0.11219636194190741;-0.06737979757148722;0.7275070434105476;0.0037537792269158464;0.13037645600325065;-0.010957873568147517;-0.001496628447582991;9.497982731764693e-06;-1.0462017240522812;1.2665214191070282;-0.3203199767238683;9.527892906483729e-06;-0.0014985630915726525;9.507952790004623e-06;-1.0462085061588908;1.2665242824082021;-0.32035520689038505;-9.517922848244122e-06;-2.3010017027411123e-05;0.09990182392734973;0.22997745018331314;0.13009373820736625;2.8857629354561712e-05;1.0000220988203532;9.130919118318449e-06;-2.2827297795796123e-05;4.108913603243303e-05;0.2299007501265551;0.12992499808249858;4.4197640706178376e-05;1.0000076025096258;9.130919118318449e-06;1.8261838236636895e-05;-2.739275735495535e-05;-0.005313147336269974;0.04063861139663505
0.8798484802246094;-0.11211962172257696;-0.06748282819522146;0.7275093245376936;0.003639013212782575;0.1304939576703823;-0.010793429391945506;-0.001496628447582991;9.497982731764693e-06;-1.0462017240522812;1.2665214191070282;-0.3203199767238683;9.527892906483729e-06;-0.0014985630915726525;9.507952790004623e-06;-1.0462085061588908;1.2665242824082021;-0.32035520689038505;-9.517922848244122e-06;-2.3010017027411123e-05;0.09990182392734973;0.22997745018331314;0.13009373820736625;2.8857629354561712e-05;1.0000220988203532;9.130919118318449e-06;-2.2827297795796123e-05;4.108913603243303e-05;0.2299007501265551;0.12992499808249858;4.4197640706178376e-05;1.0000076025096258;9.130919118318449e-06;1.8261838236636895e-05;-2.739275735495535e-05;-0.005313147336269974;0.04063861139663505
0.8999340534210205;-0.11208922542884624;-0.067488892026231;0.7275134458974375;0.0035676923932145815;0.1305425257130394;-0.010773355876699477;-0.001496628447582991;9.497982731764693e-06;-1.0462017240522812;1.2665214191070282;-0.3203199767238683;9.527892906483729e-06;-0.0014985630915726525;9.507952790004623e-06;-1.0462085061588908;1.2665242824082021;-0.32035520689038505;-9.517922848244122e-06;-2.3010017027411123e-05;0.09990182392734973;0.22997745018331314;0.13009373820736625;2.8857629354561712e-05;1.0000220988203532;9.130919118318449e-06;-2.2827297795796123e-05;4.108913603243303e-05;0.2299007501265551;0.12992499808249858;4.4197640706178376e-05;1.0000229425209777;9.130919118318449e-06;1.8261838236636895e-05;-2.739275735495535e-05;-0.005313147336269974;0.03910272165488005
0.919842004776001;-0.11201640483626343;-0.06754161242813585;0.7275197692186078;0.003507533327691275;0.13064892905184067;-0.010688831835835215;-0.001496628447582991;9.497982731764693e-06;-1.0462017240522812;1.2665214191070282;-0.3203199767238683;9.527892906483729e-06;-0.0014985630915726525;9.507952790004623e-06;-1.0462085061588908;1.2665242824082021;-0.32035520689038505;-9.517922848244122e-06;-2.3010017027411123e-05;0.09990182392734973;0.22997745018331314;0.13009373820736625;2.8857629354561712e-05;1.0000220988203532;9.130919118318449e-06;-2.2827297795796123e-05;4.108913603243303e-05;0.2299007501265551;0.12992499808249858;4.4197640706178376e-05;1.0000229425209777;9.130919118318449e-06;1.8261838236636895e-05;-2.739275735495535e-05;-0.005313147336269974;0.04063861139663505
0.9398097991943359;-0.11199677279011824;-0.06750127598087363;0.7275265353176357;0.003589675461836146;0.13066768996190373;-0.010758856966249456;-0.001496628447582991;9.497982731764693e-06;-1.0462017240522812;1.2665214191070282;-0.3203199767238683;9.527892906483729e-06;-0.0014985630915726525;9.507952790004623e-06;-1.0462085061588908;1.2665242824082021;-0.32035520689038505;-9.517922848244122e-06;-2.3010017027411123e-05;0.09990182392734973;0.22997745018331314;0.13009373820736625;2.8857629354561712e-05;1.0000220988203532;9.130919118318449e-06;-2.2827297795796123e-05;4.108913603243303e-05;0.2299007501265551;0.12992499808249858;4.4197640706178376e-05;1.0000229425209777;9.130919118318449e-06;1.8261838236636895e-05;-2.739275735495535e-05;-0.005313147336269974;0.04063861139663505
0.9600129127502441;-0.11199764451685426;-0.06749436044562568;0.727527042725178;0.0035527348631111014;0.1306698854770858;-0.010762780103115028;-0.001496628447582991;9.497982731764693e-06;-1.0462017240522812;1.2665214191070282;-0.3203199767238683;9.527892906483729e-06;-0.0014985630915726525;9.507952790004623e-06;-1.0462085061588908;1.2665242824082021;-0.32035520689038505;-9.517922848244122e-06;-2.3010017027411123e-05;0.09990182392734973;0.22997745018331314;0.13009373820736625;2.8857629354561712e-05;1.0000220988203532;9.130919118318449e-06;-2.2827297795796123e-05;4.108913603243303e-05;0.2299007501265551;0.12992499808249858;4.4197640706178376e-05;1.0000229425209777;9.130919118318449e-06;1.8261838236636895e-05;-2.739275735495535e-05;-0.005313147336269974;0.04063861139663505
0.9800655841827393;-0.11198385520424806;-0.06742360049034102;0.7275357264328973;0.003450046396275037;0.13069763959395458;-0.010846530804162015;-0.001496628447582991;9.497982731764693e-06;-1.0462017240522812;1.2665214191070282;-0.3203199767238683;9.527892906483729e-06;-0.0014985630915726525;9.507952790004623e-06;-1.0462085061588908;1.2665242824082021;-0.32035520689038505;-9.517922848244122e-06;-2.3010017027411123e-05;0.09990182392734973;0.22997745018331314;0.13009373820736625;2.8857629354561712e-05;1.0000220988203532;9.130919118318449e-06;-2.2827297795796123e-05;4.108913603243303e-05;0.2299007501265551;0.12992499808249858;4.4197640706178376e-05;1.0000229425209777;9.130919118318449e-06;1.8261838236636895e-05;-2.739275735495535e-05;-0.005313147336269974;0.03910272165488005
0.9999251365661621;-0.11205794084104764;-0.06741396765299645;0.727525211814323;0.003296698881337443;0.13061010837389242;-0.010836158448306413;-0.001496628447582991;9.497982731764693e-06;-1.0462017240522812;1.2665214191070282;-0.3203199767238683;9.527892906483729e-06;-0.0014985630915726525;9.507952790004623e-06;-1.0462085061588908;1.2665242824082021;-0.32035520689038505;-9.517922848244122e-06;-2.3010017027411123e-05;0.09990182392734973;0.22997745018331314;0.13009373820736625;2.8857629354561712e-05;1.0000220988203532;9.130919118318449e-06;-2.2827297795796123e-05;4.108913603243303e-05;0.2299007501265551;0.12992499808249858;4.4197640706178376e-05;1.0000229425209777;9.130919118318449e-06;1.8261838236636895e-05;-2.739275735495535e-05;-0.005313147336269974;0.04063861139663505
1.0198285579681396;-0.11214411123246319;-0.06746957429206778;0.7275067792305845;0.003208632242192426;0.13050064313237653;-0.010743873921597537;-0.001496628447582991;9.497982731764693e-06;-1.0462017240522812;1.2665214191070282;-0.3203199767238683;9.527892906483729e-06;-0.0014985630915726525;9.507952790004623e-06;-1.0462085061588908;1.2665242824082021;-0.32035520689038505;-9.517922848244122e-06;-2.3010017027411123e-05;0.09990182392734973;0.22997745018331314;0.13009373820736625;2.8857629354561712e-05;1.0000220988203532;9.130919118318449e-06;-2.2827297795796123e-05;4.108913603243303e-05;0.2299007501265551;0.12992499808249858;4.4197640706178376e-05;1.0000229425209777;9.130919118318449e-06;1.8261838236636895e-05;-2.739275735495535e-05;-0.005313147336269974;0.03910272165488005
1.039928674697876;-0.11223557567494201;-0.06753562634804006;0.7274865453686566;0.003057906270051169;0.1303899521204619;-0.01062684064122204;-0.001496628447582991;9.497982731764693e-06;-1.0462017240522812;1.2665214191070282;-0.3203199767238683;9.527892906483729e-06;-0.0014985630915726525;9.507952790004623e-06;-1.0462085061588908;1.2665242824082021;-0.32035520689038505;-9.517922848244122e-06;-2.3010017027411123e-05;0.09990182392734973;0.22997745018331314;0.13009373820736625;2.8857629354561712e-05;1.0000220988203532;0.0;-2.2827297795796123e-05;4.108913603243303e-05;0.2299007501265551;0.12992499808249858;4.4197640706178376e-05;1.0000689625550323;9.130919118318449e-06;1.8261838236636895e-05;-2.739275735495535e-05;-0.005313147336269974;0.03910272165488005
1.0599241256713867;-0.11226103662500693;-0.06752460607287551;0.7274836398135096;0.0030703657460929784;0.130353637081817;-0.010644527789934853;-0.001496628447582991;9.497982731764693e-06;-1.0462017240522812;1.2665214191070282;-0.3203199767238683;9.527892906483729e-06;-0.0014985630915726525;9.507952790004623e-06;-1.0462085061588908;1.2665242824082021;-0.32035520689038505;-9.517922848244122e-06;-2.3010017027411123e-05;0.09990182392734973;0.22997745018331314;0.13009373820736625;2.8857629354561712e-05;1.0000220988203532;9.130919118318449e-06;-2.2827297795796123e-05;4.108913603243303e-05;0.2299007501265551;0.12992499808249858;4.4197640706178376e-05;1.0001149825890872;9.130919118318449e-06;1.8261838236636895e-05;-2.739275735495535e-05;-0.005313147336269974;0.04063861139663505
1.0798554420471191;-0.11221186440990116;-0.06762853180126512;0.7274815723699053;0.002982052598962443;0.13043089761107474;-0.010483206009097686;-0.001496628447582991;9.497982731764693e-06;-1.0462017240522812;1.2665214191070282;-0.3203199767238683;9.527892906483729e-06;-0.0014985630915726525;9.507952790004623e-06;-1.0462085061588908;1.2665242824082021;-0.3202902960616361;-9.517922848244122e-06;-2.3010017027411123e-05;0.09990182392734973;0.22997745018331314;0.13009373820736625;2.8857629354561712e-05;1.0000220988203532;9.130919118318449e-06;-2.2827297795796123e-05;4.108913603243303e-05;0.2299007501265551;0.12992499808249858;4.4197640706178376e-05;1.0001303226004388;9.130919118318449e-06;1.8261838236636895e-05;-2.739275735495535e-05;-0.005313147336269974;0.03910272165488005
1.0998313426971436;-0.11214336112031399;-0.06761259236216785;0.7274936170692062;0.0029651847981271213;0.13052645100370427;-0.010502790611670827;-0.001496628447582991;9.497982731764693e-06;-1.0462017240522812;1.2665214191070282;-0.3203199767238683;9.527892906483729e-06;-0.0014985630915726525;9.507952790004623e-06;-1.0462085061588908;1.2665242824082021;-0.32025784064726154;-9.517922848244122e-06;-2.3010017027411123e-05;0.09990182392734973;0.22997745018331314;0.13009373820736625;2.8857629354561712e-05;1.0000220988203532;9.130919118318449e-06;-2.2827297795796123e-05;4.108913603243303e-05;0.2299007501265551;0.12992499808249858;4.4197640706178376e-05;1.0001303226004388;9.130919118318449e-06;1.8261838236636895e-05;-2.739275735495535e-05;-0.005313147336269974;0.03910272165488005
1.1198437213897705;-0.1120661949078413;-0.06755390104359178;0.7275109603149639;0.0029721091225335433;0.13063111103040032;-0.010586617983200205;-0.001496628447582991;9.497982731764693e-06;-1.0462017240522812;1.2665214191070282;-0.3203199767238683;9.527892906483729e-06;-0.0014985630915726525;9.507952790004623e-06;-1.0462085061588908;1.2665242824082021;-0.32025784064726154;-9.517922848244122e-06;-2.3010017027411123e-05;0.09990182392734973;0.22997745018331314;0.13009373820736625;2.8857629354561712e-05;1.0000220988203532;9.130919118318449e-06;-1.8261838236636895e-05;3.6523676473273796e-05;0.2299007501265551;0.12992499808249858;4.4197640706178376e-05;1.0001303226004388;9.130919118318449e-06;1.8261838236636895e-05;-2.739275735495535e-05;-0.005313147336269974;0.03910272165488005
1.1398351192474365;-0.1120111418787621;-0.06764370259589551;0.7275110944582662;0.002890189758279122;0.13071568733860248;-0.01044630509710171;-0.001496628447582991;9.497982731764693e-06;-1.0462017240522812;1.2665214191070282;-0.3203199767238683;9.527892906483729e-06;-0.0014985630915726525;9.507952790004623e-06;-1.0462085061588908;1.2665242824082021;-0.32025784064726154;-9.517922848244122e-06;-2.3010017027411123e-05;0.09990182392734973;0.22997745018331314;0.13007839819601466;2.8857629354561712e-05;1.0000220988203532;9.130919118318449e-06;-2.2827297795796123e-05;4.108913603243303e-05;0.2299007501265551;0.12992499808249858;4.4197640706178376e-05;1.0001303226004388;9.130919118318449e-06;1.8261838236636895e-05;-2.739275735495535e-05;-0.005313147336269974;0.04063861139663505
1.1598498821258545;-0.11191020201350914;-0.06756800808914451;0.7275336624060027;0.002944482583320376;0.1308483234944784;-0.010561617112722327;-0.001496628447582991;9.497982731764693e-06;-1.0462017240522812;1.2665214191070282;-0.3203199767238683;9.527892906483729e-06;-0.0014985630915726525;9.507952790004623e-06;-1.0462085061588908;1.2665242824082021;-0.32025784064726154;-9.517922848244122e-06;-2.3010017027411123e-05;0.09990182392734973;0.22997745018331314;0.13007839819601466;2.8857629354561712e-05;1.0000220988203532;9.130919118318449e-06;-2.2827297795796123e-05;4.108913603243303e-05;0.2299007501265551;0.12992499808249858;4.4197640706178376e-05;1.0001303226004388;9.130919118318449e-06;1.8261838236636895e-05;-2.739275735495535e-05;-0.005313147336269974;0.04063861139663505
1.1799218654632568;-0.11190602013510989;-0.06758648402617914;0.7275325895107585;0.0028509898420409257;0.1308631347543764;-0.010520624573343948;-0.001496628447582991;9.497982731764693e-06;-1.0462017240522812;1.2665214191070282;-0.3203199767238683;9.527892906483729e-06;-0.0014985630915726525;9.507952790004623e-06;-1.0462085061588908;1.2665242824082021;-0.32025784064726154;-9.517922848244122e-06;-2.3010017027411123e-05;0.09990182392734973;0.22997745018331314;0.13007839819601466;2.8857629354561712e-05;1.0000220988203532;9.130919118318449e-06;-2.2827297795796123e-05;4.108913603243303e-05;0.2299007501265551;0.12992499808249858;4.4197640706178376e-05;1.0001303226004388;9.130919118318449e-06;1.8261838236636895e-05;-2.739275735495535e-05;-0.005313147336269974;0.04063861139663505
1.1998498439788818;-0.11194283399776837;-0.06755807060918666;0.7275295650197611;0.002826854681697147;0.13081443532920925;-0.010557149849147317;-0.001496628447582991;9.497982731764693e-06;-1.0462017240522812;1.2665214191070282;-0.3203199767238683;9.527892906483729e-06;-0.0014985630915726525;9.507952790004623e-06;-1.0462085061588908;1.2665242824082021;-0.32025784064726154;-9.517922848244122e-06;-2.3010017027411123e-05;0.09990182392734973;0.22997745018331314;0.13007839819601466;2.8857629354561712e-05;1.0000220988203532;9.130919118318449e-06;-2.2827297795796123e-05;4.108913603243303e-05;0.2299007501265551;0.12992499808249858;4.4197640706178376e-05;1.0001303226004388;9.130919118318449e-06;1.8261838236636895e-05;-2.739275735495535e-05;-0.005313147336269974;0.03910272165488005
1.2198245525360107;-0.11194182476531152;-0.06750972898800305;0.7275342076671786;0.0028278938018710905;0.1308150880510612;-0.010625716212869991;-0.001496628447582991;9.497982731764693e-06;-1.0462017240522812;1.2665214191070282;-0.3203199767238683;9.527892906483729e-06;-0.0014985630915726525;9.507952790004623e-06;-1.0462085061588908;1.2665242824082021;-0.32037143459757234;-9.517922848244122e-06;-2.3010017027411123e-05;0.09990182392734973;0.22997745018331314;0.13006305818466302;2.8857629354561712e-05;1.0000220988203532;9.130919118318449e-06;-2.2827297795796123e-05;4.108913603243303e-05;0.2299007501265551;0.12992499808249858;4.4197640706178376e-05;1.0001303226004388;9.130919118318449e-06;1.8261838236636895e-05;-2.739275735495535e-05;-0.005313147336269974;0.03910272165488005
1.2398402690887451;-0.11186440694215072;-0.06749132536828034;0.7275478227754135;0.00280616537323429;0.13092330708835911;-0.010648002947339037;-0.001496628447582991;9.497982731764693e-06;-1.0462017240522812;1.2665214191070282;-0.3203199767238683;9.527892906483729e-06;-0.0014985630915726525;9.507952790004623e-06;-1.0462085061588908;1.2665242824082021;-0.32037143459757234;-9.517922848244122e-06;-2.3010017027411123e-05;0.09990182392734973;0.22997745018331314;0.13006305818466302;2.8857629354561712e-05;1.0000220988203532;9.130919118318449e-06;-2.2827297795796123e-05;4.108913603243303e-05;0.2299007501265551;0.12992499808249858;4.4197640706178376e-05;1.0001303226004388;9.130919118318449e-06;1.8261838236636895e-05;-2.739275735495535e-05;-0.005313147336269974;0.04063861139663505
1.2599546909332275;-0.11191591181146665;-0.06745497769838282;0.7275432726875077;0.002724887134651344;0.1308596892685589;-0.010686747578934699;-0.001496628447582991;9.497982731764693e-06;-1.0462017240522812;1.2665214191070282;-0.3203199767238683;9.527892906483729e-06;-0.0014985630915726525;9.507952790004623e-06;-1.0462085061588908;1.2665242824082021;-0.32037143459757234;-9.517922848244122e-06;-2.3010017027411123e-05;0.09990182392734973;0.22997745018331314;0.1300477181733114;2.8857629354561712e-05;1.0000220988203532;9.130919118318449e-06;-2.2827297795796123e-05;4.108913603243303e-05;0.2299007501265551;0.1299403380938502;4.4197640706178376e-05;1.0001303226004388;9.130919118318449e-06;1.8261838236636895e-05;-2.739275735495535e-05;-0.005313147336269974;0.03910272165488005
1.2798442840576172;-0.11193316412856856;-0.06745492906625819;0.7275406231122518;0.002577367769123772;0.13084987384381716;-0.010663480116956501;-0.001496628447582991;9.497982731764693e-06;-1.0462017240522812;1.2665214191070282;-0.3203199767238683;9.527892906483729e-06;-0.0014985630915726525;9.507952790004623e-06;-1.0462085061588908;1.2665242824082021;-0.32037143459757234;-9.517922848244122e-06;-2.3010017027411123e-05;0.09990182392734973;0.22997745018331314;0.1300477181733114;2.8857629354561712e-05;1.0000220988203532;9.130919118318449e-06;-2.2827297795796123e-05;4.108913603243303e-05;0.2299007501265551;0.1299403380938502;4.4197640706178376e-05;1.0001303226004388;9.130919118318449e-06;1.8261838236636895e-05;-2.739275735495535e-05;-0.005313147336269974;0.04063861139663505
1.2999613285064697;-0.11181520219792432;-0.0674389801502282;0.727560240447116;0.0025692555433852664;0.13101256298147546;-0.010684332630464055;-0.001496628447582991;9.497982731764693e-06;-1.0462017240522812;1.2665214191070282;-0.3203199767238683;9.527892906483729e-06;-0.0014985630915726525;9.507952790004623e-06;-1.0462085061588908;1.2665242824082021;-0.32037143459757234;-9.517922848244122e-06;-2.3010017027411123e-05;0.09990182392734973;0.22997745018331314;0.13001703815060828;2.8857629354561712e-05;1.0000220988203532;9.130919118318449e-06;-2.2827297795796123e-05;4.108913603243303e-05;0.2299007501265551;0.1299403380938502;4.4197640706178376e-05;1.0001303226004388;9.130919118318449e-06;1.8261838236636895e-05;-2.739275735495535e-05;-0.005313147336269974;0.04063861139663505
1.3198060989379883;-0.11186215115516504;-0.06745396986498729;0.7275516339436832;0.002543999363418609;0.13095061415707135;-0.010659288426285756;-0.001496628447582991;9.497982731764693e-06;-1.0462017240522812;1.2665214191070282;-0.3203199767238683;9.527892906483729e-06;-0.0014985630915726525;9.507952790004623e-06;-1.0462085061588908;1.2665242824082021;-0.32037143459757234;-9.517922848244122e-06;-2.3010017027411123e-05;0.09990182392734973;0.22997745018331314;0.12998635812790504;2.8857629354561712e-05;1.0000220988203532;9.130919118318449e-06;-2.2827297795796123e-05;4.108913603243303e-05;0.2299007501265551;0.1299403380938502;4.4197640706178376e-05;1.0001303226004388;9.130919118318449e-06;1.8261838236636895e-05;-2.739275735495535e-05;-0.005313147336269974;0.04063861139663505
1.3397791385650635;-0.11187884242699837;-0.0674033115070394;0.7275537623989107;0.0026348372526400965;0.13091843241568035;-0.01074543477092392;-0.001496628447582991;9.497982731764693e-06;-1.0462017240522812;1.2665214191070282;-0.3203199767238683;9.527892906483729e-06;-0.0014985630915726525;9.507952790004623e-06;-1.0462085061588908;1.2665242824082021;-0.32037143459757234;-9.517922848244122e-06;-2.3010017027411123e-05;0.09990182392734973;0.22997745018331314;0.1299556781052018;2.8857629354561712e-05;1.0000220988203532;9.130919118318449e-06;-2.2827297795796123e-05;4.108913603243303e-05;0.2299007501265551;0.1299556781052018;4.4197640706178376e-05;1.0001303226004388;9.130919118318449e-06;1.8261838236636895e-05;-2.739275735495535e-05;-0.005313147336269974;0.04063861139663505
1.3597722053527832;-0.11190470233901577;-0.06742081958862173;0.7275481631109693;0.0025897874339628015;0.13088736512704444;-0.010713612012613689;-0.001496628447582991;9.497982731764693e-06;-1.0462017240522812;1.2665214191070282;-0.3203199767238683;9.527892906483729e-06;-0.0014985630915726525;9.507952790004623e-06;-1.0462085061588908;1.2665242824082021;-0.32037143459757234;-9.517922848244122e-06;-2.3010017027411123e-05;0.09990182392734973;0.22997745018331314;0.12987897804844373;2.8857629354561712e-05;1.0000220988203532;9.130919118318449e-06;-2.2827297795796123e-05;4.108913603243303e-05;0.2299007501265551;0.1299556781052018;4.4197640706178376e-05;1.0001303226004388;9.130919118318449e-06;1.8261838236636895e-05;-2.739275735495535e-05;-0.005313147336269974;0.03910272165488005
1.3798294067382812;-0.11196903027048205;-0.06734694140841967;0.7275451083671371;0.0026183565409379408;0.1307952625593002;-0.010822920472575548;-0.001496628447582991;9.497982731764693e-06;-1.0462017240522812;1.2665214191070282;-0.3203199767238683;9.527892906483729e-06;-0.0014985630915726525;9.507952790004623e-06;-1.0462085061588908;1.2665242824082021;-0.3202902960616361;-9.517922848244122e-06;-2.3010017027411123e-05;0.09990182392734973;0.22997745018331314;0.12987897804844373;2.8857629354561712e-05;1.0000220988203532;9.130919118318449e-06;-2.2827297795796123e-05;4.108913603243303e-05;0.2299007501265551;0.1299556781052018;4.4197640706178376e-05;1.0001303226004388;9.130919118318449e-06;1.8261838236636895e-05;-2.739275735495535e-05;-0.005313147336269974;0.03910272165488005
1.399792194366455;-0.11188384728718043;-0.06742557365638473;0.7275509299692061;0.00268187308159748;0.13090742230632468;-0.010721410490537089;-0.001496628447582991;9.497982731764693e-06;-1.0462017240522812;1.2665214191070282;-0.3203199767238683;9.527892906483729e-06;-0.0014985630915726525;9.507952790004623e-06;-1.0462085061588908;1.2665242824082021;-0.32025784064726154;-9.517922848244122e-06;-2.3010017027411123e-05;0.09990182392734973;0.22997745018331314;0.12987897804844373;2.8857629354561712e-05;1.0000220988203532;9.130919118318449e-06;-2.2827297795796123e-05;4.108913603243303e-05;0.2299007501265551;0.1299556781052018;4.4197640706178376e-05;1.0001303226004388;9.130919118318449e-06;1.8261838236636895e-05;-2.739275735495535e-05;-0.005313147336269974;0.03910272165488005
1.419996738433838;-0.11183574571134335;-0.06746007200064658;0.7275551275556965;0.002657409820406176;0.13097630446807731;-0.010668534163943533;-0.001496628447582991;9.497982731764693e-06;-1.0462017240522812;1.2665214191070282;-0.3203199767238683;9.527892906483729e-06;-0.0014985630915726525;9.507952790004623e-06;-1.0462085061588908;1.2665242824082021;-0.32025784064726154;-9.517922848244122e-06;-2.3010017027411123e-05;0.09990182392734973;0.22997745018331314;0.12987897804844373;2.8857629354561712e-05;1.0000220988203532;9.130919118318449e-06;-2.2827297795796123e-05;4.108913603243303e-05;0.2299007501265551;0.12997101811655346;4.4197640706178376e-05;1.0001303226004388;9.130919118318449e-06;1.8261838236636895e-05;-2.739275735495535e-05;-0.005313147336269974;0.04063861139663505
1.4399757385253906;-0.11186693503398892;-0.06747861683357818;0.7275486128651878;0.002671917026657526;0.13093231568047436;-0.010644709962214354;-0.001496628447582991;9.497982731764693e-06;-1.0462017240522812;1.2665214191070282;-0.3203199767238683;9.527892906483729e-06;-0.0014985630915726525;9.507952790004623e-06;-1.0462085061588908;1.2665242824082021;-0.32025784064726154;-9.517922848244122e-06;-2.3010017027411123e-05;0.09990182392734973;0.22997745018331314;0.12987897804844373;2.8857629354561712e-05;1.0000220988203532;9.130919118318449e-06;-2.2827297795796123e-05;4.108913603243303e-05;0.2299314301492583;0.12997101811655346;4.4197640706178376e-05;1.0001303226004388;9.130919118318449e-06;1.8261838236636895e-05;-2.739275735495535e-05;-0.005313147336269974;0.03910272165488005
1.4597740173339844;-0.1119484226004786;-0.0674614236890171;0.7275376732217006;0.00260648876143247;0.1308262439271902;-0.010658965934220072;-0.001496628447582991;9.497982731764693e-06;-1.0462017240522812;1.2665214191070282;-0.3203199767238683;9.527892906483729e-06;-0.0014985630915726525;9.507952790004623e-06;-1.0462085061588908;1.2665242824082021;-0.32025784064726154;-9.517922848244122e-06;-2.3010017027411123e-05;0.09990182392734973;0.22997745018331314;0.12987897804844373;2.8857629354561712e-05;1.0000220988203532;9.130919118318449e-06;-2.2827297795796123e-05;4.108913603243303e-05;0.23000813020601635;0.12997101811655346;4.4197640706178376e-05;1.0001303226004388;9.130919118318449e-06;1.8261838236636895e-05;-2.739275735495535e-05;-0.005313147336269974;0.03910272165488005
1.4798412322998047;-0.11201523875268556;-0.06754391127524055;0.7275197353354422;0.002441024565116954;0.13075112625109941;-0.010516221604139167;-0.001496628447582991;9.497982731764693e-06;-1.0462017240522812;1.2665214191070282;-0.3203199767238683;9.527892906483729e-06;-0.0014985630915726525;9.507952790004623e-06;-1.0462085061588908;1.2665242824082021;-0.32025784064726154;-9.517922848244122e-06;-2.3010017027411123e-05;0.09990182392734973;0.22997745018331314;0.12987897804844373;2.8857629354561712e-05;1.0000220988203532;9.130919118318449e-06;-2.2827297795796123e-05;4.108913603243303e-05;0.2300388102287196;0.12997101811655346;4.4197640706178376e-05;1.0001303226004388;9.130919118318449e-06;1.8261838236636895e-05;-2.739275735495535e-05;-0.005313147336269974;0.04063861139663505
1.5000371932983398;-0.11200262017299081;-0.0675521237570625;0.7275209155866418;0.0024905506088896126;0.13076390933933316;-0.010512417950682057;-0.001496628447582991;9.497982731764693e-06;-1.0462017240522812;1.2665214191070282;-0.3203199767238683;9.527892906483729e-06;-0.0014985630915726525;9.507952790004623e-06;-1.0462085061588908;1.2665242824082021;-0.3202740683544488;-9.517922848244122e-06;-2.3010017027411123e-05;0.09990182392734973;0.22997745018331314;0.12987897804844373;2.8857629354561712e-05;1.0000220988203532;9.130919118318449e-06;-2.2827297795796123e-05;4.108913603243303e-05;0.2300388102287196;0.12997101811655346;4.4197640706178376e-05;1.0001303226004388;9.130919118318449e-06;1.8261838236636895e-05;-2.739275735495535e-05;-0.005313147336269974;0.03910272165488005
1.5249364376068115;-0.11196352350921476;-0.06758289887168788;0.7275240753055744;0.0026048349133704868;0.13080727990109822;-0.010486866060058725;-0.001496628447582991;9.497982731764693e-06;-1.0462017240522812;1.2665214191070282;-0.3203199767238683;9.527892906483729e-06;-0.0014985630915726525;9.507952790004623e-06;-1.0462085061588908;1.2665242824082021;-0.32037143459757234;-9.517922848244122e-06;-2.3010017027411123e-05;0.09990182392734973;0.22997745018331314;0.12987897804844373;2.8857629354561712e-05;1.0000220988203532;9.130919118318449e-06;-2.2827297795796123e-05;4.108913603243303e-05;0.2300388102287196;0.12997101811655346;4.4197640706178376e-05;1.0001303226004388;9.130919118318449e-06;1.8261838236636895e-05;-2.739275735495535e-05;-0.005313147336269974;0.03910272165488005
1.5398273468017578;-0.11201783725065435;-0.06763544614060903;0.7275108312106267;0.0024078319935955396;0.13075194693400594;-0.010381433689333879;-0.001496628447582991;9.497982731764693e-06;-1.0462017240522812;1.2665214191070282;-0.3203199767238683;9.527892906483729e-06;-0.0014985630915726525;9.507952790004623e-06;-1.0462085061588908;1.2665242824082021;-0.32037143459757234;-9.517922848244122e-06;-2.3010017027411123e-05;0.09990182392734973;0.22997745018331314;0.12987897804844373;2.8857629354561712e-05;1.0000220988203532;0.0;-2.2827297795796123e-05;4.108913603243303e-05;0.2300388102287196;0.12997101811655346;4.4197640706178376e-05;1.0001303226004388;9.130919118318449e-06;1.8261838236636895e-05;-2.739275735495535e-05;-0.005313147336269974;0.03910272165488005
1.5599980354309082;-0.11212872670744913;-0.06776501144041584;0.7274816910666386;0.0024364506221348056;0.1305985921494829;-0.010203013111289396;-0.001496628447582991;9.497982731764693e-06;-1.0462017240522812;1.2665214191070282;-0.3203199767238683;9.527892906483729e-06;-0.0014985630915726525;9.507952790004623e-06;-1.0462085061588908;1.2665242824082021;-0.32037143459757234;-9.517922848244122e-06;-2.3010017027411123e-05;0.09990182392734973;0.22997745018331314;0.12987897804844373;2.8857629354561712e-05;1.0000067588090016;9.130919118318449e-06;-2.2827297795796123e-05;4.108913603243303e-05;0.2300388102287196;0.12997101811655346;4.4197640706178376e-05;1.0001303226004388;9.130919118318449e-06;1.8261838236636895e-05;-2.739275735495535e-05;-0.005313147336269974;0.03910272165488005
1.5799198150634766;-0.11229482818763596;-0.06770772739126024;0.7274614039105787;0.002392815694971978;0.13037360122554306;-0.010277704025604198;-0.001496628447582991;9.497982731764693e-06;-1.0462017240522812;1.2665214191070282;-0.3203199767238683;9.527892906483729e-06;-0.0014985630915726525;9.507952790004623e-06;-1.0462085061588908;1.2665242824082021;-0.32037143459757234;-9.517922848244122e-06;-2.3010017027411123e-05;0.09990182392734973;0.22997745018331314;0.12987897804844373;2.8857629354561712e-05;1.0000067588090016;9.130919118318449e-06;-2.2827297795796123e-05;4.108913603243303e-05;0.2300388102287196;0.12998635812790504;4.4197640706178376e-05;1.0001303226004388;9.130919118318449e-06;1.8261838236636895e-05;-2.739275735495535e-05;-0.005313147336269974;0.04063861139663505
1.5999102592468262;-0.11229234460223166;-0.06773388470798239;0.7274593522471406;0.002483560558542615;0.1303687863352204;-0.010255121574731811;-0.001496628447582991;9.497982731764693e-06;-1.0462017240522812;1.2665214191070282;-0.3203199767238683;9.527892906483729e-06;-0.0014985630915726525;9.507952790004623e-06;-1.0462085061588908;1.2665242824082021;-0.32037143459757234;-9.517922848244122e-06;-2.3010017027411123e-05;0.09990182392734973;0.22997745018331314;0.12987897804844373;2.8857629354561712e-05;1.0000067588090016;9.130919118318449e-06;-2.2827297795796123e-05;4.108913603243303e-05;0.2300388102287196;0.12998635812790504;4.4197640706178376e-05;1.0001303226004388;9.130919118318449e-06;1.8261838236636895e-05;-2.739275735495535e-05;-0.005313147336269974;0.03910272165488005
1.6197969913482666;-0.1123692041472028;-0.06774538206619055;0.7274464132386385;0.002466035852257183;0.13026494346621248;-0.010236331067561898;-0.001496628447582991;9.497982731764693e-06;-1.0462017240522812;1.2665214191070282;-0.3203199767238683;9.527892906483729e-06;-0.0014985630915726525;9.507952790004623e-06;-1.0462085061588908;1.2665242824082021;-0.32037143459757234;-9.517922848244122e-06;-2.3010017027411123e-05;0.09990182392734973;0.22999279019466476;0.12987897804844373;2.8857629354561712e-05;1.0000067588090016;9.130919118318449e-06;-2.2827297795796123e-05;4.108913603243303e-05;0.2300388102287196;0.12998635812790504;4.4197640706178376e-05;1.0001303226004388;9.130919118318449e-06;1.8261838236636895e-05;-2.739275735495535e-05;-0.005313147336269974;0.03910272165488005
1.639805793762207;-0.11236533439235774;-0.06767220370890996;0.727453822203034;0.0023555203830142725;0.1302797158600717;-0.010322273112613321;-0.001496628447582991;9.497982731764693e-06;-1.0462017240522812;1.2665214191070282;-0.3203199767238683;9.527892906483729e-06;-0.0014985630915726525;9.507952790004623e-06;-1.0462085061588908;1.2665242824082021;-0.32037143459757234;-9.517922848244122e-06;-2.3010017027411123e-05;0.09990182392734973;0.22999279019466476;0.12987897804844373;2.8857629354561712e-05;1.0000067588090016;9.130919118318449e-06;-2.2827297795796123e-05;4.108913603243303e-05;0.2300388102287196;0.12998635812790504;4.4197640706178376e-05;1.0001303226004388;9.130919118318449e-06;1.8261838236636895e-05;-2.739275735495535e-05;-0.005313147336269974;0.04063861139663505
1.6598429679870605;-0.11239930057040765;-0.06775887759529672;0.7274405066423223;0.0023879879584079284;0.1302311441798236;-0.010204906505303047;-0.001496628447582991;9.497982731764693e-06;-1.0462017240522812;1.2665214191070282;-0.3203199767238683;9.527892906483729e-06;-0.0014985630915726525;9.507952790004623e-06;-1.0462085061588908;1.2665242824082021;-0.3203389791831978;-9.517922848244122e-06;-2.3010017027411123e-05;0.09990182392734973;0.22999279019466476;0.12987897804844373;2.8857629354561712e-05;1.0000067588090016;9.130919118318449e-06;-2.2827297795796123e-05;4.108913603243303e-05;0.2300388102287196;0.12998635812790504;4.4197640706178376e-05;1.0001303226004388;9.130919118318449e-06;1.8261838236636895e-05;-2.739275735495535e-05;-0.005313147336269974;0.03910272165488005
1.679828405380249;-0.1123842791191007;-0.06770164482213435;0.727448156270251;0.0023146435275663234;0.1302579467355773;-0.01027416464787317;-0.001496628447582991;9.497982731764693e-06;-1.0462017240522812;1.2665214191070282;-0.3203199767238683;9.527892906483729e-06;-0.0014985630915726525;9.507952790004623e-06;-1.0462085061588908;1.2665242824082021;-0.3202740683544488;-9.517922848244122e-06;-3.068002270321252e-05;0.0999094939330255;0.22999279019466476;0.12987897804844373;2.8857629354561712e-05;1.0000067588090016;9.130919118318449e-06;-1.8261838236636895e-05;3.6523676473273796e-05;0.2300388102287196;0.12998635812790504;4.4197640706178376e-05;1.0001303226004388;9.130919118318449e-06;1.8261838236636895e-05;-2.739275735495535e-05;-0.005313147336269974;0.03910272165488005
1.699836015701294;-0.11240627908124534;-0.06764447391388281;0.7274500756325157;0.002243703801813012;0.13023361906472736;-0.01034383888356856;-0.001496628447582991;9.497982731764693e-06;-1.0462017240522812;1.2665214191070282;-0.3203199767238683;9.527892906483729e-06;-0.0014985630915726525;9.507952790004623e-06;-1.0462085061588908;1.2665242824082021;-0.3202740683544488;-9.517922848244122e-06;-3.068002270321252e-05;0.0999094939330255;0.22999279019466476;0.12987897804844373;2.8857629354561712e-05;1.0000067588090016;9.130919118318449e-06;-2.2827297795796123e-05;4.108913603243303e-05;0.2300388102287196;0.12998635812790504;4.4197640706178376e-05;1.0001303226004388;9.130919118318449e-06;1.8261838236636895e-05;-2.739275735495535e-05;-0.005313147336269974;0.04063861139663505
1.7199451923370361;-0.1124278972587002;-0.06755233147255886;0.7274552971807536;0.0022548637533996206;0.13020156364247576;-0.01047607344954091;-0.001496628447582991;9.497982731764693e-06;-1.0462017240522812;1.2665214191070282;-0.3203199767238683;9.527892906483729e-06;-0.0014985630915726525;9.507952790004623e-06;-1.0462085061588908;1.2665242824082021;-0.3202740683544488;-9.517922848244122e-06;-3.068002270321252e-05;0.0999094939330255;0.22999279019466476;0.12987897804844373;2.8857629354561712e-05;1.0000067588090016;9.130919118318449e-06;-2.2827297795796123e-05;4.108913603243303e-05;0.2300388102287196;0.13000169813925666;4.4197640706178376e-05;1.0001303226004388;9.130919118318449e-06;1.8261838236636895e-05;-2.739275735495535e-05;-0.005313147336269974;0.03910272165488005
1.739943504333496;-0.11244828844254823;-0.0675027916205756;0.7274567440855164;0.0022692957599107313;0.13017148233862993;-0.010548539762205534;-0.001496628447582991;9.497982731764693e-06;-1.0462017240522812;1.2665214191070282;-0.3203199767238683;9.527892906483729e-06;-0.0014985630915726525;9.507952790004623e-06;-1.0462085061588908;1.2665242824082021;-0.3202740683544488;-9.517922848244122e-06;-3.068002270321252e-05;0.0999094939330255;0.22999279019466476;0.12987897804844373;2.8857629354561712e-05;1.0000067588090016;9.130919118318449e-06;-2.2827297795796123e-05;4.108913603243303e-05;0.2300388102287196;0.13000169813925666;4.4197640706178376e-05;1.0001303226004388;9.130919118318449e-06;1.8261838236636895e-05;-2.739275735495535e-05;-0.005313147336269974;0.04063861139663505
1.7598621845245361;-0.1124884949872281;-0.06748583076051201;0.7274521015900647;0.0021788482587858523;0.1301245083471544;-0.010558252985665526;-0.001496628447582991;9.497982731764693e-06;-1.0462017240522812;1.2665214191070282;-0.3203199767238683;9.527892906483729e-06;-0.0014985630915726525;9.507952790004623e-06;-1.0462085061588908;1.2665242824082021;-0.3202740683544488;-9.517922848244122e-06;-3.068002270321252e-05;0.0999094939330255;0.22999279019466476;0.12987897804844373;2.8857629354561712e-05;1.0000067588090016;9.130919118318449e-06;-2.2827297795796123e-05;4.108913603243303e-05;0.2300388102287196;0.13000169813925666;4.4197640706178376e-05;1.0001303226004388;9.130919118318449e-06;1.8261838236636895e-05;-2.739275735495535e-05;-0.005313147336269974;0.03910272165488005
1.7799761295318604;-0.1125787975950985;-0.0675503573796139;0.727432142894207;0.0021546133343460128;0.1300035587557545;-0.010463356778509118;-0.001496628447582991;9.497982731764693e-06;-1.0462017240522812;1.2665214191070282;-0.3203199767238683;9.527892906483729e-06;-0.0014985630915726525;9.507952790004623e-06;-1.0462085061588908;1.2665242824082021;-0.3202740683544488;-9.517922848244122e-06;-3.835002837902085e-05;0.09991716393870133;0.22999279019466476;0.12987897804844373;2.8857629354561712e-05;1.0000067588090016;9.130919118318449e-06;-2.2827297795796123e-05;4.108913603243303e-05;0.2300388102287196;0.13000169813925666;4.4197640706178376e-05;1.0001303226004388;9.130919118318449e-06;1.8261838236636895e-05;-2.739275735495535e-05;-0.005313147336269974;0.03910272165488005
1.799863576889038;-0.11258103649541502;-0.06751961456977576;0.7274346505602389;0.0021248600896872213;0.1300028589419061;-0.010502120512447831;-0.001496628447582991;9.497982731764693e-06;-1.0462017240522812;1.2665214191070282;-0.3203199767238683;9.527892906483729e-06;-0.0014985630915726525;9.507952790004623e-06;-1.0462085061588908;1.2665242824082021;-0.3202740683544488;-9.517922848244122e-06;-3.0680022703219456e-05;0.09992483394437712;0.22999279019466476;0.12987897804844373;2.8857629354561712e-05;0.99999141879765;9.130919118318449e-06;-2.2827297795796123e-05;4.108913603243303e-05;0.2300388102287196;0.13000169813925666;4.4197640706178376e-05;1.0001303226004388;9.130919118318449e-06;1.8261838236636895e-05;-2.739275735495535e-05;-0.005313147336269974;0.03910272165488005
1.8198437690734863;-0.11260084546507523;-0.06765725164006672;0.7274187960637208;0.0020963922438553026;0.12998025517731646;-0.010302871951856179;-0.001496628447582991;9.497982731764693e-06;-1.0462017240522812;1.2665214191070282;-0.3203199767238683;9.527892906483729e-06;-0.0014985630915726525;9.507952790004623e-06;-1.0462085061588908;1.2665242824082021;-0.3202740683544488;-9.517922848244122e-06;-3.0680022703219456e-05;0.09992483394437712;0.22999279019466476;0.12987897804844373;2.8857629354561712e-05;0.99999141879765;9.130919118318449e-06;-2.2827297795796123e-05;4.108913603243303e-05;0.2300388102287196;0.13000169813925666;4.4197640706178376e-05;1.0001303226004388;9.130919118318449e-06;1.8261838236636895e-05;-2.739275735495535e-05;-0.005313147336269974;0.04063861139663505
1.8400654792785645;-0.11253086694484743;-0.06764841880786039;0.7274304464230016;0.0020536154013124303;0.13008037942819642;-0.010308343250276075;-0.001496628447582991;9.497982731764693e-06;-1.0462017240522812;1.2665214191070282;-0.3203199767238683;9.527892906483729e-06;-0.0014985630915726525;9.507952790004623e-06;-1.0462085061588908;1.2665242824082021;-0.32035520689038505;-9.517922848244122e-06;-3.0680022703219456e-05;0.09992483394437712;0.22999279019466476;0.12987897804844373;2.8857629354561712e-05;0.99999141879765;9.130919118318449e-06;-2.2827297795796123e-05;4.108913603243303e-05;0.2300388102287196;0.13000169813925666;4.4197640706178376e-05;1.0001303226004388;9.130919118318449e-06;1.8261838236636895e-05;-2.739275735495535e-05;-0.005313147336269974;0.04063861139663505
1.859954833984375;-0.11251005515591103;-0.0676409783719058;0.7274343575192439;0.002004197631249203;0.1301135587911528;-0.010310934154518442;-0.001496628447582991;9.497982731764693e-06;-1.0462017240522812;1.2665214191070282;-0.3203199767238683;9.527892906483729e-06;-0.0014985630915726525;9.507952790004623e-06;-1.0462085061588908;1.2665242824082021;-0.32035520689038505;-9.517922848244122e-06;-3.0680022703219456e-05;0.09992483394437712;0.22999279019466476;0.12987897804844373;2.8857629354561712e-05;0.99999141879765;9.130919118318449e-06;-2.2827297795796123e-05;4.108913603243303e-05;0.2300388102287196;0.13000169813925666;4.4197640706178376e-05;1.0001303226004388;9.130919118318449e-06;1.8261838236636895e-05;-2.739275735495535e-05;-0.005313147336269974;0.03910272165488005
1.8798422813415527;-0.1124384795762585;-0.06767086943069274;0.7274426442729374;0.0020812864209735684;0.13020508687561635;-0.01028071341013925;-0.001496628447582991;9.497982731764693e-06;-1.0462017240522812;1.2665214191070282;-0.3203199767238683;9.527892906483729e-06;-0.0014985630915726525;9.507952790004623e-06;-1.0462085061588908;1.2665242824082021;-0.32035520689038505;-9.517922848244122e-06;-2.301001702741806e-05;0.09993250395005293;0.22999279019466476;0.12987897804844373;2.8857629354561712e-05;0.99999141879765;9.130919118318449e-06;-2.2827297795796123e-05;4.108913603243303e-05;0.2300388102287196;0.13000169813925666;4.4197640706178376e-05;1.0001303226004388;9.130919118318449e-06;1.8261838236636895e-05;-2.739275735495535e-05;-0.005313147336269974;0.04063861139663505
1.89992094039917;-0.11247886094048855;-0.06774186934574344;0.7274297931380074;0.002191149249773463;0.13014017472474187;-0.010197869944464739;-0.001496628447582991;9.497982731764693e-06;-1.0462017240522812;1.2665214191070282;-0.3203199767238683;9.527892906483729e-06;-0.0014985630915726525;9.507952790004623e-06;-1.0462085061588908;1.2665242824082021;-0.32035520689038505;-9.517922848244122e-06;-1.5340011351609728e-05;0.09994017395572874;0.22999279019466476;0.12987897804844373;2.8857629354561712e-05;0.99999141879765;9.130919118318449e-06;-2.2827297795796123e-05;4.108913603243303e-05;0.2300388102287196;0.13000169813925666;4.4197640706178376e-05;1.0001303226004388;9.130919118318449e-06;1.8261838236636895e-05;-2.739275735495535e-05;-0.005313147336269974;0.04063861139663505
1.9198668003082275;-0.1124059553731199;-0.06766399875495296;0.7274483098027484;0.002169045730588817;0.13024139830981524;-0.01030431744301092;-0.001496628447582991;9.497982731764693e-06;-1.0462017240522812;1.2665214191070282;-0.3203199767238683;9.527892906483729e-06;-0.0014985630915726525;9.507952790004623e-06;-1.0462085061588908;1.2665242824082021;-0.32035520689038505;-9.517922848244122e-06;-7.670005675808333e-06;0.09994784396140452;0.230023470217368;0.12987897804844373;2.8857629354561712e-05;0.99999141879765;9.130919118318449e-06;-2.2827297795796123e-05;4.108913603243303e-05;0.2300388102287196;0.13000169813925666;4.4197640706178376e-05;1.0001303226004388;9.130919118318449e-06;1.8261838236636895e-05;-2.739275735495535e-05;-0.005313147336269974;0.04063861139663505
1.9399571418762207;-0.11239860868237539;-0.06765424769472247;0.7274503519147248;0.002377588571643331;0.13023163955386471;-0.010351308233690069;-0.001496628447582991;9.497982731764693e-06;-1.0462017240522812;1.2665214191070282;-0.3203199767238683;9.527892906483729e-06;-0.0014985630915726525;9.507952790004623e-06;-1.0462085061588908;1.2665242824082021;-0.32035520689038505;-9.517922848244122e-06;6.903005108223337e-05;0.10002454401816258;0.230023470217368;0.12987897804844373;2.8857629354561712e-05;0.99999141879765;9.130919118318449e-06;-2.2827297795796123e-05;4.108913603243303e-05;0.2300388102287196;0.13000169813925666;4.4197640706178376e-05;1.0001303226004388;9.130919118318449e-06;1.8261838236636895e-05;-2.739275735495535e-05;-0.005313147336269974;0.04063861139663505
1.9599738121032715;-0.11231628824879886;-0.06766069059103488;0.7274624672850736;0.0024204534436002025;0.13034084016865752;-0.010348736697122893;-0.001496628447582991;9.497982731764693e-06;-1.0462017240522812;1.2665214191070282;-0.3203199767238683;9.527892906483729e-06;-0.0014985630915726525;9.507952790004623e-06;-1.0462085061588908;1.2665242824082021;-0.32035520689038505;-9.517922848244122e-06;7.67000567580417e-05;0.10003221402383837;0.230023470217368;0.12987897804844373;2.8857629354561712e-05;0.99999141879765;9.130919118318449e-06;-2.2827297795796123e-05;4.108913603243303e-05;0.2300388102287196;0.13000169813925666;4.4197640706178376e-05;1.0001303226004388;9.130919118318449e-06;1.8261838236636895e-05;-2.739275735495535e-05;-0.005313147336269974;0.04063861139663505
1.9801254272460938;-0.11230965929124459;-0.06755835267223592;0.7274730018219426;0.0023380925334293345;0.13035632695345492;-0.010480421221211216;-0.001496628447582991;9.497982731764693e-06;-1.0462017240522812;1.2665214191070282;-0.3203199767238683;9.527892906483729e-06;-0.0014985630915726525;9.507952790004623e-06;-1.0462085061588908;1.2665242824082021;-0.32035520689038505;-9.517922848244122e-06;8.43700624338431e-05;0.1000398840295142;0.230023470217368;0.12987897804844373;2.8857629354561712e-05;0.99999141879765;9.130919118318449e-06;-2.2827297795796123e-05;4.108913603243303e-05;0.2300388102287196;0.13000169813925666;4.4197640706178376e-05;1.0001303226004388;9.130919118318449e-06;1.8261838236636895e-05;-2.739275735495535e-05;-0.005313147336269974;0.04063861139663505
1.9999971389770508;-0.11239064399656594;-0.06760543268316081;0.7274561207244665;0.002315673954943809;0.13024776747246283;-0.010410497423513094;-0.001496628447582991;9.497982731764693e-06;-1.0462017240522812;1.2665214191070282;-0.3203199767238683;9.527892906483729e-06;-0.0014985630915726525;9.507952790004623e-06;-1.0462085061588908;1.2665242824082021;-0.32035520689038505;-9.517922848244122e-06;8.43700624338431e-05;0.1000398840295142;0.230023470217368;0.12987897804844373;2.8857629354561712e-05;0.99999141879765;9.130919118318449e-06;-2.2827297795796123e-05;4.108913603243303e-05;0.2300388102287196;0.13000169813925666;4.4197640706178376e-05;1.0001303226004388;9.130919118318449e-06;1.8261838236636895e-05;-2.739275735495535e-05;-0.005313147336269974;0.03910272165488005
2.0198564529418945;-0.11239628146085498;-0.06764791698929065;0.7274513002301338;0.0024314433753570967;0.1302296604338097;-0.010368836806762361;-0.001496628447582991;9.497982731764693e-06;-1.0462017240522812;1.2665214191070282;-0.3203199767238683;9.527892906483729e-06;-0.0014985630915726525;9.507952790004623e-06;-1.0462085061588908;1.2665242824082021;-0.32035520689038505;-9.517922848244122e-06;7.67000567580417e-05;0.10004755403519;0.230023470217368;0.12987897804844373;2.8857629354561712e-05;0.99999141879765;9.130919118318449e-06;-2.2827297795796123e-05;4.108913603243303e-05;0.2300388102287196;0.13000169813925666;4.4197640706178376e-05;1.0001303226004388;9.130919118318449e-06;1.8261838236636895e-05;-2.739275735495535e-05;-0.005313147336269974;0.04063861139663505
2.0398473739624023;-0.11239279272957352;-0.06752933539277509;0.727462856762864;0.002395988159810004;0.13023618208570045;-0.010530978330620213;-0.001496628447582991;9.497982731764693e-06;-1.0462017240522812;1.2665214191070282;-0.3203199767238683;9.527892906483729e-06;-0.0014985630915726525;9.507952790004623e-06;-1.0462085061588908;1.2665242824082021;-0.32035520689038505;-9.517922848244122e-06;7.67000567580417e-05;0.10004755403519;0.230023470217368;0.12987897804844373;2.8857629354561712e-05;0.99999141879765;0.0;-2.2827297795796123e-05;4.108913603243303e-05;0.2300388102287196;0.13000169813925666;4.4197640706178376e-05;1.0001303226004388;9.130919118318449e-06;1.8261838236636895e-05;-2.739275735495535e-05;-0.005313147336269974;0.03910272165488005
2.0599007606506348;-0.11233232910078662;-0.06755019974472974;0.7274702587178185;0.002287669966414818;0.1303298116886901;-0.010484006940876986;-0.001496628447582991;9.497982731764693e-06;-1.0462017240522812;1.2665214191070282;-0.3203199767238683;9.527892906483729e-06;-0.0014985630915726525;9.507952790004623e-06;-1.0462085061588908;1.2665242824082021;-0.32035520689038505;-9.517922848244122e-06;7.67000567580417e-05;0.10004755403519;0.230023470217368;0.12987897804844373;2.8857629354561712e-05;0.99999141879765;9.130919118318449e-06;-2.2827297795796123e-05;4.108913603243303e-05;0.2300388102287196;0.13000169813925666;4.4197640706178376e-05;1.0001303226004388;9.130919118318449e-06;1.8261838236636895e-05;-2.739275735495535e-05;-0.005313147336269974;0.04063861139663505
2.079977035522461;-0.11238093186163485;-0.06758198472176201;0.7274597998932366;0.0023323465827076407;0.13025921950689243;-0.010446301151401622;-0.001496628447582991;9.497982731764693e-06;-1.0462017240522812;1.2665214191070282;-0.3203199767238683;9.527892906483729e-06;-0.0014985630915726525;9.507952790004623e-06;-1.0462085061588908;1.2665242824082021;-0.3202902960616361;-9.517922848244122e-06;7.67000567580417e-05;0.10004755403519;0.230023470217368;0.12987897804844373;2.8857629354561712e-05;0.9999760787862984;9.130919118318449e-06;-2.2827297795796123e-05;4.108913603243303e-05;0.2300388102287196;0.13000169813925666;4.4197640706178376e-05;1.0001303226004388;9.130919118318449e-06;1.8261838236636895e-05;-2.739275735495535e-05;-0.005313147336269974;0.04063861139663505
2.0998051166534424;-0.11243147389057358;-0.0676206555485577;0.7274483965118806;0.002343160061013546;0.13018925155515168;-0.010393468902178073;-0.001496628447582991;9.497982731764693e-06;-1.0462017240522812;1.2665214191070282;-0.3203199767238683;9.527892906483729e-06;-0.0014985630915726525;9.507952790004623e-06;-1.0462085061588908;1.2665242824082021;-0.32025784064726154;-9.517922848244122e-06;7.67000567580417e-05;0.10004755403519;0.230023470217368;0.12987897804844373;2.8857629354561712e-05;0.9999760787862984;9.130919118318449e-06;-2.2827297795796123e-05;4.108913603243303e-05;0.2300388102287196;0.13001703815060828;4.4197640706178376e-05;1.0001303226004388;9.130919118318449e-06;1.8261838236636895e-05;-2.739275735495535e-05;-0.005313147336269974;0.04063861139663505
2.119839906692505;-0.1124934648732975;-0.06766320536389686;0.7274348561668001;0.0023263055698075213;0.13010621217853624;-0.01033077641673499;-0.001496628447582991;9.497982731764693e-06;-1.0462017240522812;1.2665214191070282;-0.3203199767238683;9.527892906483729e-06;-0.0014985630915726525;9.507952790004623e-06;-1.0462085061588908;1.2665242824082021;-0.32025784064726154;-9.517922848244122e-06;7.67000567580417e-05;0.10004755403519;0.2300388102287196;0.12987897804844373;2.8857629354561712e-05;0.9999760787862984;9.130919118318449e-06;-2.2827297795796123e-05;4.108913603243303e-05;0.2300388102287196;0.13001703815060828;4.4197640706178376e-05;0.9999462424642194;9.130919118318449e-06;1.8261838236636895e-05;-2.739275735495535e-05;-0.005313147336269974;0.04063861139663505
2.1398518085479736;-0.11248465834425435;-0.06765162892490087;0.7274372946905554;0.0021592604665815105;0.1301339561741487;-0.010320503761579891;-0.001496628447582991;9.497982731764693e-06;-1.0462017240522812;1.2665214191070282;-0.3203199767238683;9.527892906483729e-06;-0.0014985630915726525;9.507952790004623e-06;-1.0462085061588908;1.2665242824082021;-0.32025784064726154;-9.517922848244122e-06;7.67000567580417e-05;0.10004755403519;0.2300388102287196;0.12987897804844373;2.8857629354561712e-05;0.9999760787862984;9.130919118318449e-06;-2.2827297795796123e-05;4.108913603243303e-05;0.2300388102287196;0.13001703815060828;4.4197640706178376e-05;0.9999309024528678;9.130919118318449e-06;1.8261838236636895e-05;-2.739275735495535e-05;-0.005313147336269974;0.03910272165488005
2.1597774028778076;-0.1125089548368623;-0.06770355918238972;0.727428705868337;0.002159724404558205;0.1301012408817269;-0.010247166085432696;-0.001496628447582991;9.497982731764693e-06;-1.0462017240522812;1.2665214191070282;-0.3203199767238683;9.527892906483729e-06;-0.0014985630915726525;9.507952790004623e-06;-1.0462085061588908;1.2665242824082021;-0.32025784064726154;-9.517922848244122e-06;7.67000567580417e-05;0.10004755403519;0.2300388102287196;0.12987897804844373;2.8857629354561712e-05;0.9999760787862984;9.130919118318449e-06;-2.2827297795796123e-05;4.108913603243303e-05;0.2300388102287196;0.1300477181733114;4.4197640706178376e-05;0.9998695424074614;9.130919118318449e-06;1.8261838236636895e-05;-2.739275735495535e-05;-0.005313147336269974;0.03910272165488005
2.1799161434173584;-0.11243924554234193;-0.06771285272569853;0.7274386191310896;0.0021851961044659822;0.13019479168677112;-0.010237859963151932;-0.001496628447582991;9.497982731764693e-06;-1.0462017240522812;1.2665214191070282;-0.3203199767238683;9.527892906483729e-06;-0.0014985630915726525;9.507952790004623e-06;-1.0462085061588908;1.2665242824082021;-0.32025784064726154;-9.517922848244122e-06;7.67000567580417e-05;0.10004755403519;0.2300388102287196;0.12989431805979534;2.8857629354561712e-05;0.9999760787862984;9.130919118318449e-06;-2.2827297795796123e-05;4.108913603243303e-05;0.2300388102287196;0.13010907821871787;4.4197640706178376e-05;0.9998542023961098;9.130919118318449e-06;1.8261838236636895e-05;-2.739275735495535e-05;-0.005313147336269974;0.04063861139663505
2.19986891746521;-0.11232702932936206;-0.06769074070035534;0.7274580132703247;0.002015938897959699;0.13036476436855055;-0.01024186550092539;-0.001496628447582991;9.497982731764693e-06;-1.0462017240522812;1.2665214191070282;-0.3203199767238683;9.527892906483729e-06;-0.0014985630915726525;9.507952790004623e-06;-1.0462085061588908;1.2665242824082021;-0.3202740683544488;-9.517922848244122e-06;7.67000567580417e-05;0.10004755403519;0.2300388102287196;0.12989431805979534;2.8857629354561712e-05;0.9999760787862984;9.130919118318449e-06;-2.2827297795796123e-05;4.108913603243303e-05;0.2300388102287196;0.13010907821871787;4.4197640706178376e-05;0.9998388623847582;9.130919118318449e-06;1.8261838236636895e-05;-2.739275735495535e-05;-0.005313147336269974;0.04063861139663505
2.219938039779663;-0.11230276780400383;-0.06767329431494751;0.7274633822714737;0.0018876441519892716;0.13041000906651315;-0.010246072111500155;-0.001496628447582991;9.497982731764693e-06;-1.0462017240522812;1.2665214191070282;-0.3203199767238683;9.527892906483729e-06;-0.0014985630915726525;9.507952790004623e-06;-1.0462085061588908;1.2665242824082021;-0.32035520689038505;-9.517922848244122e-06;7.67000567580417e-05;0.10004755403519;0.2300388102287196;0.1299403380938502;2.8857629354561712e-05;0.9999760787862984;9.130919118318449e-06;-2.2827297795796123e-05;4.108913603243303e-05;0.2300388102287196;0.13010907821871787;4.4197640706178376e-05;0.9998388623847582;9.130919118318449e-06;1.8261838236636895e-05;-2.739275735495535e-05;-0.005313147336269974;0.04063861139663505
2.239875078201294;-0.11228769225530918;-0.06777374744681877;0.7274563576536542;0.0019291560474509815;0.1304282530781517;-0.010110484108421662;-0.001496628447582991;9.497982731764693e-06;-1.0462017240522812;1.2665214191070282;-0.3203199767238683;9.527892906483729e-06;-0.0014985630915726525;9.507952790004623e-06;-1.0462085061588908;1.2665242824082021;-0.32037143459757234;-9.517922848244122e-06;7.67000567580417e-05;0.10004755403519;0.2300388102287196;0.1300477181733114;2.8857629354561712e-05;0.9999760787862984;9.130919118318449e-06;-1.8261838236636895e-05;3.6523676473273796e-05;0.2300388102287196;0.13010907821871787;4.4197640706178376e-05;0.9998235223734064;9.130919118318449e-06;1.8261838236636895e-05;-2.739275735495535e-05;-0.005313147336269974;0.04063861139663505
2.2598931789398193;-0.1122406658405988;-0.06767557538585621;0.7274727543994909;0.0019157560454262936;0.130492750315817;-0.01024714845727341;-0.001496628447582991;9.497982731764693e-06;-1.0462017240522812;1.2665214191070282;-0.3203199767238683;9.527892906483729e-06;-0.0014985630915726525;9.507952790004623e-06;-1.0462085061588908;1.2665242824082021;-0.32037143459757234;-9.517922848244122e-06;7.67000567580417e-05;0.10004755403519;0.2300388102287196;0.13010907821871787;2.8857629354561712e-05;0.9999760787862984;9.130919118318449e-06;-2.2827297795796123e-05;4.108913603243303e-05;0.2300388102287196;0.13010907821871787;4.4197640706178376e-05;0.9998235223734064;9.130919118318449e-06;1.8261838236636895e-05;-2.739275735495535e-05;-0.005313147336269974;0.03910272165488005
2.2798492908477783;-0.11220821648854937;-0.06770771483530227;0.7274747696449477;0.0018288634166105614;0.13054605022047042;-0.010187767149260368;-0.001496628447582991;9.497982731764693e-06;-1.0462017240522812;1.2665214191070282;-0.3203199767238683;9.527892906483729e-06;-0.0014985630915726525;9.507952790004623e-06;-1.0462085061588908;1.2665242824082021;-0.32037143459757234;-9.517922848244122e-06;7.67000567580417e-05;0.10004755403519;0.2300388102287196;0.13012441823006948;2.8857629354561712e-05;0.9999760787862984;9.130919118318449e-06;-2.2827297795796123e-05;4.108913603243303e-05;0.2300388102287196;0.13010907821871787;4.4197640706178376e-05;0.9998235223734064;9.130919118318449e-06;1.8261838236636895e-05;-2.739275735495535e-05;-0.005313147336269974;0.04063861139663505
2.299837827682495;-0.11225172948179146;-0.06764107062621053;0.7274742564232883;0.001705206134184649;0.13049696562782762;-0.01026252424894907;-0.001496628447582991;9.497982731764693e-06;-1.0462017240522812;1.2665214191070282;-0.3203199767238683;9.527892906483729e-06;-0.0014985630915726525;9.507952790004623e-06;-1.0462085061588908;1.2665242824082021;-0.32037143459757234;-9.517922848244122e-06;7.67000567580417e-05;0.10004755403519;0.2300388102287196;0.13012441823006948;2.8857629354561712e-05;0.9999760787862984;9.130919118318449e-06;-2.2827297795796123e-05;4.108913603243303e-05;0.2300388102287196;0.13010907821871787;4.4197640706178376e-05;0.9998235223734064;9.130919118318449e-06;1.8261838236636895e-05;-2.739275735495535e-05;-0.005313147336269974;0.03910272165488005
2.3199148178100586;-0.11222890074596192;-0.06770522314522179;0.7274718108366388;0.0016268344258458449;0.13053671704328923;-0.010159227889059458;-0.001496628447582991;9.497982731764693e-06;-1.0462017240522812;1.2665214191070282;-0.3203199767238683;9.527892906483729e-06;-0.0014985630915726525;9.507952790004623e-06;-1.0462085061588908;1.2665242824082021;-0.32037143459757234;-9.517922848244122e-06;6.903005108224031e-05;0.10005522404086578;0.2300388102287196;0.13012441823006948;2.8857629354561712e-05;0.9999760787862984;9.130919118318449e-06;-2.2827297795796123e-05;4.108913603243303e-05;0.2300388102287196;0.13010907821871787;4.4197640706178376e-05;0.9998235223734064;9.130919118318449e-06;1.8261838236636895e-05;-2.739275735495535e-05;-0.005313147336269974;0.03910272165488005
2.3398661613464355;-0.11230124484304783;-0.06768569615706396;0.7274624635733207;0.0016861052594153623;0.13043136520920712;-0.010196455745385408;-0.001496628447582991;9.497982731764693e-06;-1.0462017240522812;1.2665214191070282;-0.3203199767238683;9.527892906483729e-06;-0.0014985630915726525;9.507952790004623e-06;-1.0462085061588908;1.2665242824082021;-0.32037143459757234;-9.517922848244122e-06;6.903005108224031e-05;0.10005522404086578;0.2300388102287196;0.13012441823006948;2.8857629354561712e-05;0.9999760787862984;9.130919118318449e-06;-2.2827297795796123e-05;4.108913603243303e-05;0.2300388102287196;0.13010907821871787;4.4197640706178376e-05;0.9998235223734064;9.130919118318449e-06;1.8261838236636895e-05;-2.739275735495535e-05;-0.005313147336269974;0.03910272165488005
2.359822988510132;-0.11230855358549269;-0.06768850813005854;0.7274610736145206;0.0015841564244276558;0.13043101568589344;-0.010176275452270237;-0.001496628447582991;9.497982731764693e-06;-1.0462017240522812;1.2665214191070282;-0.3203199767238683;9.527892906483729e-06;-0.0014985630915726525;9.507952790004623e-06;-1.0462085061588908;1.2665242824082021;-0.32037143459757234;-9.517922848244122e-06;6.903005108224031e-05;0.10005522404086578;0.2300388102287196;0.13012441823006948;2.8857629354561712e-05;0.9999760787862984;9.130919118318449e-06;-2.2827297795796123e-05;4.108913603243303e-05;0.2300388102287196;0.13010907821871787;4.4197640706178376e-05;0.9998235223734064;9.130919118318449e-06;1.8261838236636895e-05;-2.739275735495535e-05;-0.005313147336269974;0.03910272165488005
2.3799052238464355;-0.11229347215873274;-0.0676318759679276;0.7274686690362167;0.001467520948876907;0.1304619436786985;-0.010237830635360263;-0.001496628447582991;9.497982731764693e-06;-1.0462017240522812;1.2665214191070282;-0.3203199767238683;9.527892906483729e-06;-0.0014985630915726525;9.507952790004623e-06;-1.0462085061588908;1.2665242824082021;-0.3202902960616361;-9.517922848244122e-06;6.903005108224031e-05;0.10005522404086578;0.2300388102287196;0.13012441823006948;2.8857629354561712e-05;0.9999760787862984;9.130919118318449e-06;-1.8261838236636895e-05;3.6523676473273796e-05;0.2300388102287196;0.13010907821871787;4.4197640706178376e-05;0.9998235223734064;9.130919118318449e-06;1.8261838236636895e-05;-2.739275735495535e-05;-0.005313147336269974;0.04063861139663505
2.399810791015625;-0.11231247581215764;-0.06764780260908129;0.727464254479102;0.001281449981448005;0.13045368061855042;-0.0101857349597091;-0.001496628447582991;9.497982731764693e-06;-1.0462017240522812;1.2665214191070282;-0.3203199767238683;9.527892906483729e-06;-0.0014985630915726525;9.507952790004623e-06;-1.0462085061588908;1.2665242824082021;-0.32025784064726154;-9.517922848244122e-06;6.903005108224031e-05;0.10005522404086578;0.2300388102287196;0.13012441823006948;2.8857629354561712e-05;0.9999760787862984;9.130919118318449e-06;-2.2827297795796123e-05;4.108913603243303e-05;0.2300388102287196;0.13010907821871787;4.4197640706178376e-05;0.9998235223734064;9.130919118318449e-06;1.8261838236636895e-05;-2.739275735495535e-05;-0.005313147336269974;0.03910272165488005
2.419767379760742;-0.1123624153210098;-0.067643246651011;0.7274569662677435;0.00129754139539914;0.13038343675870548;-0.010194833258246369;-0.001496628447582991;9.497982731764693e-06;-1.0462017240522812;1.2665214191070282;-0.3203199767238683;9.527892906483729e-06;-0.0014985630915726525;9.507952790004623e-06;-1.0462085061588908;1.2665242824082021;-0.32025784064726154;-9.517922848244122e-06;6.903005108224031e-05;0.10005522404086578;0.2300388102287196;0.13012441823006948;2.8857629354561712e-05;0.9999760787862984;9.130919118318449e-06;-2.2827297795796123e-05;4.108913603243303e-05;0.2300388102287196;0.13010907821871787;4.4197640706178376e-05;0.9998235223734064;9.130919118318449e-06;1.8261838236636895e-05;-2.739275735495535e-05;-0.005313147336269974;0.04063861139663505
2.43986439704895;-0.11236714308199316;-0.06763864896923;0.7274566635112621;0.0013054229053083395;0.13037612098842177;-0.010202602353013793;-0.001496628447582991;9.497982731764693e-06;-1.0462017240522812;1.2665214191070282;-0.3203199767238683;9.527892906483729e-06;-0.0014985630915726525;9.507952790004623e-06;-1.0462085061588908;1.2665242824082021;-0.32025784064726154;-9.517922848244122e-06;6.903005108224031e-05;0.10005522404086578;0.2300388102287196;0.13012441823006948;2.8857629354561712e-05;0.9999607387749468;9.130919118318449e-06;-2.2827297795796123e-05;4.108913603243303e-05;0.2300388102287196;0.13010907821871787;4.4197640706178376e-05;0.9998235223734064;9.130919118318449e-06;1.8261838236636895e-05;-2.739275735495535e-05;-0.005313147336269974;0.04063861139663505
2.459899425506592;-0.11238892438143323;-0.06763085832222274;0.7274540230452461;0.0012682642853712462;0.1303495783226711;-0.010207752794642113;-0.001496628447582991;9.497982731764693e-06;-1.0462017240522812;1.2665214191070282;-0.3203199767238683;9.527892906483729e-06;-0.0014985630915726525;9.507952790004623e-06;-1.0462085061588908;1.2665242824082021;-0.32025784064726154;-9.517922848244122e-06;6.903005108224031e-05;0.10005522404086578;0.2300388102287196;0.13012441823006948;2.8857629354561712e-05;0.9999607387749468;9.130919118318449e-06;-2.2827297795796123e-05;4.108913603243303e-05;0.2300388102287196;0.13010907821871787;4.4197640706178376e-05;0.9998235223734064;9.130919118318449e-06;1.8261838236636895e-05;-2.739275735495535e-05;-0.005313147336269974;0.04063861139663505
2.4798531532287598;-0.11224923654931351;-0.06768940909567356;0.7274701449242466;0.0013963125848316224;0.13053036591703623;-0.01014500272478764;-0.001496628447582991;9.497982731764693e-06;-1.0462017240522812;1.2665214191070282;-0.3203199767238683;9.527892906483729e-06;-0.0014985630915726525;9.507952790004623e-06;-1.0462085061588908;1.2665242824082021;-0.32025784064726154;-9.517922848244122e-06;6.903005108224031e-05;0.10005522404086578;0.2300388102287196;0.13012441823006948;2.8857629354561712e-05;0.9999607387749468;9.130919118318449e-06;-2.2827297795796123e-05;4.108913603243303e-05;0.2300388102287196;0.13010907821871787;4.4197640706178376e-05;0.9998235223734064;9.130919118318449e-06;1.8261838236636895e-05;-2.739275735495535e-05;-0.005313147336269974;0.04063861139663505
2.4998691082000732;-0.11227036820867668;-0.06764398761656372;0.727471108929659;0.0012695582793678674;0.13051263171473929;-0.010189166473911316;-0.001496628447582991;9.497982731764693e-06;-1.0462017240522812;1.2665214191070282;-0.3203199767238683;9.527892906483729e-06;-0.0014985630915726525;9.507952790004623e-06;-1.0462085061588908;1.2665242824082021;-0.3202740683544488;-9.517922848244122e-06;6.903005108224031e-05;0.10005522404086578;0.2300388102287196;0.13012441823006948;2.8857629354561712e-05;0.9999607387749468;9.130919118318449e-06;-2.2827297795796123e-05;4.108913603243303e-05;0.2300388102287196;0.13010907821871787;4.4197640706178376e-05;0.9998235223734064;9.130919118318449e-06;1.8261838236636895e-05;-2.739275735495535e-05;-0.005313147336269974;0.03910272165488005
2.51991868019104;-0.11216007139498117;-0.06769354454631639;0.7274835127871684;0.0011744520046922699;0.13067402528085437;-0.010103733607984207;-0.001496628447582991;9.497982731764693e-06;-1.0462017240522812;1.2665214191070282;-0.3203199767238683;9.527892906483729e-06;-0.0014985630915726525;9.507952790004623e-06;-1.0462085061588908;1.2665242824082021;-0.3203389791831978;-9.517922848244122e-06;6.903005108224031e-05;0.10005522404086578;0.2300388102287196;0.13012441823006948;2.8857629354561712e-05;0.9999607387749468;9.130919118318449e-06;-1.8261838236636895e-05;3.6523676473273796e-05;0.2300388102287196;0.13010907821871787;4.4197640706178376e-05;0.9998235223734064;9.130919118318449e-06;1.8261838236636895e-05;-2.739275735495535e-05;-0.005313147336269974;0.04063861139663505
