flxalr/sts-optimization-reemc/input/477_104/trq.csv
time;base_link_tx;base_link_ty;base_link_tz;base_link_rz;base_link_ry;base_link_rx;leg_left_1_joint;leg_left_2_joint;leg_left_3_joint;leg_left_4_joint;leg_left_5_joint;leg_left_6_joint;leg_right_1_joint;leg_right_2_joint;leg_right_3_joint;leg_right_4_joint;leg_right_5_joint;leg_right_6_joint;torso_1_joint;torso_2_joint;arm_left_1_joint;arm_left_2_joint;arm_left_3_joint;arm_left_4_joint;arm_left_5_joint;arm_left_6_joint;arm_left_7_joint;arm_right_1_joint;arm_right_2_joint;arm_right_3_joint;arm_right_4_joint;arm_right_5_joint;arm_right_6_joint;arm_right_7_joint;head_1_joint;head_2_joint
0.0;-8.569530976080738;26.732878420192655;510.450321672359;4.045905452012069;-4.386951226068163;46.215199341219446;3.6907299337405886;10.503389340414218;-8.367641371147496;9.765886920223984;1.9989950545582653;2.1107411763823394;2.479090586866781;7.249598486188855;34.59945883371886;-3.088649148720209;18.373191606950822;3.2101924388711796;-0.20245413446892938;-28.852675087749645;6.015955250346858;3.6362986504556654;0.8411476385754999;5.383803777408749;-0.01861384147481597;0.12310498133168733;0.05965986438156987;6.0679322654807555;3.9990623608448974;0.9774707555373837;5.373071716824511;-0.01963380177340683;0.14905772200647785;0.06029414999248638;-0.0032730309584304614;-0.5192781022557028
0.01981520652770996;-8.885493421739486;26.615665886975975;510.4402482578929;4.021831014723156;-4.160489248841294;46.1542308008238;3.668720899168049;10.445517445009347;-8.301658862278495;9.814198392860726;2.020677277211402;2.098736778919525;2.4792585267973886;7.24995756400061;34.710954899171846;-3.018694521879535;18.3806262057735;3.208253399089141;-0.20463666882722595;-28.85102270723837;6.016486579200012;3.634488545890356;0.8404881680594398;5.384106401976018;-0.01860907981025991;0.12298830560196175;0.059658816397075244;6.069172584047987;4.000750625595386;0.9781340861275503;5.373421758916555;-0.01963761191640772;0.149177147022903;0.06030154081374585;-0.003394089009038407;-0.5192346765841196
0.039784908294677734;-9.21136587737561;26.799981169299222;510.53114315830277;4.009336696260592;-3.9704641204810684;46.370695338526076;3.709455909000355;10.557098086092308;-8.353681887950996;9.854011946550546;2.0141819290772496;2.122564658129166;2.4697713191443467;7.272344274362549;34.91667508841944;-2.937881325093894;18.41351346031026;3.235404815443131;-0.2044742895717031;-28.85643346659635;6.015578908172645;3.6345427337525376;0.84051924736158;5.3839034784014075;-0.018604883532318046;0.12301026162205823;0.05966133064548669;6.068523386215538;4.0008321206226976;0.9781764636776469;5.373392022262381;-0.01963793941438939;0.14917718039412559;0.06030095321703156;-0.0034171540368634627;-0.5211629410886202
0.05984091758728027;-9.521456882955837;26.794628364099506;509.92603812734;3.991488097530023;-3.6728142872257408;46.429656117016336;3.7107402039415747;10.559247502387713;-8.292549212004392;9.894741629020167;2.0263963584153193;2.1228066194930797;2.460645532668945;7.28870850889362;35.13454333240861;-2.8942915496632162;18.471010698238953;3.254980798757655;-0.2032002868606394;-28.861146408339742;6.014550424715846;3.63554273178662;0.8408974918742298;5.383625620804593;-0.018602944908947358;0.12307588078494568;0.05966405155823453;6.06729602091705;4.000069396247811;0.9778778071420818;5.373183671205936;-0.019634327937029745;0.14911887220976755;0.060298307088045566;-0.0033554511680741915;-0.5213259848031181
0.0799403190612793;-9.902119753157297;26.786346553523536;508.30333863210956;3.939622042982749;-3.1539770071792006;46.5201459930644;3.7124209345051833;10.56409404542309;-8.242470345881813;9.849581383861423;2.024100151240741;2.1238786088028214;2.444329134869506;7.304333232063748;35.596381284957076;-2.785668199559632;18.608622060762645;3.264790480803957;-0.20380211277072977;-28.867209741081506;6.0129451042178115;3.6352460276575873;0.8407790711165735;5.3832878733894995;-0.018603591809774014;0.12305683129155823;0.05965811084036765;6.065838045745995;4.000668413696962;0.9781105092999515;5.37285325268028;-0.019629373445460924;0.14916065365763212;0.06030213053296689;-0.003387135909413053;-0.521531812363221
0.09978818893432617;-10.126380037695426;26.272113261598257;508.19809382342396;3.8468538142055384;-3.025795363145612;46.219479497773264;3.7128622037608743;10.57187452407383;-8.241756790310617;9.85013562807076;2.0242314823699767;2.133611494033367;2.326820653849022;7.051017818805526;35.70451770691443;-2.738981078870106;18.611852374060962;3.22716713069068;-0.20546562312982797;-28.870556185606343;6.012213419860038;3.6343103688654024;0.8404124088246488;5.383240408544145;-0.018611834523196896;0.12298873155338928;0.059644657908095894;6.065165879148368;4.001827159027688;0.9785628332392984;5.372624118866998;-0.019620500307659217;0.14925111334637123;0.060313425302161175;-0.0034674493924069312;-0.5216663196876133
0.11980509757995605;-10.222403666334149;26.756729790053406;506.9931018760499;3.914369091094736;-2.755686089918761;46.66317936468519;3.7084236609141463;10.557709709661868;-8.242397425029845;9.850283821719636;2.024193331694771;2.12327345902439;2.4564487915207187;7.328636202489851;35.986288027485244;-2.7560308477808633;18.696330720284802;3.2685362086133156;-0.20942180808684488;-28.87159781426923;6.011966533655359;3.631695855480795;0.839413318486961;5.383427142936183;-0.018621722830317947;0.12280077819254596;0.059624190904206426;6.065368400663286;4.004597207959929;0.9796348566964026;5.3724981468916795;-0.019614662996542256;0.14946244283857155;0.06033040347025216;-0.003661007599114163;-0.521735774824265
0.13983678817749023;-10.371084092668614;26.657612912395933;507.68034754630696;3.894397570410525;-2.7280407540947493;46.60069875148398;3.7058505184974244;10.55165594695254;-8.289540725230946;9.897095825562301;2.0268732805037963;2.122156169957364;2.4391127522863476;7.271730122292067;36.02813359253434;-2.67011289200558;18.715600455487795;3.2488296553699105;-0.2108782299320072;-28.871742792110012;6.012181320617738;3.6309842181771534;0.8391253211429206;5.383580945673089;-0.01863404475875629;0.12274301942657007;0.059610085970467505;6.065528609373317;4.005222170343236;0.9799049389109075;5.372505267413155;-0.019610578039947008;0.1495280225053755;0.06033717056987254;-0.0037215965195834515;-0.5217763302583159
0.15982770919799805;-10.273441828592192;26.751086365889996;507.4777484937782;3.9105932938917127;-2.738395005536212;46.62270118356016;3.710517255150527;10.56112112451648;-8.261708245070752;9.880058761262436;2.0347697007826295;2.1235509710561296;2.446288948113714;7.301677640364142;36.00064673936831;-2.685709614006302;18.718964148464355;3.2548750042356107;-0.20784710741505552;-28.868487381859968;6.013905628866556;3.6335154879689657;0.8400763282844562;5.383904564539337;-0.018648218611474456;0.12292297599264614;0.059611149512090025;6.066449219564285;4.002795104359135;0.9790238317280717;5.372959391943837;-0.019611244360613463;0.14937739974539785;0.06032957690153013;-0.0035582860374522144;-0.5217182599316598
0.17990684509277344;-10.195566945550901;26.339138705026237;508.67807825728454;3.8340151998484955;-3.0067789383177796;46.27696771368523;3.7098508455036674;10.560161567456506;-8.35019019768993;9.855665492430582;2.014687059119984;2.123453753936607;2.3391010749798404;7.070399129088204;35.80959345948632;-2.6434164049780637;18.654501555856093;3.205745711647905;-0.20841879969929844;-28.86782567297928;6.013499536846907;3.633177814482316;0.8399331522562744;5.383807262073501;-0.018659906766184585;0.12289564304587898;0.05959733542076523;6.066039877882597;4.001062410506026;0.9783914480152014;5.3728948912036465;-0.019611115719987998;0.1492702409244298;0.060321070509797126;-0.003570469114508339;-0.5199577620405413
0.199845552444458;-9.783953331113446;26.024301747163253;508.8894685981626;3.837757702360255;-3.320125135152651;45.99852852029845;3.6679295958025393;10.447783749859232;-8.295227075099298;9.817691799312083;2.021694597866562;2.0998175343840653;2.329985452072348;7.015273979771111;35.489686780920096;-2.7490998311015282;18.591761382924062;3.1930406454682285;-0.21136670756726095;-28.86746960141068;6.013840565886619;3.631276697197403;0.8392089996717056;5.3840069718769845;-0.018674608178794704;0.12276231376886029;0.059576398712846465;6.066753262234409;4.00293774570015;0.979125513667361;5.372895539240656;-0.01961916263702391;0.14942215722656887;0.060322201223570945;-0.0037390132713817953;-0.5217288603876226
0.21981430053710938;-9.478841798999515;26.416720637098166;509.30094830661255;3.908653362502789;-3.6014587494698205;46.21078406911428;3.707996921515651;10.559730951900196;-8.349930887083097;9.740568835944845;1.9973661777276277;2.1240451287192736;2.389503810422684;7.10984129433288;35.27312366638913;-2.7963563416924746;18.518872317066606;3.197415161373044;-0.2133168979617781;-28.858267931235865;6.01661104253475;3.6299615631027002;0.8387275825404796;5.384819765622178;-0.018692992282335355;0.12267979720787303;0.05956080972764551;6.0697227218027034;4.0039350404014975;0.9795451523472233;5.373565001907003;-0.01962975708730174;0.14951676016773985;0.0603234738839637;-0.003841569517075066;-0.5214883655380861
0.2398838996887207;-9.355092179056108;26.496271129266848;510.0123781116581;3.9730538372191866;-3.753721518927314;46.20952780809067;3.7085486408461605;10.560900053949883;-8.256842025057939;9.84284178110757;2.0226315070597685;2.1241458303267584;2.4184277741387996;7.126796769313;35.01374979989885;-2.882230754513837;18.456875314844982;3.1838134124753554;-0.2128539227309278;-28.852387630152325;6.018207878248694;3.6303902805852735;0.8389037709593483;5.385154465379741;-0.018710219018347532;0.12272434075734022;0.05955004120947828;6.071211356159209;4.003628973534034;0.9794452082127532;5.373908768914989;-0.01964266869965664;0.14950526252722707;0.06031337874821944;-0.003828705652996002;-0.5213346607518979
0.2599825859069824;-9.229346742862594;26.702430351218254;510.42487007234774;4.001106023098747;-3.834329094878875;46.37117810409201;3.7032348056492372;10.550422371909274;-8.344355313981675;9.824525233301603;2.0114267026362076;2.122604556479348;2.482396859280626;7.2489902480824036;35.00587760565766;-2.8462016715094434;18.461709785222403;3.1945566691780014;-0.2166515043059174;-28.844143443696762;6.020024953556603;3.6274474268813357;0.8378254122282034;5.385762290286299;-0.018719583651171927;0.12253531968580789;0.05953398952334003;6.07392130532492;4.00655815767289;0.9805616834553795;5.374351206923799;-0.019664261861662494;0.14972122073009353;0.060310891986737676;-0.004035620876680128;-0.5211076180891556
0.27985215187072754;-8.862383387217267;26.50271085146;510.0420658073728;3.9932683209837903;-3.9561750431595115;46.21560844144681;3.704772152235488;10.553678388902698;-8.312375987328402;9.81034795887944;2.019937407917454;2.1231308034655325;2.4283337416548147;7.124729683890816;34.89337809290423;-2.947957338936977;18.464356118592107;3.1600235995620793;-0.21529281411707257;-28.838495030954018;6.021170416850578;3.6279946272239747;0.8380871601998149;5.385912261053304;-0.01872142471385746;0.12260909619888218;0.05953726040285048;6.075411919772344;4.006109697925272;0.9803575967971719;5.374722314301294;-0.019691355732049665;0.1496727892970153;0.06028661766327272;-0.004001953275967486;-0.5209437593781048
0.2999396324157715;-8.596244551707906;26.68238597559753;509.8414855185715;4.0389763144127695;-4.017590146217074;46.368082133263314;3.7083538552493462;10.561759771935629;-8.338886466395781;9.831555478640526;2.021073157520669;2.1244057199659365;2.4643189403850982;7.212525713978995;34.86956241731569;-3.0327585276148614;18.472353964455078;3.1836370652673263;-0.21132082470391692;-28.826956206358243;6.0237425559380675;3.6299356778534886;0.8389254671314602;5.386339833085502;-0.018714269394296067;0.12280769711354983;0.059558672753283165;6.078329490002821;4.004059956064659;0.9795201900184861;5.3756297619063504;-0.01972796509127643;0.14949115712832411;0.060250797122045806;-0.00384087851179151;-0.5188426200051353
0.31993865966796875;-8.448758468271983;26.475587723339935;510.0449119507956;4.014305001392719;-4.1051640701374055;46.228009475699196;3.708534858626002;10.563229059852922;-8.34713321532805;9.827311518612747;2.020158175552611;2.1247875408189696;2.4125999903878483;7.114822599041122;34.775946225628175;-3.0695034919204867;18.42863743995707;3.1778883208302533;-0.2099811397851829;-28.816956539891613;6.026755665048945;3.629807390760772;0.8389979233492965;5.387038417268747;-0.01870375206662306;0.12286597468111972;0.05957633082160887;6.082263866241807;4.0039300915304805;0.9794060519955003;5.3766780841304165;-0.019766167666222773;0.1494423791734449;0.060223682415399576;-0.003865843876387698;-0.5203043586154732
0.3397793769836426;-8.89753927032497;26.457666357667254;509.93478617786093;3.9772323071851696;-3.7201297134641678;46.22470856882429;3.687187632770221;10.507126169483554;-8.281616513377518;9.830210676904569;2.019978382709303;2.113105973227904;2.424591363257341;7.1805366224032054;35.00589816691472;-2.8958451787396378;18.47110366355347;3.1992643504401923;-0.2096739229084309;-28.80609839884645;6.028807425159788;3.6289170593235394;0.838776906961686;5.387549297996353;-0.018692774611255694;0.12286909946449343;0.05958887531135507;6.085407202135095;4.004634834913358;0.9795991507876134;5.377452408551807;-0.01979970113240831;0.14944755428944936;0.06020217306213371;-0.003899968211679409;-0.5182131817184422
0.3598325252532959;-8.929210583782778;26.634356768248587;509.54644767974696;3.98939502955621;-3.610741215580717;46.39751372604337;3.688360999467939;10.51032520538319;-8.269092518560537;9.836795942507342;2.021723000730884;2.1137798434956716;2.4621380911735806;7.291210380956711;35.110673991123065;-2.8879971152028947;18.510920174032325;3.228078593025882;-0.20875428532690135;-28.811304364471713;6.026563032367783;3.628705800856219;0.8387772170976246;5.386828885639279;-0.01867926296520315;0.1229092588912172;0.05959493360031813;6.084147596375602;4.005194267543644;0.9796949483830842;5.377016335527537;-0.01982733437846116;0.14942436169668968;0.060173820034703625;-0.003946979990664437;-0.5200941836069295
0.3799405097961426;-8.753085771588982;26.64910391292484;508.73515706050614;3.9764635476700625;-3.578183453518392;46.48288273322197;3.6878566281656653;10.508622386509664;-8.390210132703515;9.755425698211274;1.997271386192258;2.113393544755716;2.4711389276836306;7.310315037434779;35.28945288319067;-2.917283947355587;18.54606174703753;3.233880226101953;-0.20716979931392968;-28.806135879597957;6.027618233891234;3.6290428182047707;0.8389901011489259;5.387008994130299;-0.018673335224975177;0.12298601132713977;0.0596048387136766;6.085775025044694;4.00477348148218;0.9794684116465245;5.377454887790152;-0.019848609136371397;0.14935167299106064;0.06015566609105362;-0.003928667385448778;-0.5199226465212964
0.39978718757629395;-8.86716596696979;26.43473897826257;510.1399106513642;3.9415430410336736;-3.706222511449951;46.24677017052615;3.685280583523583;10.50507955262301;-8.401385179821235;9.750079717714062;1.9960017165134738;2.113144840642916;2.4295531330742155;7.198159630074152;35.09567560776911;-2.8141396007285078;18.446989422965466;3.209221136749105;-0.2084950163663443;-28.792247542856092;6.030779347023239;3.626948781081872;0.83831629549612;5.387944935950124;-0.018663053712904033;0.12290138202571256;0.059615015041711725;6.090176661126451;4.00641617783646;0.9800341132252426;5.378518499840011;-0.01987489738529493;0.14942853554370764;0.06014829461320057;-0.00404228598449801;-0.5177393127703774
0.4198427200317383;-9.090340496063165;26.507731889898515;508.54267948617763;3.9337729677347597;-3.205517089082079;46.4863599001889;3.7074424072433327;10.5658123134392;-8.367296169150915;9.812692109768212;2.0094294806979085;2.1260078691872093;2.417552034516108;7.215235462395727;35.54119835430335;-2.826410845992152;18.57063004665354;3.2331473053173414;-0.20662867062408566;-28.785782406242618;6.032316296048626;3.627244634567261;0.8385355295939868;5.388270302131342;-0.01864951793310826;0.12298464268686281;0.05963346061012242;6.092451201969608;4.005907834219492;0.9797615892968176;5.379174616420288;-0.019899367317402127;0.14934093891990405;0.060128587865034326;-0.004019026502550767;-0.5175219365688203
0.4399731159210205;-9.177357539299242;26.402286314117198;509.11954017815765;3.904076384820476;-3.2124032032495577;46.348806591957576;3.732259710128775;10.62843498284215;-8.386640405912324;9.837650845298484;2.0112444516938024;2.1385094272554315;2.350172596710268;7.0655933737422325;35.53473246227496;-2.7605358113342087;18.573515064887108;3.1951358840940856;-0.20061611756989595;-28.788467012064388;6.032033108629729;3.6311185231194183;0.840053325311965;5.387877029470049;-0.018644705903394447;0.12329827808342779;0.059652810913584334;6.091713867931626;4.002143227262752;0.9782673440282219;5.379245418194803;-0.019908819337097892;0.1490293622488086;0.060102569081978564;-0.0037868731921584667;-0.5193255499146264
0.4599573612213135;-9.057994124276698;26.288269756106942;508.43233690985744;3.901736724820509;-3.152136376841149;46.37439765312209;3.708037696166704;10.566935250076478;-8.391503953482417;9.83548943939346;2.0107333819899047;2.126117021619529;2.362006217154429;7.0952497089747375;35.613693817181115;-2.8281866993745908;18.60085079513119;3.2070584907933215;-0.20425723724647932;-28.781732394365452;6.033087241133972;3.6278339293360773;0.8388767265543854;5.388396586715106;-0.018638573941256675;0.12310144537370543;0.05964866138624346;6.093938678595868;4.005195294781334;0.9793863306318121;5.3796374552544926;-0.01991823338397483;0.14922024614947657;0.06011126726585451;-0.003989557532873012;-0.5173423056100792
0.47977566719055176;-9.52492185024618;26.152994630054565;507.7015506428194;3.8487080359460055;-2.719822079412964;46.29981669590725;3.689080467933463;10.515945106007866;-8.278966292529706;9.831890663093109;2.0209305641618434;2.1153277386394294;2.3466595821728466;7.0844129812616154;35.89151497697445;-2.6918091887124254;18.671952714127137;3.2025990798385173;-0.20536131959556952;-28.7863929135942;6.031297796807254;3.6269933090875965;0.8385622832444354;5.387985508503533;-0.018642055700134476;0.12305212580392173;0.059637256090958414;6.092401674052033;4.006230912431697;0.9797450417439761;5.379121582361658;-0.019911812349149363;0.14927215604489696;0.060117141044986694;-0.004065404407997717;-0.5174420048136701
0.5000107288360596;-9.766170765556296;26.240298203805835;507.7955338286864;3.83804505693087;-2.5497231307707295;46.355778431510814;3.6874514712811237;10.513766854575367;-8.267844059160137;9.82024438578079;2.0202387258328436;2.115230639203948;2.369309985875549;7.1371003078741175;36.01685274665803;-2.5627945596284203;18.714131643234538;3.205033331073643;-0.20841886651953148;-28.78816774138457;6.0313747085715725;3.6251528151055448;0.8378368194657637;5.388189587020573;-0.018653666694484476;0.12290618476212536;0.05961901919190354;6.0925327483617036;4.008025679023531;0.9804563641279237;5.379020484685432;-0.019897325818008113;0.14941486388705158;0.06013850058081225;-0.004226214404364214;-0.5192322372786061
0.5199568271636963;-9.585233918773898;26.245056550184238;508.10155509886283;3.834075268889768;-2.7473445207237717;46.37012447704025;3.6892723056058263;10.522980152055581;-8.416023395574745;9.777887049703697;1.9988979543344745;2.124877452306046;2.3760002878840516;7.123168694899445;35.99621179906768;-2.5804345457634357;18.70172966581731;3.194772475410354;-0.20884465135726718;-28.79013076594115;6.030633110448851;3.6258644591318303;0.8380088534531747;5.3879883417541885;-0.018675043605127492;0.12290420942645429;0.05959913039366372;6.0907804294290235;4.007451631296879;0.9803108400599967;5.378563662188381;-0.01987133252936802;0.1494159385795966;0.060156787669011454;-0.0041647973616553095;-0.5175052563369519
0.539830207824707;-9.179917056925815;26.474965904613327;507.7100523015351;3.901460758715917;-3.020422944487322;46.46870856848139;3.7089760915347108;10.569987459418938;-8.368484325005765;9.731779424876105;1.996124241253465;2.1268975339460225;2.4116491661689006;7.182021142927023;35.74923047722746;-2.749378059887227;18.650624387440985;3.2017226753221677;-0.21002109647642198;-28.79311965225823;6.030238773950517;3.6264550608134196;0.8380937320438764;5.387881846224588;-0.018703631563300127;0.12287645669405343;0.05957312958403296;6.0890610394734885;4.006959885437505;0.9802383668119772;5.378090609974282;-0.01983942932864282;0.14944908182899977;0.06018130380383311;-0.004131242502268172;-0.5175747270173969
0.5599541664123535;-9.220821535417466;26.484218033901275;508.9188530635956;3.9147268700662474;-3.1234186373142094;46.45422054609778;3.7069956468457455;10.564393266410043;-8.383686247328349;9.839698176092744;2.0116634410866174;2.1256361049422745;2.411096999166696;7.180895846451671;35.626646415263224;-2.716567408407915;18.635999147303256;3.202560128914284;-0.21177253348838182;-28.791255759081423;6.0321316081190535;3.6266750028756136;0.8380431803078078;5.38842403532966;-0.01873704337680658;0.12280147632771936;0.05954605852672171;6.089544408508998;4.006524078009426;0.980220424961163;5.378197990071879;-0.01980604247069774;0.14950080704798968;0.060213397190512274;-0.0041431039521233025;-0.5192816435147304
0.579840898513794;-8.80417407475013;26.48997421093538;508.13149415279213;3.954338627893294;-3.248736383139864;46.446812464765294;3.708118333308234;10.567931920760895;-8.335491067428226;9.798439305182814;2.0178925059492956;2.1263989234395817;2.420461382595854;7.171732420298616;35.512753422092814;-2.855293140176757;18.640824941954325;3.1919497011008375;-0.21446986669762094;-28.785504086343945;6.034607145131192;3.6261383008631927;0.8377134033051479;5.38917600237204;-0.018773125570929382;0.12268600272607652;0.05951552979246673;6.0907652217192085;4.00673932812269;0.9804535659453418;5.378438243077552;-0.019771825654423023;0.14959884070916663;0.06025070825573377;-0.004185093551245722;-0.5191256462950886
0.5998189449310303;-8.832050139479513;26.592165876466417;509.12413015595797;3.963254415138523;-3.3993997166277055;46.481494385865965;3.708278322583167;10.574240912952584;-8.369359344929794;9.811650315072136;2.0091846907014954;2.1356644235650606;2.4422016985241464;7.230489589775184;35.371716496174535;-2.811781984614397;18.596739737070727;3.2063621617787827;-0.21693491489195138;-28.783427665388242;6.035207704395544;3.6259292261935236;0.8374861390484094;5.38939427998855;-0.018813078866219107;0.12258782861999279;0.0594775130129254;6.089961641800315;4.006872646500998;0.9806433712964813;5.378101808817325;-0.0197310735161351;0.14968486631797306;0.06028837431921219;-0.004192731650172464;-0.5173131672088689
0.6198368072509766;-8.837581823817251;26.475427034803232;509.12945279506243;3.95972447183889;-3.4273523965536725;46.36751813734483;3.6854832955426584;10.50813087134412;-8.285360301914643;9.82889872186766;2.0199755780298987;2.1139147777739526;2.4408392018969307;7.221799651811613;35.26417865462777;-2.8509281235627713;18.564473718886;3.1959076287757764;-0.2211258306618462;-28.786573385002352;6.035070569886887;3.6243198997611112;0.8367445666772658;5.38951714737351;-0.01885064826263523;0.12240110473821231;0.05943431348945366;6.088964300430261;4.008445927139034;0.9813725677290668;5.377650650194826;-0.019691257625041286;0.14986230278373536;0.06033062519446693;-0.0043499287674879615;-0.5191794817339977
0.6398978233337402;-8.569430146653861;26.446025857817517;509.83144446023596;3.9859544113294842;-3.721980812750161;46.33206220907596;3.6850365635771465;10.507933508243179;-8.297868706633071;9.862773928358838;2.0315520690786792;2.113959441232269;2.4446097129989592;7.208548075343672;35.00624318616359;-2.9380845433312652;18.5033425314094;3.1912511224058817;-0.2247460439782272;-28.785988481930914;6.035670942985148;3.622986023022752;0.836124139884829;5.389839134787118;-0.018889022928522084;0.12224435411070247;0.0593935115343693;6.0886121700069875;4.0096645517208405;0.981950826255741;5.377357657651592;-0.01965059345938045;0.1500081655302493;0.060373442230349135;-0.004467752811461182;-0.5191897549074872
0.6598443984985352;-8.281664975302013;26.437486220720437;510.441873257121;3.9927253068159887;-4.106494014018907;46.280465345714774;3.705133896004666;10.562556226671566;-8.349534042502144;9.827066820854363;2.020474124568512;2.1256129811821993;2.4234448342808763;7.145975217850232;34.718597138724704;-3.0391988840852395;18.405612467610176;3.1715981577328933;-0.22758739198684683;-28.79177341662504;6.034115758195805;3.6224400380557844;0.8357726433832764;5.389504488769086;-0.018929698332650943;0.12213236405698179;0.05934773792460585;6.085863159037158;4.010394334376948;0.9823327007187755;5.376423346329749;-0.019605135817497336;0.15011617449567471;0.060412424864098105;-0.004539518882625036;-0.5193820677803903
0.6797573566436768;-8.38358156998807;26.514003929822003;510.1408419058012;4.017605752856558;-3.9717140107550364;46.39369879864114;3.7033065320484044;10.560225302439878;-8.298761603414071;9.862923732149232;2.031500842964979;2.125457039833159;2.457903839392662;7.2158802861101226;34.780410522954476;-3.0519729788850984;18.415806161592872;3.1933691438008256;-0.23203391707668647;-28.78501139496527;6.036867123916041;3.6203388098492364;0.834883717518303;5.390484269994965;-0.018968902128894738;0.12192892782913163;0.05930893130910409;6.0878536712269575;4.012091140173061;0.9831138211881651;5.376754877115774;-0.01956584400026072;0.15030446232295241;0.060462137068853256;-0.0047052155739669855;-0.5192310881769894
0.6998965740203857;-8.310969367899588;26.706431024354504;510.0405934974101;4.029118381314993;-4.061280064472697;46.50105407685301;3.7239470439765014;10.617968380652751;-8.336009548068095;9.776564352475088;2.0070811957171224;2.1379550898498465;2.4785026194391024;7.266863354386448;34.740438516996754;-3.0496000525221385;18.390056408890647;3.1970936517040287;-0.23506948606378;-28.78370888079703;6.03786127724205;3.6193583081213037;0.83440323607804;5.39089801876212;-0.01900568024962493;0.12179965815936224;0.05927213661313466;6.0878923331165655;4.012927375643639;0.9835528392653826;5.376627402223379;-0.019525908710642248;0.15042624789958445;0.06050388463686813;-0.004796169709346615;-0.5192353789292434
0.719825267791748;-8.340443070205849;26.611286170393655;510.3348490267495;4.019625344478808;-4.095752586497532;46.46805281556773;3.7008848044660514;10.555139473135368;-8.356423837192729;9.82396285841303;2.0195667416464764;2.1246481749388546;2.4866839995454146;7.282508461720733;34.733190618606045;-3.0526100288107774;18.39619211860052;3.20134329171466;-0.23796915813218025;-28.789138062339557;6.036434053964157;3.6184382816654814;0.8339381698701895;5.390638278657871;-0.019033230723952577;0.12167219311764932;0.05923791295387523;6.085493578016999;4.014028744945281;0.9840595153429659;5.375848329885048;-0.019490299253310646;0.1505560078542889;0.06053605653005835;-0.0048794565866279085;-0.5194353474367328
0.739783525466919;-8.88234394854037;26.306023862130292;510.9233080035783;3.9126432712377843;-3.893334328159149;46.25388983443705;3.701052995969261;10.554925993227046;-8.349096419845278;9.827730441886228;2.0204326684837572;2.124540363852248;2.3987375512833844;7.152921512199394;34.863479751187285;-2.8698976845804722;18.38477573983934;3.206710624469368;-0.23904938946129026;-28.79633843980385;6.034236322193463;3.6185449987593437;0.8338828891969743;5.390089949959836;-0.019049334448443;0.12162951325109336;0.059216760574734566;6.081714675621282;4.01422712933956;0.9841858977389744;5.374804901886217;-0.019463069792583138;0.15060454195523434;0.060553040193605225;-0.004884774862943419;-0.5197051786792998
0.7597756385803223;-9.091707451071127;26.107703807707953;509.7297692709009;3.889959109871934;-3.538086384932832;46.194687928109;3.6818514007950647;10.50147648850883;-8.294497112987337;9.864669225312868;2.0317659360301024;2.1129198961480933;2.3761880431621987;7.093324000833411;35.16220434571002;-2.8709023747194786;18.48055454959751;3.193813823873849;-0.23816536484988388;-28.79695746952549;6.034764472610594;3.6196063279813346;0.8342448801460463;5.390234550683239;-0.0190558297235177;0.1216802862234132;0.05921615445449094;6.081474895673925;4.013147794382577;0.9838305557395968;5.374905563845252;-0.0194475881944062;0.15055854538922037;0.06056349716323338;-0.004810607860393744;-0.5197710404330053
0.7799410820007324;-9.401151053535813;26.315785732398698;508.9046100726075;3.8894045059952376;-3.2762029692969676;46.37323725283263;3.704875919465249;10.569611183618555;-8.272081008073748;9.836305422721843;2.0216326394933852;2.1353534804544307;2.3965314002605473;7.14161086374443;35.40076561045528;-2.8235494988744874;18.526401956344394;3.195468588045698;-0.23808394157753884;-28.807256031145506;6.031680962852695;3.6198827365313373;0.8343119243752269;5.389412273138981;-0.019048409941633232;0.12167986379476628;0.059216043857807876;6.078469563425777;4.013292068390339;0.9838811220996175;5.374180409353217;-0.019441416384867828;0.15057566955642313;0.060562335658665735;-0.004787652175482432;-0.5200949052209279
0.7998192310333252;-9.519767279333191;26.223846376223463;507.9079677417453;3.8322421965102396;-2.9995963491034843;46.397350804067756;3.6832936760484287;10.505685593947756;-8.38294116883833;9.764560206594314;2.007199310530127;2.1139043109413933;2.390504832341792;7.162723134625611;35.79433419334269;-2.721603839140448;18.648027094682686;3.2135080691560343;-0.23800295072579408;-28.80649606357213;6.031724504543233;3.6196276347334546;0.8342367687379351;5.38950039357394;-0.01903144120516974;0.12166657631870276;0.059231600013260846;6.078756615902637;4.013552649816558;0.9839758684180584;5.374410340836306;-0.019447340664272103;0.15059785674121487;0.06055904465675447;-0.0047597268681800215;-0.5183502120401674
0.819814920425415;-9.955745654462074;26.24043667111509;507.6826264269041;3.8074946492624613;-2.6908630569809233;46.416808118855954;3.7064532373512677;10.565148818028401;-8.340558052969346;9.83111641096436;2.021355776225574;2.126030108595877;2.3528082876708813;7.093341318151273;36.031247416724455;-2.6328504381209994;18.707933410243665;3.1994739326607897;-0.23374590727501815;-28.817414595619447;6.029426872247493;3.6225499112426167;0.8353456078443589;5.388713659568759;-0.019010064758538323;0.1218746074000861;0.05925769871464609;6.076295555767459;4.01101708344781;0.9829827286191689;5.37411504448062;-0.01945392134419164;0.15040916680520236;0.06053686806979636;-0.004566966608713176;-0.5204483066665863
0.8397798538208008;-9.924408730155656;26.262002715087966;507.68172621418705;3.8074960797829345;-2.747607336183961;46.44622459600211;3.7054295957158265;10.563203895955374;-8.372323473362584;9.845398082497946;2.012921150846359;2.12579215684895;2.3443922154708305;7.097437803448787;36.02707224596762;-2.6679859186026302;18.718670905437346;3.1995055395442002;-0.23297477289590762;-28.822791732647637;6.028086257647881;3.6225850214110196;0.835395137788202;5.388399217223892;-0.018978648182419608;0.12188894147976656;0.0592846342939059;6.07570525363817;4.01117992924814;0.9830062853836034;5.374173646381306;-0.019470884149356334;0.15041119044004903;0.060520421460342394;-0.0045331316208584455;-0.5206298158314313
0.859886884689331;-10.07159832391942;26.291304511875023;507.5761217268455;3.8124858331426363;-2.698604099278498;46.4248311124815;3.705743627514229;10.563309749189562;-8.332722853535815;9.835331923166965;2.0222921463303605;2.1258314768591036;2.3565511083912476;7.0994878190906485;36.04547042768594;-2.6399409706971335;18.71739900589815;3.1993924079548135;-0.23173175955034872;-28.83293839264268;6.025061665136106;3.622911492795486;0.8355518671986213;5.387590562221097;-0.01893949256187928;0.12192319114489547;0.059315617101918704;6.07352947519571;4.011273391881096;0.9829768078259256;5.373821236539374;-0.01949298647826759;0.15039845684821596;0.060494554307597447;-0.00447524387032024;-0.5209416374921593
0.8798484802246094;-10.110760690930988;26.320967211318745;507.46562596732053;3.829075628962017;-2.7390948334486325;46.35280031859199;3.6907912404441627;10.517601139767574;-8.25269272618592;9.84459301507203;2.0237067168448912;2.11530875564952;2.3622056199103514;7.1259599161429446;35.95287382003351;-2.6855558089763525;18.70084217853187;3.204850199102523;-0.2249855497071738;-28.84407424552781;6.02216207560923;3.6272096158076037;0.8372158539249079;5.386529827858954;-0.01889854557911421;0.12224514590378027;0.059364480162221976;6.070591308963036;4.007464456381581;0.9814551400246186;5.373561378538043;-0.01951693132291305;0.1500990034059237;0.06044965221055047;-0.0041450465515336776;-0.5212760973373591
0.8999340534210205;-9.770483801659758;26.250342471675594;508.27129997073723;3.8315578292906807;-3.163910580481314;46.185758857500296;3.6927794332198367;10.521398714706908;-8.365869712742743;9.767016371160162;2.0002882293438473;2.115915670763137;2.3421809984826383;7.042228048015078;35.69284024175085;-2.7196108517552826;18.640053323022293;3.178224970130436;-0.22158235750566727;-28.849365457115898;6.020186904425211;3.6288098253466163;0.8378830648123614;5.385893464358753;-0.018852646145247308;0.12238352838106634;0.059409870427505646;6.069410520767911;4.00614156142754;0.9808881469625095;5.373640444627027;-0.019548813383450894;0.14997720308651513;0.060412060855645;-0.003967076640051873;-0.5196743510743277
0.919842004776001;-9.726338107675904;26.672106086119243;509.37939614856134;3.909170853604956;-3.421933237733711;46.33164517425415;3.738560091587036;10.648085219034963;-8.288839419339638;9.821301952716738;2.023414329950387;2.150290053323307;2.3785765711915254;7.1098503939489905;35.36665978248173;-2.7441203709468365;18.558657389010115;3.176830569905998;-0.21694333437411556;-28.859345946408652;6.017736017303294;3.631440549024033;0.8389298845698242;5.385029356068643;-0.018812987523791583;0.12259408028336895;0.05945202050148305;6.06733167216047;4.003860750351765;0.9799373512424189;5.373432459392072;-0.019576439689234906;0.1497795815175704;0.060371610734025076;-0.0037766725655898076;-0.5217227501391568
0.9398097991943359;-9.36303782923358;26.605709682493227;510.18567811730446;3.9460660428032837;-3.8503621683751064;46.2465675206104;3.7130930157610704;10.57438791860086;-8.343560173369612;9.85919389912532;2.0162658048617295;2.126999436569839;2.394861142127958;7.114802153531205;35.0345424640703;-2.9080401878597755;18.463487329948492;3.1704907911380875;-0.21632293662093255;-28.861504409901322;6.016726831022011;3.6309450404560772;0.8388144625341063;5.384752739665894;-0.01877540348772385;0.12259020839116182;0.05948360711877706;6.067428686171776;4.004417214654781;0.980069882459134;5.373556580986756;-0.0196073795373536;0.14978518973392724;0.060344704044986215;-0.00377513863432401;-0.5217838548958891
0.9600129127502441;-9.1589126022424;26.72097308931157;510.61195990844357;3.9738368936933366;-4.078649613741867;46.21465679236132;3.7148309403752044;10.578706909526327;-8.297722739765227;9.811861729098204;2.0134345988853335;2.1278740140698735;2.4113607360338745;7.162302958990228;34.7784073289221;-2.934284930190456;18.40325978473396;3.180181277377174;-0.21389340424595216;-28.860791423194446;6.01651063463609;3.631532607874889;0.8391329210475018;5.384577901667105;-0.018738704655545016;0.12267894439173505;0.05952078204542568;6.068162298943936;4.003769965768372;0.9797294239963399;5.373893807335866;-0.019641903453936786;0.14969061860187813;0.06031109589490694;-0.003703183630206859;-0.5217546446537155
0.9800655841827393;-9.288602799650564;26.62774065494709;509.402419706341;3.961872078004366;-3.692036503925408;46.3030397580516;3.71321614137979;10.575671101423032;-8.339520533459336;9.861564454328981;2.016970228686353;2.127463836168767;2.4056644331254287;7.111970307209721;35.201470794357;-2.9196408869230934;18.544652602045147;3.1660905688584298;-0.21286465453754264;-28.857437417743704;6.015972828792715;3.6307579821381575;0.8389603984477032;5.384351393109407;-0.01869458986145372;0.12268300611940744;0.05955872875657403;6.069163560617131;4.004451406092928;0.9798625128337358;5.374169927113242;-0.019687236758235666;0.14967523087473694;0.06027283209218026;-0.0036948781312024347;-0.5198755845882238
0.9999251365661621;-9.463703448604205;26.633041674814265;509.7944592245542;3.956880927101839;-3.5681105355259746;46.206029991760474;3.6951483182440836;10.525571785527488;-8.252680742149296;9.88468389155556;2.036982257377091;2.1165827122330585;2.413039359752474;7.1344720328056015;35.184225125854965;-2.82308495554585;18.536320328257812;3.1609433880869027;-0.20916692768672876;-28.850961420693174;6.017849417385456;3.6317536122306384;0.8394828358383855;5.3846335125456255;-0.018648131091976605;0.12282229855481927;0.05961245181713212;6.07221801447143;4.003073167548223;0.9792246189038484;5.375161442141502;-0.01974003059175035;0.14951534673769115;0.060224936833560526;-0.003601006614369426;-0.5214265388999015
1.0198285579681396;-8.71295209944054;26.570832506071206;509.62316719709696;3.992770071058136;-4.022345989913163;46.11770908892788;3.7190460452755416;10.588417814502314;-8.31831396951233;9.841175082617994;2.0242516768833045;2.129545406463092;2.3635716061353453;7.006946760656604;34.876611866404176;-3.0694813206242175;18.46829225448039;3.13314769569537;-0.20323277156295494;-28.839397669281333;6.020423809947523;3.6344128403579123;0.8406281100718451;5.384973425542731;-0.01860028335920605;0.12307317899402659;0.05967592924511636;6.075521525597741;3.9999801187148147;0.9779488668672913;5.376355114816115;-0.019795620481887106;0.1492415409920086;0.06016846252429062;-0.003337813635129089;-0.5193050554013999
1.039928674697876;-9.085086457896198;26.586770269965847;510.0118770982416;3.9734448968749128;-3.7636748084828398;46.028898353868385;3.702608150999113;10.54059763918649;-8.266252491481643;9.876522898980568;2.0353744559136224;2.1187698947671607;2.3649605746296585;7.0178065340648255;34.99950784655402;-2.917121419996212;18.48206488570838;3.1264801584832957;-0.1968100768419203;-28.830742002902177;6.022931742219499;3.6375847576369615;0.8419549840671872;5.385280268502362;-0.018552751452060583;0.12336219883641357;0.05974152133891091;6.078740527922262;3.9963755876096383;0.9765351122888148;5.3777318021981255;-0.01984958811679515;0.1489442116873251;0.06011303984254801;-0.003060781527120821;-0.51902143402569
1.0599241256713867;-9.070105092451563;26.92671068980573;509.82356655134976;3.9987881867940915;-3.6937474293319923;46.287305163946456;3.722577365932607;10.595271814227951;-8.359991287725286;9.84969031393406;2.014648052636364;2.1305067489651743;2.410196907857624;7.136780039079088;35.16151480648704;-2.8671675551136486;18.543110774948303;3.151376237481727;-0.1942922394085739;-28.82962326673737;6.023485697164622;3.6382683422346354;0.8423050936654424;5.385277594559795;-0.01850624739347858;0.12343610193854823;0.05978991909749394;6.080399936239798;3.9954918837089446;0.9761634441830543;5.378496234366942;-0.019895543053364897;0.14885212552221302;0.060071850321865024;-0.0029809237302201134;-0.5207194073905653
1.0798554420471191;-9.122334210012108;26.752521710167727;508.7211816716814;3.9637505643547253;-3.5274218984231;46.16811689594634;3.730235056521558;10.616407131634798;-8.29910793143151;9.814254993582981;2.0224062900044633;2.1420532939262817;2.351473472274109;7.024823815210565;35.29252299925097;-2.9106473473194274;18.562760767010058;3.1433581975122875;-0.18809296149237636;-28.832858028178347;6.022109757947572;3.6421037121142;0.8438039412339573;5.384605023842027;-0.018470754805236862;0.1237295420955553;0.05983574469450939;6.078911710122549;3.9918466089420477;0.9747220649659107;5.37851674702109;-0.01992266337295997;0.1485620931475136;0.06002842903482399;-0.002663383755177051;-0.519026092937338
1.0998313426971436;-9.220505056214883;26.66049993431571;508.11498934325607;3.9379699209793664;-3.4326459817933426;46.126594250696186;3.7291817396947393;10.607978039721111;-8.279478088878273;9.784071840858244;2.011731598034209;2.1324442891719184;2.3252691613426624;6.991001408334599;35.38776561684971;-2.919353088593475;18.585040138896492;3.1515407140441964;-0.18720871311696957;-28.841167146959254;6.01951568426276;3.6423028645352034;0.8439098629772809;5.383930808932748;-0.018440938227343544;0.12375753977854384;0.059858538129263915;6.076808995031549;3.9919604655785266;0.9747013644836158;5.378048984368887;-0.019938210988611038;0.14854412874218406;0.060008581400240166;-0.0026308249938715566;-0.5192476690928775
1.1198437213897705;-10.071020813741482;26.6476607811357;508.0789570079504;3.8796121711895153;-2.893162359894241;46.23678399863269;3.7264166088169293;10.601239142625486;-8.248035860996076;9.885880958990136;2.0376204926465498;2.1312415639150077;2.32518647450115;7.032321826780491;35.804707322163864;-2.7237833326310126;18.6417846645494;3.1840132915681605;-0.1887354383155593;-28.85167461207238;6.016297349265776;3.6409752336542436;0.8434209311720966;5.383258254491812;-0.01842479656712824;0.12367589452278387;0.05986524048664139;6.07422406366177;3.993681763187344;0.975302237682108;5.3773255174472405;-0.019940944716646404;0.14864449193464238;0.06000592459862652;-0.002720280937843646;-0.5195419202084604
1.1398351192474365;-10.037035640258186;26.625995560141774;508.2717006815547;3.882648776220961;-3.0587924253863576;46.1090609259584;3.731279765478721;10.611298864318357;-8.206407849581534;9.830790700548967;2.0253563096829637;2.132844624704278;2.3075785776072304;6.984839506609074;35.632268197082425;-2.7349508142981946;18.59992860847273;3.1586133334166866;-0.18561602645488803;-28.864136707793932;6.01383070511958;3.6430858568328426;0.8442232025828218;5.382600106651974;-0.018414457339075617;0.12383399275192891;0.059872811430814465;6.071178678034447;3.9916971981046228;0.9745193022273947;5.376737220578946;-0.019926688514494667;0.14848322463358882;0.060003738856598335;-0.0026000697121470774;-0.5216679353760769
1.1598498821258545;-10.102908298521061;26.500746257756674;508.6774942347413;3.858932151856349;-3.127129870219349;46.12730364569587;3.7267736040066284;10.601315292899137;-8.323548865495365;9.867853590207531;2.0189617539168276;2.1311973049154664;2.297692692851253;6.948808897389466;35.699441414667625;-2.7213460996496996;18.622513728203998;3.1504375687081887;-0.1893051126282749;-28.877020129826285;6.009926873104067;3.640519145106172;0.8432452814527197;5.3818939018717336;-0.01841329257487901;0.12365977147605213;0.059853824002903636;6.067834162995994;3.9947430918949576;0.9756385633625835;5.375655207127792;-0.019907932007875197;0.14867890484583643;0.06002450808889613;-0.002807861940839855;-0.522053353754989
1.1799218654632568;-10.233489686828321;26.34510689327331;507.65976813515505;3.823541788717072;-2.9342883942365177;46.041797480969336;3.7298998527721454;10.609458145956914;-8.253409934221253;9.797215718721052;2.0148018934589937;2.132805792169245;2.2596705746424686;6.878895871193286;35.84428484753779;-2.69062033833229;18.671760694080174;3.1347166661991306;-0.1897167371857221;-28.883864457222334;6.008505800183456;3.6403458221924683;0.8431885870071426;5.38172692487468;-0.018425943932789582;0.1236691180544827;0.0598378821859468;6.066203513684745;3.9951336591524016;0.9757732979434367;5.3752092680346895;-0.01987947582266212;0.1486856772102948;0.060048630819620634;-0.002867770555742069;-0.5222754649319207
1.1998498439788818;-10.194740197135944;26.488205889988215;507.6492652706143;3.849266956762171;-2.996724308198459;46.18599919811756;3.728826116027557;10.608442113030838;-8.255650720073145;9.796088158701577;2.014515342464003;2.1328418042902717;2.2991275810781397;6.982065137634268;35.79912270405035;-2.7218781726648977;18.66299657852433;3.148277166430537;-0.1924474743468531;-28.885143918645717;6.008115363112382;3.6384429883384692;0.8424860053772992;5.381966657364282;-0.01844568389464985;0.12356070664094963;0.059811041163882875;6.065928551128027;3.9970847468627477;0.9765125167145496;5.374986601549214;-0.019847392545214476;0.14880634161135084;0.06008582682789857;-0.0030310485890458223;-0.520577707552054
1.2198245525360107;-10.381385381567938;26.326409272756955;508.0425695189764;3.82251883076657;-2.9682169586416194;46.10744944422373;3.726817657278955;10.60550662948552;-8.254783550984843;9.796760934487864;2.014625881094944;2.132599870669026;2.2807078297901526;6.930589870112462;35.808656946362845;-2.642363478519501;18.663379561828624;3.136782432579942;-0.1963094293104242;-28.89018350468057;6.006898434974805;3.6355696223633958;0.8414086493743593;5.3820374261445565;-0.018469861607970137;0.12338259368887379;0.059773748638814135;6.06494829373711;3.99983590928575;0.9775504619647497;5.37448294812388;-0.01981077308111883;0.14898058943174633;0.060128459186570886;-0.0032745961842031487;-0.5207444659216585
1.2398402690887451;-10.31444272395857;26.261036893504382;507.83951613349853;3.8415519805692986;-3.0313509414346527;46.13132860400044;3.7260070466332595;10.60425952742631;-8.18800723755264;9.840735411747104;2.0275788181187324;2.1324825979941804;2.281147810357913;6.931140821337661;35.72029591150738;-2.7323183235626773;18.662748034185867;3.1364040177412886;-0.19902134200631416;-28.90168044177705;6.0040782477645385;3.633902144696395;0.8407721056132257;5.38157615734739;-0.018497373545109365;0.12328758783719165;0.059733717669715004;6.062154211949747;4.001890072405196;0.9783080417760234;5.373513676484483;-0.019771295091606217;0.14909741878572338;0.06016612808984006;-0.003485978804040449;-0.5228561764197858
1.2599546909332275;-10.474100191369539;26.088756102815353;508.2262015502887;3.8154003957305918;-2.9896894094173447;46.08651090105363;3.7037565270336708;10.545361941552738;-8.226077861129106;9.896598111834006;2.0401581604478256;2.1201113767033712;2.2757831692452797;6.9151370734081725;35.77432356190435;-2.7025061555031797;18.65800498692072;3.1237180173477586;-0.20200737722652815;-28.901151171416807;6.004156740004857;3.6315686931584157;0.8399164036662037;5.381951908795885;-0.018524979866949454;0.12315792239184158;0.05969873409926093;6.062393977551131;4.004245823053036;0.9791997917043074;5.373381220554864;-0.01973706449880592;0.14924280061925665;0.06020827125311326;-0.003670460726552625;-0.5211126306755313
1.2798442840576172;-10.803008448561133;25.81420440952172;508.0089408953845;3.7596003972990704;-2.708250071812614;45.933025875203114;3.7072395437302004;10.561257997047793;-8.21210219531968;9.863216490854668;2.028982197089804;2.1313988227830136;2.2240411335993167;6.780000981093072;36.01229095206464;-2.5229584457844965;18.75381123967622;3.092666878631553;-0.2033236528439709;-28.9063672613445;6.003611628280953;3.6308383234068335;0.8396510627475187;5.382032212838611;-0.018554754128489552;0.12313518876924996;0.05966630903164576;6.061667159624727;4.005134942259793;0.9795360917230114;5.373083751558492;-0.019702014996274567;0.14928594626462954;0.0602428645624229;-0.003810341807886168;-0.5230544875196297
1.2999613285064697;-10.623630866965375;26.067806194798933;507.80628347629215;3.7908817220360587;-2.8620827250584995;46.15205052774111;3.727551147930894;10.616750723234503;-8.249328757510796;9.839819896311433;2.0285068253576903;2.143277080315313;2.263288063069973;6.875351308894647;35.95325112585741;-2.6002106719926896;18.743154403708044;3.0969907754325643;-0.20594559236386625;-28.91732697492776;6.0002747759923105;3.629053359838954;0.8389381924484143;5.381370301130316;-0.018585803203008358;0.12301196128327793;0.059620536457747356;6.058149618575658;4.00692068639739;0.980211129405772;5.371928863331587;-0.01966397620117457;0.14940103959544368;0.06027636004653424;-0.003963632563541304;-0.5233930200314119
1.3198060989379883;-9.973849320997793;25.931094099818402;508.2084199334157;3.8502839780837634;-3.445940924624267;46.016489489474026;3.7073664491340335;10.562601254145093;-8.25216186752573;9.81527493204511;2.0171693168229115;2.1317843609490583;2.2766326735013362;6.856082480678079;35.4576148346332;-2.856526745073576;18.61797196689222;3.084841893886112;-0.20768397443251055;-28.91688195424482;6.001092854905994;3.627980132739654;0.8385039557415596;5.381798552922491;-0.01862477450624473;0.12293676141724616;0.05958111739996938;6.0583740067258;4.007517476549261;0.9804936473934689;5.371896555098423;-0.019626374734747515;0.14945908074865918;0.060315085292254364;-0.004057507768496794;-0.523408811661914
1.3397791385650635;-9.917064757671552;26.109341623040667;509.1085543776682;3.9035120937662766;-3.654998647003687;46.11487122389606;3.724381455676955;10.61184033499698;-8.206975426193196;9.86654589706003;2.02965017055739;2.1427498670777423;2.3134324183346138;6.916377202648506;35.194152715882794;-2.8977106920727174;18.540769511193947;3.0903458766314365;-0.21220343316541113;-28.91662164359326;6.001440130892181;3.6250807941075363;0.8373568019508206;5.382184257894789;-0.01866408176562756;0.12271552006495046;0.059532606624718494;6.058491982967818;4.010255001671391;0.9816004964809935;5.371665046383672;-0.0195928805369225;0.14968354047667956;0.060358106580502044;-0.004267722364642568;-0.5234176929061972
1.3597722053527832;-9.560738367880672;25.985463006725357;510.32823411355776;3.8944807755302744;-4.097182879308846;45.99518722833014;3.722650559847863;10.601608011473916;-8.312719426582717;9.873276954799898;2.0203532068368966;2.1326076682196486;2.277047892632607;6.85790816593892;34.882275514233655;-2.9669941951987067;18.46147608277135;3.086050323889682;-0.21354744196874598;-28.9138833436367;6.00224577892575;3.623804168702684;0.8368180626742113;5.38252853278394;-0.01870112129885517;0.12260387044007887;0.059493619131348104;6.058471323748702;4.010308521492184;0.9816976920428515;5.371594803738899;-0.01956217369533153;0.14972259441369107;0.06038767073706775;-0.004279417472962191;-0.5215783457303449
1.3798294067382812;-9.46754303794373;26.08470860472444;510.53754878331756;3.9464112217975593;-4.1730443934373795;46.02648977513303;3.6996660297347344;10.541699268641171;-8.227530247723632;9.896190122725855;2.0400778224246108;2.1202647003307242;2.3427060624951825;6.9699707871629695;34.71951814640178;-3.000700438421168;18.431108886461097;3.1010743151876645;-0.2176249737016203;-28.90968035623831;6.003792423674689;3.621652150219103;0.8359518929099984;5.383145487500141;-0.018731326711693502;0.12242425478972616;0.059459927383356655;6.059850538364;4.0124564318259175;0.9825974574320587;5.371789644004403;-0.019544512750102057;0.1499229379864405;0.06041694626977816;-0.0044437568188210085;-0.52144750824557
1.399792194366455;-9.243765224254822;26.120198639800442;510.7545276751334;3.954468847877525;-4.425679847996797;46.0481285330856;3.7421808606754885;10.654999823708605;-8.312240624205593;9.873988496067394;2.020424578586116;2.144053352883333;2.3046642357419596;6.877400968299538;34.592393974846246;-3.0965314558206494;18.380215367540377;3.0984483314040117;-0.21584572902236018;-28.91468997528091;6.002546652217104;3.6240186573924813;0.8367551120600651;5.382628441316686;-0.01875439664053699;0.12254610650859835;0.05944331075104722;6.057420397527644;4.010540671167328;0.9819320648873945;5.3712550051384875;-0.01953102601564028;0.1498294548198897;0.06041626255161894;-0.004290595909708868;-0.5215637378575563
1.419996738433838;-10.011606517730046;25.941246238293665;510.1255482400583;3.861104672872211;-3.7934291288550455;45.94285107698167;3.7238223477279715;10.602448686552997;-8.216725348560853;9.901570096061079;2.041361322103229;2.1324731694868033;2.263971043458801;6.843877236990896;35.038707557196275;-2.874651692239846;18.45846574937227;3.116229635670916;-0.21435581542382934;-28.918500936050574;6.0020277974649385;3.6258892525369406;0.8373953239648327;5.382292305088967;-0.01876285634375175;0.12263774412167275;0.05944062510689672;6.0561219936059585;4.0092473641487905;0.9814875100344074;5.37101875116488;-0.01953524622786172;0.14977752510626477;0.0604042927712175;-0.0041707646092130814;-0.5234034438304436
1.4399757385253906;-10.081073103751432;25.988947141270295;509.9268066941071;3.8543394511629967;-3.7144740029035432;45.90061268325949;3.7249275457140656;10.60488204737432;-8.207686574878998;9.865834596371602;2.0294423742895606;2.1329087495839727;2.2601098479821733;6.823273413879798;35.08749271761545;-2.847869247964855;18.452557174525804;3.096612758697547;-0.21279061528048154;-28.912212897742542;6.003591175521515;3.6273830108879617;0.837928456809624;5.3825003075754;-0.0187609484695584;0.12271345136775737;0.05945196019406096;6.0576839540316545;4.007729201332147;0.9809590184216169;5.37158376234541;-0.019554181457011002;0.1497092204922382;0.060385026863819545;-0.004006981893831148;-0.5214181007532419
1.4597740173339844;-10.039345193421084;26.23444876746825;509.9684749465453;3.8639899730383878;-3.637752975059314;46.0534584403035;3.725323198324375;10.605635407238477;-8.285639525718164;9.856491339968475;2.028235330790479;2.1329846445366027;2.298728777646237;6.928044481682833;35.22181508501575;-2.775382167038557;18.50571407978291;3.117058686998409;-0.21139108555148875;-28.903892281127796;6.006332536287147;3.6283822532683567;0.8383088141186137;5.38300754261672;-0.018746798340487134;0.12276589383940331;0.059476210682849064;6.061533528463908;4.006480961925416;0.9805215682780921;5.372761858141739;-0.01958935457129301;0.14965409793545884;0.0603574152952036;-0.003881559285120105;-0.5211101459247035
1.4798412322998047;-10.31487448070142;26.19042713521825;507.6492178036491;3.801686588262925;-2.9869923890811663;46.15938319325058;3.7099304620524007;10.560191347028168;-8.359095327981215;9.80324156215771;2.0056890221427395;2.1226334451581534;2.2844736752024297;6.941245659800811;35.927033053312634;-2.7074619143346075;18.684077403055284;3.1417131210049067;-0.20561216849968347;-28.896926440254802;6.0091518247040705;3.6324947158281495;0.8398690784933376;5.383273298585569;-0.018727445933720138;0.1230400974514172;0.05951796713333098;6.064079943381394;4.00212688658898;0.9788861288199334;5.3737947195097275;-0.019630434404248144;0.14936818294016876;0.060308446357139146;-0.0035578314260465787;-0.5226200787423851
1.5000371932983398;-10.342338587026944;26.267017958370403;507.2345461587615;3.8043298566774233;-2.8110741401343375;46.16570595755856;3.7312544772342706;10.616694650602707;-8.267708780660808;9.829655093134843;2.026278164709891;2.1344934623454104;2.2597547283327613;6.9032535078714865;35.994167774255615;-2.6915168628973074;18.724458745707548;3.142374884336868;-0.20311163568447207;-28.88904413770653;6.0103398299509845;3.634231412912615;0.8405114420543657;5.383215444207711;-0.018702083277777913;0.12313131033000123;0.05955149544206968;6.0651154620895324;4.000261219867058;0.978180523611168;5.3741976807446985;-0.019676149025530214;0.1492600164036861;0.06026063307889416;-0.003341612333715378;-0.5205899309156774
1.5249364376068115;-10.32364049358766;26.58117551608826;506.764734699581;3.832958177105885;-2.6496328972583783;46.374748323657045;3.7511898389089877;10.673754343885255;-8.26330364486304;9.846322556124093;2.029437852892573;2.1535018379431965;2.2926240190041143;6.996346923987833;36.13736330900892;-2.6856365671544635;18.77542886093977;3.172358399629688;-0.19946659800718544;-28.881414397710078;6.0116633360164355;3.636762290318331;0.841447364319434;5.383038006761928;-0.018668787377815542;0.12326832822138131;0.059595865434228575;6.0661805491660195;3.9975417326824467;0.9771466353092599;5.374635180417167;-0.01973507888052079;0.1490944982011111;0.060196909958889114;-0.003072796712852703;-0.5203113004282315
1.5398273468017578;-10.485161888377668;26.500596022168473;507.0391024937651;3.802995292764291;-2.489166869344544;46.2366281851261;3.735385580887469;10.622937887676455;-8.23346646653648;9.891870442954216;2.0396122841743196;2.135019426438644;2.2628353537783683;6.950555291508182;36.211923772966294;-2.607829673754803;18.791541469830452;3.1600688138876416;-0.19485536017023883;-28.87178583420139;6.014229518899014;3.6397863715863714;0.8426075687669572;5.383292326822369;-0.018649073025378875;0.12348291709207314;0.05963358946459483;6.068326714916402;3.994168652433841;0.9758629394016969;5.375422585741536;-0.01977367456280623;0.14886319495312567;0.060152689997505504;-0.0028077961960538255;-0.5200017291808116
1.5599980354309082;-10.172388081599141;26.371291404285873;506.76193758675345;3.801961548405462;-2.574007086543631;46.03528353410823;3.719253180602352;10.575051043690433;-8.222410445206958;9.83856956226742;2.025691062198654;2.124106773814069;2.23427950411454;6.879777307745594;36.11541510166849;-2.6744122465380986;18.76443675056583;3.1469092155534413;-0.18824890822892038;-28.85351542334938;6.019355221264075;3.644155487633042;0.8442751931704734;5.384009939147572;-0.01863041484149093;0.12377255605716415;0.05968068158211854;6.072725744703201;3.9890853201374488;0.9739496148529241;5.3768837367991145;-0.01982053312174769;0.14851741438814717;0.06009979205472719;-0.0024380901355386207;-0.5194393596257113
1.5799198150634766;-10.168164256789304;26.50387339253198;506.2665006135099;3.816408882171481;-2.3022724552399296;46.16355060250936;3.7193765330206316;10.5833952040981;-8.248588267034805;9.843190791929997;2.024851228078152;2.134066094068899;2.2667137402710416;6.930241219694876;36.36324901388989;-2.5991416989331446;18.853796591236197;3.1476914426182585;-0.188418803429908;-28.83353877869724;6.0250815480268205;3.643350475770492;0.8440266819113292;5.385325791684133;-0.018614655577690757;0.1237212760685556;0.059707254737331815;6.078949542195806;3.989212714960002;0.9740066636232534;5.3784273417532855;-0.019865815928556456;0.14853525770763962;0.06007343108642569;-0.002452302432082191;-0.5205980456797491
1.5999102592468262;-9.79266569179917;26.63837717672719;507.0779141287364;3.8621860549698077;-2.6320427135323854;46.09859684146132;3.738604277302716;10.629658205204345;-8.228155662339173;9.818689569612719;2.0231320422766896;2.135962514710207;2.2734784435886906;6.902668657259492;36.015869723149095;-2.658653747740507;18.765798502929044;3.1198517778097288;-0.18684105313920182;-28.820901259339905;6.0272343312274;3.644079792827292;0.8443217386492019;5.385580211376344;-0.018609107709751334;0.1237733282044208;0.0597205469176041;6.081090588334757;3.988017025155027;0.9735354662785591;5.378888565986245;-0.019893411077976243;0.14844116016752248;0.060047459502486585;-0.002350968564847326;-0.5184393580766257
1.6197969913482666;-8.950677713778418;26.64538046498334;508.29564468247236;3.916412376122331;-3.326999566917806;46.05011672990238;3.719374340105387;10.582520606843312;-8.38897869169391;9.792265568076024;2.011207051499399;2.133665921609568;2.3082709496668183;6.939335389756253;35.5384638158087;-2.84546061677303;18.64576108191389;3.1193650225124276;-0.18568798593004035;-28.80714312924474;6.030887255870226;3.6442661535859555;0.8444493351717892;5.386351656282948;-0.01860784701518539;0.12381160217995547;0.05973191930152453;6.084670018549122;3.987183657434782;0.973197338722598;5.379727800878892;-0.019914593719541837;0.14836070400897475;0.060032741321561056;-0.0023230973627943923;-0.5180122409609719
1.639805793762207;-8.817078095890558;26.614349939466546;509.79412955814854;3.931916099429244;-3.616248259400173;45.94926714322759;3.7367053561752672;10.627112143155557;-8.360458779063753;9.847756995185918;2.0151689071747536;2.135688577556439;2.282235640294162;6.871771550615307;35.189199654400596;-2.8541139915786387;18.550699674282484;3.10322497973942;-0.1872187677681766;-28.80172617507958;6.031700446788359;3.6423694992303455;0.8437952551881204;5.38651753103449;-0.018604605808375883;0.12371365204402658;0.05972942132024286;6.08633516557804;3.9887090656213267;0.9737110627829919;5.379858450249888;-0.019931748463230127;0.14842411117267632;0.06002568617117241;-0.002476026340258215;-0.5195950289231492
1.6598429679870605;-8.272804396962126;26.594893313736996;510.62600888431894;3.9662286600106196;-4.10038990843487;45.8457500887951;3.7181137007391767;10.574371121582923;-8.4244591714573;9.804559574811325;2.0024251177961068;2.124031351315;2.302015720658568;6.893445098020565;34.80481295631712;-2.974461371387264;18.448088142250693;3.0938282170734124;-0.1843453309312362;-28.79121478592825;6.033798922017288;3.6437782293122756;0.8443945224299894;5.3868742915196455;-0.018613591488591652;0.12385947379758705;0.059732006705319;6.08827470105742;3.9868562289631466;0.9729614384635595;5.380319958358154;-0.019934419407370278;0.14824600323227727;0.06001997460042458;-0.00238097794367949;-0.5175161890184803
1.679828405380249;-8.213847141552126;26.741819727550215;510.82174495513766;4.008723428277735;-4.175604669507834;45.949040852759914;3.739547310600542;10.640709018249439;-8.339891401769735;9.822886104026944;2.013631414003302;2.146370652713315;2.3289280304076394;6.934821410615107;34.63500435589027;-3.028161138652175;18.38430440989191;3.0931106853053922;-0.186269262604338;-28.787343725580264;6.033763246686849;3.641570645374279;0.8436333579060042;5.386926199370123;-0.018625236955230842;0.1237612417255454;0.05971671099648674;6.089105120967342;3.988815106755058;0.9736242696355166;5.3801829038737665;-0.01993474912546614;0.1483217402696704;0.06002818521863271;-0.0025679260293213204;-0.5173893419754378
1.699836015701294;-8.17897647981901;26.577628247575625;511.02768402742765;4.0061397925048965;-4.171223977299739;45.86416599221296;3.7159432618634476;10.57318114640006;-8.272202424477637;9.872102462349716;2.035491243074333;2.1243755845919012;2.328052895926267;6.932912840166823;34.5569431461952;-3.0399656226143383;18.374333249633594;3.0910125219038647;-0.1886366056262027;-28.783420323319127;6.034529644348628;3.639025635703013;0.84275939232368;5.387266036905466;-0.018633815368430152;0.12364261801754245;0.0596960222290427;6.090727114564248;3.9910014688461564;0.9743819788742591;5.380243478742792;-0.019927889001583585;0.1484124693328536;0.060046208150836285;-0.002810681154723685;-0.519032219065913
1.7199451923370361;-8.13448851889173;26.41982797220434;510.6175397982561;3.9922199066991064;-4.1141378518789935;45.85270021337904;3.7144141888930857;10.579202097627883;-8.261215406849058;9.838146615439769;2.0240342878851743;2.1342461058212012;2.3171112449523856;6.90251964733176;34.59842378088962;-3.048663551008577;18.38556908447716;3.091378612763039;-0.19275873975786809;-28.77610991333568;6.035175640502191;3.635277814338277;0.8414221877677371;5.387676627398267;-0.018648399670109367;0.12343714978770425;0.05966913666978649;6.092456580860584;3.9946713927137614;0.9757103523544912;5.380237762016653;-0.01991922792202965;0.14861477202491427;0.060072155562436814;-0.003094000330292019;-0.5170570292380818
1.739943504333496;-8.140925518249986;26.268892402621937;511.8266994173364;3.966468634169253;-4.314472159589627;45.745189641291084;3.710221397085503;10.564520674544772;-8.276038330930753;9.871134721369451;2.035226300700703;2.1235575384102154;2.2901279510499464;6.86916885137115;34.37774559523062;-3.0356395806492955;18.283798833957825;3.100335330953661;-0.1952370264483967;-28.773259895638382;6.035848570688697;3.632851278538284;0.840572762340472;5.388008423432726;-0.018660696920732835;0.12331669380267744;0.05964973764350491;6.093868681059787;3.9968073470361505;0.9764688485852461;5.380288118244174;-0.019911066715016565;0.1487171810146578;0.06009094386870481;-0.0033234028272977577;-0.518736810401849
1.7598621845245361;-8.45566818598664;26.328574644474447;509.7299699756039;3.9362810292189647;-3.6968385209330776;45.99986700545238;3.712571969223978;10.577907062015584;-8.265369891176585;9.83634820734266;2.023697020108389;2.134429313986733;2.3062381097764373;6.957224201732521;34.96427470573309;-2.9647420131740576;18.448916730631016;3.140862028890805;-0.19559037916082325;-28.76684418761723;6.036839614374707;3.631985814448921;0.8403077914035205;5.388316353576547;-0.0186655913503671;0.12329848880144541;0.059644459782686426;6.095288340074378;3.997413354625261;0.9766570589982653;5.380516854817493;-0.01990958903291623;0.14872181466893836;0.06009773316522308;-0.003384100641131466;-0.516791854039202
1.7799761295318604;-8.747421375222219;26.314813452863255;509.29843777420785;3.88708065970004;-3.349816720591491;46.05452565074084;3.7333376237815226;10.62723805422491;-8.345050034620018;9.82581935037236;2.0220908806432574;2.1366853053301447;2.271811175452572;6.902279104592908;35.34248548810906;-2.81648404789678;18.540808820401107;3.1376911498946174;-0.1932045208460365;-28.76049658610439;6.03904063497689;3.6333382513321046;0.8408659468587484;5.388821511971961;-0.01866771497380023;0.12342274243833;0.05965388166355257;6.097273982334169;3.9957518324376764;0.9760192003640731;5.381140562998437;-0.019910334775949577;0.14858795739545747;0.060095518193032736;-0.0032991471917075943;-0.5166173114259532
1.799863576889038;-8.806869823953072;26.21403957379664;507.81037208695597;3.8449813735197695;-3.0757727295003363;46.07857998946824;3.7130726539983825;10.573189228193232;-8.379417235027166;9.740392970787752;1.997971307968519;2.1253609515494167;2.267290309842718;6.919926447092408;35.672592451765134;-2.7990734777397748;18.635205252328536;3.1481408579570256;-0.193791082222733;-28.761497082862675;6.038557393974968;3.6327827199338785;0.8406532479853954;5.3886823036735585;-0.018660259240470607;0.12338564029025051;0.059657057906685455;6.097139966039724;3.996358725851132;0.9762386821901429;5.381073811758841;-0.019915299709143047;0.14862786869113695;0.06009278554818025;-0.0033318870429815506;-0.5166575913612911
1.8198437690734863;-9.308634225069287;26.323851751731425;506.98249822084836;3.8088274579224004;-2.570918352442753;46.21483317280217;3.719151215964716;10.590092174173826;-8.382784885445291;9.760306117674425;2.008345508794969;2.135951395142617;2.269074209340162;6.9669452589674155;36.135737195305516;-2.6445024548379497;18.75008366157146;3.1673473001083696;-0.18893549514997698;-28.76532978491856;6.038934030577474;3.6366635070441338;0.8420959918613024;5.38858092968401;-0.01866011327508576;0.12364623485577036;0.05967374051739955;6.096390452033901;3.9925932095917336;0.9748424736664164;5.381223053414371;-0.019910155633362986;0.14837972077256897;0.06008139975112681;-0.003082959265202667;-0.5185550501800245
1.8400654792785645;-9.762805419821824;26.427881397068855;506.76294794847195;3.7896350053699956;-2.247739760048667;46.29896868174077;3.7401547342271573;10.646834594951695;-8.316040015848037;9.804488631800442;2.021367580894381;2.1480125119310127;2.2577510649357344;6.964818341965174;36.35805719433486;-2.5241981026094145;18.81474374073687;3.166285803210215;-0.18950200121210609;-28.774888807645606;6.036480631300894;3.636915522104635;0.8421253022695425;5.387989055438352;-0.01865877836323044;0.12362615531716423;0.0596694721039692;6.093567214848257;3.9927937746606914;0.974952202997432;5.3805282577621405;-0.019900867006860494;0.14842509322586106;0.06008405372395172;-0.0030614925662890294;-0.5188602772194904
1.859954833984375;-9.805819558370853;26.12949582413181;506.3620679212856;3.739345190501737;-2.2192025922454732;46.11684061134636;3.718522376415656;10.582531933857434;-8.38196633684844;9.75569616341495;1.9995963856845052;2.1264682054264283;2.216537594718542;6.859221432855028;36.47514857658479;-2.5170951769427408;18.842182027814875;3.1506798422249482;-0.19091989530557787;-28.78071428695081;6.035060911547053;3.6369323091586176;0.8420377913520936;5.3877531499014735;-0.01866950167662438;0.12357361096332373;0.059655504679722735;6.0914293323795325;3.993146709691984;0.9751671006796461;5.3800141393927;-0.01987930398840885;0.14850549106012115;0.06010104632995874;-0.003041692862420651;-0.5173044436542876
1.8798422813415527;-9.967892296114853;26.23279565189256;506.33765305699734;3.7567532949026603;-2.180067558084531;46.18623357522135;3.739025536596825;10.636946571139038;-8.307380734998652;9.808701774124781;2.0222151184238513;2.137898491298833;2.2180951578263874;6.862363312876261;36.450524182359146;-2.541558955375458;18.82863708111237;3.1532131279278675;-0.19268157139260444;-28.793694366271023;6.032730747838649;3.637372936485474;0.8420509441764094;5.387267482608127;-0.01869524923918193;0.12352169312220727;0.05962623775004364;6.087790100605095;3.9932539123432056;0.9753284084008562;5.379075398115286;-0.019841681415464024;0.14859160891138007;0.06012849056810905;-0.003050095077286356;-0.5194812245876153
1.89992094039917;-9.677549847629473;26.345685135725613;507.4549159689856;3.794017339454258;-2.6266692009375348;46.18686303398317;3.7199627549301355;10.58945918392745;-8.404838590092568;9.778917286768852;2.0007424896155643;2.1354805421172878;2.266033724293581;6.9561830992744245;36.13742927883181;-2.5921978450549563;18.75202708139929;3.159985589165833;-0.19426554836797913;-28.797821042794215;6.033252343266962;3.638261943762134;0.8422194673790397;5.387584904711453;-0.018738349036114488;0.12349305193243058;0.05958982510420812;6.0864171935638325;3.9925997694696127;0.9752632012722713;5.378796744227213;-0.019790233988054233;0.1486500915324859;0.06017235768553975;-0.0030159029947427786;-0.5196554170654035
1.9198668003082275;-9.545687493248478;26.120874104137794;507.85591005717185;3.8200681178379075;-2.8668498914025946;45.996743396468126;3.715895479947968;10.575075670854867;-8.269240074886206;9.873072701659897;2.0356750285932863;2.1249183840778545;2.2356534970606075;6.830849616670016;35.80383685733021;-2.7509547436103174;18.671273575068795;3.1161453547203037;-0.20102279005727092;-28.80975966476491;6.031113696566317;3.6355625209043243;0.8410070952466343;5.387421801903068;-0.018785322097470566;0.12320118251773256;0.05952821255847847;6.082725907314381;3.995866870670667;0.9766642064725504;5.377537653869928;-0.019733316035017552;0.14898094660210026;0.06023031122742255;-0.0032422094182853233;-0.5200326466747534
1.9399571418762207;-9.14542831912978;26.215801450638146;509.07375816639586;3.8546666086315646;-3.414499254685353;45.99480834576238;3.734639241013795;10.633905975306858;-8.340187172752039;9.822814211641449;2.013394483887857;2.145761182019177;2.2434251860654904;6.833237150294351;35.3828551709861;-2.8170064601851905;18.581788538493768;3.1039044799147826;-0.2069321525425048;-28.818712545145168;6.029582901466317;3.6337858327938335;0.8401222314726307;5.387372610233677;-0.018845078820895207;0.12296620239579795;0.05945959976464978;6.079586881750222;3.9981129762614036;0.9777094124272049;5.376471715448082;-0.019666121276744594;0.14925144765573414;0.06029555515092411;-0.0034164082685375534;-0.5203383168961474
1.9599738121032715;-9.091562852729338;26.28753869672203;509.2798568224922;3.9026454934843553;-3.5957526069747203;46.01236406613043;3.734344349629951;10.633281467129407;-8.25167758625301;9.84254113894296;2.0247241881657434;2.145672880833735;2.2828109996938974;6.879081114539924;35.144371753175456;-2.9162380242602852;18.504378834884378;3.1062971830796133;-0.21153787321407164;-28.829032200053923;6.027471882626476;3.6327748399404993;0.839539362044877;5.387089464242863;-0.01890374117966348;0.12279628984929371;0.059393529852382755;6.075834541958691;3.999678001639564;0.9784716264604489;5.375270164482088;-0.019601359093306868;0.1494583459923613;0.060354004273812316;-0.003543579935525766;-0.5206748984075159
1.9801254272460938;-9.224581499576193;26.241330574925207;509.26943300932817;3.8870809754908207;-3.467697582917154;46.09312747869596;3.7086656549131534;10.561612089990662;-8.294488542884235;9.891528109392235;2.0279722580317534;2.1230832977921126;2.3087749857952344;6.951186302414327;35.30704703801339;-2.8653400709351784;18.573131414509646;3.1268643149446156;-0.21879735388393273;-28.83334243867087;6.026800333935938;3.629315930538053;0.8380805532587101;5.387331460500201;-0.018953861109075043;0.12247518905340997;0.059329825629918356;6.074444023185783;4.003423893506364;0.9800413599759908;5.374549819807409;-0.01955050134904223;0.1498086021131282;0.060413888339639094;-0.003827564303574806;-0.5208327305880314
1.9999971389770508;-9.347133534753194;26.21406661740027;509.16488968982367;3.8565376479584783;-3.3353567597158644;46.03611562504978;3.7333903034083553;10.633795524996618;-8.30483985620905;9.810563749540798;2.0223145460345706;2.1461101623288217;2.2796706718376076;6.871506655072648;35.42640981301211;-2.7224936642667146;18.614847615124592;3.102231889868843;-0.2206824282103791;-28.828181439996445;6.0291106084596;3.6295549239843616;0.8380485263702036;5.38810405633677;-0.01900498834317619;0.12242992290729927;0.059287876586081395;6.075194652731694;4.003157628891636;0.9801027775060326;5.374718727136999;-0.019504739922850643;0.14987385820800364;0.06045901815942526;-0.003827626543914802;-0.5189501291599267
2.0198564529418945;-8.452147091178295;26.22020934288493;508.9892661295339;3.9261148819389624;-4.000555477441409;46.04149598989184;3.7109334072401974;10.566971727474542;-8.365611734896323;9.746752640978098;1.9989490391217017;2.1239708580928913;2.3172286082237776;6.949587412645416;34.9546344948159;-3.068603005518267;18.499807143011772;3.1287538049442905;-0.22279790396819987;-28.830137640338837;6.029866033011571;3.6295462467037334;0.8379230974003672;5.388417441728991;-0.019049203778837738;0.1223676511013791;0.059247270174020546;6.074665601945243;4.003311728641527;0.9802942206864854;5.374495532809365;-0.01946628199292349;0.14995748473464365;0.06049528932738837;-0.003886290791654177;-0.5207808321798383
2.0398473739624023;-8.579385001831678;26.193961798595197;509.9864524048686;3.910698388362565;-4.058169094590795;46.000244687649;3.709070627408496;10.5712093310584;-8.365150928325338;9.770289229338658;2.0101355011560296;2.1333583682864363;2.3188715852095294;6.944901216684556;34.85705182414891;-2.9742912811032767;18.46742656467351;3.1183432073649096;-0.22876912727258103;-28.82865457590308;6.02977042280256;3.6261302561846587;0.8365522487295289;5.3886898674800205;-0.019076313943705896;0.12209257840615463;0.059207791807345596;6.074631595734503;4.00686756958379;0.9817267957563842;5.374179021580786;-0.019445654817207836;0.15026149713113346;0.060529033810850084;-0.004116662890661343;-0.5189819398785159
2.0599007606506348;-8.651703278397406;26.483889979113002;509.48664946636575;3.9624183056492495;-3.9526222191504203;46.21908517955805;3.7091893105072864;10.565062323663867;-8.250474246167379;9.843310374758598;2.0249624543830196;2.123978765062111;2.3738661544558157;7.100619784756377;34.856142502031034;-3.0656245889781655;18.467600291534346;3.1502328604649623;-0.22867339874070078;-28.834210972537598;6.028792898686072;3.626994893617156;0.8368091212848764;5.388373642468426;-0.019094418408187326;0.1221097687683285;0.05919045258249543;6.072974043177154;4.006321974140397;0.9815691449822949;5.373745456434262;-0.019432821227399692;0.15025551691201391;0.0605349667373658;-0.004095197911824167;-0.5209009222477535
2.079977035522461;-8.538696277661845;26.40836225879423;509.89167900148834;3.9485939715897604;-4.053452854589338;46.17385628603148;3.729282088216816;10.619160504999213;-8.359993120203626;9.848427131306993;2.015246261337876;2.135389877350216;2.333736766404209;6.990671151717214;34.8613551930449;-3.0630434297258358;18.467384397781267;3.1276593090117686;-0.22796698499478915;-28.829542270067222;6.030543434397192;3.62791632490368;0.8371128248442202;5.3887192741016605;-0.019102797974595027;0.12214993517718455;0.05919001044956267;6.074335867361037;4.0053396080264445;0.981254814736783;5.3742233117804235;-0.019433852571396508;0.15022316678121733;0.060534264953008544;-0.004022636849914054;-0.5207723922666213
2.0998051166534424;-8.888972750341075;26.233518675030016;509.28880688186786;3.891934671898066;-3.6984461980907923;46.05232074855835;3.712304038424203;10.577032264715324;-8.261275147419184;9.837425496678737;2.0236116206879156;2.1340485292262734;2.2959626543810345;6.962251772455446;35.066353958870245;-2.96224381470343;18.503246907110412;3.145929131494998;-0.2260187878166812;-28.82457456963735;6.032355622743689;3.6294156587638158;0.8376729787828008;5.389055127769174;-0.019099652832099523;0.12224361850632103;0.05920360681957364;6.075893018074821;4.004001631175036;0.980777337743601;5.374825916486441;-0.019446641962435285;0.1501522192949209;0.06052157900010444;-0.003896571194210199;-0.5206295394292443
2.119839906692505;-9.472947156640192;26.060079737436926;509.0802407075652;3.7991553727808074;-3.218439518218837;45.987180440589356;3.693161860838104;10.522763266092076;-8.338931529320224;9.827554845801288;2.0222268654828226;2.122117133475493;2.267404887445618;6.9390871657624515;35.531910579696905;-2.726914597095628;18.57841328695855;3.173150203507063;-0.2229302397092408;-28.81891367479544;6.034406237551265;3.631316920919732;0.8384206753398104;5.38942071519401;-0.01908474230800155;0.1223834458867448;0.059230837333881264;6.0769092991828355;4.00209834307757;0.9798741244242541;5.374770072529887;-0.01946619362623913;0.15000228892429202;0.06049237655651305;-0.003733800517605169;-0.5204794667611125
2.1398518085479736;-9.349215916592314;26.17545912223952;508.1775724375373;3.807943499308476;-3.1537664775454815;46.07704641495107;3.735580005964466;10.632063426191396;-8.311763839670997;9.806462107257367;2.0215114715604297;2.1373833969136515;2.230923488737089;6.878642168905356;35.60351821172667;-2.8006079473554584;18.61158928627678;3.166027596790024;-0.2202896250454518;-28.818259801383178;6.033844434227571;3.632527485374552;0.8389248888000899;5.3891105345265675;-0.019055700215229572;0.12248676955787165;0.05926194509717281;6.076904141920539;4.000980944241804;0.9793773882966876;5.3749743503827645;-0.019494067314388172;0.14989952424955016;0.060461363248433354;-0.0035929808761072436;-0.5186846611335257
2.1597774028778076;-9.054572932166577;26.10822218585379;508.1884321760267;3.8016016118698372;-3.3732163692395005;46.00562718226628;3.708164037110087;10.589360366973619;-8.405865824680966;9.778463827801495;2.0006918935037197;2.1361247107701966;2.22377440294387;6.8516998553511606;35.52126621286604;-2.8921510904328027;18.596804248233784;3.145419076375831;-0.21611231377652765;-28.818051910880868;6.0340575219949635;3.6348118488454366;0.8398491623752499;5.388980420029825;-0.019024289709717077;0.1226736593295236;0.05930185801057715;6.077251748602272;3.999245683349008;0.9785999011076265;5.3752368687587895;-0.01951981608698828;0.14974360124974345;0.06042958216154093;-0.0034018192172822893;-0.5186726955227511
2.1799161434173584;-9.56960001848536;26.53728441336696;507.8740514341252;3.85636717657103;-2.9734503200177045;46.29444923374;3.736854544052892;10.632118021315216;-8.363449312108742;9.845463335138719;2.014726071873707;2.1369826905575278;2.3037038259539244;6.992200296974665;35.83241430785003;-2.7665601603497034;18.675983748968353;3.151077752944633;-0.21331173213780133;-28.827267143570047;6.031590411325957;3.6362786216417495;0.8404632100356363;5.388198159436074;-0.018985093353943654;0.12280598065700446;0.05933896429138223;6.075593920868372;3.9993523504947954;0.9785220968870617;5.375001094987576;-0.019546320462053325;0.14970341347703114;0.06040054991535786;-0.0033121202539727794;-0.5206876958976971
2.19986891746521;-9.587601477323627;26.340418262652907;507.6611583421412;3.8339879147412694;-2.971926145148288;46.15807148807389;3.720055890243453;10.590432905064427;-8.34981844737595;9.8521094862335;2.0165224324037285;2.135799367159414;2.275492702146464;6.919104593149762;35.85216760730726;-2.7853157640476134;18.697675252617923;3.1326886494678083;-0.21042177411206736;-28.839105531865805;6.027525432669365;3.6372039706202117;0.840888889668465;5.387015966488258;-0.01893779295268644;0.12291211884684813;0.059377473286776006;6.072622676801349;3.9987739499986343;0.9781470046476609;5.3744294690753796;-0.019570577595168122;0.1495903334707551;0.06036702278592674;-0.0032231279446289637;-0.5210165684061729
2.219938039779663;-9.645688334800969;26.340062421205307;508.0583627619688;3.821313060421441;-3.042280948482329;46.09068675113071;3.7612305141729636;10.69663751518214;-8.34414919809129;9.855408971988528;2.0173388376145325;2.1504939780314567;2.2144217199896965;6.781147583902108;35.777129139430386;-2.767308014604696;18.672537136505127;3.0937795955125176;-0.207582707150484;-28.845085704488714;6.0255181835104885;3.638645584535057;0.8415293446454867;5.3863995768417485;-0.018891942911160683;0.12306316919461577;0.059422517546954705;6.071803470763082;3.998135283852212;0.9777775402306358;5.374498580543841;-0.01959467606263443;0.1494763108464851;0.06033968478465499;-0.0031502960818465897;-0.5211825909887101
2.239875078201294;-9.55744410209182;25.959572391619616;507.6601831915766;3.7661364891226206;-3.082868465356526;45.824046570460474;3.7251520836333447;10.599467192601907;-8.370640547139468;9.800477508256122;2.013618211761012;2.136994297500929;2.162064088645131;6.681848108373201;35.796737681380904;-2.79394618734642;18.670632544324775;3.0903163643367586;-0.20181043319308653;-28.84896390627445;6.024503253475474;3.6434058960776072;0.8434036364906178;5.385859842204861;-0.018862010109867995;0.12344524210438453;0.059473093189349104;6.071070554201275;3.99513890933973;0.9765227124356927;5.374668536636031;-0.019609304714119445;0.14919955924431075;0.060311773591901804;-0.002931435287267717;-0.521288796070969
2.2598931789398193;-9.679861345360518;25.95118150191989;507.85611973727043;3.7726777523807398;-3.0759542929436705;45.79788748324521;3.7228149744963175;10.596068922965447;-8.293633971288715;9.809933028288432;2.0149138729861593;2.1368410019741586;2.1673218321660355;6.691141959651944;35.71608043567633;-2.776727524982067;18.65019632380555;3.0912329502055216;-0.2028848173542953;-28.85216497590243;6.022155004150214;3.642186286901827;0.8430333266432884;5.385317129489878;-0.018813816117545783;0.12340057068124695;0.05950430840935282;6.070459101288333;3.997267674475375;0.9772005893939774;5.374487153511481;-0.019629551543438498;0.1492785874131534;0.060299053245518354;-0.0030414192265270012;-0.5195988458596857
2.2798492908477783;-9.867159159377383;26.23358417197374;507.3483230854262;3.7994942904349305;-2.843100222917073;45.985303104689294;3.744339897789491;10.647551445038975;-8.277635879516028;9.800353677708893;2.0147576431487777;2.1396522189380693;2.20794682329965;6.766519251568511;35.925964226737314;-2.693676324832926;18.727745849418802;3.09031156049813;-0.19951594507306572;-28.85721245715491;6.020720107315995;3.643523493406529;0.8436341140406327;5.384809029485271;-0.0187751173800118;0.12354680150888768;0.05954349934570334;6.069837584746803;3.9959574062082175;0.9765766550123882;5.374503909339801;-0.019645219158060646;0.14910636877688496;0.060277009188057604;-0.00297551763550998;-0.521475977263407
2.299837827682495;-9.589620186826167;26.209997554099402;507.84748841046763;3.814848329498828;-3.059293734486147;45.94876088785725;3.72494615243694;10.601762831216133;-8.339306455567886;9.781558528586952;2.0134817334149764;2.137964504788575;2.231340389671172;6.792453534608372;35.79121135775473;-2.703624193440395;18.72145676963892;3.077101415085465;-0.19941156717971648;-28.852456319795575;6.020894550660032;3.6419710449580878;0.8431691939735285;5.384913323248134;-0.018734123658118135;0.12349744579319474;0.059577666311332066;6.071505425356962;3.9969877955108526;0.9768460786644589;5.374940775239601;-0.019667876931470284;0.14910263173995905;0.06026342581964924;-0.0030369401395834153;-0.5195448885014411
2.3199148178100586;-8.888615872401708;26.500202658020314;508.6682497372557;3.9411652739245353;-3.7232054900783993;46.09844950888259;3.7457490277435284;10.650845155087012;-8.332588727635994;9.860373660517292;2.018764046165851;2.140172813142951;2.2806578289812096;6.8741270664364444;35.20357723243125;-3.042463474132811;18.565770416918443;3.086183747220681;-0.19534442522977233;-28.852761133251104;6.020217438315514;3.6436543012858107;0.8438972150202724;5.384533981335008;-0.018702827789998565;0.12366738579420536;0.05961295135878982;6.071316770732731;3.9949860365739127;0.9759708373486878;5.375032480986;-0.019683523254574474;0.14888442954097303;0.06023955170545771;-0.0029105710679655098;-0.5195091438507778
2.3398661613464355;-8.687471578530728;26.3952326257023;509.16977190679665;3.946866460962415;-3.9321381354119254;45.9630782330437;3.7468287555145774;10.660351098833463;-8.284858906893383;9.819121841991748;2.02496802992098;2.15022777073222;2.264703671121383;6.834382840612477;34.946829785483004;-3.059849898329981;18.493793897339824;3.0864811759579736;-0.19505466569544597;-28.845327177750768;6.021904463870759;3.6425447911261486;0.8435842395307205;5.385006360259169;-0.018676213530003455;0.12364192157521849;0.05963900565184074;6.074023609953885;3.99545483222137;0.9760646136878498;5.375714147543916;-0.019701159894736392;0.14885806844971058;0.060231194115333356;-0.002970139218586642;-0.519258006379561
2.359822988510132;-8.67403801714304;26.464669105628168;509.47130655045027;3.9679846799819702;-4.011511501823627;45.954405002705414;3.7467721442535575;10.654857790585279;-8.212509816883735;9.82541950466548;2.025604202103522;2.1411490050327298;2.27634802657881;6.873409158945922;34.782899689901555;-3.088152978877642;18.43603224167755;3.0937481681083043;-0.19341483703611115;-28.84262960071529;6.022016646018475;3.6425374533622676;0.8436771967731138;5.384964851332178;-0.018653404355721916;0.12369559495477879;0.05966151002341991;6.0748721335131135;3.995091555649186;0.9758252453374383;5.375915084437433;-0.019716095049317116;0.1487631775708462;0.06021699776683992;-0.002965066203701988;-0.5191446918416842
2.3799052238464355;-8.2426210686809;26.33553068860411;509.7809966854352;3.9733218546435776;-4.368239500763465;45.895297458469194;3.74647555357647;10.655638001466242;-8.278948573338434;9.799599466585022;2.0149759428812986;2.141530436078911;2.2556433149231623;6.830755554632428;34.545245271653904;-3.217311407040098;18.375971476559744;3.098383576346334;-0.1938539194627212;-28.843522952014272;6.021357151693262;3.641087726093777;0.843219285354215;5.384818977457112;-0.0186358446960636;0.12364881998455916;0.059675799180743165;6.075292733926316;3.9962967920408285;0.9761758347217222;5.375873646173853;-0.019731986877927626;0.1487801502171988;0.06020681799895423;-0.0030829658339407923;-0.5209069914250806
2.399810791015625;-8.118066736652786;26.294218239404422;510.08164869031054;3.961881441754336;-4.481197337619349;45.867574439152705;3.750941856322346;10.67212581272436;-8.337677824573127;9.782049747541672;2.0140982627125243;2.1525989646768275;2.240469791954111;6.800255784377155;34.494895946975745;-3.218812910231187;18.355396131672506;3.089711177462408;-0.1918343823235663;-28.839528513707553;6.0216340048580355;3.641673126869327;0.8435188339413681;5.384813208904954;-0.018617999687095467;0.12373374950433436;0.05969163911326935;6.075900892643296;3.995456072926165;0.9757802544677219;5.376037013400884;-0.019741677902249226;0.14866596375064908;0.060195194776304;-0.0030190220246199967;-0.5190212013424991
2.419767379760742;-8.907360913575932;26.47416631243026;509.66609023864265;3.9241169453101103;-3.8415479715677066;46.07255887396418;3.75018122272661;10.670826097025277;-8.283717317111355;9.819397409124456;2.025471286183186;2.152414001908993;2.2760996166423233;6.936353827273725;34.96789898151168;-2.9740632706859564;18.4404243345383;3.1348993557256697;-0.1920604091345056;-28.837208910586618;6.0227715522927765;3.641065307825461;0.8433348879138486;5.385163799812583;-0.01861372126728194;0.1237166541171953;0.05969661644319502;6.077292656176016;3.9957604656322006;0.9758669162161522;5.376337147614589;-0.01974463643151147;0.14866228447693688;0.060196815926619504;-0.00308153406797992;-0.5207219521657088
2.43986439704895;-8.908993561479667;26.364415408402692;509.2586663534892;3.9275202566966274;-3.8096563486148725;46.030129493760285;3.749524713940278;10.669837439397128;-8.235381371999141;9.849004313701192;2.027383237509243;2.1523362967017428;2.2561526202557136;6.876703345297084;34.960001473947734;-3.0591999815741175;18.426091200473188;3.114650152040398;-0.19272513000316913;-28.837409207382684;6.022633681515776;3.640573610559157;0.8431417312145553;5.3851413319164605;-0.018615643702076405;0.12368590845340283;0.059692077325190926;6.077185156807565;3.99619686170061;0.9760241768605658;5.3762277153049975;-0.019739638187444203;0.1486838135661275;0.06020270431285595;-0.0031194764145390987;-0.5207459507951401
2.459899425506592;-9.021903534249459;26.347588954047094;508.86077775377896;3.888249543169619;-3.6316893103337264;46.06474854072857;3.7501063651620132;10.671499870444716;-8.344052557903215;9.778745280498473;2.013303534580256;2.152658577065395;2.254731990565196;6.871997100602316;35.24378539575108;-2.924661164487963;18.519208599942683;3.112343556141319;-0.1936016440305501;-28.838804244015687;6.022582465104423;3.640183751831128;0.8429813736135401;5.385237941963012;-0.018620858712139136;0.1236531063042121;0.05968558665218321;6.076890376494449;3.9965996930025582;0.9761916596275754;5.376112532781281;-0.019729843082715103;0.1487180834398886;0.06021280029552205;-0.0031504942250295377;-0.5208119922780641
2.4798531532287598;-9.305962499326293;26.158112528835055;507.44784777470954;3.8386519699924464;-3.2577011531798235;46.04106857445119;3.7283273353471946;10.604506291786153;-8.332796901446734;9.761533256415216;2.0034746572602833;2.1302977830424683;2.235873173905878;6.8527101340897705;35.627859721395794;-2.888787329556842;18.636797389642176;3.126083688510094;-0.19304805296941185;-28.851546721778767;6.018996660691015;3.6413218378040444;0.843345022118297;5.384281334103759;-0.018629034867729252;0.1237060725698843;0.05967272252274865;6.072543270842608;3.996028945538026;0.9759806266865574;5.37497110119742;-0.01971147050990555;0.14868519537640842;0.06021652140797521;-0.0030879655185527734;-0.5211976898516987
2.4998691082000732;-9.657300339696967;26.0310906881111;507.1244210100209;3.7788490187857997;-2.956219947807142;46.03018685118281;3.750634021898491;10.671780211655143;-8.332518557899922;9.784545476681593;2.0146237965628533;2.152613799421205;2.171921104717261;6.743169357833496;35.898697415660685;-2.7724654226894376;18.712595064875394;3.1086457976689617;-0.1948062788678488;-28.85442711339709;6.018160190610258;3.640405270696348;0.8429793264006887;5.384264539026581;-0.018632400539477054;0.12363311939611384;0.05966391522164578;6.071584596460093;3.997149507605691;0.9764223513957879;5.374691890531105;-0.019700282703548032;0.14877595385122172;0.0602292399676313;-0.003134524834759284;-0.5195466343931768
2.51991868019104;-10.005339890358853;26.110522696552724;506.80966506850706;3.7656868347017043;-2.7651104628838254;46.07483468165968;3.772557010043309;10.723755154572729;-8.260207450459353;9.808505437744753;2.017317451481204;2.155474742198768;2.1514470995127706;6.723769882481619;36.01298949610653;-2.7350854850554924;18.730437338759494;3.104214690100845;-0.19350030170160687;-28.869637906028768;6.0146283619446805;3.642062768324194;0.8435496687770278;5.383325774148279;-0.01864389896900507;0.1237341086951487;0.05965484610385429;6.0672479760173434;3.9961340958185665;0.976036748789601;5.373633244562811;-0.01968258776062176;0.14870795253755054;0.06023072550852291;-0.0030633051300968956;-0.5217616822024441
2.5399551391601562;-10.25185560971542;26.011103187706762;506.50051907318596;3.7562809958407852;-2.5724775305380376;46.08211302602241;3.729818934952528;10.606482895732022;-8.22322334441942;9.89456356545497;2.0415099486720596;2.1304062007084683;2.1782373235908916;6.792714317383374;36.16146277351247;-2.7426545696422444;18.76620447068537;3.1199775852840554;-0.1945123376277637;-28.87579728980514;6.012827025382351;3.6419787603609364;0.8434736515602527;5.3829931918757055;-0.018649952608736135;0.12371614077241301;0.05963997980320861;6.064958992925774;3.9966064340838043;0.9762405304816625;5.3730256408879935;-0.019664640398927388;0.14875803160979387;0.06024383052647301;-0.0030633416342352414;-0.5201971407172971
2.5599231719970703;-10.298593084938922;25.99804523758678;506.29625526565616;3.7634168201049665;-2.5489726197783966;46.06782825751464;3.730617108953958;10.615972782060595;-8.209899340368843;9.861307465720767;2.0302099006357737;2.1406244336897733;2.187228715525727;6.775527008770731;36.18509768253534;-2.7204222715039386;18.786977020361693;3.099535981054621;-0.19683962560340623;-28.88249658001296;6.01180646458901;3.640783536588893;0.8429957436863299;5.3829363576731835;-0.01865920565767061;0.12361287280091474;0.05962330589164329;6.063822803223333;3.9980606646982983;0.9768119562417303;5.372649867544646;-0.019650587010798484;0.14887368296504339;0.06026006272823623;-0.003184305841036487;-0.5221685674374109
2.579805850982666;-10.218775932197971;26.074333284367935;505.9949350174526;3.75875239974435;-2.5566881454779136;46.12698294110889;3.7341171452145883;10.623173080936853;-8.311740592359143;9.794165503868168;2.016980148252637;2.1417115559601188;2.204691734465042;6.79666809358351;36.31360221558416;-2.6766436760609515;18.843166600878146;3.09431920830629;-0.19556033272547155;-28.88738239566368;6.010297302249725;3.642162273551705;0.8434909087943214;5.3825384020474285;-0.01867085568534075;0.12370669379960172;0.059613738683421576;6.061642097370452;3.9970487880226893;0.9764326679332281;5.3721486608563;-0.019635752386827972;0.14880270747379865;0.060264481299409194;-0.003090896084975602;-0.5205601043600424
2.599841356277466;-10.0496644577957;25.96418485384008;506.18409537367404;3.7611793870839607;-2.7365487519623315;46.048742969036375;3.73213131439963;10.619872408198745;-8.306030878481977;9.797536185365079;2.0177588926633865;2.1413933488531947;2.1875346707404453;6.740279581602097;36.164482657663505;-2.741475168150732;18.819073585787656;3.07346727686801;-0.19862162989212076;-28.894778056896865;6.008499696645406;3.640289348919787;0.842760411283012;5.382247622729152;-0.018678965970238576;0.12356799165040894;0.059593748523403656;6.060064562158246;3.9992339156880314;0.9772601180656662;5.3715530792799315;-0.019627117865078786;0.14896021167304901;0.0602770176103589;-0.0032588510691161955;-0.5225395795035239
2.619813919067383;-9.495725470641819;25.959156530849988;507.39366108853085;3.8153958741409832;-3.3574262472988465;45.93763384284513;3.731685915403349;10.619766514203484;-8.307880130850616;9.796664229495917;2.0175823738458836;2.1415174496069054;2.192404422796689;6.723172964854301;35.596372160363195;-2.921383136310891;18.668544010517888;3.061322662540011;-0.19985576657932796;-28.891735121292037;6.009070406416558;3.639601740477229;0.8424927481652948;5.382490004014797;-0.01868815596516967;0.12351687629422987;0.05958374075053808;6.060575749547947;3.999939291204979;0.9775470087412977;5.371636457138142;-0.019622780602430542;0.14902056659761756;0.06028535478938495;-0.0032911432735299208;-0.5206986238873919
2.639848232269287;-9.127404969926257;25.964921289640067;508.8096665473617;3.8441408259937964;-3.8674055551800066;45.78827527493282;3.735283617597017;10.626315574654017;-8.31113541663223;9.794289012132477;2.0171058300527025;2.1423085260462886;2.1778920601238387;6.696244795961265;35.11067737618956;-3.0080611586774744;18.532374901419463;3.0569717307238076;-0.19646161742584284;-28.890675913049368;6.010506603925376;3.642385468769992;0.8435301876456369;5.3826884381946805;-0.01869984609296725;0.12370788709942646;0.059587338258433147;6.061085054344731;3.9971259898012796;0.9765109544603012;5.371972923646508;-0.019618778929824436;0.14883487408119866;0.06027969667069152;-0.003127777713969753;-0.5224329566444886
2.659839153289795;-8.91664680581826;26.148979660204652;509.12480364538146;3.899585931540023;-4.069350665668146;45.8440239645587;3.755700388196355;10.677621568109215;-8.24975964094412;9.812996497465846;2.0186806860847346;2.145465568541547;2.1953218187081007;6.718525190950351;34.86123826267392;-3.1061203658580805;18.469890657859327;3.0507704518229133;-0.19694712836146291;-28.88776911187886;6.011344969474125;3.6421930582506308;0.8434432274333277;5.38289211933415;-0.01871025776315767;0.1236878607273919;0.05958327324703376;6.061875749871831;3.997280512695037;0.9765910934096398;5.372159357795677;-0.01962152743894531;0.1488603554662396;0.06027992488583399;-0.0031370890436359152;-0.5223508614801858
2.6798207759857178;-8.79639167733642;26.36803936194008;509.43575013602845;3.942629612959295;-4.177118388220592;45.9861315780536;3.756714190892376;10.68552889555701;-8.25611884727499;9.832381100593583;2.0288422487078073;2.1549488643356707;2.248795408631941;6.834898810693531;34.754466839576736;-3.1480290146793237;18.429011905428304;3.0763493814140075;-0.19720368586465384;-28.88070443058546;6.013148698017187;3.6424244731614457;0.8434943993356713;5.383330125435498;-0.018718860191350793;0.12367544305386138;0.05957581164652593;6.06327138069755;3.99689210913004;0.976504687013954;5.372546996987048;-0.019617613953030653;0.1488686122548409;0.06028620050169624;-0.003092916489546296;-0.5203868699694659
2.6999382972717285;-8.559563724349374;26.496966590800234;509.24750073348446;3.9846330691414424;-4.281668014776294;46.07663944062416;3.778087276988625;10.742317667948202;-8.259401559710675;9.83076931934669;2.028419500641313;2.166812530352203;2.262623843495796;6.848702549879162;34.68013674766365;-3.2310492501641175;18.422766596894853;3.0884392512440995;-0.19618813482481887;-28.87764446411832;6.014676079199557;3.6437660096083566;0.8439430254539101;5.38361441321938;-0.01873560307788718;0.12373410580601985;0.05956879878067104;6.063071874658129;3.9953539413162313;0.9760237918257746;5.372558952375858;-0.019608037404472527;0.14880626531187716;0.06028946687809562;-0.003019822631857438;-0.5220855231426315
2.7198433876037598;-8.440042605933481;26.21585600748338;509.44530701161307;3.945431072459227;-4.37839423351739;45.872731698598045;3.7549954086199753;10.681438511896378;-8.3187095376704;9.790964604403422;2.016372919959825;2.1542212631363618;2.2301917842164287;6.7525977826411525;34.64657308233551;-3.2193467939430773;18.41466762501312;3.068213145052591;-0.1988817611736367;-28.873244660326844;6.015038289531932;3.6421854154646462;0.8432962150127087;5.383773034963953;-0.018743554152634727;0.12358819355001543;0.05955547864147275;6.062901158300848;3.996907882094604;0.9766595871877138;5.372392031854507;-0.019604592670052837;0.1489513901756282;0.06029877225914495;-0.0030956576226617936;-0.5202167095066169
2.7399559020996094;-8.539832804881746;26.418415566321286;509.8513116666048;3.9600374353198555;-4.393975347776589;45.96546349776666;3.755716635913951;10.68373002871867;-8.261701230472564;9.829794150885562;2.02823860163009;2.1547011992775507;2.253731141960574;6.851560488180864;34.54232332440023;-3.231877551937563;18.35049851052285;3.0880913803586987;-0.19881610657845752;-28.87109024129258;6.0163027241658416;3.642365639455626;0.8433439387899435;5.384057843027145;-0.01874407733472823;0.12358163622802305;0.05955882054745399;6.063938998243298;3.996611980188351;0.976585651759812;5.3727507349959085;-0.019607651023903737;0.1489576106755483;0.060298029087275225;-0.0030878274609094274;-0.5219264799859747
2.7598659992218018;-8.610609278236144;26.327972243374568;509.4521102619864;3.913600935976054;-4.275493682274153;45.928945549812084;3.7383875899227226;10.635324162676172;-8.3216491671541;9.7887171055971;2.016186595239572;2.144092469818608;2.2359029208163745;6.858255212879164;34.71041910347114;-3.195598533113129;18.372439718246387;3.1108350999407213;-0.19680636375018123;-28.86839821847729;6.017440746179207;3.6438244122062886;0.8438835802527537;5.3842185093193375;-0.018736040170160943;0.12366818545630873;0.05957515453855193;6.064962786691423;3.9950753897728295;0.9760321322817298;5.373253137355039;-0.01961671461234158;0.1488726154053825;0.060286857481784695;-0.0029594535753146465;-0.5218579696594562
2.7799313068389893;-9.481516302774239;26.36689211626136;508.7327500785751;3.84954259843523;-3.514931155800781;45.95332453911365;3.7597714067819497;10.684881956203018;-8.258789767430489;9.807839275501411;2.017627839466054;2.146332028574291;2.2043814768230394;6.806316980044215;35.30561155151985;-2.8874462172065494;18.530731247283807;3.109160642653656;-0.19308619068667585;-28.871252641321277;6.017000679795792;3.6468383092521632;0.8449743465879346;5.383843484636475;-0.018727321150168237;0.12384528606310242;0.05959398688554885;6.063919809110333;3.9922272927237326;0.9749857003818555;5.373309265141456;-0.019621981229923376;0.1487018882410072;0.06026883530021969;-0.0027221479041132524;-0.5219454342623235
