flxalr/sts-optimization-reemc/input/477_104/vel.csv
time;base_link_tx;base_link_ty;base_link_tz;base_link_rz;base_link_ry;base_link_rx;leg_left_1_joint;leg_left_2_joint;leg_left_3_joint;leg_left_4_joint;leg_left_5_joint;leg_left_6_joint;leg_right_1_joint;leg_right_2_joint;leg_right_3_joint;leg_right_4_joint;leg_right_5_joint;leg_right_6_joint;torso_1_joint;torso_2_joint;arm_left_1_joint;arm_left_2_joint;arm_left_3_joint;arm_left_4_joint;arm_left_5_joint;arm_left_6_joint;arm_left_7_joint;arm_right_1_joint;arm_right_2_joint;arm_right_3_joint;arm_right_4_joint;arm_right_5_joint;arm_right_6_joint;arm_right_7_joint;head_1_joint;head_2_joint
0.0;-0.0010638049007449819;0.000914197704742983;-7.882341849091881e-05;-0.0016336126919105388;-0.0013184207509548242;-0.0010403805721847497;2.220446049250313e-16;2.220446049250313e-16;2.220446049250313e-16;2.220446049250313e-16;2.220446049250313e-16;2.220446049250313e-16;2.220446049250313e-16;2.220446049250313e-16;2.220446049250313e-16;2.220446049250313e-16;0.0005397522304142326;2.220446049250313e-16;8.886564276557225e-06;8.886345503831175e-06;-2.926891106113387e-10;0.0011443248286959384;6.225285320955013e-10;2.2271692292707958e-10;1.2828932162021685e-06;-0.0;-2.220446049250313e-16;1.162831844376519e-11;9.1049865093037e-07;1.1387863115820289e-07;0.0006744184207078013;2.220446049250313e-16;-0.0;2.220446049250313e-16;-6.532939530240178e-09;-0.013315086802724866
0.01981520652770996;-0.0010650057735283372;0.000913481486778183;-7.90756299958114e-05;-0.0016324647505385603;-0.0013201730925771781;-0.0010395554329432804;2.220446049250313e-16;2.220446049250313e-16;2.220446049250313e-16;2.220446049250313e-16;2.220446049250313e-16;2.220446049250313e-16;2.220446049250313e-16;2.220446049250313e-16;2.220446049250313e-16;2.220446049250313e-16;0.00043963156512383245;2.220446049250313e-16;7.238162144282588e-06;7.2379839525298905e-06;-2.3839710989987663e-10;0.0009320597250030207;5.070533801951112e-10;1.8140432570487456e-10;1.044924542679267e-06;-0.0;-2.220446049250313e-16;9.47133804943702e-12;7.416068417993546e-07;9.2754856819801e-08;0.0008189996442601057;2.220446049250313e-16;-0.0;2.220446049250313e-16;-5.321120078252688e-09;-0.012658720805133762
0.039784908294677734;-0.001070457632726604;0.0009117309434062507;-8.008014729769445e-05;-0.0016286576736939638;-0.0013280113054085028;-0.0010377116566539476;2.220446049250313e-16;2.220446049250313e-16;2.220446049250313e-16;2.220446049250313e-16;2.220446049250313e-16;2.220446049250313e-16;2.220446049250313e-16;2.220446049250313e-16;2.220446049250313e-16;2.220446049250313e-16;0.00035808265749064344;2.220446049250313e-16;5.8955283050315674e-06;5.895383166735297e-06;-1.941759359953864e-10;0.0007591684713882418;4.1299814725254426e-10;1.4775495706365599e-10;-9.392146203046204e-05;-0.0;-2.220446049250313e-16;7.714464037129259e-12;6.040434076883354e-07;7.554941059758303e-08;0.0009373097770978608;2.220446049250313e-16;-0.0;2.220446049250313e-16;-4.334085560737303e-09;0.0038469164719422094
0.05984091758728027;-0.0010832263833947466;0.0009096489933876563;-8.224396528394745e-05;-0.001622630216182499;-0.0013461170337559713;-0.0010357917041306272;2.220446049250313e-16;2.220446049250313e-16;2.220446049250313e-16;2.220446049250313e-16;2.220446049250313e-16;2.220446049250313e-16;2.220446049250313e-16;2.220446049250313e-16;2.220446049250313e-16;2.220446049250313e-16;0.0002916605625427383;2.220446049250313e-16;4.801944651500119e-06;4.801826435450692e-06;-1.5815751346784214e-10;0.0006183474647486688;3.3638957217561763e-10;1.203473359968294e-10;7.258007183457924e-07;-0.0;-2.220446049250313e-16;6.283479173642013e-12;4.91997130833447e-07;6.15354671155476e-08;0.0007634446716323144;2.220446049250313e-16;-0.0;2.220446049250313e-16;-3.5301397772552876e-09;0.003133337509624879
0.0799403190612793;-0.0011049332282367815;0.0009068431523313737;-8.585363299241291e-05;-0.001615908313318659;-0.0013765711693614817;-0.0010330066711826517;2.220446049250313e-16;2.220446049250313e-16;2.220446049250313e-16;2.220446049250313e-16;2.220446049250313e-16;2.220446049250313e-16;2.220446049250313e-16;2.220446049250313e-16;2.220446049250313e-16;2.220446049250313e-16;0.00023755935106957617;2.220446049250313e-16;3.911213930800918e-06;3.91111764308981e-06;-1.2882028320401657e-10;0.0005036478747094455;2.7399140897186654e-10;9.80236573402675e-11;5.911692213471375e-07;-0.0;-2.220446049250313e-16;5.117933058676254e-12;4.0073473804591024e-07;5.0121022562282986e-08;0.0007645658555454188;2.220446049250313e-16;-0.0;2.220446049250313e-16;-2.875320911948039e-09;0.002552122984948899
0.09978818893432617;-0.0011348125526851186;0.0009021141234661255;-9.090326543061649e-05;-0.0016110065861745487;-0.0014180709891444031;-0.0010272549470576714;2.220446049250313e-16;2.220446049250313e-16;2.220446049250313e-16;2.220446049250313e-16;2.220446049250313e-16;2.220446049250313e-16;2.220446049250313e-16;2.220446049250313e-16;2.220446049250313e-16;2.220446049250313e-16;0.00019349357619211392;2.220446049250313e-16;3.1857081917244148e-06;3.1856297647819194e-06;-1.0492492579644147e-10;0.00041022434175006016;2.231677150538913e-10;7.984088155150624e-11;4.815110255948768e-07;-0.0;-2.220446049250313e-16;4.1685884633734244e-12;3.2640094873050663e-07;4.08238861333705e-08;0.0006227436678783407;2.220446049250313e-16;-0.0;2.220446049250313e-16;-2.341966853537377e-09;0.002078720122009534
0.11980509757995605;-0.0011714990717424337;0.0008944065339587622;-9.728151510991626e-05;-0.0016102648733795893;-0.0014685078328054246;-0.0010166622014892914;2.220446049250313e-16;2.220446049250313e-16;2.220446049250313e-16;2.220446049250313e-16;2.220446049250313e-16;2.220446049250313e-16;2.220446049250313e-16;2.220446049250313e-16;2.220446049250313e-16;2.220446049250313e-16;0.00015760172714332794;2.220446049250313e-16;2.594779232835734e-06;2.5947153536009026e-06;-8.546200784198779e-11;0.0003341302902575598;1.8177149870961347e-10;6.503089702921151e-11;3.9219373979093695e-07;-0.0;-2.220446049250313e-16;3.3953413570955496e-12;2.6585561274692714e-07;3.32513104049186e-08;0.0005072286096348325;2.220446049250313e-16;-0.0;2.220446049250313e-16;-1.907546639499028e-09;0.0016931305313775279
0.13983678817749023;-0.0012122227357883207;0.000884492324239815;-0.00010449022843125667;-0.0016148387220530113;-0.001523973229905845;-0.0010021201571918492;2.220446049250313e-16;2.220446049250313e-16;2.220446049250313e-16;2.220446049250313e-16;2.220446049250313e-16;2.220446049250313e-16;2.220446049250313e-16;2.220446049250313e-16;2.220446049250313e-16;2.220446049250313e-16;-0.0004122214765008641;2.220446049250313e-16;2.11346390251491e-06;2.1134118724788953e-06;-6.960933952484806e-11;0.00027215120972909655;1.4805402177084706e-10;5.2968072073399204e-11;3.194442522705918e-07;-0.0;-2.220446049250313e-16;2.7655267562378065e-12;-0.00015167312090357422;2.7083400145496226e-08;0.0004131408727263812;2.220446049250313e-16;-0.0;2.220446049250313e-16;-1.5537086600384544e-09;0.0013790653998728172
0.15982770919799805;-0.0012539953478009139;0.0008746446303137655;-0.0001118577088485349;-0.001623722973145872;-0.00158047882243941;-0.000986986922149289;2.220446049250313e-16;2.220446049250313e-16;2.220446049250313e-16;2.220446049250313e-16;2.220446049250313e-16;2.220446049250313e-16;2.220446049250313e-16;2.220446049250313e-16;2.220446049250313e-16;2.220446049250313e-16;-0.0004703706424677637;2.220446049250313e-16;1.7214295577477852e-06;1.7213871789582626e-06;-5.669724210136077e-11;0.0002216688612694099;1.2059092606999096e-10;4.3142825754234095e-11;2.601893400009737e-07;-0.0;-2.220446049250313e-16;2.25253882749792e-12;-0.00012353870493296684;2.205959868975758e-08;0.00033650582296609194;2.220446049250313e-16;-0.0;2.220446049250313e-16;-1.2655054142804464e-09;0.002441896873856819
0.17990684509277344;-0.0012947787106408427;0.0008649200936457177;-0.0001190646076360665;-0.0016356790861307377;-0.0016353398626111888;-0.0009715271865777356;2.220446049250313e-16;2.220446049250313e-16;2.220446049250313e-16;2.220446049250313e-16;2.220446049250313e-16;2.220446049250313e-16;2.220446049250313e-16;2.220446049250313e-16;2.220446049250313e-16;2.220446049250313e-16;-0.0003831198281065088;2.220446049250313e-16;1.4021151337203065e-06;1.4020806159313737e-06;-4.6180258049321474e-11;0.0001805506729343173;9.822206297729557e-11;3.514010121948463e-11;1.3686610771585303e-06;-0.0;-2.220446049250313e-16;1.8347069533647266e-12;-0.001437309984007169;1.7967681005299356e-08;0.00027408609596727535;2.220446049250313e-16;-0.0;2.220446049250313e-16;-1.0307620693402626e-09;-0.011442328278598715
0.199845552444458;-0.0013316106431861944;0.0008534422188866406;-0.00012582850150405682;-0.0016506950925965142;-0.0016844638545080986;-0.0009530712482764409;2.220446049250313e-16;2.220446049250313e-16;2.220446049250313e-16;2.220446049250313e-16;2.220446049250313e-16;2.220446049250313e-16;2.220446049250313e-16;2.220446049250313e-16;2.220446049250313e-16;2.220446049250313e-16;-0.000312053494491677;2.220446049250313e-16;1.142031539634775e-06;1.142003424679953e-06;-3.761410880778513e-11;0.00014705965154670724;8.000248418290081e-11;2.862183206890284e-11;1.114783001477355e-06;-0.0;-2.220446049250313e-16;1.4943802804340282e-12;-0.0013225218732286314;1.4634788476822603e-08;0.0002232448382034456;2.220446049250313e-16;-0.0;2.220446049250313e-16;-8.395621477405769e-10;0.004221147285646559
0.21981430053710938;-0.0013608640677120912;0.0008390997863853173;-0.00013169374783751568;-0.0016685538039259203;-0.0017228727065550023;-0.0009300602179158168;2.220446049250313e-16;2.220446049250313e-16;2.220446049250313e-16;2.220446049250313e-16;2.220446049250313e-16;2.220446049250313e-16;2.220446049250313e-16;2.220446049250313e-16;2.220446049250313e-16;2.220446049250313e-16;-0.00025416952159781154;2.220446049250313e-16;9.301918267296471e-07;9.301689269232256e-07;-3.063692671212104e-11;0.00011978100530761521;6.516252338249885e-11;2.3312661106571798e-11;9.079977220970648e-07;-0.0;-2.220446049250313e-16;1.2171820782902683e-12;-0.001233196059135649;1.192012668179999e-08;0.00018183431599694518;2.220446049250313e-16;-0.0;2.220446049250313e-16;-6.838286165981232e-10;0.003438150846329657
0.2398838996887207;-0.0013793753645497306;0.0008220617676362814;-0.00013615660163365765;-0.0016872173789347358;-0.0017464108646202488;-0.0009030394060914486;2.220446049250313e-16;2.220446049250313e-16;2.220446049250313e-16;2.220446049250313e-16;2.220446049250313e-16;2.220446049250313e-16;2.220446049250313e-16;2.220446049250313e-16;2.220446049250313e-16;2.220446049250313e-16;-0.0002070226639009274;2.220446049250313e-16;7.576470565702145e-07;7.576284045347607e-07;-2.495396828781454e-11;9.756237745433572e-05;5.3075282560816445e-11;1.8988308175434642e-11;7.395698196338221e-07;-0.0;-2.220446049250313e-16;9.914024101554129e-13;-0.0010044458976413556;9.709017683117851e-09;0.00014810518684398678;2.220446049250313e-16;-0.0;2.220446049250313e-16;-5.56982682148025e-10;0.0029781254922762322
0.2599825859069824;-0.0013851095673426902;0.0008022293910108769;-0.00013891149997555415;-0.0017041793982413775;-0.0017525149963670784;-0.0008722574021674001;2.220446049250313e-16;2.220446049250313e-16;2.220446049250313e-16;2.220446049250313e-16;2.220446049250313e-16;2.220446049250313e-16;2.220446049250313e-16;2.220446049250313e-16;2.220446049250313e-16;2.220446049250313e-16;-0.00016862125363895468;2.220446049250313e-16;6.171082628705432e-07;6.170930706710908e-07;-2.0325163132726737e-11;7.946516620141553e-05;4.3230149366300976e-11;1.5466095685817608e-11;6.023842404031209e-07;-0.0;-2.220446049250313e-16;8.075034593366471e-13;-0.0008181274614157442;7.908055584260009e-09;0.00012063260034184497;2.220446049250313e-16;-0.0;2.220446049250313e-16;-4.536658757513298e-10;0.002425701826743317
0.27985215187072754;-0.0013766921142234095;0.0007805367796885821;-0.0001396582918181818;-0.001714381332489141;-0.0017397807050000195;-0.0008398350359286535;2.220446049250313e-16;2.220446049250313e-16;2.220446049250313e-16;2.220446049250313e-16;2.220446049250313e-16;2.220446049250313e-16;2.220446049250313e-16;2.220446049250313e-16;2.220446049250313e-16;2.220446049250313e-16;-0.00013734306497176384;2.220446049250313e-16;5.026385370347003e-07;5.026261628932951e-07;-1.6554972403875504e-11;6.47248745283417e-05;3.521122684728569e-11;1.2597231599196477e-11;4.906457287098445e-07;-0.0;-2.220446049250313e-16;6.577166145263198e-13;-0.0006663699306197576;6.4411606987271745e-09;9.825600693218484e-05;2.220446049250313e-16;-0.0;2.220446049250313e-16;-3.6951369121118153e-10;0.0019757492985188487
0.2999396324157715;-0.0013522748848624688;0.0007580058865388956;-0.00013801661112494639;-0.001709434780986727;-0.0017064683370145524;-0.0008085423944625227;2.220446049250313e-16;2.220446049250313e-16;2.220446049250313e-16;2.220446049250313e-16;2.220446049250313e-16;2.220446049250313e-16;2.220446049250313e-16;2.220446049250313e-16;2.220446049250313e-16;2.220446049250313e-16;-0.00011186678481365771;2.220446049250313e-16;4.094022299056199e-07;4.0939215109010684e-07;-1.3484128491534118e-11;5.27188148338001e-05;2.867976433728198e-11;1.0260523870243026e-11;3.9963401256997274e-07;-0.0;-2.220446049250313e-16;5.357142932605282e-13;-0.0005427624733018587;5.246365646367651e-09;8.003013174630789e-05;2.220446049250313e-16;-0.0;2.220446049250313e-16;-3.009712109520773e-10;-0.012711053539833126
0.31993865966796875;-0.0013109607869070748;0.0007347071890537059;-0.00013383996887834847;-0.0016843551005267876;-0.0016518131255347016;-0.000779269791939963;2.220446049250313e-16;2.220446049250313e-16;2.220446049250313e-16;2.220446049250313e-16;2.220446049250313e-16;2.220446049250313e-16;2.220446049250313e-16;2.220446049250313e-16;2.220446049250313e-16;2.220446049250313e-16;-9.111619539812929e-05;2.220446049250313e-16;3.3346067502206424e-07;3.3345246576383637e-07;-1.0982906932157609e-11;4.293980417472288e-05;2.335984730124328e-11;8.357260820587129e-12;3.255044009508213e-07;-0.0;-2.220446049250313e-16;4.36342640075033e-13;-0.00044208342676982197;4.2731976087517385e-09;6.518504249569118e-05;2.220446049250313e-16;-0.0;2.220446049250313e-16;-2.4514293239053544e-10;0.003060351805137253
0.3397793769836426;-0.0012544481048918843;0.0007093617888397287;-0.00012750784579866004;-0.0016390258477330557;-0.0015781451536372366;-0.0007502384434266366;2.220446049250313e-16;2.220446049250313e-16;2.220446049250313e-16;2.220446049250313e-16;2.220446049250313e-16;2.220446049250313e-16;2.220446049250313e-16;2.220446049250313e-16;2.220446049250313e-16;2.220446049250313e-16;-7.421471062799752e-05;2.220446049250313e-16;2.7160580393469017e-07;2.715991174425557e-07;-8.9456463394107e-12;3.497473887408788e-05;1.9026741625908286e-11;6.807041171248345e-12;2.651253689769499e-07;-0.0;-2.220446049250313e-16;3.5540380748261484e-13;-0.0003600797141254372;3.4805461598133452e-09;5.309362451925605e-05;2.220446049250313e-16;-0.0;2.220446049250313e-16;-1.9967045057541848e-10;-0.011049645085164143
0.3598325252532959;-0.0011851079430640096;0.0006805969601678873;-0.00011951310598003172;-0.0015721928003110124;-0.0014888262197001797;-0.0007197205467951912;2.220446049250313e-16;2.220446049250313e-16;2.220446049250313e-16;2.220446049250313e-16;2.220446049250313e-16;2.220446049250313e-16;2.220446049250313e-16;2.220446049250313e-16;2.220446049250313e-16;2.220446049250313e-16;0.000268589464723585;2.220446049250313e-16;2.2122462484107967e-07;2.2121917865144558e-07;-7.286284853739636e-12;2.848714340506253e-05;1.549739997143746e-11;5.544377577989097e-12;2.1594627006528178e-07;-0.0;-2.220446049250313e-16;2.894786224683865e-13;-0.00029328717765338185;2.834926600581468e-09;4.3245089006087294e-05;2.220446049250313e-16;-0.0;2.220446049250313e-16;-1.626328299339944e-10;0.006571073290593392
0.3799405097961426;-0.0011048925797821193;0.0006486601791562481;-0.00011013277111536326;-0.0014858051483188023;-0.0013863583095766472;-0.0006877700186997877;2.220446049250313e-16;2.220446049250313e-16;2.220446049250313e-16;2.220446049250313e-16;2.220446049250313e-16;2.220446049250313e-16;2.220446049250313e-16;2.220446049250313e-16;2.220446049250313e-16;2.220446049250313e-16;0.0008191481054996606;2.220446049250313e-16;1.8018883958696466e-07;1.80184403631469e-07;-5.9347245526512675e-12;2.3202956348069712e-05;1.2622729135485631e-11;4.5159301896319815e-12;1.7588958663235983e-07;-0.0;-2.220446049250313e-16;2.357821472418912e-13;-0.0002388842392435398;2.309065434464859e-09;3.522339527726437e-05;2.220446049250313e-16;-0.0;2.220446049250313e-16;-1.324654564364255e-10;0.005352180264396383
0.39978718757629395;-0.001014045929451152;0.0006139189900437476;-9.936901306949043e-05;-0.001382985894230279;-0.0012707857996687138;-0.0006544139954821191;2.220446049250313e-16;2.220446049250313e-16;2.220446049250313e-16;2.220446049250313e-16;2.220446049250313e-16;2.220446049250313e-16;2.220446049250313e-16;2.220446049250313e-16;2.220446049250313e-16;2.220446049250313e-16;0.0006672012516051326;2.220446049250313e-16;1.467649360238301e-07;1.4676132291035414e-07;-4.833870240162912e-12;1.8898952963979952e-05;1.028129177291014e-11;3.678253364018931e-12;1.4326316762197357e-07;-0.0;-2.220446049250313e-16;1.9204603256694056e-13;-0.0001945727058903584;1.880748228030593e-09;2.8689675599552318e-05;2.220446049250313e-16;-0.0;2.220446049250313e-16;-1.0789394217657128e-10;-0.00927300468769665
0.4198427200317383;-0.000911124058681225;0.0005758994332146022;-8.704314135758694e-05;-0.0012595341398140925;-0.001140513734803577;-0.0006196431268849005;2.220446049250313e-16;2.220446049250313e-16;2.220446049250313e-16;2.220446049250313e-16;2.220446049250313e-16;2.220446049250313e-16;2.220446049250313e-16;2.220446049250313e-16;2.220446049250313e-16;2.220446049250313e-16;0.0005434395894402031;2.220446049250313e-16;1.1954095767225974e-07;1.1953801476875164e-07;-3.937217522301692e-12;1.5393315307617692e-05;8.374176407108888e-12;2.9959603540769453e-12;1.1778227474912125e-05;-0.0;-2.220446049250313e-16;1.5642269381347664e-13;-0.0001584806850271087;1.5318811864073426e-09;2.3367920086307855e-05;2.220446049250313e-16;-0.0;2.220446049250313e-16;-8.78802902399559e-11;-0.009331312150861587
0.4399731159210205;-0.0008002554821516768;0.0005365353884316083;-7.361240995020277e-05;-0.0011173732689215405;-0.0010010579297870452;-0.0005859124260753375;2.220446049250313e-16;2.220446049250313e-16;2.220446049250313e-16;2.220446049250313e-16;2.220446049250313e-16;2.220446049250313e-16;2.220446049250313e-16;2.220446049250313e-16;2.220446049250313e-16;2.220446049250313e-16;0.0004426349420964792;2.220446049250313e-16;9.736685715504099e-08;9.736446014174051e-08;-3.206888279524242e-12;1.253795152627528e-05;6.820819022192733e-12;2.4402284331478844e-12;9.59343989223764e-06;-0.0;-2.220446049250313e-16;1.2740726175291307e-13;-0.0001290835084588614;1.2477268005861954e-09;1.9033316959798284e-05;2.220446049250313e-16;-0.0;2.220446049250313e-16;-7.157904565225806e-11;0.006846388779526542
0.4599573612213135;-0.0006860852784177438;0.0004951487050151206;-5.985639072014108e-05;-0.000963672064667166;-0.0008581205294894374;-0.0005511475506250863;2.220446049250313e-16;2.220446049250313e-16;2.220446049250313e-16;2.220446049250313e-16;2.220446049250313e-16;2.220446049250313e-16;2.220446049250313e-16;2.220446049250313e-16;2.220446049250313e-16;2.220446049250313e-16;0.0003605289268059704;2.220446049250313e-16;7.93059136956381e-08;7.930396131332348e-08;-2.612030546724241e-12;1.0212239880348254e-05;5.55559972369487e-12;1.9875813102266583e-12;7.813916751226882e-06;-0.0;-2.220446049250313e-16;1.0377401099313363e-13;-0.00010513932441167046;1.0162812773699598e-09;1.5502755621986702e-05;2.220446049250313e-16;-0.0;2.220446049250313e-16;-5.830158005279951e-11;-0.009241243709936772
0.47977566719055176;-0.0005720044447598088;0.0004500152392466932;-4.6458669047098133e-05;-0.0008046207211089846;-0.0007157602367139;-0.0005119417539293747;2.220446049250313e-16;2.220446049250313e-16;2.220446049250313e-16;2.220446049250313e-16;2.220446049250313e-16;2.220446049250313e-16;2.220446049250313e-16;2.220446049250313e-16;2.220446049250313e-16;2.220446049250313e-16;0.0002936530641892553;2.220446049250313e-16;6.459516236705779e-08;6.459357213946017e-08;-2.1275152054978118e-12;8.317933209042902e-06;4.5250706974477445e-12;1.6188973995628015e-12;6.36448403085399e-06;-0.0;-2.220446049250313e-16;8.452458054147603e-14;-8.563663685408316e-05;8.277674521758158e-10;1.2627091346330805e-05;2.220446049250313e-16;-0.0;2.220446049250313e-16;-4.748700133788053e-11;-0.009282926994481643
0.5000107288360596;-0.0004574495577891886;0.00040084529570263825;-3.336003160290316e-05;-0.0006439807275556639;-0.0005728461321586301;-0.0004672815173068724;2.220446049250313e-16;2.220446049250313e-16;2.220446049250313e-16;2.220446049250313e-16;2.220446049250313e-16;2.220446049250313e-16;2.220446049250313e-16;2.220446049250313e-16;2.220446049250313e-16;2.220446049250313e-16;-0.0006629991187044424;2.220446049250313e-16;-6.953320889233187e-05;-6.953321018758218e-05;-1.732874431848001e-12;6.775008585848001e-06;3.6856983647630484e-12;1.3186020500526492e-12;5.183912021155767e-06;-0.0;-2.220446049250313e-16;6.88457991296606e-14;-6.975157594663105e-05;6.74221763343778e-10;1.0284844820907353e-05;2.220446049250313e-16;-0.0;2.220446049250313e-16;-3.867845938346205e-11;0.007889470311971833
0.5199568271636963;-0.0003476757840861521;0.0003520979563397534;-2.095750391972381e-05;-0.0004978868891479518;-0.00043513644827066866;-0.00042093656996219713;2.220446049250313e-16;2.220446049250313e-16;2.220446049250313e-16;2.220446049250313e-16;2.220446049250313e-16;2.220446049250313e-16;2.220446049250313e-16;2.220446049250313e-16;2.220446049250313e-16;2.220446049250313e-16;-0.0006973820958086324;2.220446049250313e-16;-5.663523322535988e-05;-5.663523428034937e-05;-1.4114370552053955e-12;5.518286836976856e-06;3.002024353714281e-12;1.0740096110306952e-12;4.222328740681504e-06;-0.0;-2.220446049250313e-16;5.607533367735311e-14;-5.681309455588064e-05;5.49157840129528e-10;8.377070386909168e-06;2.220446049250313e-16;-0.0;2.220446049250313e-16;-3.150384690820098e-11;-0.008467982007167762
0.539830207824707;-0.00024159182545973598;0.00030619362081155084;-8.858734033563943e-06;-0.0003740658933473509;-0.000300433652896367;-0.00037509433171234566;2.220446049250313e-16;2.220446049250313e-16;2.220446049250313e-16;2.220446049250313e-16;2.220446049250313e-16;2.220446049250313e-16;2.220446049250313e-16;2.220446049250313e-16;2.220446049250313e-16;2.220446049250313e-16;-0.0005680220756742297;2.220446049250313e-16;-0.00011387485836448369;-0.00011387485922377922;-1.1496243029463896e-12;4.4946791180103814e-06;2.445167598752492e-12;8.747875407445702e-13;-8.707787336834639e-05;-0.0;-2.220446049250313e-16;4.567370975103958e-14;-4.6274620597605746e-05;4.4729249302200117e-10;6.823176186827435e-06;2.220446049250313e-16;-0.0;2.220446049250313e-16;-2.5660080205772874e-11;-0.006897224269725686
0.5599541664123535;-0.00013548453961331335;0.00026351599035427133;3.544700334017142e-06;-0.0002769493095059667;-0.00016322166187613226;-0.0003295715144393899;2.220446049250313e-16;2.220446049250313e-16;2.220446049250313e-16;2.220446049250313e-16;2.220446049250313e-16;2.220446049250313e-16;2.220446049250313e-16;2.220446049250313e-16;2.220446049250313e-16;2.220446049250313e-16;-0.000462657530774633;2.220446049250313e-16;-9.275178385573674e-05;-9.275178455563829e-05;-9.363761799017274e-13;3.6609442333639428e-06;1.991604291481397e-12;7.125199193585818e-13;5.142408520220112e-06;-0.0;-2.220446049250313e-16;3.720152205290767e-14;-3.769096769312862e-05;3.643225311445013e-10;5.557519649022113e-06;2.220446049250313e-16;-0.0;2.220446049250313e-16;-2.0900295703103284e-11;0.009219933145109629
0.579840898513794;-2.9717694889714208e-05;0.00022449135368697175;1.623661771050357e-05;-0.0002108492888714428;-2.359965756668505e-05;-0.00028428743867587035;2.220446049250313e-16;2.220446049250313e-16;2.220446049250313e-16;2.220446049250313e-16;2.220446049250313e-16;2.220446049250313e-16;2.220446049250313e-16;2.220446049250313e-16;2.220446049250313e-16;2.220446049250313e-16;-0.00037683745042550585;2.220446049250313e-16;-7.554690764914665e-05;-7.554690821922087e-05;-7.626842508810811e-13;2.981861958976389e-06;1.6221741429384194e-12;5.803519275670609e-13;4.188523879772532e-06;-0.0;-2.220446049250313e-16;3.030087222160612e-14;-3.0699528754601334e-05;2.967429786330159e-10;4.526634488626316e-06;2.220446049250313e-16;-0.0;2.220446049250313e-16;-1.7023421477025767e-11;0.007509693171273945
0.5998189449310303;7.718823040041596e-05;0.00018708851700397134;2.925652576805002e-05;-0.00017533395424200902;0.00012044899666678207;-0.00023642849673822893;2.220446049250313e-16;2.220446049250313e-16;2.220446049250313e-16;2.220446049250313e-16;2.220446049250313e-16;2.220446049250313e-16;2.220446049250313e-16;2.220446049250313e-16;2.220446049250313e-16;2.220446049250313e-16;-0.0003069364586056397;2.220446049250313e-16;-6.153342844840274e-05;-6.153342891273177e-05;-6.212110891192084e-13;2.428745202223512e-06;1.3212709780117358e-12;4.727002722029182e-13;3.411578878348975e-06;-0.0;-2.220446049250313e-16;2.468024980494957e-14;-2.5004958042677498e-05;2.4169901074020783e-10;3.6869720824516885e-06;2.220446049250313e-16;-0.0;2.220446049250313e-16;-1.3865683189421718e-11;-0.009445683453325691
0.6198368072509766;0.0001832817142189942;0.00014945838990649342;4.2131343857722156e-05;-0.00017008497619880688;0.0002662331171908804;-0.00018343997002373725;2.220446049250313e-16;2.220446049250313e-16;2.220446049250313e-16;2.220446049250313e-16;2.220446049250313e-16;2.220446049250313e-16;2.220446049250313e-16;2.220446049250313e-16;2.220446049250313e-16;2.220446049250313e-16;-0.00025000166388715984;2.220446049250313e-16;-0.00012517121687972556;-0.00012517121725792444;-5.059803146569022e-13;1.978228146868564e-06;1.0761834695341712e-12;3.8501732608597806e-13;2.778752318783229e-06;-0.0;-2.220446049250313e-16;2.0102217717692698e-14;-2.0366694606748585e-05;1.9686535486671642e-10;0.00015474148781763182;2.220446049250313e-16;-0.0;2.220446049250313e-16;-1.1293685618303921e-11;0.005895165186778792
0.6398978233337402;0.00028742137387387055;0.00010979248093097139;5.4516861224409134e-05;-0.00019317701322816598;0.0004120235610161089;-0.00012307624429377126;2.220446049250313e-16;2.220446049250313e-16;2.220446049250313e-16;2.220446049250313e-16;2.220446049250313e-16;2.220446049250313e-16;2.220446049250313e-16;2.220446049250313e-16;2.220446049250313e-16;2.220446049250313e-16;-0.00020362791774649087;2.220446049250313e-16;-0.00017482459862049336;-0.00017482459892853873;-4.1212412866501346e-13;1.6112791895503628e-06;8.765581620822668e-13;3.135990184553171e-13;2.2633111308509318e-06;-0.0;-2.220446049250313e-16;1.6373381969921438e-14;-1.6588800049038013e-05;1.6034806194740837e-10;0.00012603790896175996;2.220446049250313e-16;-0.0;2.220446049250313e-16;-9.198777521643657e-12;0.004801648889413743
0.6598443984985352;0.0003875791450824308;6.793562632602404e-05;6.608540154985707e-05;-0.00024459071687859326;0.0005550322191099947;-5.513180658630099e-05;2.220446049250313e-16;2.220446049250313e-16;2.220446049250313e-16;2.220446049250313e-16;2.220446049250313e-16;2.220446049250313e-16;2.220446049250313e-16;2.220446049250313e-16;2.220446049250313e-16;2.220446049250313e-16;0.000153545486956806;2.220446049250313e-16;-0.00021748885530506118;-0.00021748885555596608;-3.356776785734575e-13;1.312396970383705e-06;7.139621015045193e-13;2.5542836052572104e-13;1.8434810617726516e-06;-0.0;-2.220446049250313e-16;1.3336221948138321e-14;-1.3511681319941765e-05;1.3060449863155123e-10;0.00010265866458628449;2.220446049250313e-16;-0.0;2.220446049250313e-16;-7.492461783738266e-12;0.0039109730307330505
0.6797573566436768;0.00048414652158245574;2.356509653652978e-05;7.686723871802513e-05;-0.0003250124169474015;0.0006958653483496681;2.0961562310986976e-05;2.220446049250313e-16;2.220446049250313e-16;2.220446049250313e-16;2.220446049250313e-16;2.220446049250313e-16;2.220446049250313e-16;2.220446049250313e-16;2.220446049250313e-16;2.220446049250313e-16;2.220446049250313e-16;0.0008791254218626338;2.220446049250313e-16;-0.0005258853299699019;-0.0005258853301742653;-2.734115671835722e-13;1.0689555348585923e-06;5.815265939385652e-13;2.0804799607545306e-13;8.920808259328211e-06;-0.0;-2.220446049250313e-16;1.0862436128145837e-14;-1.1005348883100814e-05;1.0637818041351491e-10;8.361612392218236e-05;2.220446049250313e-16;-0.0;2.220446049250313e-16;-6.102656950740966e-12;0.004817337584547103
0.6998965740203857;0.0005779060382224108;-2.3585717388894256e-05;8.695811353691846e-05;-0.0004353281733211695;0.000835685073206817;0.00010572600328217356;2.220446049250313e-16;2.220446049250313e-16;2.220446049250313e-16;2.220446049250313e-16;2.220446049250313e-16;2.220446049250313e-16;2.220446049250313e-16;2.220446049250313e-16;2.220446049250313e-16;2.220446049250313e-16;0.0005777012889955291;2.220446049250313e-16;-0.0006355411231376241;-0.0006355411233040795;-2.226954302933144e-13;8.706709641144163e-07;4.736570453041732e-13;1.6945639310343189e-13;7.2660540822744495e-06;-0.0;-2.220446049250313e-16;8.847522116600583e-15;-8.963925448716131e-06;8.664569281043547e-11;6.810585553539204e-05;2.220446049250313e-16;-0.0;2.220446049250313e-16;-4.9706522279844564e-12;0.005670116810565938
0.719825267791748;0.0006636852442691509;-7.126241290758681e-05;9.576834207545014e-05;-0.0005718987452099264;0.0009670122224591732;0.00019536446354638997;2.220446049250313e-16;2.220446049250313e-16;2.220446049250313e-16;2.220446049250313e-16;2.220446049250313e-16;2.220446049250313e-16;2.220446049250313e-16;2.220446049250313e-16;2.220446049250313e-16;2.220446049250313e-16;0.00047054131051991457;2.220446049250313e-16;-0.000586333523739634;-0.000586333523875213;-1.813868198203439e-13;7.091669419647174e-07;3.8579662375678233e-13;1.3802329128520214e-13;5.918246462850551e-06;-0.0;-2.220446049250313e-16;-0.00015568109057574551;-7.301173302513342e-06;7.057345832967974e-11;5.54726449951739e-05;2.220446049250313e-16;-0.0;2.220446049250313e-16;-4.048627306269765e-12;0.0046183455804360216
0.739783525466919;0.0007396725650166084;-0.00011849998431123361;0.00010310725139565562;-0.0007317640415224211;0.0010870671826893627;0.000288029495085138;2.220446049250313e-16;2.220446049250313e-16;2.220446049250313e-16;2.220446049250313e-16;2.220446049250313e-16;2.220446049250313e-16;2.220446049250313e-16;2.220446049250313e-16;2.220446049250313e-16;2.220446049250313e-16;0.00038325883830166114;2.220446049250313e-16;-0.0005531768430101641;-0.000553176843120594;-1.4774069841129395e-13;5.776209065236495e-07;3.142337612787976e-13;1.1242083339736766e-13;4.8204487330321645e-06;-0.0;-2.220446049250313e-16;-0.0006792631102490003;-5.946851287230257e-06;5.7482522893638713e-11;4.518281605260035e-05;2.220446049250313e-16;-0.0;2.220446049250313e-16;-3.297632244877387e-12;0.0037616713399250155
0.7597756385803223;0.0008051472050295905;-0.00016369445477963055;0.00010901225454957537;-0.0009081332850741776;0.0011942022686721458;0.00038036585474379725;2.220446049250313e-16;2.220446049250313e-16;2.220446049250313e-16;2.220446049250313e-16;2.220446049250313e-16;2.220446049250313e-16;2.220446049250313e-16;2.220446049250313e-16;2.220446049250313e-16;2.220446049250313e-16;0.00031216671916444236;2.220446049250313e-16;-0.0004505659959870474;-0.00045056599607699334;-1.2033572223536395e-13;4.704758384941782e-07;2.5594536252258857e-13;9.156747143236468e-14;3.926285620859279e-06;-0.0;-2.220446049250313e-16;-0.000696608559840278;-4.843747541269589e-06;4.681987416263681e-11;3.680168606744331e-05;2.220446049250313e-16;-0.0;2.220446049250313e-16;-2.6859420736541624e-12;0.004899033356815604
0.7799410820007324;0.0008596772479946171;-0.00020627634995085456;0.0001134695491669519;-0.0010953874399112916;0.0012872890343375329;0.0004706701158065376;2.220446049250313e-16;2.220446049250313e-16;2.220446049250313e-16;2.220446049250313e-16;2.220446049250313e-16;2.220446049250313e-16;2.220446049250313e-16;2.220446049250313e-16;2.220446049250313e-16;2.220446049250313e-16;0.000254261743801433;2.220446049250313e-16;-0.000366988819768925;-0.00036698881984218655;-9.801419785896793e-14;3.8320551092749866e-07;2.0846909743316415e-13;7.458227777835746e-14;3.1979841774750125e-06;-0.0;-2.220446049250313e-16;-0.0005673920257934053;-3.945262645786212e-06;3.8135080129681176e-11;2.997520331247049e-05;2.220446049250313e-16;-0.0;2.220446049250313e-16;-2.1877166061292746e-12;0.00554392251785216
0.7998192310333252;0.0009015901485367208;-0.00024484506736416345;0.00011635134756334662;-0.0012827703062795767;0.0013629998157116325;0.0005552403950886734;2.220446049250313e-16;2.220446049250313e-16;2.220446049250313e-16;2.220446049250313e-16;2.220446049250313e-16;2.220446049250313e-16;2.220446049250313e-16;2.220446049250313e-16;2.220446049250313e-16;2.220446049250313e-16;0.00020709777946216593;2.220446049250313e-16;-0.00029891468738191295;-0.0002989146874415849;-7.983317674486596e-14;3.121232836848909e-07;1.6979938279117108e-13;6.074773138970826e-14;1.1454409667874635e-05;-0.0;-2.220446049250313e-16;-0.0005957802950746002;-3.213441082884405e-06;3.1061261109876124e-11;2.441499044302792e-05;2.220446049250313e-16;-0.0;2.220446049250313e-16;-1.7819088489210818e-12;-0.010745844972932244
0.819814920425415;0.0009313800004167303;-0.0002786658199949;0.00011780210699459021;-0.0014690625740296848;0.0014218906462640838;0.0006328449949668897;2.220446049250313e-16;2.220446049250313e-16;2.220446049250313e-16;2.220446049250313e-16;2.220446049250313e-16;2.220446049250313e-16;2.220446049250313e-16;2.220446049250313e-16;2.220446049250313e-16;2.220446049250313e-16;0.00016868243573305572;2.220446049250313e-16;-0.00024346788108936415;-0.00024346788113796734;-6.502462141604797e-14;2.5422636533186657e-07;1.3830265852955126e-13;4.947940689023856e-14;9.329688264544312e-06;-0.0;-2.220446049250313e-16;-0.00048526677396510597;-2.6173678460161154e-06;2.5299591306876038e-11;1.98861623095365e-05;2.220446049250313e-16;-0.0;2.220446049250313e-16;-1.4513758943765268e-12;0.006081726893283707
0.8397798538208008;0.0009475644329558497;-0.0003064985559260091;0.0001177084894534693;-0.0016495250324039203;0.0014614628251712384;0.0007009681268324864;2.220446049250313e-16;2.220446049250313e-16;2.220446049250313e-16;2.220446049250313e-16;2.220446049250313e-16;2.220446049250313e-16;2.220446049250313e-16;2.220446049250313e-16;2.220446049250313e-16;2.220446049250313e-16;-0.00048419882653111837;2.220446049250313e-16;-0.0001983061108215439;-0.00019830611086113148;-5.296296054725492e-14;2.0706896347758869e-07;1.126483797639353e-13;4.0301286158392375e-14;7.599089402022994e-06;-0.0;-2.220446049250313e-16;-0.00039525282031191607;-2.1318624691291628e-06;2.0606675241896198e-11;1.6197403489631915e-05;2.220446049250313e-16;-0.0;2.220446049250313e-16;-1.1821547370690204e-12;0.004953604565372661
0.859886884689331;0.0009493350959122181;-0.0003281958159283471;0.000115959890541954;-0.0018225271994252881;0.0014804494942504242;0.0007591376992256225;2.220446049250313e-16;2.220446049250313e-16;2.220446049250313e-16;2.220446049250313e-16;2.220446049250313e-16;2.220446049250313e-16;2.220446049250313e-16;2.220446049250313e-16;2.220446049250313e-16;2.220446049250313e-16;-0.0005292141600021587;2.220446049250313e-16;-0.0001615215666773401;-0.00016152156670958445;-4.3138662384242555e-14;1.686589649335177e-07;9.175280937009881e-14;3.2825649459049064e-14;6.1895058122564885e-06;-0.0;-2.220446049250313e-16;-0.00032193589247418253;-1.736415305246135e-06;1.6784265776244713e-11;1.3192886376077005e-05;2.220446049250313e-16;-0.0;2.220446049250313e-16;-9.62872421809824e-13;0.004034741878524565
0.8798484802246094;0.0009363407947024867;-0.00034158590663599614;0.00011270410801254491;-0.0019817250461072163;0.0014777443275243829;0.0008032715620090053;2.220446049250313e-16;2.220446049250313e-16;2.220446049250313e-16;2.220446049250313e-16;2.220446049250313e-16;2.220446049250313e-16;2.220446049250313e-16;2.220446049250313e-16;2.220446049250313e-16;2.220446049250313e-16;-0.0004310482409102582;2.220446049250313e-16;-0.0001315603255684852;-0.00013156032559474842;-3.513671012860546e-14;1.3737378105688096e-07;7.473323668700403e-14;2.673669664470458e-14;5.041391168494237e-06;-0.0;-2.220446049250313e-16;-0.00026221879651954963;-1.4143211187186345e-06;1.3670889376412419e-11;1.0745688408854567e-05;2.220446049250313e-16;-0.0;2.220446049250313e-16;-7.842656055167375e-13;0.004725111985281333
0.8999340534210205;0.0009102215125371866;-0.0003461650778365611;0.00010824110751114111;-0.0021260979582200736;0.0014554991204146239;0.0008325033208418853;2.220446049250313e-16;2.220446049250313e-16;2.220446049250313e-16;2.220446049250313e-16;2.220446049250313e-16;2.220446049250313e-16;2.220446049250313e-16;2.220446049250313e-16;2.220446049250313e-16;2.220446049250313e-16;-0.00035109148627291087;2.220446049250313e-16;-0.000107156707427566;-0.00010715670744895754;-2.8619070004187437e-14;1.1189180325696114e-07;6.087068836429406e-14;2.1777206521465906e-14;4.106244615433359e-06;-0.0;-2.220446049250313e-16;-0.00021357884863265131;-1.15197339070332e-06;1.1135024840146517e-11;0.00015779087421132463;2.220446049250313e-16;-0.0;2.220446049250313e-16;-6.387892373534172e-13;-0.011073560213187629
0.919842004776001;0.0008745513401070968;-0.0003430892973054581;0.00010301545328533185;-0.0022525035330320992;0.0014183436263431732;0.0008479896820383195;2.220446049250313e-16;2.220446049250313e-16;2.220446049250313e-16;2.220446049250313e-16;2.220446049250313e-16;2.220446049250313e-16;2.220446049250313e-16;2.220446049250313e-16;2.220446049250313e-16;2.220446049250313e-16;-0.00028596620989107513;2.220446049250313e-16;-8.727980792917391e-05;-8.727980794659745e-05;-2.331041138759819e-14;9.113657307656516e-08;4.9579556114519777e-14;1.773767081927474e-14;4.557423332650893e-06;-0.0;-2.220446049250313e-16;-0.00017396130707909843;-9.382895265615456e-07;9.069547326204589e-12;0.00012852165323808774;2.220446049250313e-16;-0.0;2.220446049250313e-16;-5.202978262570917e-13;0.006312873104004475
0.9398097991943359;0.0008334629766043731;-0.00033447460682111584;9.746814357532422e-05;-0.0023624734523277338;0.0013721274622547866;0.0008529896889485534;2.220446049250313e-16;2.220446049250313e-16;2.220446049250313e-16;2.220446049250313e-16;2.220446049250313e-16;2.220446049250313e-16;2.220446049250313e-16;2.220446049250313e-16;2.220446049250313e-16;2.220446049250313e-16;-0.00023292126524509238;2.220446049250313e-16;-7.108994905711169e-05;-7.108994907130327e-05;-1.8986475765269897e-14;7.423130837444402e-08;4.0382858327502064e-14;1.4447443742741892e-14;3.712049788339981e-06;-0.0;-2.220446049250313e-16;-0.00014169257187409488;-7.642426836939201e-07;7.387202981864425e-12;0.00010468168982275516;2.220446049250313e-16;-0.0;2.220446049250313e-16;-4.237858313478152e-13;0.005141874598668544
0.9600129127502441;0.0007921927118158542;-0.0003222183587314797;9.223032181594934e-05;-0.002454215662042526;0.0013239016820394882;0.0008499301032765983;2.220446049250313e-16;2.220446049250313e-16;2.220446049250313e-16;2.220446049250313e-16;2.220446049250313e-16;2.220446049250313e-16;2.220446049250313e-16;2.220446049250313e-16;2.220446049250313e-16;2.220446049250313e-16;-0.00018971582630003552;2.220446049250313e-16;-5.790320781919906e-05;-5.79032078307582e-05;-1.5464603176285862e-14;6.046186461666201e-08;3.2892090500614975e-14;1.176753322498666e-14;3.0234877529140917e-06;-0.0;-2.220446049250313e-16;-0.00011540948537002449;-6.224804423854708e-07;6.016922998747209e-12;8.526389062119547e-05;2.220446049250313e-16;-0.0;2.220446049250313e-16;-3.4517620829424126e-13;0.004188088997331769
0.9800655841827393;0.0007568828823818017;-0.00030739975507704584;8.814900821908928e-05;-0.002520726249776423;0.0012814617015811753;0.000839258827540864;2.220446049250313e-16;2.220446049250313e-16;2.220446049250313e-16;2.220446049250313e-16;2.220446049250313e-16;2.220446049250313e-16;2.220446049250313e-16;2.220446049250313e-16;2.220446049250313e-16;2.220446049250313e-16;-0.00015452472624529327;2.220446049250313e-16;-4.71625246637865e-05;-4.71625246732015e-05;-1.2596015940854684e-14;4.9246566616925043e-08;2.679081328831652e-14;9.584729358834288e-15;2.4626496715469828e-06;-0.0;-2.220446049250313e-16;-9.400174714316851e-05;-5.070142108257308e-07;4.9008213882483425e-12;6.944797181028009e-05;2.220446049250313e-16;-0.0;2.220446049250313e-16;-2.811481790069613e-13;-0.01115165690915583
0.9999251365661621;0.0007323696994367012;-0.0002892034185600799;8.604530218366907e-05;-0.0025582336851246294;0.0012510889838950985;0.000819248428936549;2.220446049250313e-16;2.220446049250313e-16;2.220446049250313e-16;2.220446049250313e-16;2.220446049250313e-16;2.220446049250313e-16;2.220446049250313e-16;2.220446049250313e-16;2.220446049250313e-16;2.220446049250313e-16;-0.00012586135530633037;2.220446049250313e-16;-3.841417110443325e-05;-3.841417111210182e-05;-1.025953370892577e-14;4.0111636300526805e-08;2.1821284865916855e-14;7.80682196732902e-15;2.0058435490354642e-06;-0.0;-2.220446049250313e-16;-7.656501055903036e-05;-4.1296624355637523e-07;3.991749650861951e-12;5.6565807089296936e-05;2.220446049250313e-16;-0.0;2.220446049250313e-16;-2.289969489772887e-13;0.004240109206762446
1.0198285579681396;0.0007213818473411365;-0.00026470929669076653;8.661061111407787e-05;-0.0025662966350065864;0.0012364557021488159;0.0007857104105541472;2.220446049250313e-16;2.220446049250313e-16;2.220446049250313e-16;2.220446049250313e-16;2.220446049250313e-16;2.220446049250313e-16;2.220446049250313e-16;2.220446049250313e-16;2.220446049250313e-16;2.220446049250313e-16;-0.00010251486053047673;2.220446049250313e-16;-3.1288582453130265e-05;-3.128858245937637e-05;-8.35645432800572e-15;3.267117846450595e-08;1.777357290631968e-14;6.358705285026781e-15;1.6337721072115669e-06;-0.0;-2.220446049250313e-16;-6.23626796316462e-05;-3.363635864156898e-07;3.2513050390623755e-12;4.607320341052666e-05;2.220446049250313e-16;-0.0;2.220446049250313e-16;-1.8651944617293276e-13;-0.010056350917010496
1.039928674697876;0.0007234807852020532;-0.00023152262443921757;8.999987519130929e-05;-0.0025460085260092372;0.0012370311135280578;0.0007354288403699656;2.220446049250313e-16;2.220446049250313e-16;2.220446049250313e-16;2.220446049250313e-16;2.220446049250313e-16;2.220446049250313e-16;2.220446049250313e-16;2.220446049250313e-16;2.220446049250313e-16;2.220446049250313e-16;-8.349899461995159e-05;2.220446049250313e-16;-2.5484745961714937e-05;-2.548474596680242e-05;-6.8063842780002045e-15;2.6610879054205497e-08;1.4476686217028044e-14;5.179205196562343e-15;-9.039118546578564e-05;-0.0;-2.220446049250313e-16;-5.079479232672353e-05;-2.739702434079945e-07;2.6482082749727983e-12;0.000488125322134913;2.220446049250313e-16;-0.0;2.220446049250313e-16;-1.5192125465439224e-13;-0.00819096067409828
1.0599241256713867;0.0007340494042644855;-0.00019020330788282428;9.545017082862748e-05;-0.002501728566471841;0.0012468850910064124;0.0006698716438789329;2.220446049250313e-16;2.220446049250313e-16;2.220446049250313e-16;2.220446049250313e-16;2.220446049250313e-16;2.220446049250313e-16;2.220446049250313e-16;2.220446049250313e-16;2.220446049250313e-16;2.220446049250313e-16;-6.801045298666693e-05;2.220446049250313e-16;-2.075748486547907e-05;-2.0757484869622854e-05;-5.543842534332903e-15;2.167472730764446e-08;1.1791351403058195e-14;4.2184950026325065e-15;3.022093175939802e-06;-0.0;-2.220446049250313e-16;-4.1372675817568347e-05;-2.2315047556983275e-07;2.1569821912670617e-12;0.0007838800633102144;2.220446049250313e-16;-0.0;2.220446049250313e-16;-1.2374081142384406e-13;0.00829566365699745
1.0798554420471191;0.0007454676776212807;-0.00014179432283047916;0.0001016904634840208;-0.002438624888682871;0.0012560425346646524;0.0005913040030447697;2.220446049250313e-16;2.220446049250313e-16;2.220446049250313e-16;2.220446049250313e-16;2.220446049250313e-16;2.220446049250313e-16;2.220446049250313e-16;2.220446049250313e-16;2.220446049250313e-16;2.220446049250313e-16;0.0005852973333975613;2.220446049250313e-16;-1.6907101157213112e-05;-1.690710116058825e-05;-4.515494393229988e-15;1.765420085912208e-08;9.604129413737165e-15;3.435990545237942e-15;2.4615137798853177e-06;-0.0;-2.220446049250313e-16;-3.369830303263328e-05;-1.8175745704210105e-07;1.7568754759257176e-12;0.0007895011332423367;2.220446049250313e-16;-0.0;2.220446049250313e-16;-1.0078766428479235e-13;-0.008415750229219993
1.0998313426971436;0.0007501301644841563;-8.87519492229257e-05;0.000107320694201222;-0.0023608722518932046;0.0012544735306646675;0.0005038332498862008;2.220446049250313e-16;2.220446049250313e-16;2.220446049250313e-16;2.220446049250313e-16;2.220446049250313e-16;2.220446049250313e-16;2.220446049250313e-16;2.220446049250313e-16;2.220446049250313e-16;2.220446049250313e-16;0.0007327190690915785;2.220446049250313e-16;-1.3770939561932308e-05;-1.3770939564681381e-05;-3.677898405125783e-15;1.43794569385103e-08;7.822623433297757e-15;2.798635774037211e-15;2.004918358177715e-06;-0.0;-2.220446049250313e-16;-2.744747843447375e-05;-1.4804258474489784e-07;1.430986055613221e-12;0.000643053607407966;2.220446049250313e-16;-0.0;2.220446049250313e-16;-8.209218248286514e-14;-0.008281413928128504
1.1198437213897705;0.0007420523336470965;-3.541754415582379e-05;0.00011101591856439797;-0.0022730728611128023;0.0012344411248867936;0.00041430996973179385;2.220446049250313e-16;2.220446049250313e-16;2.220446049250313e-16;2.220446049250313e-16;2.220446049250313e-16;2.220446049250313e-16;2.220446049250313e-16;2.220446049250313e-16;2.220446049250313e-16;2.220446049250313e-16;0.0005968042612692723;2.220446049250313e-16;-1.1216516341566125e-05;-1.1216516343805265e-05;-2.995671237839981e-15;1.1712157548022505e-08;6.37157567781748e-15;2.2795063294268954e-15;1.633018533475487e-06;4.5181938298656735e-05;-4.518193829887878e-05;-2.235614273161908e-05;-1.205816105408739e-07;1.165547085959816e-12;0.0005237711823188346;2.220446049250313e-16;-0.0;2.220446049250313e-16;-6.686459570843414e-14;-0.008380365301828504
1.1398351192474365;0.0007175975923215057;1.5260261930319874e-05;0.00011194258948652664;-0.002178451562938177;0.0011912882503584523;0.0003274051680126455;2.220446049250313e-16;2.220446049250313e-16;2.220446049250313e-16;2.220446049250313e-16;2.220446049250313e-16;2.220446049250313e-16;2.220446049250313e-16;2.220446049250313e-16;2.220446049250313e-16;2.220446049250313e-16;0.00048610080083045517;2.220446049250313e-16;-9.135922663432742e-06;-9.135922665256533e-06;-2.4399929461659012e-15;-0.00014132333069069098;5.189688211930322e-15;1.856672152232765e-15;1.3301038018816185e-06;-1.3886424069359342e-06;1.3886424067138893e-06;-1.8209217980795806e-05;-9.821447542060764e-08;9.493453861835576e-13;0.00042661490156858034;2.220446049250313e-16;-0.0;2.220446049250313e-16;-5.4461631108242784e-14;0.008723734619386019
1.1598498821258545;0.0006750897222101316;6.000199754795797e-05;0.0001095383353789079;-0.002079474067621296;0.0011229860458582157;0.0002481452014632463;2.220446049250313e-16;2.220446049250313e-16;2.220446049250313e-16;2.220446049250313e-16;2.220446049250313e-16;2.220446049250313e-16;2.220446049250313e-16;2.220446049250313e-16;2.220446049250313e-16;2.220446049250313e-16;0.0003959321404064109;2.220446049250313e-16;-7.441266108882614e-06;-7.441266110368103e-06;-1.98738950460804e-15;-0.00011510873611838457;4.227033484168572e-15;1.5122710721945387e-15;1.08337785978134e-06;-1.1310579194849554e-06;1.1310579192629108e-06;-1.483152185297056e-05;-7.999630407055628e-08;7.732477504551712e-13;0.00034748050367074335;2.220446049250313e-16;-0.0;2.220446049250313e-16;-4.435933892285816e-14;0.008770947388188042
1.1799218654632568;0.0006152610990592078;9.514869041144074e-05;0.00010357625159956312;-0.00197744957137074;0.001030712556263688;0.0001819199269982723;2.220446049250313e-16;2.220446049250313e-16;2.220446049250313e-16;2.220446049250313e-16;2.220446049250313e-16;2.220446049250313e-16;2.220446049250313e-16;2.220446049250313e-16;2.220446049250313e-16;2.220446049250313e-16;0.0003224892029368992;2.220446049250313e-16;-6.0609577535980676e-06;-6.060957754808008e-06;-1.6187411726876518e-15;-9.375678499802496e-05;3.4429451918145774e-15;1.2317542399966528e-15;9.006466636612582e-06;-9.212537445530869e-07;9.212537443310421e-07;-1.2080367246256098e-05;-6.515748964236852e-08;6.298151255441772e-13;0.00028302504199296836;2.220446049250313e-16;-0.0;2.220446049250313e-16;-3.613095879853624e-14;0.00782171993225755
1.1998498439788818;0.0005412618646752404;0.00011783660963277958;9.427561128328444e-05;-0.0018740349403801816;0.0009189913367689588;0.00013305918048025668;2.220446049250313e-16;2.220446049250313e-16;2.220446049250313e-16;2.220446049250313e-16;2.220446049250313e-16;2.220446049250313e-16;2.220446049250313e-16;2.220446049250313e-16;2.220446049250313e-16;2.220446049250313e-16;0.00026266947134962273;2.220446049250313e-16;-4.9366879712915845e-06;-4.9366879722770896e-06;-1.3184748022864217e-15;-7.636548736079753e-05;2.8043003771404208e-15;1.0032715269412734e-15;7.335823365937427e-06;-7.503669327949862e-07;7.503669325729417e-07;-9.83953462437088e-06;-5.3071182548019416e-08;5.129883561002669e-13;0.00023052566560978515;2.220446049250313e-16;-0.0;2.220446049250313e-16;-2.942889175990025e-14;-0.008802769667407609
1.2198245525360107;0.0004538121853715681;0.00012590740550699552;8.15468487119124e-05;-0.0017696383867361607;0.0007888799582167248;0.00010468531367177928;2.220446049250313e-16;2.220446049250313e-16;2.220446049250313e-16;2.220446049250313e-16;2.220446049250313e-16;2.220446049250313e-16;2.220446049250313e-16;2.220446049250313e-16;2.220446049250313e-16;2.220446049250313e-16;-0.0008096994356234464;2.220446049250313e-16;-4.0209632069168165e-06;-4.020963207719516e-06;-1.0739059669298043e-15;-0.00020602275558417914;2.28412018405823e-15;8.171709291407102e-16;5.97507398045207e-06;-6.111785565754402e-07;6.111785563533957e-07;-8.014362448641482e-06;-4.3226809880252735e-08;4.178322222208928e-13;0.00018776459542458002;2.220446049250313e-16;-0.0;2.220446049250313e-16;-2.3970016269012254e-14;-0.00877998220953425
1.2398402690887451;0.00035303684477157565;0.00011822361470132158;6.530373848213198e-05;-0.0016646451319555422;0.000640601685571676;9.847047201700754e-05;2.220446049250313e-16;2.220446049250313e-16;2.220446049250313e-16;2.220446049250313e-16;2.220446049250313e-16;2.220446049250313e-16;2.220446049250313e-16;2.220446049250313e-16;2.220446049250313e-16;2.220446049250313e-16;-0.0006912201140557957;2.220446049250313e-16;-3.2750996630537886e-06;-3.275099663707592e-06;-8.747031219766187e-16;-0.00016780682206553627;1.8604301656665777e-15;6.655908291034157e-16;4.866735101290589e-06;-4.978087542172685e-07;4.978087539952239e-07;-6.527748304183789e-06;-3.520850681502759e-08;3.4032695645030603e-13;0.00015293543650204185;2.220446049250313e-16;-0.0;2.220446049250313e-16;-1.9523728063712158e-14;0.008077788676539436
1.2599546909332275;0.00023990602176757978;9.478502852686935e-05;4.569549054553686e-05;-0.001558111345364068;0.00047540170898569196;0.00011426977833995543;2.220446049250313e-16;2.220446049250313e-16;2.220446049250313e-16;2.220446049250313e-16;2.220446049250313e-16;2.220446049250313e-16;2.220446049250313e-16;2.220446049250313e-16;2.220446049250313e-16;2.220446049250313e-16;-0.0005630031030241584;2.220446049250313e-16;-2.6675891449302053e-06;-2.667589145462732e-06;-7.124511597444682e-16;-0.00028237397241568106;1.5153319976239631e-15;5.421278902474139e-16;3.963986157095567e-06;-4.0546834163527287e-07;4.0546834141322826e-07;-5.316891792184596e-06;0.00014236873135511398;2.77198433072252e-13;0.00012456686887739118;2.220446049250313e-16;-0.0;2.220446049250313e-16;-1.590219853119395e-14;-0.007677862980000172
1.2798442840576172;0.00011795420451638114;5.728115599915022e-05;2.3423139517489446e-05;-0.0014518444295613885;0.0002982862754017354;0.00014999384127139964;2.220446049250313e-16;2.220446049250313e-16;2.220446049250313e-16;2.220446049250313e-16;2.220446049250313e-16;2.220446049250313e-16;2.220446049250313e-16;2.220446049250313e-16;2.220446049250313e-16;2.220446049250313e-16;-0.0004585695461825708;2.220446049250313e-16;-2.172768030977807e-06;-2.1727680314115538e-06;-5.802959224316175e-16;-0.0002299953653698997;1.2342473828897032e-15;4.415665549058327e-16;3.2286914998678207e-06;-3.302564984596589e-07;3.3025649823761434e-07;-4.330641595308054e-06;0.00011596022149331128;2.257798562275559e-13;0.00010146049324356556;2.220446049250313e-16;-0.0;2.220446049250313e-16;-1.295244009239829e-14;0.008945504971250946
1.2999613285064697;-1.5526490181645654e-05;6.702319201715032e-06;-1.8386692497526197e-06;-0.0013468496907937779;0.00010561598475356126;0.00020439022943314012;2.220446049250313e-16;2.220446049250313e-16;2.220446049250313e-16;2.220446049250313e-16;2.220446049250313e-16;2.220446049250313e-16;2.220446049250313e-16;2.220446049250313e-16;2.220446049250313e-16;2.220446049250313e-16;-0.00037350776142536755;2.220446049250313e-16;-1.7697331410316174e-06;-1.7697331413849064e-06;-4.726546556700676e-16;-0.00046646072552070214;1.005302207409806e-15;3.596587187617688e-16;5.418728908194395e-06;-2.689959821191015e-07;2.6899598189705693e-07;-3.5273346458883795e-06;9.445032515768636e-05;1.8389910402144567e-13;8.26402058749669e-05;2.220446049250313e-16;-0.0;2.220446049250313e-16;-1.0549843408008984e-14;0.007286169708489964
1.3198060989379883;-0.00015524814302432454;-5.35864798817561e-05;-2.8963469565369573e-05;-0.0012509619119336318;-9.464754160579183e-05;0.00027396021168801506;2.220446049250313e-16;2.220446049250313e-16;2.220446049250313e-16;2.220446049250313e-16;2.220446049250313e-16;2.220446049250313e-16;2.220446049250313e-16;2.220446049250313e-16;2.220446049250313e-16;2.220446049250313e-16;-0.0003042244061044708;2.220446049250313e-16;-1.441458704202383e-06;-1.44145870449014e-06;-3.8498017113486784e-16;-0.0006710949581149964;8.188249310740831e-16;2.9294427429845284e-16;4.41358856278001e-06;-2.1909890868149037e-07;2.1909890845944576e-07;-2.873036114917622e-06;7.693038015546773e-05;1.497869695948676e-13;6.731096418644725e-05;2.220446049250313e-16;-0.0;2.220446049250313e-16;-8.592913392344618e-15;0.007363190982738021
1.3397791385650635;-0.00030055709352204933;-0.00012257774830950823;-5.775803128452998e-05;-0.0011670649498059283;-0.00030134685087441376;0.0003577371590341631;2.220446049250313e-16;2.220446049250313e-16;2.220446049250313e-16;2.220446049250313e-16;2.220446049250313e-16;2.220446049250313e-16;2.220446049250313e-16;2.220446049250313e-16;2.220446049250313e-16;2.220446049250313e-16;-0.00024779268017462955;2.220446049250313e-16;-1.1740771236897421e-06;-1.1740771239241215e-06;-3.1356875551541944e-16;-0.0008471596682814344;6.669380240156598e-16;2.3860494231780416e-16;3.5948954693128347e-06;-1.7845743050984707e-07;1.7845743028780247e-07;-2.3401058720761207e-06;0.00020633398153666583;1.2200242290357962e-13;5.482520102338744e-05;2.220446049250313e-16;-0.0;2.220446049250313e-16;-6.998981663773391e-15;0.0059973650753837576
1.3597722053527832;-0.0004484733212438812;-0.00019713331389984405;-8.74725143215089e-05;-0.0010983643400364193;-0.0005101255936527828;0.0004517995869736406;2.220446049250313e-16;2.220446049250313e-16;2.220446049250313e-16;2.220446049250313e-16;2.220446049250313e-16;2.220446049250313e-16;2.220446049250313e-16;2.220446049250313e-16;2.220446049250313e-16;2.220446049250313e-16;-0.0002018286867064868;2.220446049250313e-16;-9.562931552117471e-07;-9.562931554337922e-07;-2.5540371117203105e-16;-0.0013921653247406258;5.432251889234049e-16;2.220446049250313e-16;2.9280648278519868e-06;-1.4535469252980507e-07;1.4535469230776046e-07;-1.9060308584677009e-06;0.0001680603175489989;9.937173597010871e-14;4.465546889105545e-05;2.220446049250313e-16;-0.0;2.220446049250313e-16;-5.700714308778825e-15;-0.010522814611021752
1.3798294067382812;-0.0005976847261968139;-0.0002738193009566251;-0.00011758641878560513;-0.0010455983004319797;-0.0007191565473574238;0.0005514098729412992;2.220446049250313e-16;2.220446049250313e-16;2.220446049250313e-16;2.220446049250313e-16;2.220446049250313e-16;2.220446049250313e-16;2.220446049250313e-16;2.220446049250313e-16;2.220446049250313e-16;2.220446049250313e-16;0.0006019798423852163;2.220446049250313e-16;-7.789067517315942e-07;-7.789067519536387e-07;2.220446049250313e-16;-0.001133927358034519;4.42460311535544e-16;2.220446049250313e-16;2.384927102690617e-06;-3.47552290580021e-06;3.4755229055781648e-06;-1.5524740469148075e-06;0.0001368861790206443;8.093890002100335e-14;3.637215850844522e-05;2.220446049250313e-16;-0.0;2.220446049250313e-16;-4.643267433964782e-15;-0.010359418750101995
1.399792194366455;-0.0007467933947671464;-0.00034715286301826984;-0.0001473755158653281;-0.0010093892438046992;-0.0009265331524584441;0.0006489124852832108;2.220446049250313e-16;2.220446049250313e-16;2.220446049250313e-16;2.220446049250313e-16;2.220446049250313e-16;2.220446049250313e-16;2.220446049250313e-16;2.220446049250313e-16;2.220446049250313e-16;2.220446049250313e-16;0.0007514177294888075;2.220446049250313e-16;-6.344244174319877e-07;-6.344244176540322e-07;2.220446049250313e-16;-0.0009235909201651034;3.6038668912264757e-16;2.220446049250313e-16;1.942538030935899e-06;-2.830835128813025e-06;2.8308351285909813e-06;-1.2644998141749037e-06;0.0001114946483509336;6.592523993523235e-14;2.9625350431119305e-05;2.220446049250313e-16;-0.0;2.220446049250313e-16;-3.781970345385775e-15;-0.01022539585059678
1.419996738433838;-0.0008971894725277436;-0.0004132330284081592;-0.0001766922348262358;-0.000986848583977419;-0.00113449065245387;0.000738323634785933;2.220446049250313e-16;2.220446049250313e-16;2.220446049250313e-16;2.220446049250313e-16;2.220446049250313e-16;2.220446049250313e-16;2.220446049250313e-16;2.220446049250313e-16;2.220446049250313e-16;2.220446049250313e-16;0.0006120344370294428;2.220446049250313e-16;-5.167426531303688e-07;-5.167426533524136e-07;2.220446049250313e-16;-0.0007522705769177273;2.9353721070720344e-16;2.220446049250313e-16;1.0074376310923746e-05;-2.305732905158358e-06;2.3057329049363133e-06;-1.0299430017692977e-06;0.0002325508459536612;5.369651995999634e-14;2.4130033084586866e-05;2.220446049250313e-16;-0.0;2.220446049250313e-16;-3.0804384836313724e-15;0.007145534348020591
1.4399757385253906;-0.0010410667861147185;-0.00046748183110824863;-0.0002039090666168474;-0.0009745342709265157;-0.001332685215207063;0.000812646199947431;2.220446049250313e-16;2.220446049250313e-16;2.220446049250313e-16;2.220446049250313e-16;2.220446049250313e-16;2.220446049250313e-16;2.220446049250313e-16;2.220446049250313e-16;2.220446049250313e-16;2.220446049250313e-16;0.0004985058741757125;2.220446049250313e-16;-4.208901205956735e-07;-4.208901208177181e-07;2.220446049250313e-16;-0.0006127290865905946;2.3908789272858407e-16;2.220446049250313e-16;8.205642470099333e-06;-2.212755397211971e-06;2.2127553969899263e-06;0.0002940020524764097;0.00018941411747204424;4.373615111066676e-14;1.9654062760102774e-05;2.220446049250313e-16;-0.0;2.220446049250313e-16;-2.509036397658275e-15;-0.00894011486273185
1.4597740173339844;-0.0011735907739190991;-0.0005080680170026766;-0.0002281114018176772;-0.0009676093151818725;-0.0015149522117363927;0.0008685379589638924;2.220446049250313e-16;2.220446049250313e-16;2.220446049250313e-16;2.220446049250313e-16;2.220446049250313e-16;2.220446049250313e-16;2.220446049250313e-16;2.220446049250313e-16;2.220446049250313e-16;2.220446049250313e-16;0.00040603615017783135;2.220446049250313e-16;-3.428176337678358e-07;-3.428176339898804e-07;2.220446049250313e-16;-0.0004990716705848304;2.220446049250313e-16;2.220446049250313e-16;6.683547077161344e-06;-1.8023031007709763e-06;1.8023031005489319e-06;0.0009123856409521605;0.0001542789825192142;3.562336843058251e-14;1.600835695599596e-05;2.220446049250313e-16;-0.0;2.220446049250313e-16;-2.04362582737015e-15;-0.00932369366805167
1.4798412322998047;-0.001293711519400456;-0.0005331462292412869;-0.0002489661702192687;-0.0009615893843121068;-0.0016802963244645509;0.0009026795085781591;2.220446049250313e-16;2.220446049250313e-16;2.220446049250313e-16;2.220446049250313e-16;2.220446049250313e-16;2.220446049250313e-16;2.220446049250313e-16;2.220446049250313e-16;2.220446049250313e-16;2.220446049250313e-16;0.0003307189820457822;2.220446049250313e-16;-2.792271052935193e-07;-2.792271055155639e-07;2.220446049250313e-16;-0.00040649699488928544;2.220446049250313e-16;2.220446049250313e-16;5.443790866517147e-06;-1.4679871399929337e-06;1.4679871397708891e-06;0.0010256697444188938;0.00012566119550554069;2.9015456232762135e-14;1.3038906792889684e-05;2.220446049250313e-16;-0.0;2.220446049250313e-16;-1.6645460090544074e-15;0.008086995817245632
1.5000371932983398;-0.0013981811872992634;-0.0005402735380702178;-0.0002657449667716091;-0.0009560220037429103;-0.0018243288953850463;0.0009115520911915058;2.220446049250313e-16;2.220446049250313e-16;2.220446049250313e-16;2.220446049250313e-16;2.220446049250313e-16;2.220446049250313e-16;2.220446049250313e-16;2.220446049250313e-16;2.220446049250313e-16;2.220446049250313e-16;0.00012430671527444923;2.220446049250313e-16;-2.274322224103855e-07;-2.2743222263243011e-07;2.220446049250313e-16;-0.0003310943429435409;2.220446049250313e-16;2.220446049250313e-16;4.434001684471131e-06;-1.1956847004644631e-06;1.1956847002424185e-06;0.0008354144172650914;0.00010235182912173481;2.363327044818621e-14;1.06202710759761e-05;2.220446049250313e-16;-0.0;2.220446049250313e-16;-1.3557831277873713e-15;-0.008595199207673038
1.5249364376068115;-0.0015014188558613289;-0.0005234627367169483;-0.00028011680868571086;-0.0009512045681419852;-0.0019669242702311206;0.0008866881340981377;2.220446049250313e-16;2.220446049250313e-16;2.220446049250313e-16;2.220446049250313e-16;2.220446049250313e-16;2.220446049250313e-16;2.220446049250313e-16;2.220446049250313e-16;2.220446049250313e-16;2.220446049250313e-16;-0.0007662059409166899;2.220446049250313e-16;-1.7598271824930123e-07;-1.7598271847134578e-07;2.220446049250313e-16;-0.0002561944910837996;2.220446049250313e-16;2.220446049250313e-16;3.4309459802866486e-06;-1.7404167640330667e-07;1.7404167618126207e-07;0.0006464277509923986;7.919789429265574e-05;1.828697416358857e-14;8.217763309672916e-06;2.220446049250313e-16;-0.0;2.220446049250313e-16;-1.0490791396659942e-15;-0.006650801300912498
1.5398273468017578;-0.0015471982957042383;-0.0004998196828217854;-0.0002849902348733579;-0.0009476654756565621;-0.002030510109407258;0.0008525417396730378;2.220446049250313e-16;2.220446049250313e-16;2.220446049250313e-16;2.220446049250313e-16;2.220446049250313e-16;2.220446049250313e-16;2.220446049250313e-16;2.220446049250313e-16;2.220446049250313e-16;2.220446049250313e-16;-0.0006569258185934469;2.220446049250313e-16;-1.5088318304316005e-07;-1.5088318326520466e-07;2.220446049250313e-16;-0.00021965475179297264;2.220446049250313e-16;2.220446049250313e-16;-9.049198342589482e-05;-1.4921898232211956e-07;1.4921898210007498e-07;0.0005542309930071076;6.79022946191657e-05;1.5678794473506752e-14;7.045704817630815e-06;2.220446049250313e-16;-0.0;2.220446049250313e-16;-8.994542273711316e-16;-0.007321623493027943
1.5599980354309082;-0.0015847578946474638;-0.0004527359712266133;-0.000286423796470911;-0.000939576665901692;-0.0020835468284951847;0.0007845434910080398;2.220446049250313e-16;2.220446049250313e-16;2.220446049250313e-16;2.220446049250313e-16;2.220446049250313e-16;2.220446049250313e-16;2.220446049250313e-16;2.220446049250313e-16;2.220446049250313e-16;2.220446049250313e-16;-0.0005350701850307286;2.220446049250313e-16;-1.2289529558795392e-07;-1.2289529580999852e-07;2.220446049250313e-16;-0.0001789101681775749;2.220446049250313e-16;-0.00013092737862345141;4.2263358233167265e-06;-1.2153979374059982e-07;1.2153979351855524e-07;0.0004514246077479953;5.5306843356651816e-05;1.2770476091136706e-14;5.738770609615407e-06;2.220446049250313e-16;-0.0;2.220446049250313e-16;-7.326110897827076e-16;-0.00596350809521809
1.5799198150634766;-0.001591716073993465;-0.0003934437071901906;-0.00028200488523549985;-0.0009282270139649294;-0.0020949930893487054;0.0006988567151694711;2.220446049250313e-16;2.220446049250313e-16;2.220446049250313e-16;2.220446049250313e-16;2.220446049250313e-16;2.220446049250313e-16;2.220446049250313e-16;2.220446049250313e-16;2.220446049250313e-16;2.220446049250313e-16;-0.0004358180098961848;2.220446049250313e-16;-1.0009898633139193e-07;-1.0009898655343654e-07;2.220446049250313e-16;-0.00014572345016918584;2.220446049250313e-16;-0.00010664116818491751;3.4423769426903694e-06;-5.059563757647538e-06;5.0595637574254955e-06;0.0003676881644145405;0.00018284589803679524;1.0401632591706413e-14;4.67426452884806e-06;2.220446049250313e-16;-0.0;2.220446049250313e-16;-5.967163114473264e-16;0.01088346029777485
1.5999102592468262;-0.0015699538541971674;-0.000326650496194918;-0.00027246001462214635;-0.0009134976439357824;-0.0020673810142609905;0.0006021165761175044;2.220446049250313e-16;2.220446049250313e-16;2.220446049250313e-16;2.220446049250313e-16;2.220446049250313e-16;2.220446049250313e-16;2.220446049250313e-16;2.220446049250313e-16;2.220446049250313e-16;2.220446049250313e-16;-0.00035497649292300435;2.220446049250313e-16;-8.153124996498935e-08;-8.153125018703394e-08;2.220446049250313e-16;-0.0001186926609343654;2.220446049250313e-16;-8.685989799391645e-05;2.803837534677197e-06;-4.1210463028979985e-06;4.121046302675955e-06;0.0002994843079666708;0.00014892912673783242;8.472194756148571e-15;3.8072176729000486e-06;2.220446049250313e-16;-0.0;2.220446049250313e-16;-4.860291651507937e-16;-0.0061020954070114325
1.6197969913482666;-0.0015230495219278775;-0.0002574452213142182;-0.000258812465009475;-0.000893894888958733;-0.00200570082508114;0.0005012721282377219;2.220446049250313e-16;2.220446049250313e-16;2.220446049250313e-16;2.220446049250313e-16;2.220446049250313e-16;2.220446049250313e-16;2.220446049250313e-16;2.220446049250313e-16;2.220446049250313e-16;2.220446049250313e-16;-0.00028913057208886767;2.220446049250313e-16;-6.640771264620215e-08;-6.640771286824675e-08;0.0001353806160110349;-9.667591416017144e-05;2.220446049250313e-16;-7.07479297904074e-05;2.2837431959791687e-06;-7.938903317661724e-06;7.938903317439679e-06;0.00024393184061577807;0.00012130370453500659;6.900655580100235e-15;3.101002589687545e-06;2.220446049250313e-16;-0.0;2.220446049250313e-16;-3.9587379269760356e-16;-0.006744064584227379
1.639805793762207;-0.001454025627298949;-0.00019007277635029292;-0.00024192214863683872;-0.0008653681362524128;-0.0019144321498125705;0.00040167401082067983;2.220446049250313e-16;2.220446049250313e-16;2.220446049250313e-16;2.220446049250313e-16;2.220446049250313e-16;2.220446049250313e-16;2.220446049250313e-16;2.220446049250313e-16;2.220446049250313e-16;2.220446049250313e-16;-0.0002354986580324583;2.220446049250313e-16;-5.4089496977941725e-08;-5.408949719998634e-08;0.000110268357869838;-7.874313630792312e-05;2.220446049250313e-16;-5.762463098884802e-05;1.8601231065200072e-06;-6.4662863704018025e-06;6.466286370179758e-06;0.00019868400875555512;9.88026254919162e-05;5.620627099089016e-15;2.5257859905666907e-06;2.220446049250313e-16;-0.0;2.220446049250313e-16;-3.224416783634024e-16;0.008550393019797509
1.6598429679870605;-0.0013667972076878913;-0.00012848420864289379;-0.00022275912755124753;-0.0008259629598284877;-0.0017990872354691047;0.0003085869956465257;2.220446049250313e-16;2.220446049250313e-16;2.220446049250313e-16;2.220446049250313e-16;2.220446049250313e-16;2.220446049250313e-16;2.220446049250313e-16;2.220446049250313e-16;2.220446049250313e-16;2.220446049250313e-16;0.00012941759701893534;2.220446049250313e-16;-4.4056233327295694e-08;-4.40562335493403e-08;8.981426666221971e-05;-6.41367766674053e-05;2.220446049250313e-16;-4.6935622094360384e-05;1.5150818960299611e-06;-6.695554428122985e-06;6.695554427900941e-06;0.00016182936690645427;8.047535597957506e-05;4.578035901127373e-15;2.0572684754790106e-06;2.220446049250313e-16;-0.0;2.220446049250313e-16;-2.626307622874809e-16;-0.006572822173774319
1.679828405380249;-0.001265018878264337;-7.66327716330448e-05;-0.0002022537597144182;-0.0007747296741373474;-0.0016647250873407019;0.00022744007704612954;2.220446049250313e-16;2.220446049250313e-16;2.220446049250313e-16;2.220446049250313e-16;2.220446049250313e-16;2.220446049250313e-16;2.220446049250313e-16;2.220446049250313e-16;2.220446049250313e-16;2.220446049250313e-16;0.0007372479098875398;2.220446049250313e-16;-7.164630903024101e-05;7.157454087526709e-05;7.315428153554455e-05;-5.223980545045578e-05;2.220446049250313e-16;-3.8229357543494624e-05;7.994237747878627e-06;4.118478618458886e-05;-4.118478618481091e-05;0.00013181103077885013;6.554768041633875e-05;3.7288388541926256e-15;1.6756580312056253e-06;2.220446049250313e-16;-0.0;2.220446049250313e-16;2.220446049250313e-16;-0.005353604740677768
1.699836015701294;-0.0011509221559322972;-3.85125463541764e-05;-0.00018112095457276055;-0.0007105323515878495;-0.0015144652912902647;0.00016369565602746613;2.220446049250313e-16;2.220446049250313e-16;2.220446049250313e-16;2.220446049250313e-16;2.220446049250313e-16;2.220446049250313e-16;2.220446049250313e-16;2.220446049250313e-16;2.220446049250313e-16;2.220446049250313e-16;0.0006004930304028378;2.220446049250313e-16;-5.835636649456275e-05;5.829791088378549e-05;5.958461952496062e-05;-4.254964803818028e-05;2.220446049250313e-16;-3.113805065266101e-05;6.511356609633065e-06;-5.489630603423544e-06;5.489630603201498e-06;0.00010736090838831578;5.33889953721105e-05;3.037162551982732e-15;1.3648339392796765e-06;2.220446049250313e-16;-0.0;2.220446049250313e-16;2.220446049250313e-16;0.009317071535547998
1.7199451923370361;-0.0010256668676712922;-1.599045959534151e-05;-0.00015971230508802334;-0.0006342836366790499;-0.0013497897339680715;0.00012013598568414038;2.220446049250313e-16;2.220446049250313e-16;2.220446049250313e-16;2.220446049250313e-16;2.220446049250313e-16;2.220446049250313e-16;2.220446049250313e-16;2.220446049250313e-16;2.220446049250313e-16;2.220446049250313e-16;0.0004891053263445513;2.220446049250313e-16;-4.753162523711193e-05;4.74840127767863e-05;4.853204500695244e-05;-3.465695426239807e-05;2.220446049250313e-16;-2.536213686940897e-05;5.30354065452494e-06;-5.130899065406981e-06;5.1308990651849375e-06;8.744613088796062e-05;0.0001859502208238861;2.473787880855885e-15;1.1116657737554171e-06;2.220446049250313e-16;-0.0;2.220446049250313e-16;2.220446049250313e-16;-0.007290511876018877
1.739943504333496;-0.0008922445555694134;-8.178973821939142e-06;-0.00013840605034609745;-0.0005486917038879258;-0.0011745669628090358;9.592511180523437e-05;2.220446049250313e-16;2.220446049250313e-16;2.220446049250313e-16;2.220446049250313e-16;2.220446049250313e-16;2.220446049250313e-16;2.220446049250313e-16;2.220446049250313e-16;2.220446049250313e-16;2.220446049250313e-16;0.0003983793452159266;2.220446049250313e-16;-3.87148058282854e-05;3.867602518177229e-05;3.9529653983444046e-05;-2.8228305852687372e-05;2.220446049250313e-16;-2.0657618993489036e-05;4.319767010239654e-06;-4.179149356913739e-06;4.179149356691694e-06;7.122542014656196e-05;0.00015145761704993534;2.0149156901313733e-15;9.054587206348728e-07;2.220446049250313e-16;-0.0;2.220446049250313e-16;2.220446049250313e-16;0.007551177028030295
1.7598621845245361;-0.0007522426896087636;-1.0948131861084506e-05;-0.0001170629997185341;-0.0004546435149154613;-0.0009909524359035574;8.535416803606061e-05;2.220446049250313e-16;2.220446049250313e-16;2.220446049250313e-16;2.220446049250313e-16;2.220446049250313e-16;2.220446049250313e-16;2.220446049250313e-16;2.220446049250313e-16;2.220446049250313e-16;2.220446049250313e-16;0.00032448246654927975;2.220446049250313e-16;-3.153345131467487e-05;3.1501864235710904e-05;3.219715022985257e-05;-2.299213154392544e-05;2.220446049250313e-16;-1.6825759780315525e-05;3.518477228384012e-06;-8.428873871543439e-06;8.428873871321394e-06;5.8013549868250625e-05;0.00012336317569727886;1.6411614228350669e-15;7.375017870741076e-07;2.220446049250313e-16;-0.0;2.220446049250313e-16;2.220446049250313e-16;-0.007313515337086209
1.7799761295318604;-0.0006058640576202451;-1.9115953847350177e-05;-9.523297458239956e-05;-0.00035274392320515396;-0.0007992396039711087;8.11858084996551e-05;2.220446049250313e-16;2.220446049250313e-16;2.220446049250313e-16;2.220446049250313e-16;2.220446049250313e-16;2.220446049250313e-16;2.220446049250313e-16;2.220446049250313e-16;2.220446049250313e-16;2.220446049250313e-16;0.00026429299701980424;2.220446049250313e-16;-9.65590512435782e-05;9.653332337034282e-05;2.622478009440385e-05;-1.872723484334941e-05;2.220446049250313e-16;-1.3704686502065621e-05;2.8658216930014547e-06;-6.8653704488544215e-06;6.865370448632378e-06;4.725239895237679e-05;0.00010048007762528173;1.3367362361580545e-15;6.006998149580297e-07;2.220446049250313e-16;-0.0;2.220446049250313e-16;2.220446049250313e-16;-0.006586772539913041
1.799863576889038;-0.0004603076346571165;-2.8218122864906796e-05;-7.361295329226196e-05;-0.0002489730884171598;-0.0006088219637119185;7.803137932854106e-05;2.220446049250313e-16;2.220446049250313e-16;2.220446049250313e-16;2.220446049250313e-16;2.220446049250313e-16;2.220446049250313e-16;2.220446049250313e-16;2.220446049250313e-16;2.220446049250313e-16;2.220446049250313e-16;0.00021526829790386188;2.220446049250313e-16;-1.1403600573782475e-05;0.00014587134537659752;2.136024729176752e-05;-1.5253449825125864e-05;2.220446049250313e-16;-0.00016290383067785107;1.1573483039784838e-05;-5.8290045975076345e-06;5.829004597285591e-06;3.8487374274204354e-05;8.18416512262771e-05;1.0887800189522108e-15;4.892737536571585e-07;2.220446049250313e-16;-0.0;2.220446049250313e-16;2.220446049250313e-16;-0.0070125793266642535
1.8198437690734863;-0.00031875932176349383;-3.471933782341223e-05;-5.236756606312636e-05;-0.00014635232920828957;-0.0004238429811617007;7.136020611738471e-05;2.220446049250313e-16;2.220446049250313e-16;2.220446049250313e-16;2.220446049250313e-16;2.220446049250313e-16;2.220446049250313e-16;2.220446049250313e-16;2.220446049250313e-16;2.220446049250313e-16;2.220446049250313e-16;0.00017533737406955736;2.220446049250313e-16;-9.28830393984942e-06;0.00011881312250514724;1.7398054920690217e-05;-1.2424030216626422e-05;2.220446049250313e-16;-0.00013268618823605142;9.426674270173747e-06;-4.747760675969297e-06;4.747760675747252e-06;3.134820689242865e-05;6.666053643412286e-05;8.8681813031169425e-16;3.98516530314716e-07;2.220446049250313e-16;-0.0;2.220446049250313e-16;2.220446049250313e-16;0.009888570096133913
1.8400654792785645;-0.00018597369405124825;-3.7005630771999203e-05;-3.208227385676681e-05;-4.987733277267887e-05;-0.0002503890296130316;5.966982166194827e-05;2.220446049250313e-16;2.220446049250313e-16;2.220446049250313e-16;2.220446049250313e-16;2.220446049250313e-16;2.220446049250313e-16;2.220446049250313e-16;2.220446049250313e-16;2.220446049250313e-16;2.220446049250313e-16;-0.0006362217609942188;2.220446049250313e-16;-7.56538161090697e-06;9.677403086245808e-05;1.4170824470745429e-05;-1.0119450261631073e-05;2.220446049250313e-16;-0.00010807372960694031;7.678085109770707e-06;-3.867080744101809e-06;3.8670807438797665e-06;2.5533310440176208e-05;5.429542355394577e-05;7.223189097521893e-16;3.2459420466965056e-07;2.220446049250313e-16;-0.0;2.220446049250313e-16;2.220446049250313e-16;0.008054302146864171
1.859954833984375;-6.994810642790563e-05;-3.597634886064236e-05;-1.4076333961245487e-05;3.092413153424458e-05;-9.854049846364304e-05;4.57254220248083e-05;2.220446049250313e-16;2.220446049250313e-16;2.220446049250313e-16;2.220446049250313e-16;2.220446049250313e-16;2.220446049250313e-16;2.220446049250313e-16;2.220446049250313e-16;2.220446049250313e-16;2.220446049250313e-16;-0.0005192064232837644;2.220446049250313e-16;-6.162050605718793e-06;7.882305297516499e-05;1.154222509907509e-05;-8.242355484662641e-06;2.220446049250313e-16;-8.802672822566292e-05;6.253848309940176e-06;-8.48420269325367e-06;8.484202693031625e-06;2.079704093671377e-05;4.422396183108604e-05;5.88333266486344e-16;2.643840084172095e-07;2.220446049250313e-16;-0.0;2.220446049250313e-16;2.220446049250313e-16;-0.009273899872562743
1.8798422813415527;2.9234174656943068e-05;-3.2286623613944896e-05;1.575992591631589e-06;8.912227252608809e-05;3.225287929146894e-05;3.155870455639561e-05;2.220446049250313e-16;2.220446049250313e-16;2.220446049250313e-16;2.220446049250313e-16;2.220446049250313e-16;2.220446049250313e-16;2.220446049250313e-16;2.220446049250313e-16;2.220446049250313e-16;2.220446049250313e-16;-0.0004228968768047716;2.220446049250313e-16;6.399168252932969e-05;0.0001332125805528569;9.401214482103527e-06;-6.7134500569795016e-06;2.220446049250313e-16;-7.169832030685384e-05;5.09379853499821e-06;-6.91043611994254e-06;6.910436119720496e-06;1.693931982445922e-05;3.602069331118101e-05;4.792011226360427e-16;2.1534242725586969e-07;2.220446049250313e-16;-0.0;2.220446049250313e-16;2.220446049250313e-16;0.008065970708458683
1.89992094039917;0.00011178983369786061;-2.6879364080780875e-05;1.4820373588004003e-05;0.00011675151827418758;0.0001430556883801521;1.97737273315511e-05;2.220446049250313e-16;2.220446049250313e-16;2.220446049250313e-16;2.220446049250313e-16;2.220446049250313e-16;2.220446049250313e-16;2.220446049250313e-16;2.220446049250313e-16;2.220446049250313e-16;2.220446049250313e-16;-0.00034445214926296644;2.220446049250313e-16;0.00012724158516968031;0.0001836224392404559;7.657347953263837e-06;-5.468147030472658e-06;2.220446049250313e-16;-5.8398730004434376e-05;4.148930742996885e-06;-5.6285934099395416e-06;5.628593409717497e-06;1.3797181867770935e-05;2.933907983129012e-05;3.903123093940731e-16;1.753977528900762e-07;2.220446049250313e-16;-0.0;2.220446049250313e-16;2.220446049250313e-16;0.0065697835543565225
1.9198668003082275;0.00017639937438113253;-2.27994494392153e-05;2.5169927599216313e-05;0.00010872900277657993;0.00023257746433727328;1.548434345366848e-05;2.220446049250313e-16;2.220446049250313e-16;2.220446049250313e-16;2.220446049250313e-16;2.220446049250313e-16;2.220446049250313e-16;2.220446049250313e-16;2.220446049250313e-16;2.220446049250313e-16;2.220446049250313e-16;-0.00028055842840061905;2.220446049250313e-16;0.00018154050352193183;0.0002274630615429165;0.0002862111726172004;-4.45383993223892e-06;2.220446049250313e-16;-4.756613058067431e-05;1.1009403509775034e-05;-4.584524511125161e-06;4.5845245109031185e-06;1.1237890863686097e-05;2.3896863891834743e-05;3.1791181545340623e-16;1.4286256596492258e-07;2.220446049250313e-16;-0.0;2.220446049250313e-16;2.220446049250313e-16;0.005351129766170602
1.9399571418762207;0.0002246000772251324;-2.284095304893412e-05;3.2602074210995006e-05;6.200547169245602e-05;0.0003032590703507859;2.3134654500124e-05;2.220446049250313e-16;2.220446049250313e-16;2.220446049250313e-16;2.220446049250313e-16;2.220446049250313e-16;2.220446049250313e-16;2.220446049250313e-16;2.220446049250313e-16;2.220446049250313e-16;2.220446049250313e-16;-0.00022851659342248168;2.220446049250313e-16;0.0008716744283334566;0.0009090786388575359;0.00023312078891653853;-3.6276804613081766e-06;2.220446049250313e-16;-3.874291064627534e-05;8.967227967483699e-06;-6.977515022038698e-06;6.977515021816652e-06;9.153332345290221e-06;1.9464144995298722e-05;2.5894116063564594e-16;1.1636245286946671e-07;2.220446049250313e-16;-0.0;2.220446049250313e-16;2.220446049250313e-16;0.005937300977168078
1.9599738121032715;0.0002578806674847067;-2.809721944057933e-05;3.7245380157940765e-05;-2.2382131001817497e-05;0.0003570643167384774;4.41110068194973e-05;2.220446049250313e-16;2.220446049250313e-16;2.220446049250313e-16;2.220446049250313e-16;2.220446049250313e-16;2.220446049250313e-16;2.220446049250313e-16;2.220446049250313e-16;2.220446049250313e-16;2.220446049250313e-16;-0.0001861281935713202;2.220446049250313e-16;0.000775628908156273;0.0008060948714044518;0.00018987833957745127;-2.954768408738392e-06;2.220446049250313e-16;-3.15563428645828e-05;7.303863224690269e-06;-5.68322959494e-06;5.683229594717955e-06;7.455446403566043e-06;1.5853667749577026e-05;2.220446049250313e-16;9.477794512751103e-08;2.220446049250313e-16;-0.0;2.220446049250313e-16;2.220446049250313e-16;0.0048359687540345045
1.9801254272460938;0.00028027352789682016;-3.964823166180824e-05;3.962233437083732e-05;-0.00013974160874564518;0.0003991078604035971;7.920702794288718e-05;2.220446049250313e-16;2.220446049250313e-16;2.220446049250313e-16;2.220446049250313e-16;2.220446049250313e-16;2.220446049250313e-16;2.220446049250313e-16;2.220446049250313e-16;2.220446049250313e-16;2.220446049250313e-16;-0.00015160257696505007;2.220446049250313e-16;0.0006971419947847282;0.0007219567122626399;0.00015465709432545648;-2.4066773362199746e-06;2.220446049250313e-16;-2.570283849034559e-05;5.949042245655377e-06;-4.629026025284192e-06;4.629026025062148e-06;6.072507692244562e-06;1.291291146745392e-05;2.220446049250313e-16;7.719722866851478e-08;2.220446049250313e-16;-0.0;2.220446049250313e-16;2.220446049250313e-16;0.003938926774965817
1.9999971389770508;0.00029663559086798817;-5.626779891672061e-05;4.0597321117764816e-05;-0.0002824559527172663;0.0004353292726451801;0.00012549040349921022;2.220446049250313e-16;2.220446049250313e-16;2.220446049250313e-16;2.220446049250313e-16;2.220446049250313e-16;2.220446049250313e-16;2.220446049250313e-16;2.220446049250313e-16;2.220446049250313e-16;2.220446049250313e-16;-0.00012348124645413932;2.220446049250313e-16;0.0005678265118896286;0.0005880382543673718;0.0001259691699349238;-1.960253732084521e-06;2.220446049250313e-16;-2.0935122593127045e-05;4.8455320906003394e-06;-4.457928047922048e-06;4.457928047700003e-06;4.9460954685062725e-06;1.0517647095937888e-05;2.220446049250313e-16;6.287762523318443e-08;2.220446049250313e-16;-0.0;2.220446049250313e-16;2.220446049250313e-16;-0.011769320179078398
2.0198564529418945;0.00031084479325886735;-7.602155496761376e-05;4.094908758802951e-05;-0.00044893925249255104;0.0004708828693331505;0.00017998339494384506;2.220446049250313e-16;2.220446049250313e-16;2.220446049250313e-16;2.220446049250313e-16;2.220446049250313e-16;2.220446049250313e-16;2.220446049250313e-16;2.220446049250313e-16;2.220446049250313e-16;2.220446049250313e-16;-0.00010057624699468676;2.220446049250313e-16;0.00039686137532853847;0.0005445977009425772;0.00010260267621930752;-1.5966389163686673e-06;2.220446049250313e-16;-1.705178819661818e-05;3.946716172369542e-06;-3.631010257103402e-06;3.631010256881357e-06;4.028625672195038e-06;8.566689294935756e-06;2.220446049250313e-16;5.121421873758643e-08;2.220446049250313e-16;-0.0;2.220446049250313e-16;2.220446049250313e-16;0.003802673701712167
2.0398473739624023;0.0003245951532232659;-9.875063265460886e-05;4.095414370016772e-05;-0.0006356062101909554;0.0005077562201467611;0.00024189508363632123;2.220446049250313e-16;2.220446049250313e-16;2.220446049250313e-16;2.220446049250313e-16;2.220446049250313e-16;2.220446049250313e-16;2.220446049250313e-16;2.220446049250313e-16;2.220446049250313e-16;2.220446049250313e-16;-8.191998177871606e-05;2.220446049250313e-16;0.00032324607058869034;0.0004435782311533599;8.357052104735233e-05;-1.3004723763755065e-06;2.220446049250313e-16;-1.3888788059821731e-05;-9.116277548317594e-05;-2.9574805482454212e-06;2.9574805480233762e-06;3.2813407889133086e-06;6.977621972533266e-06;2.220446049250313e-16;4.1714301250631264e-08;2.220446049250313e-16;-0.0;2.220446049250313e-16;2.220446049250313e-16;-0.012777691958009228
2.0599007606506348;0.0003391615139520974;-0.00012250696786000688;4.0990529308084375e-05;-0.0008351070284659267;0.0005469801519719771;0.0003073020957953279;2.220446049250313e-16;2.220446049250313e-16;2.220446049250313e-16;2.220446049250313e-16;2.220446049250313e-16;2.220446049250313e-16;2.220446049250313e-16;2.220446049250313e-16;2.220446049250313e-16;2.220446049250313e-16;-6.672433715865034e-05;2.220446049250313e-16;0.00026328594478242936;0.0003612972416383562;6.806871170882501e-05;-1.059242878510202e-06;2.220446049250313e-16;-1.1312504679650172e-05;3.878976155988737e-06;-2.408886390819916e-06;2.408886390597871e-06;2.67267258094982e-06;5.683316706765673e-06;2.220446049250313e-16;3.397655908302196e-08;2.220446049250313e-16;-0.0;2.220446049250313e-16;2.220446049250313e-16;0.00466109086232745
2.079977035522461;0.0003568720806397557;-0.00014331159372786212;4.1787697561269033e-05;-0.0010424751866935308;0.0005912306148141246;0.0003697903061417002;2.220446049250313e-16;2.220446049250313e-16;2.220446049250313e-16;2.220446049250313e-16;2.220446049250313e-16;2.220446049250313e-16;2.220446049250313e-16;2.220446049250313e-16;2.220446049250313e-16;2.220446049250313e-16;0.0005709643193327548;2.220446049250313e-16;0.0002144480475624436;0.00029427886142220134;5.544239111628614e-05;-8.627599448145502e-07;2.220446049250313e-16;-0.00015282866532052172;3.1594503226538014e-06;-6.328215588739118e-06;6.328215588517072e-06;2.1769085213872586e-06;4.629096978390055e-06;2.220446049250313e-16;2.7674119726615648e-08;2.220446049250313e-16;-0.0;2.220446049250313e-16;2.220446049250313e-16;0.0037964876391835952
2.0998051166534424;0.0003797058599733814;-0.00015800705476206329;4.394494079875354e-05;-0.0012508165410062405;0.0006425321631583777;0.0004238006226044479;2.220446049250313e-16;2.220446049250313e-16;2.220446049250313e-16;2.220446049250313e-16;2.220446049250313e-16;2.220446049250313e-16;2.220446049250313e-16;2.220446049250313e-16;2.220446049250313e-16;2.220446049250313e-16;0.0007476035429952684;2.220446049250313e-16;0.0001746692750399075;0.00023969197187126683;4.5158174079159525e-05;-7.027233673011059e-07;2.220446049250313e-16;-0.00012447990308272317;2.573392034366037e-06;-5.154371148396034e-06;5.154371148173988e-06;1.7731055963481803e-06;0.00014036953315783046;2.220446049250313e-16;2.2540743480576736e-08;2.220446049250313e-16;-0.0;2.220446049250313e-16;2.220446049250313e-16;0.0030922629101627825
2.119839906692505;0.00040822555685327954;-0.00016525706468085752;4.767339825603344e-05;-0.0014589273200218316;0.0007015259956937741;0.0004672513412670496;2.220446049250313e-16;2.220446049250313e-16;2.220446049250313e-16;2.220446049250313e-16;2.220446049250313e-16;2.220446049250313e-16;2.220446049250313e-16;2.220446049250313e-16;2.220446049250313e-16;2.220446049250313e-16;0.0006089277582917897;2.220446049250313e-16;0.00014226921620297364;0.00019523060916397096;0.0001951402542537267;-5.723725746877963e-07;2.220446049250313e-16;-0.00010138965906027227;2.0960438956913517e-06;-4.19826751520884e-06;4.198267514986795e-06;1.4442055901355704e-06;0.00011433186206663513;2.220446049250313e-16;-0.0016203187410245231;2.220446049250313e-16;-0.0;2.220446049250313e-16;2.220446049250313e-16;0.0025186674669707746
2.1398518085479736;0.0004397051449812496;-0.0001646755240219775;5.258781230822199e-05;-0.0016575794175740948;0.0007635862589716347;0.0004981181215510643;2.220446049250313e-16;2.220446049250313e-16;2.220446049250313e-16;2.220446049250313e-16;2.220446049250313e-16;2.220446049250313e-16;2.220446049250313e-16;2.220446049250313e-16;2.220446049250313e-16;2.220446049250313e-16;0.0004959754649271522;2.220446049250313e-16;0.0001158791657799233;0.0001590165513553616;0.00015894295671624943;-4.6620103941180184e-07;2.220446049250313e-16;-8.258251098996088e-05;1.707240853314954e-06;-3.5157715653714586e-06;3.515771565149414e-06;1.17631447945036e-06;9.31240162274122e-05;2.220446049250313e-16;-0.0014713327635510467;2.220446049250313e-16;-0.0;2.220446049250313e-16;2.220446049250313e-16;-0.01312449292697279
2.1597774028778076;0.00047019279614537345;-0.00015660984018500866;5.8045222858813086e-05;-0.0018419097379582278;0.0008228248643681153;0.0005161061504527845;2.220446049250313e-16;2.220446049250313e-16;2.220446049250313e-16;2.220446049250313e-16;2.220446049250313e-16;2.220446049250313e-16;2.220446049250313e-16;2.220446049250313e-16;2.220446049250313e-16;2.220446049250313e-16;0.00040397511602982105;2.220446049250313e-16;9.438430477253361e-05;0.00012951997493238794;0.00012946003163886462;-3.797236603574089e-07;2.220446049250313e-16;-6.726397134201681e-05;1.3905583452803629e-06;-2.86361791358793e-06;2.8636179133658853e-06;9.581154954778144e-07;0.00039115192981376186;2.220446049250313e-16;-0.0017729038938769511;2.220446049250313e-16;-0.0;2.220446049250313e-16;2.220446049250313e-16;-0.012335316747609732
2.1799161434173584;0.000495576692421161;-0.00014183311222987785;6.333825000519708e-05;-0.002012187719415303;0.0008736253236340604;0.0005223396596359;2.220446049250313e-16;2.220446049250313e-16;2.220446049250313e-16;2.220446049250313e-16;2.220446049250313e-16;2.220446049250313e-16;2.220446049250313e-16;2.220446049250313e-16;2.220446049250313e-16;2.220446049250313e-16;0.00032904025685076435;2.220446049250313e-16;7.687660613913343e-05;0.0001054948290822733;0.00010544600489505296;0.0001308676381895827;2.220446049250313e-16;-5.4786925057893574e-05;3.2896925375608e-06;-2.3324346882499225e-06;2.3324346880278783e-06;7.803910592885267e-07;0.0008469272937976105;2.220446049250313e-16;-0.00157521822769633;2.220446049250313e-16;-0.0;2.220446049250313e-16;2.220446049250313e-16;0.0050307544285681256
2.19986891746521;0.0005113848881487012;-0.0001226561476970866;6.756104027995034e-05;-0.0021607125890213373;0.0009091435536558711;0.0005188504131613015;2.220446049250313e-16;2.220446049250313e-16;2.220446049250313e-16;2.220446049250313e-16;2.220446049250313e-16;2.220446049250313e-16;2.220446049250313e-16;2.220446049250313e-16;2.220446049250313e-16;2.220446049250313e-16;0.00010792224474891248;2.220446049250313e-16;6.261647617911256e-05;8.592619763019336e-05;8.588643002455122e-05;0.0001065925092281538;2.220446049250313e-16;-4.462429287793592e-05;2.6794751324216305e-06;-1.8997826313169568e-06;1.899782631094912e-06;6.356333952346254e-07;0.0006898275740937397;2.220446049250313e-16;-0.0014162197585833633;2.220446049250313e-16;-0.0;2.220446049250313e-16;2.220446049250313e-16;0.005720268402859878
2.219938039779663;0.0005171296801734952;-0.00010050140807772662;7.050600067390072e-05;-0.002286752077571554;0.0009286596709260855;0.000507533207222809;2.220446049250313e-16;2.220446049250313e-16;2.220446049250313e-16;2.220446049250313e-16;2.220446049250313e-16;2.220446049250313e-16;2.220446049250313e-16;2.220446049250313e-16;2.220446049250313e-16;2.220446049250313e-16;-0.0006575030499970416;2.220446049250313e-16;5.1001511200863285e-05;6.998742500852767e-05;6.99550340451846e-05;0.0005132137687686434;2.220446049250313e-16;-3.6346765450909275e-05;2.1824492420769955e-06;-4.740038587061303e-06;4.7400385868392575e-06;5.177273731273225e-07;0.000561868870521689;2.220446049250313e-16;-0.0011535198447396402;2.220446049250313e-16;-0.0;2.220446049250313e-16;2.220446049250313e-16;0.0046591943658068884
2.239875078201294;0.0005142724627750515;-7.643749475606438e-05;7.229966498495891e-05;-0.00238988606919073;0.0009341577742905823;0.0004898388227047367;2.220446049250313e-16;2.220446049250313e-16;2.220446049250313e-16;2.220446049250313e-16;2.220446049250313e-16;2.220446049250313e-16;2.220446049250313e-16;2.220446049250313e-16;2.220446049250313e-16;2.220446049250313e-16;-0.0006956948229595474;2.220446049250313e-16;4.1541049632548154e-05;5.700519509085208e-05;5.6978812448765635e-05;0.001445682299728269;2.220446049250313e-16;-2.960466762704967e-05;1.7776185479794754e-06;4.139926358883287e-05;-4.139926358905492e-05;4.2169218120828607e-07;0.00045764570672035635;2.220446049250313e-16;-0.0010599109571885858;2.220446049250313e-16;-0.0;2.220446049250313e-16;2.220446049250313e-16;0.003794942930914496
2.2598931789398193;0.0005047204950422738;-5.2579453699171324e-05;7.30398322422971e-05;-0.0024723355181026246;0.0009285002998893399;0.00046911944046575495;2.220446049250313e-16;2.220446049250313e-16;2.220446049250313e-16;2.220446049250313e-16;2.220446049250313e-16;2.220446049250313e-16;2.220446049250313e-16;2.220446049250313e-16;2.220446049250313e-16;2.220446049250313e-16;-0.0005666477813931947;2.220446049250313e-16;3.3835444557270665e-05;4.643108768396833e-05;4.640959885709741e-05;0.0017008872955511208;2.220446049250313e-16;-2.411318681140462e-05;1.4478814174452075e-06;-5.221092628489501e-06;5.221092628267456e-06;3.434709171702816e-07;0.00037275528840939717;2.220446049250313e-16;-0.0008633040990735857;2.220446049250313e-16;-0.0;2.220446049250313e-16;2.220446049250313e-16;-0.010987444824900407
2.2798492908477783;0.0004912440636491379;-3.1431487482053094e-05;7.292133001855068e-05;-0.0025320727567195106;0.0009153394088102455;0.0004486050432851905;2.220446049250313e-16;2.220446049250313e-16;2.220446049250313e-16;2.220446049250313e-16;2.220446049250313e-16;2.220446049250313e-16;2.220446049250313e-16;2.220446049250313e-16;2.220446049250313e-16;2.220446049250313e-16;-0.0004615381594933907;2.220446049250313e-16;2.7559181063425427e-05;3.781841111289021e-05;3.780090832909869e-05;0.0015376679009126938;2.220446049250313e-16;-1.9640341365306633e-05;1.1793084637679804e-06;-5.0595419868850334e-06;5.059541986662988e-06;2.797592087284266e-07;0.00030361151213000655;2.220446049250313e-16;-0.0007031665843460546;2.220446049250313e-16;-0.0;2.220446049250313e-16;2.220446049250313e-16;0.004712563095549238
2.299837827682495;0.00047768364336097334;-1.3881829542441608e-05;7.245445933062256e-05;-0.0025680484387249126;0.0008998680178134282;0.00042939657721653577;2.220446049250313e-16;2.220446049250313e-16;2.220446049250313e-16;2.220446049250313e-16;2.220446049250313e-16;2.220446049250313e-16;2.220446049250313e-16;2.220446049250313e-16;2.220446049250313e-16;2.220446049250313e-16;-0.0003759257155208634;2.220446049250313e-16;2.2447125221041656e-05;3.080333221651853e-05;3.0789076089727936e-05;0.0012524401157177696;2.220446049250313e-16;-1.5997180794175786e-05;3.5656976684043786e-06;-4.121028570475872e-06;4.121028570253826e-06;2.2786562400435795e-07;0.0002472934742018411;2.220446049250313e-16;-0.0005727335777410134;2.220446049250313e-16;-0.0;2.220446049250313e-16;2.220446049250313e-16;-0.011712293951362158
2.3199148178100586;0.0004673105222371968;-2.0068358199271085e-07;7.21191426077594e-05;-0.002580940358075121;0.0008866510824209128;0.0004119934120119394;2.220446049250313e-16;2.220446049250313e-16;2.220446049250313e-16;2.220446049250313e-16;2.220446049250313e-16;2.220446049250313e-16;2.220446049250313e-16;2.220446049250313e-16;2.220446049250313e-16;2.220446049250313e-16;-0.00030619384482746516;2.220446049250313e-16;-4.970479227816321e-05;9.307762267641496e-05;2.5077894906808966e-05;0.0010201203020028464;2.220446049250313e-16;-1.3029803739236134e-05;2.9042830365257938e-06;-6.2624968418673775e-06;6.262496841645334e-06;1.8559797491169952e-07;0.00020142208032161328;2.220446049250313e-16;-0.0004664950786549162;2.220446049250313e-16;-0.0;2.220446049250313e-16;2.220446049250313e-16;-0.011368161334902595
2.3398661613464355;0.0004627173574292741;9.252802252563727e-06;7.228240658569607e-05;-0.002573415861405362;0.0008795103089149059;0.0003973360818975712;2.220446049250313e-16;2.220446049250313e-16;2.220446049250313e-16;2.220446049250313e-16;2.220446049250313e-16;2.220446049250313e-16;2.220446049250313e-16;2.220446049250313e-16;2.220446049250313e-16;2.220446049250313e-16;-0.00024939680032350054;2.220446049250313e-16;-4.048486396551566e-05;7.58123054050817e-05;2.0426102138439065e-05;0.0008308943617332058;2.220446049250313e-16;-1.06128565818812e-05;2.3655566850192367e-06;-5.100842818326833e-06;5.100842818104789e-06;1.5117071055292239e-07;0.000164059543309956;2.220446049250313e-16;-0.0003799631571586708;2.220446049250313e-16;-0.0;2.220446049250313e-16;2.220446049250313e-16;-0.01100625099978627
2.359822988510132;0.0004649721672116538;1.3472061304373422e-05;7.301562034648183e-05;-0.0025466972579460774;0.0008800447650145503;0.00038704653425294337;2.220446049250313e-16;2.220446049250313e-16;2.220446049250313e-16;2.220446049250313e-16;2.220446049250313e-16;2.220446049250313e-16;2.220446049250313e-16;2.220446049250313e-16;2.220446049250313e-16;2.220446049250313e-16;-0.0002031352525934932;2.220446049250313e-16;-3.297517473031229e-05;6.17495965793478e-05;1.663718785489698e-05;0.0006767686507214568;2.220446049250313e-16;-8.644238016295872e-06;1.9267607046774503e-06;-7.612398559606427e-06;7.612398559384381e-06;1.2312948856229624e-07;0.00013362752339810482;2.220446049250313e-16;-0.00030948236627546957;2.220446049250313e-16;-0.0;2.220446049250313e-16;2.220446049250313e-16;-0.010779197775906454
2.3799052238464355;0.0004733572168413154;1.1641244456393136e-05;7.413230916512838e-05;-0.002500337880751255;0.0008872379775352385;0.00038220723536996865;2.220446049250313e-16;2.220446049250313e-16;2.220446049250313e-16;2.220446049250313e-16;2.220446049250313e-16;2.220446049250313e-16;2.220446049250313e-16;2.220446049250313e-16;2.220446049250313e-16;2.220446049250313e-16;0.0006099397811105095;2.220446049250313e-16;-2.6858485912681425e-05;5.029543234885741e-05;1.3551093490237676e-05;0.0005512322958166933;2.220446049250313e-16;-7.040785890760588e-06;1.569358636214187e-06;3.979773546231863e-05;-3.9797735462540666e-05;1.0028973799329377e-07;0.00010884045297977757;2.220446049250313e-16;-0.0002520753215961592;2.220446049250313e-16;-0.0;2.220446049250313e-16;-0.0019493349108935245;0.006694727376990485
2.399810791015625;0.0004867232118380538;4.079472152039501e-06;7.548510489601261e-05;-0.0024373029785179534;0.0008997857870123658;0.00038283788003485675;2.220446049250313e-16;2.220446049250313e-16;2.220446049250313e-16;2.220446049250313e-16;2.220446049250313e-16;2.220446049250313e-16;2.220446049250313e-16;2.220446049250313e-16;2.220446049250313e-16;2.220446049250313e-16;0.0007786558987057103;2.220446049250313e-16;-2.187640464141596e-05;4.096594399459652e-05;1.1037450342132901e-05;0.0004489821501445455;2.220446049250313e-16;-5.734764112936316e-06;1.2782524176879313e-06;-6.544306507710413e-06;6.544306507488367e-06;8.168661840640023e-08;8.865122920485995e-05;2.220446049250313e-16;-0.00020531692491083158;2.220446049250313e-16;-0.0;2.220446049250313e-16;-0.0015877454682659685;-0.008117025683255528
2.419767379760742;0.0005037184942353133;-8.17888632513947e-06;7.696175551259217e-05;-0.0023632414180926042;0.0009163501216543098;0.00038837057441901476;2.220446049250313e-16;2.220446049250313e-16;2.220446049250313e-16;2.220446049250313e-16;2.220446049250313e-16;2.220446049250313e-16;2.220446049250313e-16;2.220446049250313e-16;2.220446049250313e-16;2.220446049250313e-16;0.0006342200960951677;2.220446049250313e-16;-1.7818468307962302e-05;3.3367017420748825e-05;8.990072287731884e-06;0.00036569876743117055;2.220446049250313e-16;-4.671001212262333e-06;3.808796451191892e-06;-6.7142044864201304e-06;6.714204486198087e-06;6.653426123337801e-08;7.220698025754094e-05;2.220446049250313e-16;-0.00016723191857065294;2.220446049250313e-16;-0.0;2.220446049250313e-16;-0.0012932286073118074;0.00700177657125645
2.43986439704895;0.0005212333550388941;-2.440864683224911e-05;7.81498994221068e-05;-0.002285390880721556;0.0009333311231147369;0.0003989249054942625;2.220446049250313e-16;2.220446049250313e-16;2.220446049250313e-16;2.220446049250313e-16;2.220446049250313e-16;2.220446049250313e-16;2.220446049250313e-16;2.220446049250313e-16;2.220446049250313e-16;2.220446049250313e-16;0.0005165762321451147;2.220446049250313e-16;-1.4513253802262216e-05;2.71776442330588e-05;7.322470066309415e-06;0.0002978639316899848;2.220446049250313e-16;-0.00013167835638143357;3.102288514473615e-06;-5.4687615179878286e-06;5.468761517765784e-06;5.419257161371909e-08;5.88130367133937e-05;2.220446049250313e-16;-0.00013621144287528792;2.220446049250313e-16;-0.0;2.220446049250313e-16;-0.0010533427833342628;0.007180229500291395
2.459899425506592;0.0005343882371084541;-4.3436901664769015e-05;7.840565687339612e-05;-0.002209853650133045;0.0009445812198091581;0.00041380393413870483;2.220446049250313e-16;2.220446049250313e-16;2.220446049250313e-16;2.220446049250313e-16;2.220446049250313e-16;2.220446049250313e-16;2.220446049250313e-16;2.220446049250313e-16;2.220446049250313e-16;2.220446049250313e-16;0.00042075456968364674;2.220446049250313e-16;-1.182113592977884e-05;2.2136361088102845e-05;5.964197634446932e-06;0.00024261203401106563;2.220446049250313e-16;-0.000107252844262405;2.5268333843419744e-06;-5.823473864220574e-06;5.823473863998529e-06;4.414018828294678e-08;4.790358598453863e-05;2.220446049250313e-16;-0.00011094507154343992;2.220446049250313e-16;-0.0;2.220446049250313e-16;-0.0008579542804181526;0.0058483418044217176
