flxalr/sts-optimization-reemc/input/498_125/acc.csv
time;base_link_tx;base_link_ty;base_link_tz;base_link_rz;base_link_ry;base_link_rx;leg_left_1_joint;leg_left_2_joint;leg_left_3_joint;leg_left_4_joint;leg_left_5_joint;leg_left_6_joint;leg_right_1_joint;leg_right_2_joint;leg_right_3_joint;leg_right_4_joint;leg_right_5_joint;leg_right_6_joint;torso_1_joint;torso_2_joint;arm_left_1_joint;arm_left_2_joint;arm_left_3_joint;arm_left_4_joint;arm_left_5_joint;arm_left_6_joint;arm_left_7_joint;arm_right_1_joint;arm_right_2_joint;arm_right_3_joint;arm_right_4_joint;arm_right_5_joint;arm_right_6_joint;arm_right_7_joint;head_1_joint;head_2_joint
0.0;0.0;0.0;0.0;0.0;0.0;0.0;0.0009062769156301891;-3.062080993443723e-17;9.76930305405696e-10;2.571010574256485e-37;1.2887201180634427e-37;-9.555941395286319e-41;-4.44901426264156e-17;-4.192409342704675e-39;-4.511310927845663e-11;-0.0003381890898864762;-2.923998903589616e-11;-1.921371812976167e-40;0.00016166117700223588;-0.00016717807264767122;3.1820853503922903e-07;0.0005243710044065806;-3.8263719745319e-07;-8.081033500567042e-06;1.650305044662822e-06;-2.079102309761427e-05;2.079102309761512e-05;3.852294609026425e-05;-3.126647843316634e-06;-1.2811207134579157e-06;-2.447427562697115e-05;0.0;0.00022254953125528914;-0.0002225495312552837;0.0015064020037490232;0.0006950338879193439
0.019901037216186523;0.00010477559238328011;0.00040823655990347403;5.5344087013055605e-05;-0.0002748210311289093;0.00016125003100703425;-0.0004974215904508592;0.0009003416257381046;-3.067604951590398e-17;9.773355001305075e-10;1.3227711077780132e-36;6.158745592933287e-37;-4.647968937475152e-40;-4.485546947495958e-17;-2.0428891002136063e-38;-4.5148937365063375e-11;-0.00033766337395485984;-2.924988975892502e-11;-9.927100889163564e-40;0.00016171182324795053;-0.0001672234093466311;3.1830674693448364e-07;0.0005248208847384531;-3.8175812638649396e-07;-8.076271275867103e-06;1.7576389232670803e-06;-2.0025691708153174e-05;2.0025691708154227e-05;3.854948537043218e-05;-3.125230608305012e-06;-1.2824559912288335e-06;-2.44217740600883e-05;0.0;0.00021917185118671217;-0.0002191718511867122;0.0014999483363377225;0.0006544385777408087
0.0399169921875;0.00021277434630981074;0.001018017630310599;0.000128900593237195;-0.000801835438376986;0.000348676838464759;-0.0012107825529238795;0.0008772788951554943;-3.088683303214047e-17;9.785847268576529e-10;3.2639707547488184e-36;1.354201221200627e-36;-1.05268715300348e-39;-4.6311851662776597e-17;-4.6406048390113344e-38;-4.5275683947351034e-11;-0.00033564672508254657;-2.9278382916000234e-11;-2.4641841790163542e-39;0.0001617885092657929;-0.00016728201217068394;3.1857741169241975e-07;0.0005267071509357814;-3.7858677431821906e-07;-8.053868353033793e-06;2.1870302117566922e-06;-1.7855638230825206e-05;1.7855638230825704e-05;3.863142536039684e-05;-3.1183184103664603e-06;-1.2873404700245296e-06;-2.423244246536583e-05;0.0;0.0002109922967684472;-0.00021099229676844452;0.0014733159557455068;0.0004983047167000116
0.05986738204956055;0.0002521471971580406;0.0014818185511452937;0.00017559011003326987;-0.0014989867293537568;0.0004627068519794425;-0.0016763121672142786;0.0008277208552378415;-3.132664898780388e-17;9.803323941924979e-10;6.194528759125689e-36;2.2554881886264295e-36;-1.81874986171643e-39;-4.9531120151184005e-17;-8.046258751289274e-38;-4.551131893234007e-11;-0.0003313629145619134;-2.9310956060088205e-11;-4.70449748283829e-39;0.00016162343184843758;-0.0001670844524201596;3.1884104758168744e-07;0.0005310807962715765;-3.723989187193567e-07;-7.994882692634092e-06;3.1409128813347198e-06;-1.4537041167714769e-05;1.453704116771674e-05;3.874837121983518e-05;-3.0995362921650288e-06;-1.2969223029078497e-06;-2.3863112156405252e-05;0.0;0.000204025429213452;-0.00020402542921345342;0.0014119411149119848;0.00012547195350507006
0.07989311218261719;0.00017857856950135779;0.0017561896846843904;0.00018344931976912028;-0.00224908578145896;0.000433651410098638;-0.0018531792917698873;0.0007428519816044665;-3.204966584124875e-17;9.814748955444427e-10;1.0152670741464356e-35;3.2009909904808316e-36;-2.6986830468847736e-39;-5.518678279327658e-17;-1.1988617833887582e-37;-4.584059447339005e-11;-0.000324070592894029;-2.931031230751608e-11;-7.75442296918734e-39;0.00016072318992373444;-0.00016613913542302389;3.186677584182801e-07;0.000539039078676656;-3.6287675437622224e-07;-7.873255340359949e-06;4.826936488732343e-06;-1.0209677938511228e-05;1.0209677938510017e-05;3.883582635216218e-05;-3.0598613473107232e-06;-1.3114438268209422e-06;-2.3294659761461234e-05;0.0;0.00020017072583266768;-0.00020017072583265692;0.0012993525642937636;-0.0005928883617854462
0.0998992919921875;9.305459266877652e-05;0.0019175156805261427;0.00017711630763520375;-0.003023887931166557;0.000392517300376578;-0.0018489215924939223;0.0006153446078638983;-3.3079559960457397e-17;9.801147179642677e-10;1.5218094973955837e-35;4.090611435600248e-36;-3.642379914720361e-39;-6.387046376293634e-17;-1.625889546940185e-37;-4.620934485240168e-11;-0.000313108175290034;-2.921578507371643e-11;-1.1685916598845212e-38;0.00015839355741774673;-0.00016375634662165115;3.1737351538610206e-07;0.0005515344564931389;-3.5011869842411925e-07;-7.657429922504594e-06;7.433979662773506e-06;-5.222645177842472e-06;5.222645177847776e-06;3.878545708954913e-05;-2.9881321607689903e-06;-1.330003442434979e-06;-2.253239198021851e-05;0.0;0.0001916131187340584;-0.00019161311873405922;0.0011187880289020167;-0.0017568506675934349
0.11989259719848633;-4.1563359940050226e-05;0.0019024164758810309;0.00014406208631265318;-0.0036208418617203544;0.00027131848710910305;-0.001611202150376931;0.00043830987958511363;-3.441642503687708e-17;9.735913089687858e-10;2.1567837858052864e-35;4.8415615270480056e-36;-4.617990372396371e-39;-7.614176103428084e-17;-2.073088372974485e-37;-4.652830276107025e-11;-0.00029777391990640895;-2.8943936964098895e-11;-1.6646463604335047e-38;0.00015375238712199635;-0.0001590593970018349;3.1402549286460906e-07;0.0005693796725912052;-3.3442336294071264e-07;-7.309474607058535e-06;1.1147573889059304e-05;-4.7315950268665724e-08;4.731595026533138e-08;3.844935412542484e-05;-2.8707622157849407e-06;-1.3507079400272108e-06;-2.1592988060313725e-05;0.0;0.0001765578632855119;-0.00017655786328550193;0.0008522530751746628;-0.0034479024143056767
0.13997244834899902;-0.0002504974782485701;0.0017540933086655807;8.679579894113417e-05;-0.003923099742639107;2.4473343605250434e-05;-0.0012598470703025404;0.0002175339941999264;-3.604267041078686e-17;9.583763279515988e-10;2.885209905011203e-35;5.2589516897679714e-36;-5.484369497948763e-39;-9.259834447363289e-17;-2.4786889424920224e-37;-4.6671956629561565e-11;-0.00027719693421320024;-2.8384962814308e-11;-2.237638119315934e-38;0.0001456950437504439;-0.00015094900766470835;3.0740066245829404e-07;0.0005933013375554733;-3.161374151646759e-07;-6.782464345007151e-06;1.6172101125050107e-05;4.987310200718062e-06;-4.987310200716584e-06;3.763605176669759e-05;-2.690827376920289e-06;-1.370709252924276e-06;-2.049524747919145e-05;0.0;0.00016044213810370686;-0.00016044213810370296;0.0005135986883537142;-0.005437063843570392
0.15989160537719727;-0.0003741030021138398;0.0014039874757285546;2.8262857783083138e-05;-0.0037601421381690276;-0.0001509695430433816;-0.000750940550130477;-1.9966205481865875e-05;-3.7884002629938813e-17;9.305215285088307e-10;3.7638021590799874e-35;5.3422218375547466e-36;-6.2901527019858e-39;-1.1346371573124696e-16;-2.866274811521864e-37;-4.647788424087945e-11;-0.0002508192480920415;-2.7418686234954622e-11;-2.932471920816617e-38;0.0001345599477091383;-0.000139769180638873;2.9617378012524397e-07;0.0006233016001109892;-2.9601096847381846e-07;-6.034305766574874e-06;2.0850317254887446e-05;9.561582558657783e-06;-9.561582558656192e-06;3.6136042749186136e-05;-2.432800270915463e-06;-1.3857831674253445e-06;-1.9281385981681208e-05;0.0;0.00014045891467390247;-0.0001404589146738905;0.00015002474505134978;-0.00718525925591301
0.17986655235290527;-0.0002236953651754591;0.0008659152549119231;2.9983206294055593e-06;-0.0030887486233274423;-7.918753310635983e-06;-0.00011507484913385224;-0.00024926973733017;-3.987708531755085e-17;8.848600766947123e-10;4.7720388658883224e-35;4.914777519356444e-36;-6.917090582198201e-39;-1.3930668028021204e-16;-3.1845486599317593e-37;-4.5747168739257133e-11;-0.00021746345459045747;-2.5886096391882462e-11;-3.7344640556272003e-38;0.00012150332662540225;-0.00012667932718933336;2.785836801998149e-07;0.0006596658026659279;-2.7438328293361056e-07;-5.0034501749588925e-06;2.3761317802579722e-05;1.3431725796939514e-05;-1.3431725796940178e-05;3.368009278689264e-05;-2.074213038135269e-06;-1.3910430970966675e-06;-1.7967998266557412e-05;0.0;0.00011627595046930876;-0.00011627595046931716;-0.00021130693797849576;-0.008537599235617909
0.19987702369689941;8.55407036770146e-05;9.860693061044462e-05;-1.2959858456915568e-05;-0.0022337527795129207;0.0003313298513489776;0.0007628583127230725;-0.00044602208241194377;-4.1909285763622674e-17;8.156127626381635e-10;5.899286700705615e-35;3.847709361947277e-36;-7.282616328445894e-39;-1.7042269653825197e-16;-3.3978827616613e-37;-4.4240502299157326e-11;-0.00017859606092106325;-2.3611381838890694e-11;-4.63633724103711e-38;0.00010715783791724263;-0.00011231421278533519;2.526936240420622e-07;0.0007020351841383412;-2.518024532467205e-07;-3.6290250641421658e-06;2.5283527802673063e-05;1.625736685176702e-05;-1.6257366851764434e-05;2.9972736546688505e-05;-1.5925368990045241e-06;-1.3802289999729842e-06;-1.6583223361689367e-05;0.0;9.582405216827119e-05;-9.582405216825489e-05;-0.0005486632415271738;-0.009295139127202475
0.21988415718078613;0.00043023449379084403;-0.0007716160978300513;-2.9368163787243256e-05;-0.001446284461734551;0.000724810376168104;0.0017545131685399312;-0.0005904422299214361;-4.3833504769358826e-17;7.164538315549419e-10;7.153781759172473e-35;2.026812633139854e-36;-7.328822095783158e-39;-2.0694097425240464e-16;-3.4820977166189537e-37;-4.1686363032005706e-11;-0.00013771500203174202;-2.0403244961612216e-11;-5.645622733207874e-38;9.166575738737571e-05;-9.681601569894566e-05;2.16402609329611e-07;0.0007495512087010555;-2.2881402395240951e-07;-1.8489435885146347e-06;2.5736850944741922e-05;1.7775092113315844e-05;-1.777509211331492e-05;2.4696641650599843e-05;-9.645839388913129e-07;-1.3460353675806641e-06;-1.515412807460731e-05;0.0;7.963716110405716e-05;-7.963716110404698e-05;-0.0008475128899550707;-0.009279467828898083
0.23990893363952637;0.0008704422585673127;-0.0016883569346837033;-3.0505132368820166e-05;-0.0005702579860445097;0.001237181920557337;0.002754732889052276;-0.0006669572076635946;-4.547485625076504e-17;5.801872470391287e-10;8.534229441357015e-35;-6.896806639864276e-37;-6.973881566648828e-39;-2.489469405207763e-16;-3.402361185743894e-37;-3.7772836054340375e-11;-9.729725841146589e-05;-1.604440264722286e-11;-6.762550417768757e-38;7.61211612379598e-05;-8.127613493143382e-05;1.673265703364247e-07;0.000800998590517814;-2.0584922355724044e-07;4.0598288737028795e-07;2.5387627541100352e-05;1.8713456248054394e-05;-1.8713456248052548e-05;1.7495991582351294e-05;-1.644295581992461e-07;-1.280006953839149e-06;-1.3699805687630926e-05;0.0;6.346571531829855e-05;-6.346571531830561e-05;-0.0011001397980949278;-0.008668470068827514
0.2599799633026123;0.0010903458397187365;-0.00260046459479254;-6.713368601359651e-05;0.0002573788986826147;0.0014601471207854244;0.0037227607034426525;-0.0006647320822254666;-4.662188846433668e-17;3.987860852801668e-10;9.91201953252345e-35;-4.3916350279463105e-36;-6.055621776611395e-39;-2.9640238120159077e-16;-3.0831493960278073e-37;-3.2145403423346187e-11;-5.907247589349809e-05;-1.0293254331328502e-11;-7.886096547964571e-38;6.242595006648296e-05;-6.75910156014334e-05;1.0281915546238072e-07;0.00085466031907863;-1.832738406040704e-07;3.209808938875835e-06;2.4446501182697268e-05;1.9646471200318924e-05;-1.964647120031962e-05;7.979531138524478e-06;8.358384916531025e-07;-1.1724000714161066e-06;-1.2234232742082002e-05;0.0;4.978890089592674e-05;-4.97889008959216e-05;-0.0013031347961680912;-0.007652183720190996
0.2798938751220703;0.0010701758327383143;-0.003470031179441487;-0.0001407569872241727;0.001159964777328161;0.0013555770878145236;0.004606076155499223;-0.0005843086288544445;-4.7021779257504485e-17;1.6645612285691528e-10;1.1466512045613452e-34;-9.262511145654182e-36;-4.624416887409041e-39;-3.484627726484202e-16;-2.555098648708246e-37;-2.4507844239795928e-11;-2.4581864738535925e-05;-2.980285752871446e-12;-9.159882102843954e-38;5.184376840645203e-05;-5.7015693654232566e-05;2.104959840488668e-08;0.0009076118579555797;-1.616428777832616e-07;6.5968812425232485e-06;2.3093872682785486e-05;2.0088268439657626e-05;-2.0088268439655014e-05;-4.1194147764739735e-06;2.0501392230524675e-06;-1.0142764168672327e-06;-1.0783538694614113e-05;0.0;4.095347621218429e-05;-4.0953476212184573e-05;-0.0014546239099154448;-0.006433177814907698
0.29988694190979004;0.0008617692207388398;-0.004240003519229218;-0.00023989270060975233;0.002096780695960131;0.0009962253157743948;0.005373332320826518;-0.0004436193233531544;-4.6399612554651965e-17;-1.2762457341974266e-10;1.3176536206333703e-34;-1.5598032344066678e-35;-2.4936368689480082e-39;-4.0515947448818676e-16;-1.7378252101562349e-37;-1.4386285687143768e-11;5.889926401208764e-06;6.220801890280717e-12;-1.0569763917956008e-37;4.475712760088929e-05;-4.9921016281626274e-05;-8.155799570817315e-08;0.0009574681088883312;-1.4096357844737416e-07;1.0668979193882582e-05;2.1442529663623964e-05;1.9656053940203672e-05;-1.9656053940204187e-05;-1.9321324931828162e-05;3.516770498315788e-06;-7.926903215831015e-07;-9.337062571113833e-06;0.0;3.004801758228668e-05;-3.004801758229028e-05;-0.0015588304531617566;-0.005155991548720669
0.3201029300689697;0.0004795588309532979;-0.004863511541026297;-0.0003575853226310247;0.0029598920051263126;0.00041101346709319854;0.005978574950930702;-0.00026783779423000505;-4.4400845343940064e-17;-4.956010288232406e-10;1.4533045120612434e-34;-2.2890035644247205e-35;4.868155530814093e-40;-4.661524587861271e-16;-5.413504329469315e-38;-1.2304034770349318e-12;3.211006100039256e-05;1.7673966650062523e-11;-1.170823793074917e-37;4.1212113150268734e-05;-4.633724059424954e-05;-2.089801984015144e-07;0.001000748493571935;-1.2132112571304873e-07;1.553154872491768e-05;1.9566058563030082e-05;1.8916823048704565e-05;-1.8916823048703633e-05;-3.820200945221978e-05;5.275855580589271e-06;-4.92238179107973e-07;-7.886751262884056e-06;0.0;1.5463520148789902e-05;-1.5463520148793497e-05;-0.0016192341015999598;-0.003926125566353771
0.34000515937805176;-4.3457224950356235e-05;-0.005288027875296172;-0.0004833326132235843;0.0035712450011816865;-0.00033982664047892895;0.0063836273327534995;-8.339718367702343e-05;-4.0733134259008334e-17;-9.35539365248793e-10;1.6019203409307637e-34;-3.1818096347763834e-35;4.286769427523578e-39;-5.28651693224917e-16;9.966328038037726e-38;1.501252167122746e-11;5.33365832186036e-05;3.130430515813436e-11;-1.2963834711885433e-37;4.088295609523161e-05;-4.592130059445275e-05;-3.603070415628631e-07;0.0010319611445244261;-1.0337552487318185e-07;2.1101269615106232e-05;1.7574432472036516e-05;1.8401890802818346e-05;-1.840189080281809e-05;-6.060853666964771e-05;7.29934349189346e-06;-1.0873922951272028e-07;-6.469001186182244e-06;0.0;3.6806958762367026e-06;-3.6806958762504507e-06;-0.0016392559692242096;-0.0028617925556668968
0.3598971366882324;-0.000494463279059394;-0.005463483542855232;-0.000575293352530713;0.003935952322473486;-0.0009737785127149679;0.006518092328936537;9.490971776147418e-05;-3.49919051493116e-17;-1.4601839370707599e-09;1.7637590413633299e-34;-4.293773722490744e-35;9.22025875373929e-39;-5.92035070637365e-16;3.009415887196906e-37;3.4933062751054986e-11;7.012863465839415e-05;4.74922159282543e-11;-1.4343513289887185e-37;4.295124607756647e-05;-4.783250527616259e-05;-5.396855203148843e-07;0.0010466970018140407;-8.691422652123504e-08;2.748258552601461e-05;1.550472991068062e-05;1.7662687323468896e-05;-1.766268732346922e-05;-8.713253650186131e-05;9.627344431364199e-06;3.745909758532654e-07;-5.05635717859348e-06;0.0;-7.308554262705577e-06;7.308554262693429e-06;-0.0016254402497137455;-0.001722188190570208
0.3800523281097412;-0.0009413635759223649;-0.005328369310236544;-0.000639552349389629;0.003914472645606045;-0.0015687951450001714;0.006321767309632661;0.00025519578989046526;-2.6628568246685045e-17;-2.085694200817996e-09;1.8773716817927034e-34;-5.510911893607669e-35;1.5168781046133426e-38;-6.552234716887235e-16;5.478285359847257e-37;5.929437392568924e-11;8.290415908605076e-05;6.67182938861306e-11;-1.5350701075999815e-37;4.645137197126939e-05;-5.107552452442666e-05;-7.523456483933506e-07;0.0010387763681878512;-7.17894329237131e-08;3.480113713738457e-05;1.3395261223794645e-05;1.6312916813660643e-05;-1.6312916813663567e-05;-0.00011851892578643836;1.230850186517004e-05;9.797114133826746e-07;-3.6208256713625248e-06;0.0;-1.754910461087178e-05;1.7549104610863707e-05;-0.0015825372059588263;-0.00030579141769578326
0.40010905265808105;-0.0014126290628618352;-0.004910154350544748;-0.000683643966038596;0.003511055382437465;-0.0021628922880488587;0.005831752995432354;0.00038287248914925114;-1.530834577102935e-17;-2.80807655030837e-09;1.941863106281171e-34;-6.803958353567585e-35;2.197345219545384e-38;-7.146482102840185e-16;8.336196692483388e-37;8.809711161144544e-11;9.17470404605728e-05;8.884101731181214e-11;-1.5975720880364853e-37;5.006642427434488e-05;-5.430731491638574e-05;-9.96621678390134e-07;0.0010012327103177969;-5.830142327895311e-08;4.293615830747513e-05;1.1320437118506706e-05;1.490581220930811e-05;-1.4905812209311745e-05;-0.00015448885833358174;1.5301631503711108e-05;1.7101439408019239e-06;-2.1773065658741684e-06;0.0;-1.9371796184258796e-05;1.937179618423971e-05;-0.0015164315516111276;0.0012259841660552915
0.41986775398254395;-0.0019982219237096397;-0.004201156010760706;-0.0007224835228446123;0.002954263699587103;-0.002897470214412919;0.004995401061401879;0.0004683632383957787;-7.685308325838808e-19;-3.6215043336814835e-09;2.040888655085808e-34;-8.525697960478997e-35;3.0920594181119813e-38;-7.669432613611008e-16;1.2086604640319297e-36;1.212514038626738e-10;9.70961632523034e-05;1.1366486551621682e-10;-1.691208727890361e-37;5.231422149573701e-05;-5.602104709372532e-05;-1.270262409927898e-06;0.0009278478321635834;-4.651499665056239e-08;5.175450806820082e-05;9.310812014087556e-06;1.3811403488771595e-05;-1.3811403488776975e-05;-0.00019467631572835954;1.856066002193828e-05;2.566733576720394e-06;-7.286380224405987e-07;0.0;-1.2859003660334903e-05;1.2859003660340477e-05;-0.0014335558325351463;0.002755728114486013
0.4400656223297119;-0.0025869419131210863;-0.0031791117407175655;-0.0007347966082309354;0.0023977147053988075;-0.0036390077203376156;0.0037572207629576948;0.0005063587526502025;1.8063096924362824e-17;-4.5596222957708095e-09;2.0271359460522142e-34;-1.0173813501235358e-34;4.042206435962951e-38;-8.104323923659677e-16;1.6130591045765005e-36;1.6031801930430382e-10;9.957198663487913e-05;1.4219386515050955e-10;-1.6949085333907968e-37;5.1588060909939156e-05;-5.4551777458484927e-05;-1.5842124972606601e-06;0.0008100406437703757;-3.595487448461322e-08;6.153112214627835e-05;7.281061074353853e-06;1.2346839242716978e-05;-1.2346839242724083e-05;-0.00024064392329913161;2.2191213274087574e-05;3.5938694226660744e-06;7.924891370939634e-07;0.0;-6.206537296100818e-06;6.20653729608627e-06;-0.001335508664107771;0.004269179178126761
0.4600644111633301;-0.003065403590639453;-0.0021934505288602997;-0.0007332126392821455;0.002015637170466457;-0.004249422152405206;0.002564761010956958;0.00048797368119274734;4.1145142178726856e-17;-5.59396162176515e-09;1.9529302810780445e-34;-1.192750822645734e-34;5.104641304671316e-38;-8.394734364092087e-16;2.0682778968393584e-36;2.043247074763857e-10;9.949529836475167e-05;1.7353667184176083e-10;-1.6516829600291644e-37;4.606394150186461e-05;-4.8056876404598716e-05;-1.928523977804046e-06;0.0006501472758457564;-2.690959438055668e-08;7.186820404120351e-05;5.34722876506454e-06;1.0021225281935228e-05;-1.0021225281937163e-05;-0.0002908837223788415;2.6050274784344817e-05;4.770468121772186e-06;2.351024521651226e-06;0.0;-1.1855231624381336e-06;1.1855231624342821e-06;-0.001229456476646093;0.005670591111770892
0.4798848628997803;-0.003540162688832656;-0.0013663866553290092;-0.0007476460831553929;0.0018984563782679298;-0.004878011467491696;0.0015690644373329192;0.0004087509184948218;6.883994039456892e-17;-6.718327728926012e-09;1.8366073043428924e-34;-1.401884959567324e-34;6.395653736703082e-38;-8.498106933028308e-16;2.6227811062440042e-36;2.5320933467011694e-10;9.737265449148052e-05;2.074814444857939e-10;-1.5781021705267922e-37;3.543259930665241e-05;-3.619233144704895e-05;-2.300737610302041e-06;0.00046016876645569725;-1.9243297693221327e-08;8.260836643350753e-05;3.605941821129828e-06;7.258329924248614e-06;-7.25832992424831e-06;-0.00034498511240965886;3.0083732274126014e-05;6.09900926597584e-06;3.9578920015992995e-06;0.0;6.028844651444981e-06;-6.0288446514527205e-06;-0.001119286186495521;0.006934533858136273
0.4998900890350342;-0.003920080642377717;-0.0006359925287223825;-0.0007541808534666317;0.001955547930178733;-0.005395775423571776;0.0006701715791893125;0.0002725798671466771;1.0209396390093668e-16;-7.944581137278368e-09;1.6149772656437309e-34;-1.619629724493818e-34;7.826584912932879e-38;-8.362176544366424e-16;3.2421532151973365e-36;3.077508546086098e-10;9.358133330339925e-05;2.443546960286287e-10;-1.4219131933599895e-37;2.016428032153586e-05;-1.9363306836071573e-05;-2.704260550515807e-06;0.00025437894264505726;-1.2717238799503689e-08;9.374009615329119e-05;2.089819057625156e-06;4.371309464249835e-06;-4.371309464248847e-06;-0.00040337707726384084;3.429360341054145e-05;7.605958912105996e-06;5.650992891247218e-06;0.0;1.0102985682899726e-05;-1.010298568290064e-05;-0.001006238016298269;0.008030735169284289
0.5200049877166748;-0.00415572957746688;-3.979367420400203e-05;-0.000745699233565066;0.0020587667068604387;-0.005724743585545477;-8.493264836997657e-05;0.00010170634417381088;1.412841274648003e-16;-9.255926162819184e-09;1.2554335518241263e-34;-1.8133840260444505e-34;9.239981210148346e-38;-7.920930354474148e-16;3.86117526787238e-36;3.675371598082865e-10;8.848635674925594e-05;2.8361122923405853e-10;-1.1544162084753999e-37;1.8176694844770102e-06;9.157894679560848e-07;-3.1329053766141477e-06;4.855880759151499e-05;-7.276240143239477e-09;0.00010495215499052015;8.444747274581729e-07;8.283643578370652e-07;-8.283643578379318e-07;-0.00046508062452149635;3.857066364745554e-05;9.286516600095154e-06;7.430352200944071e-06;0.0;9.129635600718611e-06;-9.129635600720888e-06;-0.00089344815999317;0.008876369615649585
0.5398859977722168;-0.004239369965004496;0.0003111912864675161;-0.0007311458553355496;0.002125833723219619;-0.00584580346727666;-0.0005297691073334658;-7.481875068515046e-05;1.859844430423679e-16;-1.0609036937944045e-08;7.892119057630836e-35;-2.0333472740767114e-34;1.0894667190431231e-37;-7.11810083303618e-16;4.588206443190481e-36;4.309425513470162e-10;8.252908512995961e-05;3.2391213599596777e-10;-8.047833817751735e-38;-1.6950619306610418e-05;2.199359092863759e-05;-3.5718205991223833e-06;-0.00014071568912221456;-2.8950162892846145e-09;0.00011570838470244645;-1.0096721901531944e-07;-3.751858132651143e-06;3.7518581326523206e-06;-0.0005278690351114061;4.271978591386529e-05;1.1101691505086917e-05;9.264720606118421e-06;0.0;9.243563694437911e-06;-9.24356369443135e-06;-0.0007850346522169056;0.009402549246760443
0.5598571300506592;-0.004134550550155132;0.00043578856037418585;-0.0007025466646514828;0.00217659282314269;-0.005712464829376085;-0.000692099486756103;-0.00023896100204066483;2.370456886839511e-16;-1.1997633466541006e-08;1.6401714303397637e-35;-2.2438056182966753e-34;1.2632462868628022e-37;-5.871122888493374e-16;5.358732774067884e-36;4.980985669700449e-10;7.592733710408577e-05;3.650193312294707e-10;-3.2845217620586466e-38;-3.498291840852523e-05;4.278547087543289e-05;-4.018129469384679e-06;-0.00030797599388149814;6.17784121060889e-10;0.00012575701510032103;-7.732068136003345e-07;-8.121459402056668e-06;8.121459402059113e-06;-0.0005912225336815065;4.665616195385619e-05;1.3063196961533583e-05;1.1176802440318614e-05;0.0;9.575232439192741e-06;-9.575232439187564e-06;-0.000680945040066597;0.00957571752812108
0.5798754692077637;-0.004003510383046831;0.00042420724841403767;-0.0006796890781979668;0.002037153184349724;-0.005525340571566048;-0.0006656678557448556;-0.00037352715576731497;2.9446101924117036e-16;-1.3382893996202863e-08;-6.507607565451192e-35;-2.4688974723412264e-34;1.4617210550385257e-37;-4.0990117952466506e-16;6.243942081312814e-36;5.676993482236197e-10;6.895285414887163e-05;4.057150171714884e-10;2.9667447157674777e-38;-5.1478319638384755e-05;6.252481652383073e-05;-4.45822700802461e-06;-0.0004474310892966299;3.3525043082709073e-09;0.00013454612597679156;-1.1908102140409844e-06;-1.102725435308015e-05;1.1027254353082143e-05;-0.0006530651333445069;5.018172919684576e-05;1.514322893492349e-05;1.3149209493341739e-05;0.0;8.594787542322745e-06;-8.594787542325003e-06;-0.0005827735476240416;0.009320826934100237
0.6001756191253662;-0.003802575021182558;0.00034420107533395477;-0.0006486263953101927;0.002053185028457996;-0.0052594773761403734;-0.0006060127043463695;-0.00046553600015021714;3.5890427930020286e-16;-1.4734049508446992e-08;-1.617943661498343e-34;-2.562568501017012e-34;1.5985328307877805e-37;-1.682192200197989e-16;6.875008807369869e-36;6.389832319128815e-10;6.174400578141611e-05;4.4500122319178715e-10;1.0540905213245767e-37;-6.638901838766576e-05;8.124383307434719e-05;-4.880791316780362e-06;-0.0005574705390111643;5.427304809401499e-09;0.00014150871690126628;-1.3874835833869457e-06;-1.2986484625715859e-05;1.2986484625715926e-05;-0.0007116065668712194;5.3097425453611906e-05;1.733267647737897e-05;1.5182742975779417e-05;0.0;1.1570984708631715e-05;-1.1570984708619e-05;-0.0004904833597904976;0.008840813151876624
0.6199119091033936;-0.0035808775270410164;0.0001213961660545626;-0.0006249709503335593;0.0020531766991872214;-0.004963460812220632;-0.00037852748995496216;-0.0005013422303964029;4.271859625126809e-16;-1.5940906688524816e-08;-2.833601734572778e-34;-2.7160268187729902e-34;1.790829361939194e-37;1.3507113496725506e-16;7.754606488784815e-36;7.069680451895663e-10;5.478380416655939e-05;4.79574272413496e-10;2.002929507941059e-37;-7.936212963569098e-05;9.844026920531162e-05;-5.249720792915664e-06;-0.0006337307115899563;6.865287427170133e-09;0.0001456828555127098;-1.4018062906677608e-06;-1.4343823713945807e-05;1.4343823713948072e-05;-0.0007616307950272085;5.503745891697921e-05;1.9492296357187606e-05;1.715901134123605e-05;0.0;1.964437037902021e-05;-1.9644370379003624e-05;-0.0004083546020549691;0.00833554710302513
0.6398818492889404;-0.003452145734528178;-0.00021894993214603638;-0.0006258999475648191;0.00189886896488524;-0.00477607502201274;2.9516059537757667e-06;-0.00047465539720973395;5.012540706270509e-16;-1.6986897395789487e-08;-4.286365825489105e-34;-2.795888022533597e-34;1.9616932399823463e-37;5.1933436470849e-16;8.555349481609413e-36;7.718814889388053e-10;4.7937808545960394e-05;5.088202943636447e-10;3.1459966185383553e-37;-9.15318241494694e-05;0.00011541456576444631;-5.557661183309753e-06;-0.000681147676481694;7.82978019270987e-09;0.00014646087655783923;-1.288764486207854e-06;-1.4700450373447274e-05;1.4700450373449567e-05;-0.0008018358452757347;5.579643351874156e-05;2.1647346337816442e-05;1.9111929979314494e-05;0.0;2.4644223099100683e-05;-2.4644223099091657e-05;-0.0003331905257267335;0.007633815504051083
0.6599116325378418;-0.00334129176743445;-0.0005026109668161091;-0.000623677337671218;0.001591300689640874;-0.004598759972756411;0.0003203626554790131;-0.0003824979243874259;5.795673230831133e-16;-1.777859881361747e-08;-5.968733798951096e-34;-2.7915209808560973e-34;2.1044245725868945e-37;9.916254621885803e-16;9.248385613834888e-36;8.299675240613329e-10;4.138499815630075e-05;5.29882285134908e-10;4.478293477122953e-37;-0.00010359569250894636;0.00013282774278396774;-5.773082595096188e-06;-0.0007008370010386326;8.38469393969267e-09;0.00014280545102489733;-1.1143673473141206e-06;-1.3544703630811947e-05;1.3544703630813004e-05;-0.000830529824664657;5.499218462434862e-05;2.370190160892872e-05;2.0963928169729862e-05;0.0;2.4169231516763702e-05;-2.4169231516752016e-05;-0.00026589463754703716;0.006909397519835627
0.6798930168151855;-0.0034201521303912894;-0.0008713714020028998;-0.0006643741737038412;0.0009583481175693742;-0.004642489546927193;0.0008395712109627404;-0.00024149936925107438;6.603043868899355e-16;-1.8217798637379356e-08;-7.940866362347182e-34;-2.711673265513362e-34;2.2291962841133983e-37;1.557721816076802e-15;9.88003393778232e-36;8.771966589883942e-10;3.5246583912773786e-05;5.397664755114475e-10;6.046674328769009e-37;-0.00011507836015875542;0.00015015053936101689;-5.862998214561912e-06;-0.0006956116061106482;8.601953117592032e-09;0.0001336644150281164;-9.61636041921249e-07;-1.1181226831525853e-05;1.1181226831527533e-05;-0.0008482084625072523;5.22354116034992e-05;2.5551294214699444e-05;2.263027350793493e-05;0.0;2.3358020219830776e-05;-2.3358020219819863e-05;-0.00020671592186950445;0.0063192099046982236
0.6999170780181885;-0.003513937566186431;-0.0013973509933588855;-0.00072423684114326;0.0001960231040136779;-0.004692254249183562;0.0016243545388353452;-7.607281271183651e-05;7.41963770033822e-16;-1.8198444155166458e-08;-1.0205704799017577e-33;-2.5231357069801773e-34;2.3173562000708765e-37;2.2276557019603327e-15;1.0371198054767769e-35;9.09404925298048e-10;2.9554359707248967e-05;5.352176420874359e-10;7.85640713328079e-37;-0.0001245888137885917;0.00016596950954953372;-5.791418697492536e-06;-0.0006689221440915418;8.550348093048932e-09;0.00011781286910123601;-9.115492604201627e-07;-7.837779839547216e-06;7.837779839547318e-06;-0.0008539611267212436;4.7076908959665146e-05;2.7091353208828303e-05;2.4026967261316758e-05;0.0;1.88665583995557e-05;-1.8866558399551633e-05;-0.00015510290886295086;0.005699308514938542
0.7199947834014893;-0.0035488333934783753;-0.001913627700003318;-0.0007748853134644795;-0.00052071435244685;-0.004667674650527863;0.002414321553618912;9.39910251172533e-05;8.221926140723176e-16;-1.759408397406071e-08;-1.259763990384161e-33;-2.1741120775793377e-34;2.325121663169002e-37;3.0088017936607595e-15;1.0527331992266194e-35;9.214010745413315e-10;2.4346229832112496e-05;5.123815856344587e-10;9.780965634037514e-37;-0.00013122983448018698;0.00017931708797838526;-5.515878713385108e-06;-0.0006243928335579293;8.287908337660852e-09;9.660000199109302e-05;-1.0461193483546958e-06;-3.803450583708743e-06;3.8034505837111368e-06;-0.0008452097057643644;3.90159229170746e-05;2.8187166061758213e-05;2.5042666528367454e-05;0.0;1.0143800165459195e-05;-1.0143800165459237e-05;-0.0001106834892826326;0.004910402088045629
0.7398769855499268;-0.003457969652453142;-0.0023642225378984324;-0.0007995044664976185;-0.0012414916170391203;-0.00447547734551988;0.003142043985715894;0.0002505878360804486;8.970670589081709e-16;-1.6283096031094558e-08;-1.5434950627281083e-33;-1.7051415883319677e-34;2.3030447283945835e-37;3.894710098244904e-15;1.0579602666255869e-35;9.075238249603078e-10;1.9699920062821105e-05;4.676314693506894e-10;1.2068739245379428e-36;-0.00013450088161780582;0.00018949711031723877;-4.996852572358351e-06;-0.0005637469054949576;7.871569638885252e-09;7.379657649289629e-05;-1.4409896091442569e-06;5.23332720271836e-07;-5.233327202699717e-07;-0.0008184387282581263;2.7673729537819675e-05;2.867736903097476e-05;2.5541646930275604e-05;0.0;4.7314248990548335e-06;-4.731424899054248e-06;-7.345260062953076e-05;0.003845636450403627
0.7598755359649658;-0.003196685504886925;-0.0027064562834287265;-0.0007863305276602625;-0.0019529685838595764;-0.004057786411947196;0.0037463023462416313;0.0003831151367269994;9.641605310666298e-16;-1.4098543839394071e-08;-1.8444799926145377e-33;-1.0376292276971008e-34;2.1828305079448104e-37;4.90065786582281e-15;1.0223798298678068e-35;8.611933304063923e-10;1.5542452013025592e-05;3.9584631183678845e-10;1.4510682722271978e-36;-0.00013434663499199646;0.00019641335950162147;-4.177739875586481e-06;-0.0004847911917371017;7.340478135266664e-09;5.1564517717873336e-05;-2.180099784637766e-06;4.931872179925488e-06;-4.931872179928717e-06;-0.0007683097117343463;1.2347142849225369e-05;2.8396786814430518e-05;2.5386373758955315e-05;0.0;2.6054458579657165e-06;-2.6054458579597433e-06;-4.2243437360289256e-05;0.0023850077376211813
0.7798559665679932;-0.0029187386112856173;-0.002953649956964094;-0.0007633048125529116;-0.0028675144925011083;-0.0035993305609691743;0.00428250161814902;0.0004797159452891575;1.0186416283619112e-15;-1.0885994553118694e-08;-2.183739864054212e-33;-1.5976827018954173e-35;1.9759022422487537e-37;6.019686524754378e-15;9.519275004571482e-36;7.752817964309762e-10;1.1895990205435148e-05;2.924135451150514e-10;1.7274262464860248e-36;-0.0001308609729485293;0.00019992261948747027;-3.008231995490349e-06;-0.00038760413987863916;6.735161951030799e-09;3.1765499544958816e-05;-3.33884100121862e-06;9.170059266904773e-06;-9.170059266903687e-06;-0.0006889014869456976;-7.454091602680829e-06;2.7143397093580078e-05;2.4405176929312344e-05;0.0;-7.934130977352285e-07;7.93413097726979e-07;-1.6737518375177187e-05;0.000751550397498337
0.7999637126922607;-0.0026413778634207475;-0.003232400086616605;-0.0007452328567467643;-0.00376652953410464;-0.0031425575916784673;0.0048856381353705415;0.0005316305797616029;1.055660661185429e-15;-6.437678141968285e-09;-2.5050734238272662e-33;9.572819964654379e-35;1.6173294288386012e-37;7.255891557505723e-15;8.161228108094321e-36;6.408637360946185e-10;8.718465813399023e-06;1.5104787349663476e-10;1.9917092689828966e-36;-0.00012429202973762604;0.00020008092054448005;-1.4193354769161625e-06;-0.00027181934195288806;6.082523372279904e-09;1.5357932875853953e-05;-5.006152860096767e-06;1.294836516019994e-05;-1.294836516020008e-05;-0.0005722593505736474;-3.2491806356310544e-05;2.4676807838584827e-05;2.2393929464669334e-05;0.0;-3.33197227934475e-06;3.331972279356824e-06;3.8000498558056555e-06;-0.0008548380492116886
0.8198740482330322;-0.0023325511481748426;-0.0034343139099754765;-0.000716427919901995;-0.00448531928591562;-0.0026611424750617885;0.005377149383216961;0.0005305154028738686;1.0688598295191226e-15;-6.505040808989151e-10;-2.897809061816578e-33;2.3713268411912603e-34;1.1513092671551234e-37;8.579083644550499e-15;6.383426721527369e-36;4.5192054006649064e-10;6.031869652623e-06;-3.117858344255885e-11;2.3151491839512484e-36;-0.00011518531328083459;0.00019703421714256883;6.200471963940587e-07;-0.00014054080787599115;5.419019220715705e-09;3.1437666330660134e-06;-7.22553723844731e-06;1.5816392129647372e-05;-1.5816392129646424e-05;-0.0004214518607626993;-6.289917146835055e-05;2.0802551244728712e-05;1.9184471580366863e-05;0.0;-3.016958769318035e-06;3.016958769312473e-06;1.964746824105087e-05;-0.0022133141115016873
0.8400518894195557;-0.001896601532580124;-0.003590681300857112;-0.0006633764805216195;-0.00510670842560315;-0.0020195710621960404;0.005818238186590232;0.0004690795576446168;1.0515742619069066e-15;6.808855054424699e-09;-3.234099720919197e-33;4.044505702596067e-34;4.890417065436828e-38;1.0004929496089152e-14;3.742766785496143e-36;1.9458183036915228e-10;3.7430446092376494e-06;-2.644032357882e-10;2.596195918218022e-36;-0.00010384133235540783;0.0001908603853881818;3.22148801568503e-06;7.630163635845982e-06;4.750173181545708e-09;-4.988815212541996e-06;-1.0122626512961193e-05;1.749867617230264e-05;-1.7498676172305113e-05;-0.00024316088794403465;-9.996752222930564e-05;1.5156190803005752e-05;1.4466299814995647e-05;0.0;-6.974309564079416e-06;6.974309564087367e-06;3.1732901229820244e-05;-0.003169473275675769
0.8600490093231201;-0.0012453005722848358;-0.0037233334968051653;-0.0005726685101059849;-0.005395542542846897;-0.001122246316110923;0.006195755146320991;0.00034212241320445767;9.964217803298178e-16;1.597267180135917e-08;-3.558940774143302e-33;5.999504611635681e-34;-3.435496622597325e-38;1.1480011871303146e-14;3.725546583255376e-37;-1.3520608871342423e-10;1.869883248340056e-06;-5.492824028537325e-10;2.8706725596938327e-36;-9.107888763895395e-05;0.00018183788748612082;6.390443801549389e-06;0.00016724342912319696;4.107040756321452e-09;-9.008593914377895e-06;-1.3394235338729682e-05;1.8576124619961655e-05;-1.857612461996406e-05;-5.53731645486931e-05;-0.00014340447105913576;7.574249221988678e-06;8.094791255101405e-06;0.0;-1.652188404012934e-05;1.652188404012371e-05;4.0307680860003494e-05;-0.0038375004078940837
0.8798885345458984;-0.00044283120612836164;-0.00367692800646073;-0.00043651258251857907;-0.005573670354005897;-3.570390508138521e-05;0.006274224341068716;0.00016487145815769042;8.95990474674578e-16;2.698697801821402e-08;-3.922392476981357e-33;8.39464697619015e-34;-1.3933880547448565e-37;1.2974565588966437e-14;-3.900801320912688e-36;-5.453273604146692e-10;3.62941447015099e-07;-8.900404988317046e-10;3.179612544225669e-36;-7.753856527169774e-05;0.00017016373513585324;1.0172230353125917e-05;0.00033540521628577514;3.5004474575995563e-09;-9.453694344534245e-06;-1.6538745598427118e-05;1.9629202393924e-05;-1.962920239392486e-05;0.00012711663104704614;-0.0001934974349624362;-2.1884105080708497e-06;-1.4320247550963467e-07;0.0;-2.506692189815741e-05;2.5066921898142376e-05;4.597434163183833e-05;-0.0043509909407190754
0.8998947143554688;0.0003858155617076749;-0.0034581110913130993;-0.0002773920830667101;-0.005657026083960456;0.0010751478360641357;0.006066956768762499;-3.4932583990765994e-05;7.394126975526025e-16;4.020270304658186e-08;-4.23846266436546e-33;1.1158958276942991e-33;-2.694293645230785e-37;1.447368418224024e-14;-9.265263673614968e-36;-1.051934298500546e-09;-8.405621274431917e-07;-1.2971643885314657e-09;3.454308713779894e-36;-6.365371210130847e-05;0.0001557400926096893;1.4681255902969971e-05;0.0005115201539125341;2.9292912059774092e-09;-6.974330338266078e-06;-1.9199032025540416e-05;2.02790920907526e-05;-2.0279092090754724e-05;0.00029707878179558296;-0.0002513673472423991;-1.458874509298535e-05;-1.0641552548639461e-05;0.0;-3.415764130523699e-05;3.41576413052369e-05;4.929779973225115e-05;-0.004823365924097809
0.9199707508087158;0.001096908974039424;-0.003111162998600061;-0.0001238628498702836;-0.006088933258687999;0.0020607999139485183;0.005705908656533656;-0.00022988841241488182;5.165265870727405e-16;5.5741948026191e-08;-4.490532308380157e-33;1.4287749276177172e-33;-4.257941939670581e-37;1.592015224571707e-14;-1.5778994070273307e-35;-1.6632142992106846e-09;-1.767331052548512e-06;-1.7739948581380296e-09;3.6815624804754635e-36;-5.016771868870516e-05;0.00013863398455746836;1.9952264447120192e-05;0.0006908710280851456;2.402959806128574e-09;-2.34722789437389e-06;-2.101455078407626e-05;2.0166208829352478e-05;-2.0166208829353e-05;0.00044689676720073655;-0.0003170088840627796;-2.990715990641211e-05;-2.364697161193602e-05;0.0;-4.326673122445008e-05;4.3266731224432494e-05;5.065359189105599e-05;-0.005337978686283743
0.9400582313537598;0.001515436122313747;-0.0025975682583424036;-2.7680027740918346e-06;-0.006778829749207536;0.0026792942357482044;0.00512056467016957;-0.0003959024228038541;2.170322546055046e-16;7.368989985343947e-08;-4.6037679736227594e-33;1.7548668189605507e-33;-6.016648739755161e-37;1.7247875245649456e-14;-2.3192946931061478e-35;-2.3861712216650036e-09;-2.4499934150009307e-06;-2.322707741897766e-09;3.8000725486953756e-36;-3.782238707975366e-05;0.00011886795697588653;2.6006948798156556e-05;0.0008682641114036436;1.926730515588757e-09;3.469784036157743e-06;-2.1688917226162627e-05;1.9862529778036297e-05;-1.9862529778036992e-05;0.0005723123099056948;-0.0003902194293664252;-4.84003722994472e-05;-3.938714029066475e-05;0.0;-4.451310622330991e-05;4.451310622330446e-05;5.0417270019673344e-05;-0.005963661179658596
0.9598875045776367;0.0017568768858433695;-0.0019127112539488434;0.00010636983294218794;-0.007702063741172934;0.00308214011661011;0.004301600056336517;-0.0005127540238813601;-1.6436244700650408e-16;9.383170882519858e-08;-4.740192289645322e-33;2.1651497521449924e-33;-8.23464129549909e-37;1.836857188477425e-14;-3.254633734074992e-35;-3.2157227904957475e-09;-2.9182847462126582e-06;-2.936306073236518e-09;3.944392635658877e-36;-2.7462146016903076e-05;9.669125140725741e-05;3.276578623756855e-05;0.0010388886804086333;1.5074792485674895e-09;9.327600108641874e-06;-2.0992902663507314e-05;1.981471306952769e-05;-1.9814713069528043e-05;0.0006705991151395894;-0.000469572571196445;-7.001592730362801e-05;-5.7826980109725006e-05;0.0;-3.7634902995590735e-05;3.763490299558675e-05;4.896108235735488e-05;-0.006744194208061671
0.979999303817749;0.001729037868511982;-0.001178054815881314;0.00017633873026245714;-0.008801997150876853;0.0031421395074815346;0.0034031093580239665;-0.0005681289086189985;-6.493661631225931e-16;1.1673379320710637e-07;-4.629603139225043e-33;2.5590577527550346e-33;-1.0572626387128827e-36;1.9224198041382205e-14;-4.253670865870431e-35;-4.179616671080088e-09;-3.2175463645473884e-06;-3.6315150367450725e-09;3.8917057922043495e-36;-1.9540278948926623e-05;7.137855586979759e-05;4.0410130690016515e-05;0.0012064036493562576;1.1336821153066954e-09;1.4212062155295702e-05;-1.8686662448836258e-05;1.946777030479291e-05;-1.9467770304793098e-05;0.000744478068583011;-0.0005566193285377266;-9.557068196003858e-05;-7.967483946975731e-05;0.0;-3.071715697158622e-05;3.0717156971579524e-05;4.654807674208055e-05;-0.007768614383851077
0.9998905658721924;0.0014845169789137204;-0.00025509722250765735;0.00022856198802757838;-0.01012211346069104;0.002932472603366199;0.002251751181716181;-0.0005500728813837198;-1.2370585335188871e-15;1.4177331836240071e-07;-4.430279952268099e-33;3.0194068868589375e-33;-1.3365455256843389e-36;1.9691435644414752e-14;-5.450526442275881e-35;-5.256576252052226e-09;-3.36912069337194e-06;-4.38883582656078e-09;3.7746500683309344e-36;-1.4997491885364446e-05;4.339809027381934e-05;4.8722354537092107e-05;0.001363688932678172;8.13501541382171e-10;1.6764912025760236e-05;-1.4627407885743363e-05;1.8351066728354302e-05;-1.835106672835458e-05;0.0007931931757949174;-0.0006482322057760806;-0.00012460313262090895;-0.00010454871457425987;0.0;-2.5304178648852432e-05;2.5304178648852595e-05;4.349180726915928e-05;-0.008793602111773557
1.0198781490325928;0.0010022176256928917;0.0007790628988072626;0.0002503497602735828;-0.011518848491397555;0.0024124078783785185;0.0009527359531140089;-0.00046075681846804447;-1.9461516076102e-15;1.6917205642264704e-07;-4.0184961424349735e-33;3.503141592281863e-33;-1.6474809055224765e-36;1.966428450498534e-14;-6.792802335577374e-35;-6.461574925901388e-09;-3.40398512684473e-06;-5.214324000842059e-09;3.491461728873139e-36;-1.4483933980771524e-05;1.2151604770194958e-05;5.77653608584527e-05;0.0015085074979905631;5.389757006811045e-10;1.5728544897424696e-05;-8.587277951527758e-06;1.692423827839627e-05;-1.6924238278395542e-05;0.0008197443337222232;-0.0007443857309924901;-0.00015762743298450646;-0.00013546223829315575;0.0;-1.730361477519651e-05;1.7303614775188602e-05;3.99716263153547e-05;-0.009324719239905306
1.0399186611175537;0.0005940304952686136;0.0017919225901131602;0.0002810756563160815;-0.012937264998958094;0.0019936539646509695;-0.0002851219600461234;-0.00031929228130238546;-2.7858199679212316e-15;1.9862789076367672e-07;-3.358163984932337e-33;4.002597114260523e-33;-1.988820211137137e-36;1.9004475170243504e-14;-8.277051591189957e-35;-7.788163392090382e-09;-3.345139835402139e-06;-6.098056948995076e-09;3.012892143476955e-36;-1.8812942038620717e-05;-2.2518149846616117e-05;6.7425951677248e-05;0.0016337267720449857;3.0813625480402644e-10;9.678655268871205e-06;-2.242352561697016e-06;1.552408202445848e-05;-1.5524082024460208e-05;0.000826305735587528;-0.0008429667497427875;-0.00019460279645676894;-0.00017707898696601965;0.0;-1.196936189734147e-05;1.1969361897343734e-05;3.617619246928045e-05;-0.009183696175105695
1.059990644454956;0.00021877593633507124;0.0028279423028000554;0.00031776321708912634;-0.014031183967233143;0.0015883982544064612;-0.0015857904280191354;-0.00015149657168994266;-3.763829751240515e-15;2.2971786846650738e-07;-2.388627079285577e-33;4.463415451870659e-33;-2.334853003063411e-36;1.755984198400631e-14;-9.797160503664529e-35;-9.225269590660894e-09;-3.213670343694946e-06;-7.02638845638283e-09;2.286109086696909e-36;-2.8788053792600294e-05;-6.077514942544641e-05;7.754968290619191e-05;0.0017305699854589314;1.1793629242322447e-10;-2.855280769346082e-06;2.749794180799488e-06;1.3471468347574385e-05;-1.3471468347573926e-05;0.000815490908269893;-0.0009413315442554401;-0.00023537549712265144;-0.00023312747227663503;0.0;-1.0861029621905687e-05;1.0861029621906624e-05;3.226145845554912e-05;-0.008497913394178424
1.0798959732055664;-5.651231459902954e-05;0.0038090337388648533;0.00036477800546359877;-0.014653426654141051;0.0012726271815954294;-0.0028680139784337958;2.0075830845405306e-05;-4.8746785013612056e-15;2.6156419029958933e-07;-1.1273490811900568e-33;4.9621812104839256e-33;-2.7276716609724955e-36;1.51908764241956e-14;-1.153106864713578e-34;-1.0741214948281565e-08;-3.030159668304732e-06;-7.972040637582524e-09;1.3317169137192024e-36;-4.502121808397468e-05;-0.00010234945668702983;8.783317533105058e-05;0.0017881908185042228;-3.396017176986751e-11;-2.0617161070639407e-05;6.575392971858875e-06;1.0201991477325692e-05;-1.0201991477323127e-05;0.0007903697348144919;-0.0010353329020385345;-0.00027921508826308464;-0.0003057268986802546;0.0;-7.597573418681961e-06;7.5975734186795185e-06;2.8389076819032264e-05;-0.007374284725561236
1.0998663902282715;-0.0003825472315138232;0.0047529222276179485;0.0003976582153898941;-0.01476501144045274;0.000841722578527257;-0.0041654823658739204;0.00018064196249428885;-6.132796861766376e-15;2.9378996976558346e-07;5.234161582599276e-34;5.435961254896635e-33;-3.139885389110904e-36;1.1700744971120433e-14;-1.3367432397027455e-34;-1.2329155335883205e-08;-2.8088977190267237e-06;-8.922491066562851e-09;6.676090005076163e-38;-6.841442755666009e-05;-0.00014777995143085327;9.81328470949339e-05;0.001795542465632577;-1.5354689130821504e-10;-4.063991177355513e-05;9.479796874568934e-06;6.053041380599507e-06;-6.053041380598066e-06;0.0007535185532967849;-0.0011221497139453308;-0.0003261274982553048;-0.0003976689805439201;0.0;-3.6817554448882163e-06;3.681755444881726e-06;2.4610064453749212e-05;-0.005901269930834074
1.1198928356170654;-0.0008733644534637095;0.00554836417388916;0.00038618901926781597;-0.014457880819655142;0.0001532007811113993;-0.005310055148811493;0.0003164101165531831;-7.537627415148303e-15;3.2543400193604164e-07;2.473118409344616e-30;5.826848618565905e-33;-3.5412411714927914e-36;6.892097272300376e-15;-1.5179333660550765e-34;-1.3956602330230928e-08;-2.5632246989658622e-06;-9.847606080374387e-09;-1.5387726426813527e-36;-9.975962680888368e-05;-0.0001970705283173879;0.00010811215427960951;0.0017383734662191688;-2.4442158316332894e-10;-6.066126000271248e-05;1.161720080830908e-05;1.3422723674960215e-06;-1.342272367495185e-06;0.0007074780225598064;-0.0011969019287155869;-0.00037541692096474544;-0.000510456741462899;0.0;-1.363349223691121e-06;1.3633492236873167e-06;2.1000314542299767e-05;-0.004208117262858097
1.1398496627807617;-0.001351559778799544;0.006268707885652107;0.0003680570199321692;-0.013737264387672624;-0.0005566391707378649;-0.006399902951606279;0.0004154512584554654;-9.074068900696667e-15;3.551228780596827e-07;5.2004378184968854e-33;6.226962669314641e-33;-3.9939123409196214e-36;5.995955964295171e-16;-1.7236732297516802e-34;-1.5571379214468163e-08;-2.30592741871888e-06;-1.0705019929121013e-08;-3.565968005143518e-36;-0.00013953975320802;-0.00024977311839777304;0.00011730157962404834;0.001604297114503569;-3.098710095642098e-10;-7.897795875006495e-05;1.3111654195136251e-05;-4.504398947950022e-06;4.504398947953604e-06;0.0006549641264572776;-0.0012535030424837576;-0.0004258169612344567;-0.0006440311372128251;0.0;4.650247342089894e-06;-4.650247342095015e-06;1.763509778147294e-05;-0.0024312928922915716
1.160017490386963;-0.001587054561738713;0.006764449596713332;0.0003691912432368753;-0.012648490593315407;-0.0009759305897712409;-0.007218856568546978;0.00046934923764059956;-1.0752840408737723e-14;3.8179466560637417e-07;8.235112471268524e-33;6.39945668662455e-33;-4.354058582089806e-36;-7.48721879733999e-15;-1.8923121892269207e-34;-1.714215392517317e-08;-2.0425694680030624e-06;-1.1460894044157823e-08;-5.953215491807299e-36;-0.00018903197966120889;-0.00030636318975105805;0.00012532031785093283;0.0013780783842366302;-3.5426810888726683e-10;-9.476865884628337e-05;1.4091552477881892e-05;-1.2123463652612982e-05;1.212346365261039e-05;0.0005973919044147749;-0.0012858593072419355;-0.0004767745839142983;-0.0008004510983685096;0.0;1.5838095933372486e-05;-1.583809593335734e-05;1.4505957683226935e-05;-0.0006372472652370047
1.1799964904785156;-0.0016301763969936319;0.007043709773345636;0.00038165673818567683;-0.011246263968553338;-0.001166634109707118;-0.0077693409492944916;0.0004690892725622248;-1.25215294722771e-14;4.031995255258541e-07;1.1824071093585328e-32;6.468963018786542e-33;-4.703418000667348e-36;-1.741352907622118e-14;-2.0592216757828797e-34;-1.857231798640879e-08;-1.785645884953238e-06;-1.2047163069166756e-08;-8.788398434147844e-36;-0.0002477802299648502;-0.00036522148523949853;0.00013142119163032343;0.001063895943451716;-3.8012010014540874e-10;-0.00010708597638588211;1.4625764280111117e-05;-2.007370050279501e-05;2.007370050279835e-05;0.0005378253297652884;-0.0012857148465905736;-0.0005256886499174938;-0.0009758420464517544;0.0;2.3571385505441244e-05;-2.357138550543971e-05;1.1696748219709463e-05;0.001075365290064038
1.1999194622039795;-0.001711073792925481;0.007064174042976397;0.0003614413704278287;-0.009553567527870331;-0.0014328810758088323;-0.007990301831225451;0.0004088293150156667;-1.4362160828824363e-14;4.175592563551328e-07;1.6166083657735658e-32;-1.2208878677118857e-30;-5.054190248152845e-36;-2.940626214758015e-14;-2.23060827662289e-34;-1.979495083721295e-08;-1.5389831227627783e-06;-1.2408898439464176e-08;-1.2229651388430322e-35;-0.0003163597272225937;-0.00042593942548199975;0.00013499504895731336;0.0006871105691170566;-3.9107727301743436e-10;-0.00011575626250359831;1.4793424002403746e-05;-2.7103873566123384e-05;2.7103873566123648e-05;0.00047758150776611744;-0.0012450915440436559;-0.0005709495177880043;-0.00116934991055904;0.0;2.5532542823554158e-05;-2.5532542823536492e-05;9.192951049618274e-06;0.002677643195808495
1.2200055122375488;-0.0018100625299891989;0.006713975682170668;0.0003023629025836591;-0.007605399543705979;-0.0017444440686660069;-0.007733671625730816;0.00028583244296980274;-1.625747636575081e-14;4.226181257605363e-07;2.0827778216099235e-32;6.0406421894666895e-33;-5.236749842164692e-36;-4.3798495373754907e-14;-2.332171847021257e-34;-2.0727391518538423e-08;-1.304160182949466e-06;-1.2476153070953066e-08;-1.5954435362538684e-35;-0.0003957777640500061;-0.00048814830882177137;0.0001352647525478754;0.0002817960519040794;-3.900294923164522e-10;-0.0001207600835402262;1.464166439704839e-05;-3.37465688713044e-05;3.374656887130415e-05;0.00041742476459095317;-0.001153525259704301;-0.0006132964019118333;-0.0013806390923345833;0.0;2.6651675725961706e-05;-2.6651675725953466e-05;6.969386331295819e-06;0.004160881412823027
1.2398858070373535;-0.001867353271081595;0.006035589242761506;0.00022192441032425515;-0.005548700644301038;-0.0020085581924546817;-0.007073943168090893;0.00011793115678529442;-1.8123883546483074e-14;4.156741726039223e-07;2.65769516034243e-32;5.505969394403351e-33;-5.4286126203477363e-36;-6.047612845680037e-14;-2.443286594049314e-34;-2.1245309302245822e-08;-1.088349421272717e-06;-1.2168179957355376e-08;-2.0553310726023098e-35;-0.00048302966575013666;-0.0005507694578403671;0.00013134935720143158;-0.0001123803151138458;-3.7957074981864323e-10;-0.00012209798011072939;1.4227973921646399e-05;-4.0263123797444014e-05;4.026312379744231e-05;0.0003596317203852772;-0.0010048867617476914;-0.000653913362035073;-0.0016021605599355585;0.0;2.3448962198275337e-05;-2.3448962198273992e-05;5.058440734527484e-06;0.005484992186283639
1.2599952220916748;-0.0018157868167281638;0.005109306483214607;0.00013962224926495156;-0.003511341340487441;-0.002124292279314266;-0.006102017392047569;-7.103120407728814e-05;-1.9939443527810784e-14;3.9351987477564735e-07;3.238696874007347e-32;4.514590727644116e-33;-5.365723542863545e-36;-7.99339891078939e-14;-2.4464777070681637e-34;-2.123221170841046e-08;-8.887596301930135e-07;-1.1385392799784081e-08;-2.524077890539006e-35;-0.0005769791850187767;-0.0006160475706517557;0.00012214175426409244;-0.0004815688661531421;-3.6174206745193247e-10;-0.00011999139856189753;1.360093420121397e-05;-4.540747236999618e-05;4.540747236999769e-05;0.00030392380162232125;-0.0007949069061942432;-0.0006942882491878931;-0.0018338659288946989;0.0;1.5360902106037757e-05;-1.5360902106033735e-05;3.4053653647932508e-06;0.006639015925138383
1.2798867225646973;-0.001665959626686895;0.004082157340774637;6.74339511418771e-05;-0.0023184741432228165;-0.002028948571089111;-0.004872639076972459;-0.0002530427015743496;-2.1588139018161758e-14;3.533420911348007e-07;3.9198865899547577e-32;3.208539400453339e-33;-5.2101701823455764e-36;-1.0181693116935731e-13;-2.4154562237320114e-34;-2.0546989100607452e-08;-7.108312945571822e-07;-1.0045121058037825e-08;-3.074927538737844e-35;-0.0006726546252701139;-0.000682469553610804;0.00010674774823678194;-0.0008035779612028757;-3.3887846189251096e-10;-0.00011475260874744148;1.2807221170431968e-05;-4.77783262209671e-05;4.777832622096563e-05;0.0002523146769052858;-0.0005439252191961429;-0.0007328803601091619;-0.0020644540756834372;0.0;1.0159073271150629e-05;-1.0159073271146002e-05;2.0298369421546885e-06;0.007535889268279794
1.2998530864715576;-0.0013111070624775914;0.002943543201860988;2.2855174168989747e-05;-0.002000152041789614;-0.0015773582559238642;-0.0033641248549844925;-0.00041149903111802207;-2.3003785497520982e-14;2.9111352591741047e-07;-2.4117150516395047e-30;1.4296048357767454e-33;-4.84304502492568e-36;-1.2643118218074477e-13;-2.297981744634262e-34;-1.9027828718757915e-08;-5.520123803334e-07;-8.024191300819853e-09;-3.682830759222755e-35;-0.0007684629219013226;-0.0007500429553832643;8.380793577331995e-05;-0.0010758062556562966;-3.1238060240051613e-10;-0.00010665398398060344;1.1848979375396446e-05;-4.787986278200266e-05;4.787986278200237e-05;0.00020462309301502168;-0.0002749882614735971;-0.0007684845480064464;-0.0022895676941085304;0.0;8.025503954771528e-06;-8.025503954760225e-06;8.884911470747763e-07;0.00811374606432005
1.3199083805084229;-0.0007761509031907552;0.0017832684127513316;9.968086195886766e-06;-0.002274642411699972;-0.0008300615346938608;-0.00175076363597886;-0.0005304978568459985;-2.4074825048862784e-14;2.025916360979479e-07;5.486756702747815e-32;-9.070638271701547e-34;-4.219627935765385e-36;-1.5375819648317336e-13;-2.0752678045808103e-34;-1.64874354910819e-08;-4.1213495647196454e-07;-5.194866150678695e-09;-4.351827282796566e-35;-0.0008612759870204259;-0.0008170019792571583;5.4788954276272414e-05;-0.001294805755864585;-2.836093798309994e-10;-9.599529678173316e-05;1.0716766909189315e-05;-4.601883072238115e-05;4.60188307223824e-05;0.0001613475115934239;-9.087053275406008e-06;-0.0007982243020975378;-0.0024998138963226667;0.0;4.607450601627223e-06;-4.607450601622762e-06;-3.868423104106487e-08;0.008276211438100945
1.3400986194610596;-0.00012497769895072663;0.0005722670768698241;1.501500200569711e-05;-0.0030224560183668044;0.00011677371372535042;-1.5371278280378486e-05;-0.0005966210224953954;-2.4668329283586567e-14;8.292677726690881e-08;6.220426603690175e-32;-3.794526153068467e-33;-3.2090730708633535e-36;-1.8373268709841464e-13;-1.6836820980221974e-34;-1.270953717070811e-08;-2.904474470496936e-07;-1.4113901753128164e-09;-4.958222106154221e-35;-0.0009476668258332114;-0.0008807628158180516;2.3403906181240552e-05;-0.0014607563430448446;-2.536546790962704e-10;-8.30629400648806e-05;9.381629196555025e-06;-4.251448632156868e-05;4.251448632156864e-05;0.0001228402771560746;0.00023941158654652004;-0.0008181493996764893;-0.002683921784049198;0.0;2.314169701313381e-06;-2.3141697013007173e-06;-7.733991337078148e-07;0.008246384730822207
1.3600022792816162;0.0005121786706815386;-0.0005836825666374959;2.5146236389754186e-05;-0.004054821735013235;0.0010710101607647304;0.0016630710863743702;-0.0005985281819394341;-2.4631983548336737e-14;-6.93055729472455e-08;7.053217824016445e-32;-1.2442485889702563e-30;-1.9140794766831028e-36;-2.1541185967583e-13;-1.1763493354332562e-34;-7.585029716452878e-09;-1.8819786284456483e-07;3.363583279402621e-09;-5.648842539664043e-35;-0.001021948418774607;-0.0009365191192298094;-6.871497536434533e-06;-0.0015739389638525338;-2.240949455342372e-10;-6.849564623143966e-05;7.836604140253169e-06;-3.781423146245177e-05;3.781423146244831e-05;9.012683643452703e-05;0.0004561750236995952;-0.0008231861812102048;-0.002825133132035744;0.0;3.3631157616393446e-06;-3.363115761643726e-06;-1.3253169362743843e-06;0.00822652341754739
1.3799324035644531;0.0009689098970840585;-0.001488600769968419;2.9302310649892296e-05;-0.005295437409656566;0.0018022799018569875;0.003005750572342705;-0.000530712460818546;-2.3812016918054377e-14;-2.6017394517748564e-07;-1.1558503123572969e-30;-1.1605390987399825e-32;-2.043058544501652e-37;-2.488164927604602e-13;-4.93044138632494e-35;-8.483407581579851e-10;-1.0211031438116684e-07;9.3130496914111e-09;-6.349913376934941e-35;-0.0010809521365333851;-0.00098088631559704;-3.451595013568808e-05;-0.0016420450442121463;-1.9521214073496105e-10;-5.244084128364907e-05;6.012666748479834e-06;-3.211777533590453e-05;3.211777533590659e-05;6.280503673664825e-05;0.0006398315158591635;-0.0008108969715713671;-0.002911033433321726;0.0;9.746010025263437e-07;-9.74601002521907e-07;-1.728821541852573e-06;0.008094021439521185
1.3998973369598389;0.0011811718034137693;-0.0022457796673705124;3.7450667119205567e-06;-0.006431024888895824;0.0021969860191973422;0.004138242716003803;-0.00040225526480308876;-2.201991639680815e-14;-4.942184745650894e-07;-1.149040293133433e-30;-1.6628945753793236e-32;1.973524138376675e-36;-2.833630395792552e-13;3.9157281835107677e-35;7.728778871602856e-09;-3.0747956256341006e-08;1.6570369825580836e-08;-7.019980240739254e-35;-0.0011209159566518126;-0.0010100439865522678;-5.814915318760018e-05;-0.001670972051243387;-1.6756796319961876e-10;-3.522194735723876e-05;3.848688366649311e-06;-2.5576766578863335e-05;2.5576766578862956e-05;4.105925765432216e-05;0.000788086389700398;-0.0007799078853049702;-0.002923744629189872;0.0;-6.361085069382314e-06;6.361085069373172e-06;-2.0047322096457723e-06;0.007744290353601679
1.419844627380371;0.0012855445731034599;-0.002910643177299853;-3.3899827639462506e-05;-0.007043480515610813;0.0023982661470407225;0.005075917869789473;-0.00023741261835936184;-1.9056235885369027e-14;-7.749470404898819e-07;-1.1381406946421274e-30;-2.2546335851304853e-32;4.685060091140935e-36;-3.1816198294685456e-13;1.5044280792746854e-34;1.8344328531404814e-08;2.7243116049793743e-08;2.523598674142025e-08;-7.675172590585019e-35;-0.0011384792688690951;-0.0010204403079989198;-7.681459626565565e-05;-0.001667316894389004;-1.4165386372051798e-10;-1.721867253376607e-05;1.2831604643310489e-06;-1.8565079286279754e-05;1.856507928628336e-05;2.509664903504056e-05;0.000900605157096744;-0.0007272086161090166;-0.002843204245198303;0.0;-1.2636077595641728e-05;1.2636077595633304e-05;-2.1721645484195323e-06;0.007402903998704166
1.439845085144043;0.0012521376866918563;-0.0034076944516484974;-8.173245743404774e-05;-0.00714366431756332;0.0023667466800621055;0.005715916886725535;-5.838819667490111e-05;-1.468613704707731e-14;-1.10717326280594e-06;-1.1269008947360615e-30;-2.9404787372613264e-32;8.006080587858835e-36;-3.5230947298016544e-13;2.8806338932428548e-34;3.1254377559471576e-08;7.363129038314559e-08;3.5449606569678073e-08;-8.271064911161219e-35;-0.0011291064128853248;-0.0010071949100030856;-9.004832055921597e-05;-0.0016380087275369355;-1.1766976439444393e-10;1.2919773051527952e-06;-1.6194620639109497e-06;-1.1579613268031955e-05;1.1579613268029098e-05;1.500449475912316e-05;0.0009794802697369834;-0.0006479187542540789;-0.002646525712195592;0.0;-1.967665945628986e-05;1.967665945629365e-05;-2.2499904598759835e-06;0.007291797089755232
1.45991849899292;0.0009481460202347271;-0.0035276175656487573;-0.00014336094714542463;-0.006686373089266749;0.0019196741022967099;0.005761347591921134;0.00011673471860793386;-8.654521356397827e-15;-1.494797170678696e-06;-1.1284486694364327e-30;-3.6886979644463787e-32;1.1884383836679627e-35;-3.845445592021648e-13;4.5056722203117184e-34;4.6692481649737934e-08;1.0994169715701371e-07;4.732129099956735e-08;-8.687036750569454e-35;-0.0010867289569821896;-0.0009638733835274741;-9.757684849853469e-05;-0.001589825551635078;-9.57875763417509e-11;1.9973959327260026e-05;-4.672605601075005e-06;-4.998960577193762e-06;4.998960577192511e-06;1.095238549971489e-05;0.0010274442417115657;-0.0005357006486057103;-0.0023102094379544936;0.0;-2.7260538752542358e-05;2.72605387525245e-05;-2.2544210939954303e-06;0.007315778640480399
1.4798948764801025;0.0005820525370328787;-0.003479588036042126;-0.0002019614924374878;-0.005558002528437583;0.0013256393100101178;0.005480411973441728;0.0002718714965042361;-7.683583012964456e-16;-1.9366215645484755e-06;-1.1234808701211675e-30;-4.5431395102772447e-32;1.6487482823678884e-35;-4.1304176333143413e-13;6.445817005975477e-34;6.469612639409588e-08;1.374088550732763e-07;6.080415737212056e-08;-9.002284658635706e-35;-0.0010061275823656836;-0.0008848387552746664;-9.932266794409689e-05;-0.0015299609574012563;-7.627111100618592e-11;3.8289976686117005e-05;-7.708849517637156e-06;8.510844817651733e-07;-8.51084481763237e-07;1.308571706735095e-05;0.001047853692830231;-0.00038704262093618695;-0.0018420032743284814;0.0;-2.7708814894611618e-05;2.770881489460332e-05;-2.2006548839252207e-06;0.0073872013509201995
1.4999027252197266;0.00017852719402924124;-0.0033077001167659426;-0.0002573312870571834;-0.0035429208348487385;0.0005975214084196539;0.0048947632537246644;0.00039629925713037745;9.268423905501798e-15;-2.4362100302690425e-06;-2.344354305078182e-30;1.1718085926299942e-30;2.1884687217468866e-35;-4.361353618813358e-13;8.735569896579696e-34;8.550406104824868e-08;1.5769712002515103e-07;7.59957328276347e-08;-9.138849147957146e-35;-0.0008828510552459114;-0.000765209814837796;-9.54528290540229e-05;-0.0014644631902711203;-5.899039796509373e-11;5.594520581090821e-05;-1.0643981189553483e-05;5.723722758005207e-06;-5.723722758007441e-06;2.1510677768866342e-05;0.001045129978875749;-0.00020871996657256196;-0.0012846249295652185;0.0;-2.082255244431116e-05;2.0822552444301603e-05;-2.1020240428280375e-06;0.0074253085701182645
1.5199968814849854;-0.0002421789129119359;-0.0030129955931868617;-0.0003060664486483315;-0.000740872516721304;-0.00022832361687979557;0.004024206551870105;0.00048039348527376027;2.1758795133941437e-14;-2.9948851105740722e-06;-2.3736434965284214e-30;-6.449612661042588e-32;2.765504895591181e-35;-4.5163266445411074e-13;1.1209326270616587e-33;1.0928258688946285e-07;1.7214510592598885e-07;9.292289238130106e-08;-8.883061061335668e-35;-0.000714578035168606;-0.0006022752175977881;-8.614426294891593e-05;-0.0013990024779919016;-4.3863946962727805e-11;7.252007316509058e-05;-1.3408839160091573e-05;9.316808016631332e-06;-9.316808016631953e-06;3.642638005845912e-05;0.0010234324414785802;-1.794898064733284e-05;-0.0006902872615234109;0.0;-1.4864105867246417e-05;1.4864105867239717e-05;-1.969599361078274e-06;0.007352655489707301
1.5398883819580078;-0.00045773004010359834;-0.002503775232808477;-0.0003009340230686639;0.002667521186155685;-0.0008394192564557086;0.0027767855577286783;0.0005153930674567267;3.674678499168283e-14;-3.601655868654144e-06;-2.3579008035522156e-30;-7.582140888866381e-32;3.4662439662965614e-35;-4.568660598560993e-13;1.4219961213044624e-33;1.3568049494038397e-07;1.8179825268783002e-07;1.1123863858971676e-07;-8.469789130737295e-35;-0.0005113609370399404;-0.0004056095555909863;-7.188639703835278e-05;-0.001339727535236532;-3.09903769544674e-11;8.727675127858982e-05;-1.5909328550054617e-05;1.1373272512791907e-05;-1.1373272512792296e-05;5.76694668216994e-05;0.0009875329799898494;0.00016719343159421544;-0.00010793115046016282;0.0;-1.1317145040254496e-05;1.1317145040251619e-05;-1.8154732102794733e-06;0.007097600561440455
1.559959888458252;-0.000566497573713952;-0.001755475999817279;-0.00025687645907836263;0.006561033829909439;-0.0013556163954447544;0.0011414893933249868;0.0004952354177110128;5.474725792642437e-14;-4.263202736705719e-06;-2.390362160927906e-30;1.1514177437615497e-30;4.182803516522458e-35;-4.490404170186571e-13;1.7332526995257287e-33;1.6512919289495622e-07;1.8793679519457064e-07;1.3112773805848957e-07;-7.516091994948105e-35;-0.0002867633487550237;-0.00018854060871927101;-5.278354686994596e-05;-0.0012901369724967362;-1.9982000313425522e-11;9.991646247410725e-05;-1.8149157886392374e-05;1.2683086534744055e-05;-1.2683086534745748e-05;8.572190134837956e-05;0.0009409977831372832;0.00033968069057794246;0.0004441337611077445;0.0;-6.086195480361902e-06;6.086195480361941e-06;-1.6452258954538023e-06;0.006581529127179898
1.5798754692077637;-0.0006637131119320213;-0.0010082520876902028;-0.00021225903024040942;0.01017800411193142;-0.001830214976913199;-0.0004238508334839835;0.00041654530520514744;7.566216428395788e-14;-4.9608859306907204e-06;-2.3887015610525275e-30;-9.857518187312066e-32;5.030759168462693e-35;-4.250400732495305e-13;2.102766413536789e-33;1.969635584285458e-07;1.9137928874764636e-07;1.520100465624169e-07;-6.202701197258e-35;-6.258483851783525e-05;2.7572388349891714e-05;-2.955481471711887e-05;-0.001254974997511415;-1.0868002292113947e-11;0.00010957148257245082;-2.0052004675037915e-05;1.3879237742285165e-05;-1.3879237742284381e-05;0.00012016720525872646;0.0008885216719863434;0.0004899557282002686;0.0009362104942756415;0.0;-4.392245260605173e-06;4.392245260606601e-06;-1.4686344466629844e-06;0.005739630582394337
1.5999500751495361;-0.0006737223663636798;-0.00033471470340622694;-0.0001603635792962047;0.012895626901262286;-0.0021030522300893393;-0.0017116925659560144;0.0002793454079982276;9.99802390030651e-14;-5.69456396326125e-06;-2.43011612254067e-30;2.3620117573543972e-30;5.870158053520234e-35;-3.808500576520768e-13;2.4728212760783355e-33;2.3137549843316195e-07;1.9297361650500634e-07;1.738575345669486e-07;-4.234800124344958e-35;0.00015083402474942942;0.00023254118298977937;-2.287145711241228e-06;-0.0012369270467571594;-3.3273908715162296e-12;0.00011564532898154342;-2.160957593373131e-05;1.4677674365284342e-05;-1.4677674365284167e-05;0.0001615278650224985;0.0008329719785474559;0.0006166050217561412;0.0013647575655104619;0.0;-7.661548769533885e-06;7.661548769529918e-06;-1.288665790504587e-06;0.004483588789244565
1.6198999881744385;-0.0007576896600216614;0.00025331247403087044;-0.00012672063524080674;0.014542302884096903;-0.002373102567749546;-0.0027256738549296224;0.00010293201716905463;1.274612514209943e-13;-6.438990188218521e-06;-3.67105918569741e-30;-1.212679956684353e-31;6.83888248193687e-35;-3.131263487669543e-13;2.9017752362881747e-33;2.67420911920674e-07;1.9332640146391515e-07;1.958896112540475e-07;-1.668911231132014e-35;0.00034148000668764064;0.00041470651753101407;2.8150921666593136e-05;-0.001238748126047508;2.7127025776475396e-12;0.00011721279338489988;-2.2757478650795786e-05;1.4839474346121521e-05;-1.483947434612411e-05;0.00020912008463692022;0.0007784409023353719;0.0007162573740077434;0.0017195004699322408;0.0;-9.432424192736527e-06;9.4324241927461e-06;-1.1123946967397354e-06;0.0027552622178495527
1.6400043964385986;-0.0008107129370489732;0.0007640666534891075;-9.243455284141694e-05;0.015301036181901623;-0.002517944651109932;-0.003507500940992385;-8.641332321216516e-05;1.585134587053249e-13;-7.184869296582834e-06;-2.5137439443185473e-30;2.3481010523254256e-30;7.712950367412559e-35;-2.1658750072648103e-13;3.295317804948487e-33;3.0495206302836354e-07;1.9292983177591404e-07;2.1779490406416443e-07;1.6632141119319225e-35;0.0005066326447022353;0.000571427411102971;6.16387680697028e-05;-0.0012622150262320301;7.522857865532669e-12;0.00011334657401420785;-2.342290254467895e-05;1.5117824016509536e-05;-1.5117824016511278e-05;0.00026337868591647226;0.0007271647099321863;0.0007903696153144952;0.00200654698928443;0.0;-1.026674184621574e-05;1.0266741846215892e-05;-9.409386201358693e-07;0.0007640525049800132
1.6598994731903076;-0.0007420525832832638;0.0014037442544451773;-2.2455589460468983e-05;0.015427802681647697;-0.0024427388133322343;-0.004385987988665476;-0.00026242438517994657;1.9247655269472243e-13;-7.894306253809631e-06;-2.545217532721806e-30;2.315640802703665e-30;8.742445446393027e-35;-8.865817407262498e-14;3.760544216574498e-33;3.4243126079938173e-07;1.9212324642063836e-07;2.3841621866825132e-07;5.854328946446709e-35;0.0006410111901654129;0.0006977319443113161;9.694941317954056e-05;-0.0013076774570119443;1.1204778536639228e-11;0.00010312341992193156;-2.346891852992593e-05;1.5844014046299642e-05;-1.5844014046302525e-05;0.00032289189758298554;0.0006826227225364411;0.0008389853273432677;0.0022261082531648776;0.0;-1.1646325171916564e-05;1.164632517191336e-05;-7.800127374715066e-07;-0.0009949061826057968
1.6799774169921875;-0.0007127639530141117;0.0020892225146844994;4.740638392572884e-05;0.014977704689098374;-0.00236652967919306;-0.005257497267682746;-0.00040985324806139896;2.2980053919465694e-13;-8.550756643051041e-06;-2.630990008025077e-30;2.3320090857791534e-30;9.59952398685045e-35;7.780613873205614e-14;4.157673040054345e-33;3.794842420822646e-07;1.9107290302218845e-07;2.5721270580322824e-07;1.087879145834993e-34;0.0007470481961883223;0.0007960170643541401;0.00013406845638418483;-0.0013759911873458353;1.401416032888063e-11;8.522821321283457e-05;-2.2769468038823632e-05;1.61150829707607e-05;-1.611508297076223e-05;0.0003882005427629655;0.0006461537633435624;0.0008652106295812598;0.002390560134560331;0.0;-8.566150655144138e-06;8.566150655143636e-06;-6.283616230769499e-07;-0.002481553899984135
1.6998794078826904;-0.0007625572272487376;0.00270260067214992;9.92406808779491e-05;0.014033976904927678;-0.0023491054317114294;-0.00597539348715459;-0.0005110662634923305;2.694593167927853e-13;-9.106234832984732e-06;-2.6994383796520224e-30;-1.4958434237900415e-31;1.0514709391140267e-34;2.84517491204795e-13;4.586618230188088e-33;4.140874244291269e-07;1.8982522773990927e-07;2.7272820553569713e-07;1.7009012554632726e-34;0.000824121451432031;0.0008658897973845149;0.00017153440785746196;-0.0014650319223569888;1.606933272071802e-11;6.131565048031087e-05;-2.120816521867234e-05;1.5199800770326687e-05;-1.5199800770328022e-05;0.0004572777679114351;0.000620225954674909;0.00087111145151724;0.002503886502197607;0.0;1.4970566183496116e-07;-1.4970566183205965e-07;-4.899906308774077e-07;-0.0039010810622377933
1.7198576927185059;-0.0007386337617976896;0.003076593026547952;0.00014408479412782112;0.012883716723287548;-0.0022126244600511025;-0.00636140732349249;-0.0005552241838192793;3.113898209351702e-13;-9.52520306457411e-06;-1.5528796874445289e-30;4.765624415280905e-30;1.1345262748240622e-34;5.384261462725987e-13;4.987046704948509e-33;4.450225595800272e-07;1.8824319336065028e-07;2.8385066244173854e-07;2.43160787103338e-34;0.0008758206002725422;0.0009109081674563552;0.00020888123420246377;-0.0015738444159907959;1.7561343186133795e-11;3.4488504200432306e-05;-1.8637083751738344e-05;1.3389228114718013e-05;-1.3389228114716115e-05;0.0005297901975556871;0.0006058802942181967;0.0008597381394477447;0.0025737775127958012;0.0;6.134655582026112e-06;-6.1346555820211935e-06;-3.6386031999107765e-07;-0.005487194375500705
1.7399170398712158;-0.0006001819614672218;0.0033315944419882717;0.00020034715354887937;0.011645397196964172;-0.0019150124080225344;-0.006602555779421752;-0.0005311802786818675;3.5486444129847426e-13;-9.7554014609214e-06;-4.294261824488725e-31;2.3147480881397713e-30;1.1976034553647188e-34;8.445759005968664e-13;5.3093543194824107e-33;4.70242700506166e-07;1.8604863446567174e-07;2.889753924544401e-07;3.2711490750271157e-34;0.0009050024346659908;0.0009339730295245019;0.00024501851658332023;-0.0016996591164557045;1.8631371665776916e-11;7.169368764710962e-06;-1.490227967106767e-05;1.091013068190006e-05;-1.0910130681901527e-05;0.0006042478252174328;0.0006043179171749669;0.0008338004110296004;0.0026068385609572266;0.0;6.996192197463282e-06;-6.996192197463772e-06;-2.5051057293096893e-07;-0.007112481527301921
1.7599592208862305;-0.00038673772526283195;0.00349270369873514;0.00026148522477854446;0.010403630963924264;-0.0015169163538130289;-0.006721146196913079;-0.00043865338313191677;3.986667315563697e-13;-9.736553291178196e-06;-5.460388606686875e-31;2.3420095419267283e-30;1.2327618916709965e-34;1.2057083692666898e-12;5.51876667223974e-33;4.872351069678505e-07;1.828262269586978e-07;2.862697545003868e-07;4.2045407585079925e-34;0.0009149939054025231;0.0009384624756090225;0.00027848532082002736;-0.0018377212780071074;1.9405703114049358e-11;-1.877881252069655e-05;-9.869089200843455e-06;7.073107385386663e-06;-7.073107385385407e-06;0.0006783290566454989;0.0006162769303651315;0.0007962138106331385;0.002610376840305478;0.0;7.736350381906803e-06;-7.73635038190254e-06;-1.5068885803127634e-07;-0.008621072665210682
1.7798738479614258;-9.921639060408486e-05;0.0036106051092682466;0.00032955439402105967;0.009385715213430486;-0.0010411287730839173;-0.006792988817330651;-0.0002974756892219251;4.4127204713334896e-13;-9.406149966898072e-06;5.491399912877114e-31;4.811599181458852e-30;1.2536966592722066e-34;1.6225208400582854e-12;5.6781851189108014e-33;4.932881112927746e-07;1.7803964903056838e-07;2.738459524824036e-07;5.303388022322333e-34;0.0009096858851024116;0.0009282921421336896;0.0003076558621477157;-0.0019816696383777557;2.000082308237201e-11;-4.208634691987252e-05;-3.428700428706639e-06;1.3528770753979926e-06;-1.3528770753967326e-06;0.0007492089287099586;0.0006417998083355157;0.0007499880329067028;0.0025922934751557995;0.0;4.919547744066519e-06;-4.9195477440622845e-06;-6.472911704813607e-08;-0.009856789321177757
1.799882411956787;0.00021499833420370924;0.0037191008938545355;0.0003995975317946948;0.008744340131877571;-0.000565575092128096;-0.006894077020054534;-0.00013145990319678147;4.815510493099903e-13;-8.687801678865155e-06;2.832653652578766e-30;2.3562055183969626e-30;1.2416529160160477e-34;2.1018496835933316e-12;5.706940756367816e-33;4.8538316635368e-07;1.709252895898672e-07;2.493615466996245e-07;6.555204503616883e-34;0.0008928495620211975;0.0009071647149737826;0.0003311524533151232;-0.002126159073851408;2.0526928141554956e-11;-6.231967500644006e-05;4.640638096001383e-06;-4.981074940219125e-06;4.981074940215422e-06;0.0008147062013120607;0.0006809595852932694;0.0006971130476408487;0.002559751701183043;0.0;-1.9363815614519566e-06;1.936381561449429e-06;8.550258733532322e-09;-0.010683403080040035
1.8200292587280273;0.0004595294657558039;0.003566648798694716;0.0004314009783881868;0.008361206142464918;-0.0002055517298534548;-0.006659176094706138;3.981696863244038e-05;5.175731832773467e-13;-7.4914081435520634e-06;3.9642885662911104e-30;4.900600649217145e-30;1.1618499250317707e-34;2.6468777856633877e-12;-1.2331893405993914e-30;4.5971912299735984e-07;1.6056297982974033e-07;2.1008256450567178e-07;7.791972582437372e-34;0.000867965513504945;0.0008785375472002485;0.00034694076607525234;-0.0022629502458292373;2.1072121907513787e-11;-7.911206917748404e-05;1.2672104769441095e-05;-1.0583202009901032e-05;1.0583202009898096e-05;0.0008712591647535834;0.0007334322759159596;0.0006396078800235794;0.0025191510606070435;0.0;-5.099473974772181e-06;5.09947397477574e-06;6.933007048286222e-08;-0.011273103068617316
1.8399317264556885;0.0007744689291933562;0.0031478346433606906;0.00044883539293329763;0.008170516152131112;0.00023180356876961478;-0.006067650014182687;0.00019712584231842967;5.463753806724285e-13;-5.756521633354752e-06;6.092051326316551e-30;2.42014435240637e-30;1.0641370809934856e-34;3.2461403376748347e-12;5.1330913454771225e-33;4.130746992629594e-07;1.4619387912288302e-07;1.5425530420700884e-07;9.40348946727218e-34;0.000839000683495065;0.0008464123066688646;0.00035257119189143805;-0.0023794812115995544;2.169619366327023e-11;-9.208052435986559e-05;1.8888173895104408e-05;-1.574407502063556e-05;1.574407502063386e-05;0.0009136930919319468;0.0007969847128224156;0.000580525177135464;0.002477022158378914;0.0;-4.1332346078252e-06;4.133234607819345e-06;1.1679460882299909e-07;-0.01149429304251254
1.8602476119995117;0.0008768445631446096;0.002471009858065755;0.00040345491801847887;0.008012388503786057;0.0003842761320745607;-0.005104981315540785;0.0003322508921564326;5.659969486227332e-13;-3.3224269050656203e-06;8.707408798709569e-30;5.072220046452371e-30;8.473203686912018e-35;3.917406745698007e-12;4.285280720475319e-33;3.3926633340472603e-07;1.2614084889455753e-07;7.693150041573627e-08;1.0584806418912115e-33;0.0008082108561133975;0.0008129080608195886;0.0003455173015238113;-0.0024671217441591528;2.2476577147432874e-11;-0.00010170652295288331;2.3715256377290677e-05;-2.0942527699161946e-05;2.0942527699165998e-05;0.0009381931804347971;0.0008721207555950623;0.0005195908771609061;0.002436755799995184;0.0;-3.442750708376867e-06;3.442750708375623e-06;1.5254185479543301e-07;-0.011248996947488855
1.8798935413360596;0.0010215394794305917;0.0017455455438062247;0.0003592268474818778;0.007900755729306989;0.0005885504604054601;-0.0040595882515693646;0.000428380307334008;5.724996087347526e-13;-2.3653075370018162e-07;1.0681339263983173e-29;2.5764216764342122e-30;6.073692680940079e-35;4.618605891725125e-12;3.381185153536324e-33;2.3830062207852646e-07;1.0038237286517412e-07;-2.02112319098492e-08;1.2426649748881294e-33;0.0007800062301921634;0.000782529617607556;0.00032616692579987916;-0.0025112645112786306;2.3404630605858606e-11;-0.00010776508032516259;2.7117322648558436e-05;-2.4505317998906765e-05;2.4505317998905247e-05;0.0009383629941685231;0.0009524084664707974;0.00046140135698614584;0.0024037910916516214;0.0;-9.166541325748466e-07;9.166541325669044e-07;1.7499436466772595e-07;-0.010767440337246772
1.9000396728515625;0.0013196268226244661;0.0009664663049755605;0.0003349215544037572;0.008016934525527467;0.0009751794398738256;-0.0029546597482043493;0.00048301160755793423;5.627486212978917e-13;3.7777001668654206e-06;1.5669974759208073e-29;5.186966951129335e-30;2.498247371376158e-35;5.382260682577503e-12;1.948684067283888e-33;9.963400336699483e-08;6.611394050818994e-08;-1.4569861601309417e-07;1.3836626090971127e-33;0.0007551901219766163;0.0007559002415210405;0.00029514344469024523;-0.0025044623309096294;2.4552726711093066e-11;-0.00011097914477377242;2.9478946197248487e-05;-2.5439698034175856e-05;2.5439698034178654e-05;0.0009080493326838097;0.001039505217915798;0.00040361484923956333;0.0023782589565382985;0.0;5.598628458665594e-06;-5.598628458658649e-06;1.8562053935931015e-07;-0.010194943690311709
1.91988205909729;0.0015331153437684558;0.0002715773721342069;0.00030203066167012256;0.00819111025157085;0.0012421277201420781;-0.001952058819873332;0.000486329685030964;5.328938102989159e-13;8.671265215041733e-06;1.7764307352270403e-29;2.7889357163800677e-30;-1.991168334900012e-35;6.166683627998656e-12;1.4675925192630504e-34;-7.663797603460948e-08;2.320523537778668e-08;-2.9780727788811385e-07;1.555632938732958e-33;0.0007368393697468517;0.0007361314057097655;0.0002539752710181245;-0.002435644558782409;2.5878417964432565e-11;-0.00011153587672982286;3.081397097114818e-05;-2.432781933208735e-05;2.4327819332088587e-05;0.000841046175474177;0.0011263599484873524;0.00034942084341696184;0.002362023207418912;0.0;8.992163765238132e-06;-8.992163765238032e-06;1.8365519700154132e-07;-0.009381861751400713
1.9399113655090332;0.0016907927430913267;-0.00029593662176513824;0.0002694235931293022;0.008317470652719755;0.0014371474060116427;-0.0010893982173007946;0.0004327544765244262;4.778406237090096e-13;1.4654810693643656e-05;2.256317062491407e-29;2.9201479533618273e-30;-7.660517140055429e-35;6.974577693137344e-12;-2.1718428977922765e-33;-2.996358762138669e-07;-3.0790142475640756e-08;-4.829009502886063e-07;1.7054211816093444e-33;0.0007260965949458689;0.0007242831134530411;0.00020446911259196032;-0.0022921794002210218;2.7393763647348778e-11;-0.00010986271439314025;3.125643975000064e-05;-2.1670610524044942e-05;2.167061052404752e-05;0.000728178756751685;0.0012105712252595629;0.000298108136708167;0.0023538629410385895;0.0;7.451964355210801e-06;-7.451964355209365e-06;1.688501605229188e-07;-0.00817621018699497
1.9598994255065918;0.0017586420340724366;-0.0006524079316026011;0.00023947969610771917;0.008357007679552735;0.0015178917606558122;-0.0004820072229397796;0.0003191484316672527;3.930256326611204e-13;2.176179980469753e-05;2.4854645155078255e-29;5.999927635300842e-31;-1.4609122462846298e-34;7.775760430653342e-12;-5.041080144704712e-33;-5.723191569751213e-07;-9.684588976607178e-08;-7.018093725869144e-07;1.846071138700715e-33;0.0007243693466035922;0.0007217365290622567;0.00015164015588902636;-0.002071792332169974;2.9044142351447795e-11;-0.00010634435833280184;3.084919434193475e-05;-1.791606908323953e-05;1.7916069083238576e-05;0.0005708791837729398;0.0012857589438237524;0.00025075057538543726;0.002351693254820818;0.0;6.52997602282165e-06;-6.529976022821592e-06;1.4078372583964513e-07;-0.006489803936017543
1.9798977375030518;0.001791882709146021;-0.000872031742364862;0.00021839063881440803;0.008310212453478885;0.0015579406209728325;-7.543851798098577e-05;0.00015950440077598825;2.7299093651713426e-13;3.008667489048735e-05;3.206838995808425e-29;7.6761039622521595e-31;-2.2988221005915027e-34;8.54556399682014e-12;-8.531733854889988e-33;-9.000540402517372e-07;-1.7655486085531254e-07;-9.572325062159914e-07;1.967613405181279e-33;0.0007323777281940311;0.0007291684541940678;9.820856926422038e-05;-0.001790361146441022;3.077235762891687e-11;-0.0001013539214780247;2.9618617915761148e-05;-1.3432525417307586e-05;1.3432525417311133e-05;0.0003824917287372037;0.0013457888318865168;0.00020749947192196352;0.0023516248475044317;0.0;4.172202195975488e-06;-4.172202195982223e-06;9.883063154171789e-08;-0.004239621873498867
1.9999237060546875;0.0018938805709905063;-0.0009635549861852207;0.00022380591615287333;0.008021122186086124;0.0017096993639469432;0.00016482626995675234;-1.8341214292361897e-05;1.1190573425770744e-13;3.970162261076957e-05;3.415031979597847e-29;-1.4815321125970476e-30;-3.3133984774215505e-34;9.251605155939216e-12;-1.2347629407752699e-30;-1.2876097530295395e-06;-2.7140020724625764e-07;-1.2511539776401576e-06;2.071520122186661e-33;0.0007504229591536594;0.0007468423594823153;4.55984454820836e-05;-0.0014703654419352622;3.24958223307453e-11;-9.523716881727327e-05;2.7556000049583e-05;-8.476779766714189e-06;8.476779766716046e-06;0.00018097296790461106;0.0013832980461085838;0.00016846536368035652;0.0023481397516305147;0.0;4.4248980987534056e-07;-4.424898098699602e-07;4.221993135238716e-08;-0.0016891543771389856
2.020097494125366;0.002040531005654587;-0.0009131504301187135;0.0002527740385227216;0.007654103800213818;0.0019254926188400517;0.00019055515164539998;-0.00019080210664022384;-9.764944991328738e-14;5.071906969057086e-05;4.2037059537270515e-29;-3.793155339495164e-30;-4.416644481636751e-34;9.856998466454784e-12;-1.7470934090840062e-32;-1.74174548149479e-06;-3.833978069455702e-07;-1.5867433798971005e-06;2.0925407467757996e-33;0.0007785035561888585;0.0007747218728919136;-6.122770588778239e-06;-0.0011276679739325214;3.411458889840253e-11;-8.826956302477951e-05;2.4808634093308815e-05;-3.1864857589951694e-06;3.186485758995794e-06;-1.9082877440631672e-05;0.0013896708086454908;0.00013348488755930094;0.002333864454357045;0.0;2.927475994201855e-06;-2.9274759941950762e-06;-3.0362178476090824e-08;0.0009374195665411025
2.04001784324646;0.002142451654466078;-0.0008418583479701439;0.000278452524349519;0.007304922908609903;0.00207860905557056;0.00014971925706206172;-0.0003348146122306444;-3.570045957604931e-13;6.291497746579583e-05;4.4639839656174096e-29;-6.061719362731267e-30;-5.705597222524116e-34;1.0303840926988979e-11;-2.2967220919862835e-32;-2.2554762221782176e-06;-5.111963473026462e-07;-1.9569066609736977e-06;2.0814738790991605e-33;0.0008152160483551794;0.0008113747611437363;-5.6436587696961645e-05;-0.0007830923200701399;3.5463919713260155e-11;-8.088014014843187e-05;2.1740125274452682e-05;2.115034873291679e-06;-2.115034873287071e-06;-0.00020292908740106628;0.0013555844734462618;0.00010313546335526123;0.0023003096022759756;0.0;1.1661946322142456e-05;-1.1661946322143879e-05;-1.1814627004605444e-07;0.0034017751309349037
2.0599005222320557;0.0021527628485354133;-0.0005956279617682124;0.0003069584461671554;0.007037427953333775;0.0020994813599130224;-0.0001805199951448273;-0.00043652260224800896;-6.735999414955198e-13;7.635817889041549e-05;5.153272593732846e-29;-8.166261817438688e-30;-7.259978471509477e-34;1.0545921169764789e-11;-2.9619591668206904e-32;-2.8341062322869378e-06;-6.565044483198562e-07;-2.3634445318311443e-06;2.0301929133461048e-33;0.0008594333241779094;0.0008556421502510681;-0.00010707331400821502;-0.00044375699455668355;3.640382328856476e-11;-7.324631158401733e-05;1.853814959623515e-05;7.2274911289765e-06;-7.227491128976855e-06;-0.0003658920950779707;0.0012738157204988697;7.683517091948929e-05;0.0022425126148417087;0.0;1.8250045747175237e-05;-1.825004574716775e-05;-2.2250028244050298e-07;0.005589049232625857
2.080019235610962;0.002236542041618432;-0.00026432383200066846;0.0003587791873243821;0.006754474114033429;0.0022179164080355336;-0.0006591943871004654;-0.00048333265788343057;-1.0582477971334793e-12;9.11673645004529e-05;5.49496916173242e-29;-1.3019254290772902e-29;-8.80946512946345e-34;1.0520003514165841e-11;1.2043804866186481e-30;-3.4859701524839124e-06;-8.218918018140912e-07;-2.809559367322619e-06;1.8464163133239836e-33;0.0009099171966098934;0.0009062629360523483;-0.00015740550374143973;-0.00011090878970812974;3.675000535027854e-11;-6.547189475685385e-05;1.5297315135697132e-05;1.2040944713199664e-05;-1.2040944713195948e-05;-0.0005058415267538405;0.001138917143039605;5.4058288553602856e-05;0.002157088069632769;0.0;2.1275605775296525e-05;-2.1275605775298862e-05;-3.4579869308825433e-07;0.007410342167720241
2.099888324737549;0.002473020925258364;0.00010781392665202072;0.00044345320050173177;0.006288603643869366;0.002556348139500621;-0.001193422122555487;-0.00046328569571958;-1.5065254505693083e-12;0.00010684041676473468;5.949662883405602e-29;-1.6229297407719206e-29;-1.0731625844678815e-33;1.0156684782278947e-11;-4.4674971833662504e-32;-4.192434133992e-06;-1.0031277780645259e-06;-3.2797092587556775e-06;1.6066680634859945e-33;0.0009628876359254765;0.0009594321649496829;-0.00020287357122529955;0.00020565980517556025;3.6279470594774746e-11;-5.791666777161165e-05;1.2172449481392122e-05;1.6327294161622633e-05;-1.632729416162193e-05;-0.0006176878354130589;0.0009540513964768667;3.5090455437085836e-05;0.0020485756031579346;0.0;2.470419968222355e-05;-2.4704199682221007e-05;-4.855420726583617e-07;0.008732886252462919
2.1200008392333984;0.0027186552773518355;0.0005586325277017329;0.0005376953860474165;0.00552389258510907;0.002934495712177264;-0.001790750047770028;-0.0003753545102293138;-2.033718825262493e-12;0.00012354576924281736;6.326730956209531e-29;-1.9941463850363965e-29;-1.25441280103331e-33;9.366698705265284e-12;-5.264898150653223e-32;-4.965302591558889e-06;-1.2038165655921608e-06;-3.7784414817298312e-06;1.2075971046520491e-33;0.0010163387698257573;0.001013129905916929;-0.00024244772670492743;0.0005151063934027839;3.473106781455027e-11;-5.053453427224089e-05;9.113212176187883e-06;1.993143252574644e-05;-1.9931432525746508e-05;-0.0007041468907355657;0.000717267724097973;1.9164429279670372e-05;0.001923113931935107;0.0;2.430235711725063e-05;-2.4302357117248762e-05;-6.45418078090864e-07;0.00951545990042325
2.1398675441741943;0.002669940222664144;0.0010035493047955875;0.0005785035400382569;0.004551136065462355;0.002941438858539873;-0.002324101292443085;-0.0002377507040977918;-2.629894268605862e-12;0.00014057862591768369;6.564805185436194e-29;-2.5525685474729516e-29;-1.477332726213242e-33;8.083008058202784e-12;-6.24684097208612e-32;-5.77692102127939e-06;-1.4174233939568595e-06;-4.284120505956577e-06;6.977291895907271e-34;0.0010650023966600872;0.0010620662855245972;-0.0002740079598738151;0.0008133262591237678;3.187068075703655e-11;-4.361179997792328e-05;6.180108240277668e-06;2.2388833831938185e-05;-2.2388833831942393e-05;-0.0007642457706100072;0.000444373610253153;6.363998380721559e-06;0.0017919052506710862;0.0;1.9443321342129277e-05;-1.94433213421369e-05;-8.213749229713583e-07;0.009678181921163816
2.1599674224853516;0.0024446561740998902;0.0014858655175585909;0.0005896210649317135;0.0034478261102731797;0.002727000987793977;-0.002854886571500963;-7.294187642175969e-05;-3.3106921343395068e-12;0.00015794499199224454;6.482591435635026e-29;-3.060104047483775e-29;-1.6760043172731156e-33;6.179339312560453e-12;1.1692875891620101e-30;-6.633784327437302e-06;-1.6464308519404815e-06;-4.796179842821772e-06;9.571458610704412e-36;0.0011052003748952286;0.0011025563558211497;-0.00029786652105374294;0.00110984841575885;2.73245871534176e-11;-3.706172495447999e-05;3.2549869057568138e-06;2.3460157216546143e-05;-2.3460157216546055e-05;-0.0008014472203871215;0.00015079342590510267;-3.9378870954191885e-06;0.0016568350434170067;0.0;1.6441274730697346e-05;-1.644127473069348e-05;-1.016956683729514e-06;0.009170874532124325
2.179837465286255;0.00201160696279883;0.0019128775468085645;0.0005573535462750426;0.0022179227374249143;0.0022510704917699555;-0.0032627714299217243;9.280593639433642e-05;-4.059690086002155e-12;0.0001747400755899974;6.530162777580618e-29;-3.615659534794981e-29;-1.9144524501881335e-33;3.5995574014249093e-12;-8.207923095764477e-32;-7.498913974696961e-06;-1.8818650849865055e-06;-5.287021708682922e-06;-8.58924302380167e-34;0.0011304444212690595;0.0011280944457758534;-0.0003135478227528339;0.0013878577844807086;2.0873419763098275e-11;-3.10891900189992e-05;3.336103551759381e-07;2.3763382722195308e-05;-2.3763382722198523e-05;-0.0008173499498410435;-0.00013405215984073053;-1.180865452411019e-05;0.0015227313748176637;0.0;1.4624246683672151e-05;-1.4624246683673752e-05;-1.2263523581070309e-06;0.008249581895971882
2.1999094486236572;0.0016053550585599834;0.0023091756017287646;0.0005249143500178293;0.0010364394923003447;0.0018103419911138193;-0.0036122195754806435;0.0002465655712288352;-4.889582392795869e-12;0.00019068853435091795;6.172169904181699e-29;-4.2072253191369015e-29;-2.1382266382122058e-33;1.823163546384087e-13;-9.230134843626467e-32;-8.368175620447745e-06;-2.123731414872542e-06;-5.7473937258917015e-06;-1.9416537585480564e-33;0.0011347711824456676;0.0011327148824996868;-0.0003218611305936775;0.0016353727756095507;1.2029155729937864e-11;-2.5596451347165832e-05;-2.740245227419268e-06;2.3842350887783825e-05;-2.384235088778476e-05;-0.0008151443962489105;-0.00040048326187899666;-1.7726312633669637e-05;0.001385608769490352;0.0;1.2380213155800121e-05;-1.2380213155797693e-05;-1.4519289783425335e-06;0.007117952942201809
2.2200002670288086;0.0013248526562130833;0.002558392836295804;0.0004986261451805509;0.00014251259041269716;0.001516345515896561;-0.0037854352629257187;0.0003734015988064465;-5.7873437094573716e-12;0.00020484854328433865;5.644265584145006e-29;-4.981308660995507e-29;-2.3303843136040398e-33;-4.163997304813523e-12;2.3746050081376398e-30;-9.204714537223649e-06;-2.3633032684697106e-06;-6.148372126437335e-06;-1.2411726407909689e-30;0.0011103684990786979;0.0011085960214118392;-0.00032330596396434527;0.0018389167489392766;4.661701026257405e-13;-2.0657086912465335e-05;-5.896545278841474e-06;2.32362414117145e-05;-2.3236241411716205e-05;-0.0007974498852028897;-0.0006355609221869402;-2.1890222596564643e-05;0.0012436636456795692;0.0;1.4839167490783292e-05;-1.4839167490779494e-05;-1.6887340722756706e-06;0.0056838298061020285
2.2399137020111084;0.0012540840533296072;0.0025489576386960246;0.00048267400735073395;-0.00028750384283110064;0.0014665341048585951;-0.0036604933559875883;0.00046168678040689107;-6.732971341970087e-12;0.00021618358961723882;4.576115336165992e-29;-5.672114422826809e-29;-2.5420678066226342e-33;-9.493990849091093e-12;-1.1132090831669278e-31;-9.965690144861651e-06;-2.5900952392255824e-06;-6.458398819290921e-06;-4.790003357200881e-33;0.001051071653142234;0.0010495655015478056;-0.00031878586339830563;0.0019919919495861626;-1.404281349337361e-11;-1.6311898936576104e-05;-8.948437684823853e-06;2.159025209746296e-05;-2.1590252097462123e-05;-0.0007674485826629334;-0.0008316791671503927;-2.4545516597942612e-05;0.0010936589419794508;0.0;2.3111893445699567e-05;-2.311189344570797e-05;-1.9300924232601015e-06;0.003877753719181494
2.2599759101867676;0.0013911246080658452;0.002267686780747851;0.0004753524426412177;-0.00046118307468357935;0.0016795492962823116;-0.0031811136475836605;0.0005039725092405439;-7.726629305433337e-12;0.00022379033058769613;3.0966437468939827e-29;-6.357069933720994e-29;-2.6833164634612108e-33;-1.5998743728687714e-11;2.362054445849995e-30;-1.0620846529651991e-05;-2.7976770078322053e-06;-6.6491209109709296e-06;-6.540436718520939e-33;0.0009508505686258421;0.00094959404429973;-0.0003091600564245934;0.0020962679024863315;-3.21060422702415e-11;-1.2475279676176905e-05;-1.184416510297409e-05;1.9457737274484563e-05;-1.945773727448406e-05;-0.0007274048896802096;-0.0009897233188964573;-2.5986458943477834e-05;0.0009238973924814481;0.0;2.8721994663349066e-05;-2.87219946633446e-05;-2.174306524247775e-06;0.0015919007843579777
2.2798523902893066;0.0015837530094598236;0.0019232613274703541;0.000469524473146214;-0.0004227540880243269;0.0019568956541856234;-0.0026276131203771137;0.0004922481705908623;-8.731438109352773e-12;0.00022630908320170708;1.6280705888230413e-29;-7.013020099225444e-29;-2.8454985618412586e-33;-2.3663126178238517e-11;2.3199702322395972e-30;-1.1109704621358122e-05;-2.9706399853013096e-06;-6.679654514417675e-06;-8.7255636866643e-33;0.0008091271448597132;0.0008080971210465309;-0.00029552153459805975;0.002152152972331142;-5.377164021834184e-11;-9.1872204844304e-06;-1.4476788257565925e-05;1.7298485624815903e-05;-1.7298485624816333e-05;-0.0006804925490149959;-0.0011072377782057959;-2.6413484244976677e-05;0.000727278275694404;0.0;2.9155703608085692e-05;-2.9155703608086685e-05;-2.4102582742387554e-06;-0.0009088740433099624
2.3000032901763916;0.0018896198275720495;0.0015478276088865953;0.0004778866500929796;-0.00027889196377268907;0.0023876520824821605;-0.002021636844324748;0.00041930484835904817;-9.743868003679093e-12;0.0002223096261734813;-1.049498301469923e-29;-7.619093963945644e-29;-2.8851482751756993e-33;-3.2758765726477845e-11;2.342036055460658e-30;-1.1382836833703878e-05;-3.098209026484836e-06;-6.505292695739398e-06;-1.100363427908082e-32;0.0006250314128629927;0.0006242085290223041;-0.00027844249416046396;0.0021647615967562033;-7.99084798767202e-11;-6.3446718780881e-06;-1.687554729826037e-05;1.4478751861620563e-05;-1.447875186162082e-05;-0.0006278716538435575;-0.0011885397458558855;-2.6033411701687115e-05;0.000491196483302246;0.0;2.9454102316409874e-05;-2.9454102316410196e-05;-2.634398633919403e-06;-0.003476231652141955
2.319948673248291;0.0021164653457583847;0.0011631350001152611;0.0004705601075786921;-0.0004189930869722229;0.002753099852617928;-0.0013474292264467793;0.0002876514080609443;-1.0706505626402524e-11;0.00021025064976284578;-3.938885417130572e-29;-8.290878780319709e-29;-2.8791078636856897e-33;-4.314124456966654e-11;-1.313280285564847e-31;-1.1365405176771761e-05;-3.160499586349438e-06;-6.0804436228885e-06;-1.3631733454528678e-32;0.00040929060360809984;0.0004086499752293698;-0.00025915376413154724;0.002138927072948542;-1.1020754097151279e-10;-3.983032782942808e-06;-1.8972963711574064e-05;1.0587437727422025e-05;-1.058743772741956e-05;-0.0005727494196180649;-0.0012345065508182493;-2.5028020588449035e-05;0.00021539018951483813;0.0;2.6160156914276613e-05;-2.6160156914275576e-05;-2.83062364881099e-06;-0.005852663091979026
2.339886426925659;0.002077092454748487;0.0006119721833765007;0.0004025888788354593;-0.0005205915526857505;0.002776765336375786;-0.0004820099159064103;0.00011475916064178383;-1.1588488154217557e-11;0.0001883601781861812;-7.503736923441443e-29;-8.585105509135706e-29;-2.7894448248392746e-33;-5.4931093938557486e-11;4.802750627411603e-30;-1.0985512394102746e-05;-3.1400683217953245e-06;-5.350996128052374e-06;1.2164513810721048e-30;0.00017551317487537544;0.0001750322856597684;-0.00023826890107376335;0.002081116316104973;-1.4512792564671168e-10;-2.0334630790649506e-06;-2.079805227521589e-05;6.06086712713056e-06;-6.060867127132759e-06;-0.0005163342664082533;-0.0012499031977434023;-2.3552693644298413e-05;-0.00010357159244808094;0.0;1.862953236091686e-05;-1.8629532360915822e-05;-2.9884963093958963e-06;-0.007564921341980682
2.3598792552948;0.001773645489396697;0.00010917167998712157;0.00029460809822517097;-0.0005558585944244636;0.002459991502383183;0.00026866290549051105;-7.317406221535133e-05;-1.2342717980344974e-11;0.0001545834409850314;-1.1875025349926882e-28;-9.083091073540832e-29;-2.6019821960953462e-33;-6.817586248667651e-11;2.3181220259297402e-30;-1.0155236330243712e-05;-3.014941500554367e-06;-4.254749157958769e-06;-1.9972923167534246e-32;-5.7465041522730844e-05;-5.78075653576326e-05;-0.00021639796380361215;0.001997471015196798;-1.8493823522084172e-10;-4.5132177537120915e-07;-2.23657483060096e-05;1.2962429407954509e-06;-1.2962429407930084e-06;-0.0004598801330191687;-0.0012388350034458668;-2.1735723486229423e-05;-0.00045092325904383574;0.0;1.4166204538539646e-05;-1.4166204538543991e-05;-3.0933225380185084e-06;-0.00844697552955638
2.3800716400146484;0.0013102141725837501;-0.0005307072207547368;0.000149432463086717;-0.00042555059996831593;0.0018972279817557503;0.0011425007894074928;-0.0002537355031825766;-1.291239355886877e-11;0.00011070238564929262;-1.7086596617662714e-28;-9.067943274570512e-29;-2.2203967692724533e-33;-8.29596635907333e-11;2.3605628449054842e-30;-8.764261783145875e-06;-2.757705412308511e-06;-2.7126870560948854e-06;-2.3162826844891065e-32;-0.00027746092867442863;-0.00027768474439422854;-0.00019396423099856517;0.0018934296071901045;-2.300453426048674e-10;8.088012582355388e-07;-2.3693660407930695e-05;-4.234307114647785e-06;4.23430711464475e-06;-0.00040417437361345754;-0.0012050866295541473;-1.967447561237263e-05;-0.0008018340362614387;0.0;1.2783427853800528e-05;-1.278342785380355e-05;-3.1271207697891564e-06;-0.008656520675203705
2.4000332355499268;0.0007871951650078492;-0.0012600890761830703;-1.105910373519408e-05;-0.00035414988002330927;0.0012439402200759692;0.0021152726828526152;-0.0004040500588035238;-1.3217465858672866e-11;6.324392848441166e-05;-2.288668848281669e-28;-8.86991447267043e-29;-1.70384338861441e-33;-9.887182409968215e-11;2.385191561998056e-30;-6.741695482105736e-06;-2.3477457299422485e-06;-6.925123465330492e-07;-2.6676433805189353e-32;-0.00047098134576133133;-0.0004711071954695664;-0.00017194055228667132;0.00177740477570716;-2.793560844202467e-10;1.7605798482683253e-06;-2.4761567957456035e-05;-1.0805837552153506e-05;1.0805837552156174e-05;-0.00035132462152548947;-0.0011536457136645142;-1.7510084339199856e-05;-0.0011282986554297248;0.0;9.919215556210686e-06;-9.919215556213022e-06;-3.0695257188384926e-06;-0.00835161361055376
