flxalr/sts-optimization-reemc/input/498_125/augmented.txt
time, StatePelvisPosX, StatePelvisPosZ, StatePelvisRotY, StateHipRotY, StateKneeRotY, StateAnkleRotY, StateMiddleTrunkRotY, StateLShoulderRotY, StateLElbowRotY, StateRShoulderRotY, StateRElbowRotY, StateHeadRotY, StatePelvisVelX, StatePelvisVelZ, StatePelvisRotVelY, StateHipRotVelY, StateKneeRotVelY, StateAnkleRotVelY, StateMiddleTrunkRotVelY, StateLShoulderRotVelY, StateLElbowRotVelY, StateRShoulderRotVelY, StateRElbowRotVelY, StateHeadRotVelY, StateHipTorque, StateKneeTorque, StateAnkleTorque, StateMiddleTrunkTorque, StateShoulderTorque, StateElbowTorque, StateHeadTorque, ControlHipDTorque, ControlKneeDTorque, ControlAnkleDTorque, ControlMiddleTrunkDTorque, ControlShoulderDTorque, ControlElbowDTorque, ControlHeadDTorque, TauPelvisPosX, TauPelvisPosZ, TauPelvisRotY, Tauleg_3_joint, Tauleg_4_joint, Tauleg_5_joint, Tautorso_2_joint, Tauarm_1_joint, Tauarm_4_joint, Tauarm_1_joint, Tauarm_4_joint, Tauhead_2_joint, Heel_Fx, Heel_Fy, Heel_Fz, Toe_Fx, Toe_Fy, Toe_Fz, CoP, Hand_x, Hand_y, Hand_z, Box_Hand_Fx, Box_Hand_Fz, Box_Hand_Ty, Phase
0, -0.0235616, 0.743839, 0.1, -0.977221, 1.10519, -0.227965, 0.1, 0.23, 1, 0.23, 1, 0.03, 1.30173e-17, -3.49435e-19, 1.67037e-17, 1.08268e-17, -7.09094e-19, -7.91693e-18, 8.2248e-18, 1.1706e-17, 2.55904e-18, -4.00194e-19, 3.53609e-18, -3.72308e-18, 11.5437, -4.40391, -0.65848, -17.0753, 13.8588, 10.0537, -0.231274, 21.4456, -2.02967, 0.340917, -0.175966, 6.6736, 6.2462, 0.856043, 4.68786e-310, 0, 0, 11.5437, -4.40391, -0.65848, -17.0753, 6.92939, 5.02684, 6.92939, 0, 0, -8.96838, 0, 76.3978, 0, 0, 38.3289, 0.000113275, 0, 0, 0, 0, 0, 0, 0
0.000166802, -0.0235616, 0.743839, 0.1, -0.977221, 1.10519, -0.227965, 0.1, 0.23, 1, 0.23, 1, 0.0299999, 7.75181e-05, -7.77775e-06, 0.000542794, -0.000542794, -3.00894e-19, -9.08074e-18, -3.02588e-05, -1.22554e-05, -2.56371e-05, -1.32866e-05, -2.42703e-05, -0.000965167, 11.5474, -4.40426, -0.658415, -17.0753, 13.8599, 10.0547, -0.231129, 22.0321, -2.16494, 0.411298, -0.477288, 6.57178, 6.22341, 0.87692, 4.68786e-310, 0, 0, 11.5474, -4.40426, -0.658415, -17.0753, 6.92994, 5.02736, 6.92994, 0, 0, -8.96358, 0, 76.4191, 0, 0, 38.3345, 0.000108912, 0, 0, 0, 0, 0, 0, 0
0.000333603, -0.0235616, 0.743839, 0.1, -0.977221, 1.10519, -0.227965, 0.1, 0.23, 1, 0.23, 1, 0.0299996, 0.000154963, -1.55482e-05, 0.00108508, -0.00108508, -3.05572e-18, -1.09544e-17, -5.94009e-05, -2.40994e-05, -5.06286e-05, -2.61616e-05, -4.78949e-05, -0.0019306, 11.5511, -4.40463, -0.658341, -17.0754, 13.861, 10.0558, -0.230981, 22.6186, -2.30021, 0.481679, -0.778611, 6.46996, 6.20063, 0.897796, 4.68786e-310, 0, 0, 11.5511, -4.40463, -0.658341, -17.0754, 6.93049, 5.02788, 6.93049, 0, 0, -8.95874, 0, 76.4406, 0, 0, 38.3404, 0.000104612, 0, 0, 0, 0, 0, 0, 0
0.000500405, -0.0235615, 0.743839, 0.1, -0.977221, 1.10519, -0.227965, 0.1, 0.23, 1, 0.23, 1, 0.0299992, 0.00023233, -2.33109e-05, 0.00162681, -0.00162681, -8.70492e-18, -1.52947e-17, -8.7335e-05, -3.54983e-05, -7.49201e-05, -3.85913e-05, -7.08196e-05, -0.00289624, 11.5549, -4.40503, -0.658254, -17.0756, 13.862, 10.0568, -0.230829, 23.2051, -2.43548, 0.55206, -1.07993, 6.36814, 6.17784, 0.918673, 4.68786e-310, 0, 0, 11.5549, -4.40503, -0.658254, -17.0756, 6.93102, 5.0284, 6.93102, 0, 0, -8.95388, 0, 76.4626, 0, 0, 38.3465, 0.000100379, 0, 0, 0, 0, 0, 0, 0
0.000667206, -0.0235615, 0.743839, 0.100001, -0.977221, 1.10519, -0.227965, 0.1, 0.23, 1, 0.23, 1, 0.0299987, 0.000309616, -3.10654e-05, 0.00216798, -0.00216798, -6.95576e-18, -2.06828e-17, -0.000114046, -4.64463e-05, -9.85009e-05, -5.05699e-05, -9.30338e-05, -0.00386204, 11.5588, -4.40545, -0.658156, -17.0758, 13.8631, 10.0578, -0.230674, 23.7916, -2.57075, 0.622441, -1.38126, 6.26633, 6.15505, 0.939549, 4.68786e-310, 0, 0, 11.5588, -4.40545, -0.658156, -17.0758, 6.93155, 5.02891, 6.93155, 0, 0, -8.94898, 0, 76.4849, 0, 0, 38.3529, 9.62173e-05, 0, 0, 0, 0, 0, 0, 0
0.000834008, -0.0235614, 0.743839, 0.100001, -0.977222, 1.10519, -0.227965, 0.0999999, 0.23, 1, 0.23, 1, 0.029998, 0.000386822, -3.88121e-05, 0.00270859, -0.00270859, -6.11448e-18, -2.8778e-17, -0.000139552, -5.69503e-05, -0.00012138, -6.21043e-05, -0.000114546, -0.0048279, 11.5628, -4.40589, -0.658047, -17.0761, 13.8641, 10.0589, -0.230516, 24.3781, -2.70602, 0.692822, -1.68258, 6.16451, 6.13226, 0.960426, 4.68786e-310, 0, 0, 11.5628, -4.40589, -0.658047, -17.0761, 6.93207, 5.02943, 6.93207, 0, 0, -8.94405, 0, 76.5076, 0, 0, 38.3596, 9.21253e-05, 0, 0, 0, 0, 0, 0, 0
0.00100081, -0.0235614, 0.743839, 0.100002, -0.977222, 1.10519, -0.227965, 0.0999999, 0.23, 1, 0.23, 1, 0.0299971, 0.000463949, -4.65509e-05, 0.00324865, -0.00324865, -6.89718e-18, -3.76282e-17, -0.000163869, -6.7016e-05, -0.000143565, -7.32001e-05, -0.000135364, -0.00579376, 11.567, -4.40635, -0.657925, -17.0764, 13.8652, 10.0599, -0.230354, 24.9645, -2.84129, 0.763203, -1.9839, 6.06269, 6.10947, 0.981303, 4.68786e-310, 0, 0, 11.567, -4.40635, -0.657925, -17.0764, 6.93258, 5.02994, 6.93258, 0, 0, -8.93909, 0, 76.5306, 0, 0, 38.3665, 8.81036e-05, 0, 0, 0, 0, 0, 0, 0
0.00116761, -0.0235613, 0.743839, 0.100002, -0.977223, 1.10519, -0.227965, 0.0999999, 0.23, 1, 0.23, 1, 0.029996, 0.000540997, -5.4282e-05, 0.00378815, -0.00378815, -6.26233e-18, -4.35136e-17, -0.000187013, -7.66488e-05, -0.000165062, -8.38627e-05, -0.000155496, -0.00675956, 11.5712, -4.40683, -0.657792, -17.0767, 13.8662, 10.0609, -0.230188, 25.551, -2.97656, 0.833584, -2.28522, 5.96087, 6.08668, 1.00218, 4.68786e-310, 0, 0, 11.5712, -4.40683, -0.657792, -17.0767, 6.93308, 5.03044, 6.93308, 0, 0, -8.93409, 0, 76.5541, 0, 0, 38.3738, 8.4152e-05, 0, 0, 0, 0, 0, 0, 0
0.00133441, -0.0235612, 0.743839, 0.100003, -0.977224, 1.10519, -0.227965, 0.0999999, 0.23, 1, 0.23, 1, 0.0299948, 0.000617967, -6.20054e-05, 0.00432711, -0.00432711, -7.88025e-18, -4.71524e-17, -0.000209001, -8.58557e-05, -0.000185882, -9.40992e-05, -0.000174949, -0.00772521, 11.5755, -4.40734, -0.657647, -17.0771, 13.8671, 10.0619, -0.23002, 26.1375, -3.11183, 0.903965, -2.58655, 5.85905, 6.06389, 1.02306, 4.68786e-310, 0, 0, 11.5755, -4.40734, -0.657647, -17.0771, 6.93357, 5.03095, 6.93357, 0, 0, -8.92906, 0, 76.5779, 0, 0, 38.3812, 8.02707e-05, 0, 0, 0, 0, 0, 0, 0
0.00150121, -0.0235611, 0.743839, 0.100004, -0.977224, 1.10519, -0.227965, 0.0999998, 0.23, 1, 0.23, 1, 0.0299934, 0.00069486, -6.97211e-05, 0.00486553, -0.00486553, -1.35057e-17, -4.87915e-17, -0.000229854, -9.46434e-05, -0.000206033, -0.000103916, -0.000193734, -0.00869063, 11.5799, -4.40787, -0.65749, -17.0776, 13.8681, 10.0629, -0.229847, 26.724, -3.2471, 0.974346, -2.88787, 5.75723, 6.04111, 1.04393, 4.68786e-310, 0, 0, 11.5799, -4.40787, -0.65749, -17.0776, 6.93406, 5.03146, 6.93406, 0, 0, -8.924, 0, 76.6021, 0, 0, 38.389, 7.64596e-05, 0, 0, 0, 0, 0, 0, 0
0.00166802, -0.0235609, 0.743839, 0.100005, -0.977225, 1.10519, -0.227965, 0.0999998, 0.23, 1, 0.23, 1, 0.0299919, 0.000771676, -7.74294e-05, 0.00540341, -0.00540341, -1.7407e-17, -5.10145e-17, -0.000249589, -0.000103019, -0.000225525, -0.000113321, -0.000211859, -0.00965576, 11.5844, -4.40843, -0.657322, -17.0781, 13.8691, 10.0639, -0.229671, 27.3105, -3.38237, 1.04473, -3.18919, 5.65541, 6.01832, 1.06481, 4.68786e-310, 0, 0, 11.5844, -4.40843, -0.657322, -17.0781, 6.93453, 5.03196, 6.93453, 0, 0, -8.9189, 0, 76.6267, 0, 0, 38.397, 7.27188e-05, 0, 0, 0, 0, 0, 0, 0
0.00183482, -0.0235608, 0.743839, 0.100005, -0.977226, 1.10519, -0.227965, 0.0999997, 0.23, 1, 0.23, 1, 0.0299902, 0.000848416, -8.51303e-05, 0.00594076, -0.00594076, -1.88927e-17, -5.44246e-17, -0.000268227, -0.00011099, -0.000244366, -0.00012232, -0.000229334, -0.0106205, 11.589, -4.409, -0.657142, -17.0787, 13.87, 10.0649, -0.229492, 27.8969, -3.51763, 1.11511, -3.49051, 5.55359, 5.99553, 1.08569, 4.68786e-310, 0, 0, 11.589, -4.409, -0.657142, -17.0787, 6.935, 5.03246, 6.935, 0, 0, -8.91377, 0, 76.6517, 0, 0, 38.4053, 6.90482e-05, 0, 0, 0, 0, 0, 0, 0
0.00200162, -0.0235607, 0.743839, 0.100007, -0.977227, 1.10519, -0.227965, 0.0999997, 0.23, 1, 0.23, 1, 0.0299884, 0.000925082, -9.28239e-05, 0.00647758, -0.00647758, -2.16421e-17, -5.57864e-17, -0.000285785, -0.000118561, -0.000262565, -0.000130921, -0.000246168, -0.0115848, 11.5937, -4.4096, -0.65695, -17.0793, 13.8709, 10.0659, -0.229309, 28.4834, -3.6529, 1.18549, -3.79183, 5.45177, 5.97274, 1.10656, 4.68786e-310, 0, 0, 11.5937, -4.4096, -0.65695, -17.0793, 6.93546, 5.03296, 6.93546, 0, 0, -8.90861, 0, 76.677, 0, 0, 38.4138, 6.54478e-05, 0, 0, 0, 0, 0, 0, 0
0.00216842, -0.0235605, 0.743839, 0.100008, -0.977228, 1.10519, -0.227965, 0.0999996, 0.23, 1, 0.23, 1, 0.0299864, 0.00100167, -0.00010051, 0.00701388, -0.00701388, -2.50593e-17, -5.53386e-17, -0.000302282, -0.000125742, -0.000280132, -0.000139129, -0.000262369, -0.0125485, 11.5985, -4.41022, -0.656746, -17.0799, 13.8718, 10.0669, -0.229123, 29.0699, -3.78817, 1.25587, -4.09316, 5.34996, 5.94995, 1.12744, 4.68786e-310, 0, 0, 11.5985, -4.41022, -0.656746, -17.0799, 6.93591, 5.03346, 6.93591, 0, 0, -8.90342, 0, 76.7027, 0, 0, 38.4227, 6.19176e-05, 0, 0, 0, 0, 0, 0, 0
0.00233522, -0.0235603, 0.743839, 0.100009, -0.97723, 1.10519, -0.227965, 0.0999996, 0.23, 1, 0.23, 1, 0.0299842, 0.00107819, -0.000108189, 0.00754967, -0.00754967, -2.9557e-17, -5.25e-17, -0.000317737, -0.000132537, -0.000297075, -0.000146952, -0.000277947, -0.0135116, 11.6034, -4.41086, -0.656531, -17.0806, 13.8727, 10.0679, -0.228933, 29.6564, -3.92344, 1.32625, -4.39448, 5.24814, 5.92716, 1.14832, 4.68786e-310, 0, 0, 11.6034, -4.41086, -0.656531, -17.0806, 6.93635, 5.03395, 6.93635, 0, 0, -8.89819, 0, 76.7289, 0, 0, 38.4317, 5.84576e-05, 0, 0, 0, 0, 0, 0, 0
0.00250202, -0.0235601, 0.743839, 0.10001, -0.977231, 1.10519, -0.227965, 0.0999995, 0.23, 1, 0.23, 1, 0.0299819, 0.00115463, -0.000115862, 0.00808494, -0.00808494, -3.35965e-17, -5.01532e-17, -0.000332168, -0.000138954, -0.000313404, -0.000154397, -0.00029291, -0.0144741, 11.6084, -4.41153, -0.656304, -17.0814, 13.8736, 10.0689, -0.22874, 30.2429, -4.05871, 1.39663, -4.6958, 5.14632, 5.90438, 1.16919, 4.68786e-310, 0, 0, 11.6084, -4.41153, -0.656304, -17.0814, 6.93679, 5.03444, 6.93679, 0, 0, -8.89293, 0, 76.7553, 0, 0, 38.4411, 5.50678e-05, 0, 0, 0, 0, 0, 0, 0
0.00266882, -0.0235599, 0.743838, 0.100012, -0.977232, 1.10519, -0.227965, 0.0999995, 0.23, 1, 0.23, 1, 0.0299794, 0.001231, -0.000123527, 0.00861971, -0.00861971, -3.70025e-17, -4.879e-17, -0.000345594, -0.000145, -0.000329127, -0.00016147, -0.000307268, -0.0154357, 11.6135, -4.41222, -0.656065, -17.0822, 13.8744, 10.0699, -0.228543, 30.8294, -4.19398, 1.46701, -4.99712, 5.0445, 5.88159, 1.19007, 4.68786e-310, 0, 0, 11.6135, -4.41222, -0.656065, -17.0822, 6.93721, 5.03494, 6.93721, 0, 0, -8.88764, 0, 76.7822, 0, 0, 38.4507, 5.17482e-05, 0, 0, 0, 0, 0, 0, 0
0.00283563, -0.0235597, 0.743838, 0.100013, -0.977234, 1.10519, -0.227965, 0.0999994, 0.23, 0.999999, 0.23, 0.999999, 0.0299767, 0.0013073, -0.000131185, 0.00915398, -0.00915398, -3.996e-17, -4.82711e-17, -0.000358033, -0.00015068, -0.000344253, -0.000168178, -0.00032103, -0.0163965, 11.6187, -4.41293, -0.655815, -17.0831, 13.8753, 10.0709, -0.228343, 31.4158, -4.32925, 1.53739, -5.29845, 4.94268, 5.8588, 1.21095, 0, 0, 0, 11.6187, -4.41293, -0.655815, -17.0831, 6.93763, 5.03543, 6.93763, 0, 0, -8.88231, 0, 76.8094, 0, 0, 38.4606, 4.84987e-05, 0, 0, 0, 0, 0, 0, 0
0.00300243, -0.0235595, 0.743838, 0.100015, -0.977235, 1.10519, -0.227965, 0.0999994, 0.23, 0.999999, 0.23, 0.999999, 0.0299739, 0.00138353, -0.000138837, 0.00968774, -0.00968774, -4.26459e-17, -4.75325e-17, -0.000369504, -0.000156003, -0.000358791, -0.000174527, -0.000334203, -0.0173564, 11.624, -4.41366, -0.655552, -17.084, 13.8761, 10.0718, -0.228139, 32.0023, -4.46452, 1.60777, -5.59977, 4.84086, 5.83601, 1.23182, 0, 0, 0, 11.624, -4.41366, -0.655552, -17.084, 6.93803, 5.03591, 6.93803, 0, 0, -8.87695, 0, 76.8371, 0, 0, 38.4708, 4.53194e-05, 0, 0, 0, 0, 0, 0, 0
0.00316923, -0.0235593, 0.743838, 0.100016, -0.977237, 1.10519, -0.227965, 0.0999993, 0.23, 0.999999, 0.23, 0.999999, 0.0299709, 0.00145969, -0.000146482, 0.010221, -0.010221, -4.50219e-17, -4.64744e-17, -0.000380024, -0.000160974, -0.00037275, -0.000180525, -0.000346798, -0.0183153, 11.6294, -4.41442, -0.655278, -17.0849, 13.8769, 10.0728, -0.227932, 32.5888, -4.59979, 1.67815, -5.90109, 4.73904, 5.81322, 1.2527, 0, 0, 0, 11.6294, -4.41442, -0.655278, -17.0849, 6.93843, 5.0364, 6.93843, 0, 0, -8.87156, 0, 76.8651, 0, 0, 38.4812, 4.22103e-05, 0, 0, 0, 0, 0, 0, 0
0.00333603, -0.023559, 0.743838, 0.100018, -0.977239, 1.10519, -0.227965, 0.0999992, 0.23, 0.999999, 0.23, 0.999999, 0.0299678, 0.00153578, -0.00015412, 0.0107538, -0.0107538, -4.69524e-17, -4.54326e-17, -0.000389613, -0.000165601, -0.000386139, -0.000186177, -0.000358823, -0.0192731, 11.6348, -4.4152, -0.654992, -17.0859, 13.8777, 10.0738, -0.227721, 33.1753, -4.73506, 1.74854, -6.20241, 4.63722, 5.79043, 1.27358, 0, 0, 0, 11.6348, -4.4152, -0.654992, -17.0859, 6.93883, 5.03688, 6.93883, 0, 0, -8.86613, 0, 76.8935, 0, 0, 38.4919, 3.91712e-05, 0, 0, 0, 0, 0, 0, 0
0.00350283, -0.0235588, 0.743838, 0.10002, -0.977241, 1.10519, -0.227965, 0.0999992, 0.23, 0.999999, 0.23, 0.999999, 0.0299645, 0.0016118, -0.000161752, 0.0112861, -0.0112861, -4.83743e-17, -4.4418e-17, -0.000398288, -0.000169889, -0.000398966, -0.000191491, -0.000370286, -0.0202297, 11.6404, -4.416, -0.654695, -17.087, 13.8784, 10.0747, -0.227507, 33.7618, -4.87033, 1.81892, -6.50374, 4.5354, 5.76764, 1.29445, 0, 0, 0, 11.6404, -4.416, -0.654695, -17.087, 6.93921, 5.03737, 6.93921, 0, 0, -8.86067, 0, 76.9222, 0, 0, 38.5029, 3.62022e-05, 0, 0, 0, 0, 0, 0, 0
0.00366963, -0.0235585, 0.743838, 0.100022, -0.977242, 1.10519, -0.227965, 0.0999991, 0.23, 0.999999, 0.23, 0.999999, 0.029961, 0.00168775, -0.000169377, 0.0118179, -0.0118179, -4.92245e-17, -4.34411e-17, -0.000406068, -0.000173846, -0.000411241, -0.000196473, -0.000381198, -0.0211851, 11.6461, -4.41682, -0.654386, -17.0881, 13.8792, 10.0757, -0.227289, 34.3482, -5.00559, 1.8893, -6.80506, 4.43359, 5.74486, 1.31533, 0, 0, 0, 11.6461, -4.41682, -0.654386, -17.0881, 6.93958, 5.03785, 6.93958, 0, 0, -8.85518, 0, 76.9514, 0, 0, 38.5141, 3.33032e-05, 0, 0, 0, 0, 0, 0, 0
0.00383644, -0.0235582, 0.743838, 0.100024, -0.977244, 1.10519, -0.227965, 0.099999, 0.23, 0.999999, 0.23, 0.999999, 0.0299574, 0.00176364, -0.000176996, 0.0123493, -0.0123493, -5.05194e-17, -4.30382e-17, -0.000412972, -0.000177478, -0.000422973, -0.000201131, -0.000391566, -0.0221392, 11.6519, -4.41767, -0.654065, -17.0893, 13.8799, 10.0766, -0.227068, 34.9347, -5.14086, 1.95968, -7.10638, 4.33177, 5.72207, 1.3362, 0, 0, 0, 11.6519, -4.41767, -0.654065, -17.0893, 6.93995, 5.03832, 6.93995, 0, 0, -8.84966, 0, 76.9809, 0, 0, 38.5256, 3.04743e-05, 0, 0, 0, 0, 0, 0, 0
0.00400324, -0.0235579, 0.743838, 0.100026, -0.977247, 1.10519, -0.227965, 0.099999, 0.23, 0.999999, 0.23, 0.999999, 0.0299537, 0.00183945, -0.000184609, 0.0128802, -0.0128802, -5.19202e-17, -4.30858e-17, -0.000419018, -0.000180793, -0.00043417, -0.00020547, -0.0004014, -0.0230919, 11.6578, -4.41854, -0.653732, -17.0905, 13.8806, 10.0776, -0.226843, 35.5212, -5.27613, 2.03006, -7.4077, 4.22995, 5.69928, 1.35708, 0, 0, 0, 11.6578, -4.41854, -0.653732, -17.0905, 6.9403, 5.0388, 6.9403, 0, 0, -8.8441, 0, 77.0108, 0, 0, 38.5374, 2.77154e-05, 0, 0, 0, 0, 0, 0, 0
0.00417004, -0.0235576, 0.743838, 0.100028, -0.977249, 1.10519, -0.227965, 0.0999989, 0.23, 0.999999, 0.229999, 0.999999, 0.0299497, 0.0019152, -0.000192216, 0.0134106, -0.0134106, -5.34267e-17, -4.36251e-17, -0.000424224, -0.000183796, -0.000444841, -0.000209497, -0.000410709, -0.0240431, 11.6637, -4.41943, -0.653387, -17.0917, 13.8813, 10.0785, -0.226615, 36.1077, -5.4114, 2.10044, -7.70903, 4.12813, 5.67649, 1.37796, 0, 0, 0, 11.6637, -4.41943, -0.653387, -17.0917, 6.94065, 5.03927, 6.94065, 0, 0, -8.83851, 0, 77.0411, 0, 0, 38.5495, 2.50264e-05, 0, 0, 0, 0, 0, 0, 0
0.00433684, -0.0235573, 0.743838, 0.10003, -0.977251, 1.10519, -0.227965, 0.0999988, 0.23, 0.999999, 0.229999, 0.999999, 0.0299456, 0.00199089, -0.000199816, 0.0139406, -0.0139406, -5.51168e-17, -4.47354e-17, -0.000428609, -0.000186494, -0.000454995, -0.000213219, -0.000419502, -0.0249928, 11.6698, -4.42034, -0.653031, -17.093, 13.882, 10.0795, -0.226384, 36.6942, -5.54667, 2.17082, -8.01035, 4.02631, 5.6537, 1.39883, 0, 0, 0, 11.6698, -4.42034, -0.653031, -17.093, 6.94099, 5.03975, 6.94099, 0, 0, -8.83288, 0, 77.0717, 0, 0, 38.5618, 2.24073e-05, 0, 0, 0, 0, 0, 0, 0
0.00450364, -0.0235569, 0.743838, 0.100033, -0.977253, 1.10519, -0.227965, 0.0999987, 0.229999, 0.999999, 0.229999, 0.999999, 0.0299414, 0.00206651, -0.000207411, 0.0144701, -0.0144701, -5.70685e-17, -4.64961e-17, -0.000432191, -0.000188895, -0.000464642, -0.000216643, -0.000427786, -0.0259409, 11.676, -4.42128, -0.652663, -17.0944, 13.8826, 10.0804, -0.226149, 37.2807, -5.68194, 2.2412, -8.31167, 3.92449, 5.63091, 1.41971, 0, 0, 0, 11.676, -4.42128, -0.652663, -17.0944, 6.94132, 5.04022, 6.94132, 0, 0, -8.82723, 0, 77.1028, 0, 0, 38.5744, 1.98581e-05, 0, 0, 0, 0, 0, 0, 0
0.00467044, -0.0235566, 0.743838, 0.100035, -0.977256, 1.10519, -0.227965, 0.0999987, 0.229999, 0.999999, 0.229999, 0.999999, 0.029937, 0.00214207, -0.000215, 0.0149992, -0.0149992, -5.93597e-17, -4.89864e-17, -0.000434988, -0.000191004, -0.000473789, -0.000219776, -0.000435572, -0.0268872, 11.6822, -4.42224, -0.652284, -17.0958, 13.8833, 10.0814, -0.22591, 37.8671, -5.81721, 2.31158, -8.61299, 3.82267, 5.60812, 1.44059, 4.68786e-310, 0, 0, 11.6822, -4.42224, -0.652284, -17.0958, 6.94165, 5.04069, 6.94165, 0, 0, -8.82154, 0, 77.1342, 0, 0, 38.5872, 1.73788e-05, 0, 0, 0, 0, 0, 0, 0
0.00483724, -0.0235562, 0.743838, 0.100038, -0.977258, 1.10519, -0.227965, 0.0999986, 0.229999, 0.999999, 0.229999, 0.999999, 0.0299324, 0.00221756, -0.000222583, 0.0155278, -0.0155278, -6.20683e-17, -5.22856e-17, -0.00043702, -0.000192829, -0.000482447, -0.000222623, -0.000442869, -0.0278318, 11.6886, -4.42322, -0.651892, -17.0973, 13.8839, 10.0823, -0.225668, 38.4536, -5.95248, 2.38196, -8.91432, 3.72085, 5.58534, 1.46146, 4.68786e-310, 0, 0, 11.6886, -4.42322, -0.651892, -17.0973, 6.94196, 5.04115, 6.94196, 0, 0, -8.81581, 0, 77.166, 0, 0, 38.6003, 1.49692e-05, 0, 0, 0, 0, 0, 0, 0
0.00500405, -0.0235558, 0.743838, 0.10004, -0.977261, 1.10519, -0.227965, 0.0999985, 0.229999, 0.999999, 0.229999, 0.999999, 0.0299277, 0.00229299, -0.00023016, 0.016056, -0.016056, -6.2975e-17, -5.30656e-17, -0.000438303, -0.000194376, -0.000490623, -0.000225193, -0.000449684, -0.0287745, 11.6951, -4.42422, -0.651489, -17.0988, 13.8845, 10.0832, -0.225423, 39.0401, -6.08775, 2.45235, -9.21564, 3.61903, 5.56255, 1.48234, 4.68786e-310, 0, 0, 11.6951, -4.42422, -0.651489, -17.0988, 6.94227, 5.04162, 6.94227, 0, 0, -8.81006, 0, 77.1982, 0, 0, 38.6137, 1.26294e-05, 0, 0, 0, 0, 0, 0, 0
0.00517085, -0.0235554, 0.743838, 0.100043, -0.977264, 1.10519, -0.227965, 0.0999984, 0.229999, 0.999998, 0.229999, 0.999999, 0.0299228, 0.00236836, -0.000237731, 0.0165837, -0.0165837, -6.30929e-17, -5.27928e-17, -0.000438857, -0.000195652, -0.000498326, -0.00022749, -0.000456028, -0.0297153, 11.7016, -4.42525, -0.651074, -17.1004, 13.8851, 10.0842, -0.225174, 39.6266, -6.22302, 2.52273, -9.51696, 3.51721, 5.53976, 1.50322, 4.68786e-310, 0, 0, 11.7016, -4.42525, -0.651074, -17.1004, 6.94257, 5.04208, 6.94257, 0, 0, -8.80427, 0, 77.2307, 0, 0, 38.6274, 1.03593e-05, 0, 0, 0, 0, 0, 0, 0
0.00533765, -0.023555, 0.743838, 0.100046, -0.977267, 1.10519, -0.227965, 0.0999984, 0.229999, 0.999998, 0.229999, 0.999998, 0.0299178, 0.00244366, -0.000245298, 0.017111, -0.017111, -6.25937e-17, -5.16855e-17, -0.000438699, -0.000196663, -0.000505566, -0.000229523, -0.000461908, -0.0306541, 11.7083, -4.4263, -0.650647, -17.102, 13.8857, 10.0851, -0.224921, 40.2131, -6.35829, 2.59311, -9.81828, 3.4154, 5.51697, 1.52409, 0, 0, 0, 11.7083, -4.4263, -0.650647, -17.102, 6.94285, 5.04254, 6.94285, 0, 0, -8.79845, 0, 77.2637, 0, 0, 38.6413, 8.15883e-06, 0, 0, 0, 0, 0, 0, 0
0.00550445, -0.0235546, 0.743838, 0.100049, -0.977269, 1.10519, -0.227965, 0.0999983, 0.229999, 0.999998, 0.229999, 0.999998, 0.0299126, 0.00251891, -0.000252858, 0.0176379, -0.0176379, -6.14001e-17, -4.9593e-17, -0.000437849, -0.000197416, -0.000512351, -0.000231297, -0.000467334, -0.0315908, 11.715, -4.42737, -0.650209, -17.1036, 13.8863, 10.086, -0.224665, 40.7996, -6.49355, 2.66349, -10.1196, 3.31358, 5.49418, 1.54497, 4.68786e-310, 0, 0, 11.715, -4.42737, -0.650209, -17.1036, 6.94314, 5.043, 6.94314, 0, 0, -8.79259, 0, 77.297, 0, 0, 38.6555, 6.02797e-06, 0, 0, 0, 0, 0, 0, 0
0.00567125, -0.0235542, 0.743838, 0.100052, -0.977272, 1.10519, -0.227965, 0.0999982, 0.229999, 0.999998, 0.229999, 0.999998, 0.0299073, 0.0025941, -0.000260413, 0.0181644, -0.0181644, -5.9435e-17, -4.63646e-17, -0.000436324, -0.000197918, -0.000518691, -0.000232819, -0.000472315, -0.0325253, 11.7219, -4.42846, -0.649759, -17.1053, 13.8868, 10.0869, -0.224406, 41.386, -6.62882, 2.73387, -10.4209, 3.21176, 5.47139, 1.56585, 4.68786e-310, 0, 0, 11.7219, -4.42846, -0.649759, -17.1053, 6.94341, 5.04346, 6.94341, 0, 0, -8.7867, 0, 77.3307, 0, 0, 38.67, 3.96666e-06, 0, 0, 0, 0, 0, 0, 0
0.00583805, -0.0235538, 0.743838, 0.100055, -0.977276, 1.10519, -0.227965, 0.0999982, 0.229999, 0.999998, 0.229999, 0.999998, 0.0299017, 0.00266922, -0.000267963, 0.0186904, -0.0186904, -5.68148e-17, -4.22406e-17, -0.000434143, -0.000198175, -0.000524594, -0.000234097, -0.000476859, -0.0334576, 11.7289, -4.42958, -0.649297, -17.1071, 13.8873, 10.0878, -0.224143, 41.9725, -6.76409, 2.80425, -10.7222, 3.10994, 5.4486, 1.58672, 4.68786e-310, 0, 0, 11.7289, -4.42958, -0.649297, -17.1071, 6.94367, 5.04391, 6.94367, 0, 0, -8.78078, 0, 77.3648, 0, 0, 38.6847, 1.97484e-06, 0, 0, 0, 0, 0, 0, 0
0.00600486, -0.0235533, 0.743838, 0.100058, -0.977279, 1.10519, -0.227965, 0.0999981, 0.229999, 0.999998, 0.229999, 0.999998, 0.0298961, 0.00274429, -0.000275508, 0.0192161, -0.0192161, -5.445e-17, -3.90661e-17, -0.000431325, -0.000198195, -0.000530068, -0.000235136, -0.000480976, -0.0343876, 11.7359, -4.43072, -0.648823, -17.1089, 13.8879, 10.0887, -0.223876, 42.559, -6.89936, 2.87463, -11.0236, 3.00812, 5.42582, 1.6076, 4.68786e-310, 0, 0, 11.7359, -4.43072, -0.648823, -17.1089, 6.94393, 5.04437, 6.94393, 0, 0, -8.77483, 0, 77.3992, 0, 0, 38.6997, 5.24567e-08, 0, 0, 0, 0, 0, 0, 0
0.00617166, -0.0235528, 0.743838, 0.100061, -0.977282, 1.10519, -0.227965, 0.099998, 0.229999, 0.999998, 0.229999, 0.999998, 0.0298903, 0.0028193, -0.000283048, 0.0197413, -0.0197413, -5.16902e-17, -3.55323e-17, -0.000427886, -0.000197983, -0.000535124, -0.000235943, -0.000484674, -0.0353152, 11.7431, -4.43188, -0.648338, -17.1108, 13.8883, 10.0896, -0.223606, 43.1455, -7.03463, 2.94501, -11.3249, 2.9063, 5.40303, 1.62848, 4.68786e-310, 0, 0, 11.7431, -4.43188, -0.648338, -17.1108, 6.94417, 5.04482, 6.94417, 0, 0, -8.76884, 0, 77.4341, 0, 0, 38.715, -1.80056e-06, 0, 0, 0, 0, 0, 0, 0
0.00633846, -0.0235524, 0.743838, 0.100065, -0.977285, 1.10519, -0.227965, 0.0999979, 0.229999, 0.999998, 0.229999, 0.999998, 0.0298843, 0.00289425, -0.000290583, 0.0202662, -0.0202662, -4.85414e-17, -3.16562e-17, -0.000423847, -0.000197547, -0.000539769, -0.000236526, -0.000487963, -0.0362403, 11.7503, -4.43307, -0.647841, -17.1127, 13.8888, 10.0905, -0.223333, 43.732, -7.1699, 3.01539, -11.6262, 2.80448, 5.38024, 1.64935, 4.68786e-310, 0, 0, 11.7503, -4.43307, -0.647841, -17.1127, 6.94441, 5.04527, 6.94441, 0, 0, -8.76282, 0, 77.4693, 0, 0, 38.7305, -3.58426e-06, 0, 0, 0, 0, 0, 0, 0
0.00650526, -0.0235519, 0.743838, 0.100068, -0.977289, 1.10519, -0.227965, 0.0999979, 0.229999, 0.999998, 0.229999, 0.999998, 0.0298782, 0.00296915, -0.000298113, 0.0207906, -0.0207906, -4.50094e-17, -2.7455e-17, -0.000419225, -0.000196892, -0.000544013, -0.00023689, -0.00049085, -0.0371629, 11.7576, -4.43427, -0.647332, -17.1147, 13.8893, 10.0914, -0.223056, 44.3184, -7.30517, 3.08577, -11.9275, 2.70266, 5.35745, 1.67023, 4.68786e-310, 0, 0, 11.7576, -4.43427, -0.647332, -17.1147, 6.94464, 5.04572, 6.94464, 0, 0, -8.75676, 0, 77.5049, 0, 0, 38.7463, -5.29871e-06, 0, 0, 0, 0, 0, 0, 0
0.00667206, -0.0235514, 0.743838, 0.100072, -0.977292, 1.10519, -0.227965, 0.0999978, 0.229999, 0.999998, 0.229999, 0.999998, 0.0298719, 0.00304399, -0.000305638, 0.0213147, -0.0213147, -4.11001e-17, -2.29456e-17, -0.000414039, -0.000196027, -0.000547865, -0.000237042, -0.000493346, -0.0380828, 11.7651, -4.4355, -0.646811, -17.1167, 13.8897, 10.0923, -0.222776, 44.9049, -7.44044, 3.15615, -12.2289, 2.60084, 5.33466, 1.69111, 4.68786e-310, 0, 0, 11.7651, -4.4355, -0.646811, -17.1167, 6.94486, 5.04616, 6.94486, 0, 0, -8.75067, 0, 77.5409, 0, 0, 38.7624, -6.94399e-06, 0, 0, 0, 0, 0, 0, 0
0.00683886, -0.0235509, 0.743838, 0.100075, -0.977296, 1.10519, -0.227965, 0.0999977, 0.229999, 0.999998, 0.229999, 0.999998, 0.0298655, 0.00311877, -0.000313158, 0.0218383, -0.0218383, -3.68194e-17, -1.81451e-17, -0.000408306, -0.000194957, -0.000551333, -0.000236989, -0.000495459, -0.0390001, 11.7726, -4.43676, -0.646279, -17.1187, 13.8901, 10.0932, -0.222492, 45.4914, -7.57571, 3.22654, -12.5302, 2.49903, 5.31187, 1.71198, 4.68786e-310, 0, 0, 11.7726, -4.43676, -0.646279, -17.1187, 6.94507, 5.04661, 6.94507, 0, 0, -8.74455, 0, 77.5773, 0, 0, 38.7787, -8.52017e-06, 0, 0, 0, 0, 0, 0, 0
0.00700566, -0.0235503, 0.743838, 0.100079, -0.9773, 1.10519, -0.227965, 0.0999977, 0.229999, 0.999997, 0.229999, 0.999998, 0.0298589, 0.0031935, -0.000320673, 0.0223616, -0.0223616, -3.21732e-17, -1.30705e-17, -0.000402046, -0.000193689, -0.000554426, -0.000236738, -0.000497198, -0.0399145, 11.7803, -4.43803, -0.645735, -17.1209, 13.8906, 10.0941, -0.222205, 46.0779, -7.71098, 3.29692, -12.8315, 2.39721, 5.28908, 1.73286, 4.68786e-310, 0, 0, 11.7803, -4.43803, -0.645735, -17.1209, 6.94528, 5.04705, 6.94528, 0, 0, -8.7384, 0, 77.614, 0, 0, 38.7953, -1.00273e-05, 0, 0, 0, 0, 0, 0, 0
0.00717247, -0.0235498, 0.743837, 0.100083, -0.977303, 1.10519, -0.227965, 0.0999976, 0.229999, 0.999997, 0.229999, 0.999998, 0.0298522, 0.00326818, -0.000328184, 0.0228845, -0.0228845, -2.71672e-17, -7.73884e-18, -0.000395277, -0.000192229, -0.000557154, -0.000236295, -0.000498571, -0.0408261, 11.788, -4.43933, -0.645179, -17.123, 13.8909, 10.095, -0.221914, 46.6644, -7.84625, 3.3673, -13.1328, 2.29539, 5.2663, 1.75374, 4.68786e-310, 0, 0, 11.788, -4.43933, -0.645179, -17.123, 6.94547, 5.04749, 6.94547, 0, 0, -8.73221, 0, 77.6511, 0, 0, 38.8122, -1.14655e-05, 0, 0, 0, 0, 0, 0, 0
0.00733927, -0.0235492, 0.743837, 0.100086, -0.977307, 1.10519, -0.227965, 0.0999975, 0.229999, 0.999997, 0.229999, 0.999998, 0.0298453, 0.0033428, -0.000335691, 0.0234071, -0.0234071, -2.18752e-17, -2.21713e-18, -0.000388016, -0.000190585, -0.000559524, -0.000235667, -0.000499588, -0.0417347, 11.7958, -4.44065, -0.644612, -17.1252, 13.8913, 10.0959, -0.22162, 47.2509, -7.98151, 3.43768, -13.4342, 2.19357, 5.24351, 1.77461, 4.68786e-310, 0, 0, 11.7958, -4.44065, -0.644612, -17.1252, 6.94566, 5.04793, 6.94566, 0, 0, -8.72599, 0, 77.6886, 0, 0, 38.8294, -1.28348e-05, 0, 0, 0, 0, 0, 0, 0
0.00750607, -0.0235487, 0.743837, 0.10009, -0.977311, 1.10519, -0.227965, 0.0999975, 0.229999, 0.999997, 0.229999, 0.999997, 0.0298383, 0.00341737, -0.000343193, 0.0239292, -0.0239292, -1.71107e-17, 2.88397e-18, -0.000380282, -0.000188763, -0.000561547, -0.00023486, -0.000500258, -0.0426404, 11.8038, -4.44199, -0.644032, -17.1275, 13.8917, 10.0967, -0.221322, 47.8373, -8.11678, 3.50806, -13.7355, 2.09175, 5.22072, 1.79549, 4.68786e-310, 0, 0, 11.8038, -4.44199, -0.644032, -17.1275, 6.94584, 5.04836, 6.94584, 0, 0, -8.71974, 0, 77.7265, 0, 0, 38.8468, -1.41352e-05, 0, 0, 0, 0, 0, 0, 0
0.00767287, -0.0235481, 0.743837, 0.100094, -0.977315, 1.10519, -0.227965, 0.0999974, 0.229999, 0.999997, 0.229999, 0.999997, 0.0298311, 0.00349189, -0.000350691, 0.024451, -0.024451, -1.2411e-17, 7.89175e-18, -0.000372094, -0.00018677, -0.00056323, -0.000233881, -0.000500589, -0.0435429, 11.8118, -4.44336, -0.643441, -17.1298, 13.892, 10.0976, -0.221021, 48.4238, -8.25205, 3.57844, -14.0368, 1.98993, 5.19793, 1.81637, 4.68786e-310, 0, 0, 11.8118, -4.44336, -0.643441, -17.1298, 6.94601, 5.0488, 6.94601, 0, 0, -8.71346, 0, 77.7648, 0, 0, 38.8645, -1.53669e-05, 0, 0, 0, 0, 0, 0, 0
0.00783967, -0.0235475, 0.743837, 0.100099, -0.977319, 1.10519, -0.227965, 0.0999973, 0.229999, 0.999997, 0.229999, 0.999997, 0.0298237, 0.00356636, -0.000358185, 0.0249725, -0.0249725, -7.86029e-18, 1.27317e-17, -0.000363469, -0.000184612, -0.000564584, -0.000232738, -0.000500591, -0.0444423, 11.8199, -4.44475, -0.642839, -17.1322, 13.8923, 10.0985, -0.220716, 49.0103, -8.38732, 3.64882, -14.3381, 1.88811, 5.17514, 1.83724, 4.68786e-310, 0, 0, 11.8199, -4.44475, -0.642839, -17.1322, 6.94617, 5.04923, 6.94617, 0, 0, -8.70714, 0, 77.8034, 0, 0, 38.8824, -1.653e-05, 0, 0, 0, 0, 0, 0, 0
0.00800647, -0.0235469, 0.743837, 0.100103, -0.977323, 1.10519, -0.227965, 0.0999973, 0.229999, 0.999997, 0.229999, 0.999997, 0.0298162, 0.00364078, -0.000365674, 0.0254936, -0.0254936, -3.5485e-18, 1.73249e-17, -0.000354427, -0.000182296, -0.000565615, -0.000231435, -0.000500272, -0.0453385, 11.8281, -4.44616, -0.642224, -17.1346, 13.8927, 10.0993, -0.220408, 49.5968, -8.52259, 3.7192, -14.6394, 1.78629, 5.15235, 1.85812, 4.68786e-310, 0, 0, 11.8281, -4.44616, -0.642224, -17.1346, 6.94633, 5.04966, 6.94633, 0, 0, -8.70078, 0, 77.8424, 0, 0, 38.9006, -1.76245e-05, 0, 0, 0, 0, 0, 0, 0
0.00817328, -0.0235463, 0.743837, 0.100107, -0.977328, 1.10519, -0.227965, 0.0999972, 0.229999, 0.999997, 0.229999, 0.999997, 0.0298086, 0.00371515, -0.00037316, 0.0260143, -0.0260143, 4.28293e-19, 2.1588e-17, -0.000344984, -0.000179828, -0.000566335, -0.000229981, -0.000499641, -0.0462313, 11.8365, -4.44759, -0.641598, -17.1371, 13.8929, 10.1002, -0.220096, 50.1833, -8.65786, 3.78958, -14.9408, 1.68447, 5.12956, 1.879, 4.68786e-310, 0, 0, 11.8365, -4.44759, -0.641598, -17.1371, 6.94647, 5.05009, 6.94647, 0, 0, -8.6944, 0, 77.8818, 0, 0, 38.9191, -1.86505e-05, 0, 0, 0, 0, 0, 0, 0
0.00834008, -0.0235457, 0.743837, 0.100111, -0.977332, 1.10519, -0.227965, 0.0999972, 0.229999, 0.999997, 0.229999, 0.999997, 0.0298008, 0.00378946, -0.000380641, 0.0265348, -0.0265348, 3.96805e-18, 2.54333e-17, -0.000335161, -0.000177215, -0.000566751, -0.000228381, -0.000498707, -0.0471207, 11.8449, -4.44904, -0.64096, -17.1396, 13.8932, 10.101, -0.219781, 50.7698, -8.79313, 3.85996, -15.2421, 1.58266, 5.10678, 1.89987, 4.68786e-310, 0, 0, 11.8449, -4.44904, -0.64096, -17.1396, 6.94661, 5.05052, 6.94661, 0, 0, -8.68798, 0, 77.9216, 0, 0, 38.9379, -1.96081e-05, 0, 0, 0, 0, 0, 0, 0
0.00850688, -0.023545, 0.743837, 0.100116, -0.977337, 1.10519, -0.227965, 0.0999971, 0.229999, 0.999997, 0.229998, 0.999997, 0.0297929, 0.00386373, -0.000388119, 0.0270548, -0.0270548, 6.96272e-18, 2.87686e-17, -0.000324974, -0.000174465, -0.000566872, -0.000226642, -0.000497479, -0.0480066, 11.8534, -4.45052, -0.64031, -17.1422, 13.8935, 10.1019, -0.219462, 51.3562, -8.9284, 3.93034, -15.5434, 1.48084, 5.08399, 1.92075, 4.68786e-310, 0, 0, 11.8534, -4.45052, -0.64031, -17.1422, 6.94673, 5.05094, 6.94673, 0, 0, -8.68153, 0, 77.9618, 0, 0, 38.9569, -2.04974e-05, 0, 0, 0, 0, 0, 0, 0
0.00867368, -0.0235444, 0.743837, 0.10012, -0.977341, 1.10519, -0.227965, 0.0999971, 0.229999, 0.999997, 0.229998, 0.999997, 0.0297848, 0.00393796, -0.000395593, 0.0275746, -0.0275746, 9.29826e-18, 3.14973e-17, -0.000314442, -0.000171583, -0.000566707, -0.000224772, -0.000495966, -0.048889, 11.862, -4.45202, -0.639649, -17.1448, 13.8937, 10.1027, -0.21914, 51.9427, -9.06367, 4.00073, -15.8447, 1.37902, 5.0612, 1.94163, 4.68786e-310, 0, 0, 11.862, -4.45202, -0.639649, -17.1448, 6.94685, 5.05136, 6.94685, 0, 0, -8.67504, 0, 78.0023, 0, 0, 38.9762, -2.13185e-05, 0, 0, 0, 0, 0, 0, 0
0.00884048, -0.0235437, 0.743837, 0.100125, -0.977346, 1.10519, -0.227965, 0.099997, 0.229999, 0.999996, 0.229998, 0.999997, 0.0297766, 0.00401213, -0.000403063, 0.028094, -0.028094, 1.08546e-17, 3.35183e-17, -0.000303584, -0.000168575, -0.000566265, -0.000222776, -0.000494177, -0.0497678, 11.8707, -4.45355, -0.638975, -17.1474, 13.8939, 10.1036, -0.218815, 52.5292, -9.19894, 4.07111, -16.1461, 1.2772, 5.03841, 1.9625, 4.68786e-310, 0, 0, 11.8707, -4.45355, -0.638975, -17.1474, 6.94696, 5.05178, 6.94696, 0, 0, -8.66853, 0, 78.0432, 0, 0, 38.9958, -2.20714e-05, 0, 0, 0, 0, 0, 0, 0
0.00900728, -0.023543, 0.743837, 0.10013, -0.977351, 1.10519, -0.227965, 0.099997, 0.229999, 0.999996, 0.229998, 0.999997, 0.0297682, 0.00408626, -0.000410529, 0.028613, -0.028613, 1.15057e-17, 3.47264e-17, -0.000292418, -0.00016545, -0.000565555, -0.000220661, -0.00049212, -0.0506428, 11.8795, -4.45509, -0.638291, -17.1502, 13.8941, 10.1044, -0.218486, 53.1157, -9.33421, 4.14149, -16.4474, 1.17538, 5.01562, 1.98338, 4.68786e-310, 0, 0, 11.8795, -4.45509, -0.638291, -17.1502, 6.94707, 5.0522, 6.94707, 0, 0, -8.66197, 0, 78.0845, 0, 0, 39.0156, -2.27564e-05, 0, 0, 0, 0, 0, 0, 0
0.00917408, -0.0235424, 0.743837, 0.100135, -0.977355, 1.10519, -0.227965, 0.0999969, 0.229999, 0.999996, 0.229998, 0.999997, 0.0297597, 0.00416034, -0.000417992, 0.0291318, -0.0291318, 1.11194e-17, 3.50117e-17, -0.000280961, -0.000162213, -0.000564586, -0.000218433, -0.000489805, -0.0515141, 11.8884, -4.45666, -0.637594, -17.1529, 13.8943, 10.1052, -0.218153, 53.7022, -9.46948, 4.21187, -16.7487, 1.07356, 4.99283, 2.00426, 4.68786e-310, 0, 0, 11.8884, -4.45666, -0.637594, -17.1529, 6.94716, 5.05262, 6.94716, 0, 0, -8.65539, 0, 78.1262, 0, 0, 39.0357, -2.33733e-05, 0, 0, 0, 0, 0, 0, 0
0.00934089, -0.0235417, 0.743837, 0.10014, -0.97736, 1.10519, -0.227965, 0.0999969, 0.229999, 0.999996, 0.229998, 0.999997, 0.029751, 0.00423438, -0.000425452, 0.0296503, -0.0296503, 9.55771e-18, 3.42599e-17, -0.000269233, -0.000158871, -0.000563366, -0.000216101, -0.000487241, -0.0523814, 11.8974, -4.45825, -0.636885, -17.1557, 13.8945, 10.1061, -0.217817, 54.2886, -9.60474, 4.28225, -17.05, 0.971742, 4.97005, 2.02513, 4.68786e-310, 0, 0, 11.8974, -4.45825, -0.636885, -17.1557, 6.94725, 5.05304, 6.94725, 0, 0, -8.64877, 0, 78.1683, 0, 0, 39.0561, -2.39225e-05, 0, 0, 0, 0, 0, 0, 0
0.00950769, -0.0235409, 0.743837, 0.100145, -0.977365, 1.10519, -0.227965, 0.0999968, 0.229999, 0.999996, 0.229998, 0.999996, 0.0297422, 0.00430837, -0.000432908, 0.0301684, -0.0301684, 8.95799e-18, 3.41699e-17, -0.000257252, -0.000155431, -0.000561906, -0.000213669, -0.000484435, -0.0532449, 11.9066, -4.45986, -0.636165, -17.1586, 13.8946, 10.1069, -0.217477, 54.8751, -9.74001, 4.35263, -17.3513, 0.869923, 4.94726, 2.04601, 4.68786e-310, 0, 0, 11.9066, -4.45986, -0.636165, -17.1586, 6.94732, 5.05345, 6.94732, 0, 0, -8.64212, 0, 78.2107, 0, 0, 39.0767, -2.44039e-05, 0, 0, 0, 0, 0, 0, 0
0.00967449, -0.0235402, 0.743837, 0.10015, -0.97737, 1.10519, -0.227965, 0.0999968, 0.229999, 0.999996, 0.229998, 0.999996, 0.0297333, 0.00438232, -0.000440361, 0.0306862, -0.0306862, 9.38844e-18, 3.47925e-17, -0.000245036, -0.000151899, -0.000560212, -0.000211146, -0.000481398, -0.0541043, 11.9158, -4.4615, -0.635433, -17.1615, 13.8948, 10.1077, -0.217134, 55.4616, -9.87528, 4.42301, -17.6527, 0.768104, 4.92447, 2.06689, 4.68786e-310, 0, 0, 11.9158, -4.4615, -0.635433, -17.1615, 6.94739, 5.05386, 6.94739, 0, 0, -8.63544, 0, 78.2536, 0, 0, 39.0977, -2.48177e-05, 0, 0, 0, 0, 0, 0, 0
0.00984129, -0.0235395, 0.743836, 0.100155, -0.977375, 1.10519, -0.227965, 0.0999967, 0.229998, 0.999996, 0.229998, 0.999996, 0.0297242, 0.00445623, -0.000447811, 0.0312038, -0.0312038, 9.60322e-18, 3.51321e-17, -0.000232604, -0.000148282, -0.000558296, -0.000208536, -0.000478139, -0.0549597, 11.9251, -4.46316, -0.63469, -17.1645, 13.8949, 10.1085, -0.216788, 56.0481, -10.0106, 4.49339, -17.954, 0.666285, 4.90168, 2.08776, 4.68786e-310, 0, 0, 11.9251, -4.46316, -0.63469, -17.1645, 6.94745, 5.05427, 6.94745, 0, 0, -8.62872, 0, 78.2968, 0, 0, 39.1188, -2.5164e-05, 0, 0, 0, 0, 0, 0, 0
0.0100081, -0.0235387, 0.743836, 0.10016, -0.977381, 1.10519, -0.227965, 0.0999967, 0.229998, 0.999996, 0.229998, 0.999996, 0.029715, 0.0045301, -0.000455258, 0.031721, -0.031721, 9.63563e-18, 3.52125e-17, -0.000219973, -0.000144587, -0.000556164, -0.000205848, -0.000474665, -0.0558108, 11.9345, -4.46484, -0.633934, -17.1675, 13.895, 10.1094, -0.216438, 56.6346, -10.1458, 4.56377, -18.2553, 0.564466, 4.87889, 2.10864, 4.68786e-310, 0, 0, 11.9345, -4.46484, -0.633934, -17.1675, 6.9475, 5.05468, 6.9475, 0, 0, -8.62197, 0, 78.3403, 0, 0, 39.1403, -2.54428e-05, 0, 0, 0, 0, 0, 0, 0
0.0101749, -0.023538, 0.743836, 0.100165, -0.977386, 1.10519, -0.227965, 0.0999967, 0.229998, 0.999996, 0.229998, 0.999996, 0.0297056, 0.00460392, -0.000462702, 0.0322379, -0.0322379, 9.52415e-18, 3.50618e-17, -0.000207162, -0.00014082, -0.000553826, -0.000203088, -0.000470986, -0.0566577, 11.9439, -4.46654, -0.633167, -17.1706, 13.8951, 10.1102, -0.216084, 57.2211, -10.2811, 4.63415, -18.5566, 0.462647, 4.8561, 2.12952, 4.68786e-310, 0, 0, 11.9439, -4.46654, -0.633167, -17.1706, 6.94754, 5.05509, 6.94754, 0, 0, -8.61519, 0, 78.3843, 0, 0, 39.162, -2.56544e-05, 0, 0, 0, 0, 0, 0, 0
0.0103417, -0.0235372, 0.743836, 0.100171, -0.977391, 1.10519, -0.227965, 0.0999966, 0.229998, 0.999996, 0.229998, 0.999996, 0.0296961, 0.0046777, -0.000470143, 0.0327546, -0.0327546, 9.31247e-18, 3.4713e-17, -0.000194189, -0.000136988, -0.000551292, -0.000200261, -0.000467111, -0.0575003, 11.9535, -4.46827, -0.632388, -17.1737, 13.8952, 10.111, -0.215727, 57.8075, -10.4164, 4.70453, -18.858, 0.360828, 4.83331, 2.15039, 4.68786e-310, 0, 0, 11.9535, -4.46827, -0.632388, -17.1737, 6.94758, 5.05549, 6.94758, 0, 0, -8.60837, 0, 78.4286, 0, 0, 39.184, -2.57987e-05, 0, 0, 0, 0, 0, 0, 0
0.0105085, -0.0235364, 0.743836, 0.100176, -0.977397, 1.10519, -0.227965, 0.0999966, 0.229998, 0.999996, 0.229998, 0.999996, 0.0296864, 0.00475144, -0.000477581, 0.033271, -0.033271, 9.04946e-18, 3.42031e-17, -0.000181073, -0.000133098, -0.00054857, -0.000197376, -0.000463049, -0.0583385, 11.9632, -4.47002, -0.631598, -17.1769, 13.8952, 10.1118, -0.215367, 58.394, -10.5516, 4.77492, -19.1593, 0.259009, 4.81053, 2.17127, 4.68786e-310, 0, 0, 11.9632, -4.47002, -0.631598, -17.1769, 6.9476, 5.05589, 6.9476, 0, 0, -8.60152, 0, 78.4734, 0, 0, 39.2062, -2.5876e-05, 0, 0, 0, 0, 0, 0, 0
0.0106753, -0.0235356, 0.743836, 0.100182, -0.977403, 1.10519, -0.227965, 0.0999966, 0.229998, 0.999995, 0.229998, 0.999996, 0.0296766, 0.00482515, -0.000485016, 0.0337871, -0.0337871, 8.78919e-18, 3.35742e-17, -0.000167831, -0.000129156, -0.000545668, -0.000194438, -0.000458809, -0.0591722, 11.973, -4.47179, -0.630795, -17.1801, 13.8952, 10.1126, -0.215003, 58.9805, -10.6869, 4.8453, -19.4606, 0.15719, 4.78774, 2.19215, 4.68786e-310, 0, 0, 11.973, -4.47179, -0.630795, -17.1801, 6.94762, 5.05629, 6.94762, 0, 0, -8.59464, 0, 78.5185, 0, 0, 39.2288, -2.58862e-05, 0, 0, 0, 0, 0, 0, 0
0.0108421, -0.0235348, 0.743836, 0.100188, -0.977408, 1.10519, -0.227965, 0.0999965, 0.229998, 0.999995, 0.229998, 0.999996, 0.0296667, 0.00489881, -0.000492448, 0.0343029, -0.0343029, 8.59095e-18, 3.28724e-17, -0.000154483, -0.000125169, -0.000542596, -0.000191455, -0.000454399, -0.0600013, 11.9829, -4.47358, -0.629981, -17.1834, 13.8953, 10.1134, -0.214636, 59.567, -10.8222, 4.91568, -19.7619, 0.0553712, 4.76495, 2.21302, 4.68786e-310, 0, 0, 11.9829, -4.47358, -0.629981, -17.1834, 6.94763, 5.05669, 6.94763, 0, 0, -8.58772, 0, 78.564, 0, 0, 39.2515, -2.58297e-05, 0, 0, 0, 0, 0, 0, 0
0.0110089, -0.023534, 0.743836, 0.100193, -0.977414, 1.10519, -0.227965, 0.0999965, 0.229998, 0.999995, 0.229998, 0.999996, 0.0296566, 0.00497243, -0.000499879, 0.0348185, -0.0348185, 8.5192e-18, 3.21485e-17, -0.000141046, -0.000121143, -0.000539362, -0.000188432, -0.000449829, -0.0608258, 11.9929, -4.4754, -0.629156, -17.1867, 13.8953, 10.1142, -0.214265, 60.1535, -10.9574, 4.98606, -20.0632, -0.0464477, 4.74216, 2.2339, 4.68786e-310, 0, 0, 11.9929, -4.4754, -0.629156, -17.1867, 6.94763, 5.05709, 6.94763, 0, 0, -8.58077, 0, 78.6098, 0, 0, 39.2746, -2.57064e-05, 0, 0, 0, 0, 0, 0, 0
0.0111757, -0.0235331, 0.743836, 0.100199, -0.97742, 1.10519, -0.227965, 0.0999965, 0.229998, 0.999995, 0.229998, 0.999996, 0.0296464, 0.00504602, -0.000507306, 0.0353338, -0.0353338, 8.64361e-18, 3.14579e-17, -0.000127539, -0.000117085, -0.000535977, -0.000185376, -0.000445107, -0.0616456, 12.003, -4.47724, -0.628318, -17.1901, 13.8952, 10.115, -0.21389, 60.74, -11.0927, 5.05644, -20.3646, -0.148267, 4.71937, 2.25478, 4.68786e-310, 0, 0, 12.003, -4.47724, -0.628318, -17.1901, 6.94762, 5.05748, 6.94762, 0, 0, -8.57379, 0, 78.6561, 0, 0, 39.2979, -2.55165e-05, 0, 0, 0, 0, 0, 0, 0
0.0113425, -0.0235323, 0.743836, 0.100205, -0.977426, 1.10519, -0.227965, 0.0999965, 0.229998, 0.999995, 0.229998, 0.999996, 0.029636, 0.00511957, -0.000514731, 0.0358488, -0.0358488, 9.03907e-18, 3.08604e-17, -0.000113979, -0.000113002, -0.000532447, -0.000182295, -0.000440242, -0.0624606, 12.0132, -4.4791, -0.627469, -17.1935, 13.8952, 10.1157, -0.213513, 61.3264, -11.228, 5.12682, -20.6659, -0.250086, 4.69658, 2.27565, 4.68786e-310, 0, 0, 12.0132, -4.4791, -0.627469, -17.1935, 6.94761, 5.05787, 6.94761, 0, 0, -8.56677, 0, 78.7027, 0, 0, 39.3215, -2.526e-05, 0, 0, 0, 0, 0, 0, 0
0.0115093, -0.0235314, 0.743836, 0.100211, -0.977432, 1.10519, -0.227965, 0.0999964, 0.229998, 0.999995, 0.229998, 0.999996, 0.0296256, 0.00519309, -0.000522154, 0.0363636, -0.0363636, 9.78562e-18, 3.04204e-17, -0.000100386, -0.0001089, -0.000528783, -0.000179194, -0.000435244, -0.0632707, 12.0234, -4.48098, -0.626608, -17.197, 13.8952, 10.1165, -0.213131, 61.9129, -11.3632, 5.1972, -20.9672, -0.351905, 4.67379, 2.29653, 4.68786e-310, 0, 0, 12.0234, -4.48098, -0.626608, -17.197, 6.94758, 5.05826, 6.94758, 0, 0, -8.55973, 0, 78.7497, 0, 0, 39.3454, -2.49373e-05, 0, 0, 0, 0, 0, 0, 0
0.0116761, -0.0235306, 0.743836, 0.100217, -0.977438, 1.10519, -0.227965, 0.0999964, 0.229998, 0.999995, 0.229998, 0.999995, 0.0296149, 0.00526657, -0.000529575, 0.0368782, -0.0368782, 1.09685e-17, 3.02066e-17, -8.67775e-05, -0.000104787, -0.000524993, -0.000176081, -0.00043012, -0.0640759, 12.0338, -4.48289, -0.625735, -17.2005, 13.8951, 10.1173, -0.212747, 62.4994, -11.4985, 5.26758, -21.2685, -0.453723, 4.65101, 2.31741, 4.68786e-310, 0, 0, 12.0338, -4.48289, -0.625735, -17.2005, 6.94755, 5.05865, 6.94755, 0, 0, -8.55264, 0, 78.7971, 0, 0, 39.3695, -2.45482e-05, 0, 0, 0, 0, 0, 0, 0
0.0118429, -0.0235297, 0.743835, 0.100223, -0.977444, 1.10519, -0.227965, 0.0999964, 0.229998, 0.999995, 0.229998, 0.999995, 0.0296042, 0.00534001, -0.000536993, 0.0373925, -0.0373925, 1.26783e-17, 3.02925e-17, -7.31716e-05, -0.000100668, -0.000521085, -0.000172962, -0.000424881, -0.064876, 12.0443, -4.48482, -0.62485, -17.2041, 13.895, 10.1181, -0.212358, 63.0859, -11.6338, 5.33796, -21.5699, -0.555542, 4.62822, 2.33828, 4.68786e-310, 0, 0, 12.0443, -4.48482, -0.62485, -17.2041, 6.94751, 5.05904, 6.94751, 0, 0, -8.54553, 0, 78.8449, 0, 0, 39.3939, -2.40931e-05, 0, 0, 0, 0, 0, 0, 0
0.0120097, -0.0235288, 0.743835, 0.10023, -0.97745, 1.10519, -0.227965, 0.0999964, 0.229998, 0.999995, 0.229998, 0.999995, 0.0295933, 0.00541342, -0.00054441, 0.0379066, -0.0379066, 1.50105e-17, 3.0756e-17, -5.95868e-05, -9.65499e-05, -0.00051707, -0.000169843, -0.000419534, -0.065671, 12.0549, -4.48677, -0.623954, -17.2077, 13.8949, 10.1189, -0.211966, 63.6724, -11.769, 5.40834, -21.8712, -0.657361, 4.60543, 2.35916, 4.68786e-310, 0, 0, 12.0549, -4.48677, -0.623954, -17.2077, 6.94746, 5.05943, 6.94746, 0, 0, -8.53838, 0, 78.893, 0, 0, 39.4186, -2.3572e-05, 0, 0, 0, 0, 0, 0, 0
0.0121765, -0.0235279, 0.743835, 0.100236, -0.977457, 1.10519, -0.227965, 0.0999964, 0.229998, 0.999995, 0.229998, 0.999995, 0.0295823, 0.0054868, -0.000551825, 0.0384204, -0.0384204, 1.62469e-17, 3.04382e-17, -4.60414e-05, -9.24401e-05, -0.000512956, -0.000166732, -0.00041409, -0.0664609, 12.0655, -4.48875, -0.623046, -17.2114, 13.8948, 10.1196, -0.211571, 64.2588, -11.9043, 5.47872, -22.1725, -0.75918, 4.58264, 2.38003, 4.68786e-310, 0, 0, 12.0655, -4.48875, -0.623046, -17.2114, 6.9474, 5.05981, 6.9474, 0, 0, -8.5312, 0, 78.9415, 0, 0, 39.4436, -2.2985e-05, 0, 0, 0, 0, 0, 0, 0
0.0123433, -0.023527, 0.743835, 0.100243, -0.977463, 1.10519, -0.227965, 0.0999964, 0.229998, 0.999995, 0.229998, 0.999995, 0.0295711, 0.00556014, -0.000559237, 0.038934, -0.038934, 1.56856e-17, 2.8875e-17, -3.25538e-05, -8.83449e-05, -0.000508751, -0.000163634, -0.000408556, -0.0672455, 12.0763, -4.49074, -0.622126, -17.2151, 13.8947, 10.1204, -0.211172, 64.8453, -12.0396, 5.54911, -22.4738, -0.860999, 4.55985, 2.40091, 4.68786e-310, 0, 0, 12.0763, -4.49074, -0.622126, -17.2151, 6.94733, 5.06019, 6.94733, 0, 0, -8.52398, 0, 78.9904, 0, 0, 39.4688, -2.23323e-05, 0, 0, 0, 0, 0, 0, 0
0.0125101, -0.023526, 0.743835, 0.100249, -0.97747, 1.10519, -0.227965, 0.0999964, 0.229998, 0.999994, 0.229998, 0.999995, 0.0295598, 0.00563346, -0.000566648, 0.0394474, -0.0394474, 1.50372e-17, 2.72488e-17, -1.91421e-05, -8.42709e-05, -0.000504466, -0.000160557, -0.000402942, -0.0680248, 12.0872, -4.49276, -0.621195, -17.2189, 13.8945, 10.1211, -0.21077, 65.4318, -12.1749, 5.61949, -22.7751, -0.962818, 4.53706, 2.42179, 4.68786e-310, 0, 0, 12.0872, -4.49276, -0.621195, -17.2189, 6.94725, 5.06057, 6.94725, 0, 0, -8.51674, 0, 79.0397, 0, 0, 39.4942, -2.1614e-05, 0, 0, 0, 0, 0, 0, 0
0.0126769, -0.0235251, 0.743835, 0.100256, -0.977476, 1.10519, -0.227965, 0.0999964, 0.229998, 0.999994, 0.229998, 0.999995, 0.0295484, 0.00570674, -0.000574057, 0.0399605, -0.0399605, 1.43079e-17, 2.55803e-17, -5.82465e-06, -8.02247e-05, -0.000500107, -0.000157507, -0.000397256, -0.0687986, 12.0981, -4.4948, -0.620252, -17.2227, 13.8943, 10.1219, -0.210365, 66.0183, -12.3101, 5.68987, -23.0765, -1.06464, 4.51427, 2.44266, 4.68786e-310, 0, 0, 12.0981, -4.4948, -0.620252, -17.2227, 6.94717, 5.06095, 6.94717, 0, 0, -8.50946, 0, 79.0894, 0, 0, 39.52, -2.08302e-05, 0, 0, 0, 0, 0, 0, 0
0.0128437, -0.0235241, 0.743835, 0.100262, -0.977483, 1.10519, -0.227965, 0.0999964, 0.229998, 0.999994, 0.229998, 0.999995, 0.0295369, 0.00577999, -0.000581465, 0.0404735, -0.0404735, 1.35044e-17, 2.38915e-17, 7.38029e-06, -7.62129e-05, -0.000495685, -0.00015449, -0.000391508, -0.069567, 12.1092, -4.49687, -0.619297, -17.2265, 13.8942, 10.1226, -0.209955, 66.6048, -12.4454, 5.76025, -23.3778, -1.16646, 4.49149, 2.46354, 4.68786e-310, 0, 0, 12.1092, -4.49687, -0.619297, -17.2265, 6.94708, 5.06132, 6.94708, 0, 0, -8.50214, 0, 79.1394, 0, 0, 39.546, -1.99811e-05, 0, 0, 0, 0, 0, 0, 0
0.0130105, -0.0235231, 0.743835, 0.100269, -0.97749, 1.10519, -0.227965, 0.0999964, 0.229998, 0.999994, 0.229998, 0.999995, 0.0295252, 0.00585321, -0.000588871, 0.0409862, -0.0409862, 1.26335e-17, 2.22055e-17, 2.04545e-05, -7.22422e-05, -0.000491209, -0.000151514, -0.000385706, -0.0703298, 12.1203, -4.49896, -0.61833, -17.2305, 13.8939, 10.1234, -0.209543, 67.1913, -12.5807, 5.83063, -23.6791, -1.26827, 4.4687, 2.48442, 4.68786e-310, 0, 0, 12.1203, -4.49896, -0.61833, -17.2305, 6.94697, 5.0617, 6.94697, 0, 0, -8.49479, 0, 79.1899, 0, 0, 39.5723, -1.90668e-05, 0, 0, 0, 0, 0, 0, 0
0.0131773, -0.0235222, 0.743835, 0.100276, -0.977497, 1.10519, -0.227965, 0.0999964, 0.229998, 0.999994, 0.229998, 0.999995, 0.0295134, 0.0059264, -0.000596276, 0.0414988, -0.0414988, 1.17025e-17, 2.05466e-17, 3.33796e-05, -6.83193e-05, -0.000486686, -0.000148585, -0.00037986, -0.0710869, 12.1316, -4.50107, -0.617352, -17.2344, 13.8937, 10.1241, -0.209127, 67.7777, -12.7159, 5.90101, -23.9804, -1.37009, 4.44591, 2.50529, 4.68786e-310, 0, 0, 12.1316, -4.50107, -0.617352, -17.2344, 6.94686, 5.06207, 6.94686, 0, 0, -8.48741, 0, 79.2407, 0, 0, 39.5988, -1.80875e-05, 0, 0, 0, 0, 0, 0, 0
0.0133441, -0.0235212, 0.743835, 0.100283, -0.977504, 1.10519, -0.227965, 0.0999964, 0.229998, 0.999994, 0.229998, 0.999995, 0.0295015, 0.00599956, -0.000603679, 0.0420111, -0.0420111, 1.0719e-17, 1.89403e-17, 4.61373e-05, -6.44506e-05, -0.000482127, -0.00014571, -0.000373977, -0.0718384, 12.143, -4.5032, -0.616362, -17.2385, 13.8935, 10.1249, -0.208707, 68.3642, -12.8512, 5.97139, -24.2818, -1.47191, 4.42312, 2.52617, 4.68786e-310, 0, 0, 12.143, -4.5032, -0.616362, -17.2385, 6.94674, 5.06244, 6.94674, 0, 0, -8.48, 0, 79.2919, 0, 0, 39.6257, -1.70433e-05, 0, 0, 0, 0, 0, 0, 0
0.0135109, -0.0235202, 0.743834, 0.10029, -0.977511, 1.10519, -0.227965, 0.0999964, 0.229998, 0.999994, 0.229998, 0.999995, 0.0294895, 0.00607269, -0.000611081, 0.0425232, -0.0425232, 9.69069e-18, 1.74131e-17, 5.87095e-05, -6.0643e-05, -0.00047754, -0.000142895, -0.000368068, -0.072584, 12.1544, -4.50535, -0.61536, -17.2425, 13.8932, 10.1256, -0.208284, 68.9507, -12.9865, 6.04177, -24.5831, -1.57373, 4.40033, 2.54705, 4.68786e-310, 0, 0, 12.1544, -4.50535, -0.61536, -17.2425, 6.94662, 5.06281, 6.94662, 0, 0, -8.47255, 0, 79.3434, 0, 0, 39.6528, -1.59344e-05, 0, 0, 0, 0, 0, 0, 0
0.0136777, -0.0235191, 0.743834, 0.100297, -0.977518, 1.10519, -0.227965, 0.0999964, 0.229998, 0.999994, 0.229998, 0.999995, 0.0294773, 0.0061458, -0.000618482, 0.0430352, -0.0430352, 8.62591e-18, 1.5993e-17, 7.10778e-05, -5.6903e-05, -0.000472934, -0.000140146, -0.000362141, -0.0733237, 12.166, -4.50753, -0.614346, -17.2467, 13.893, 10.1263, -0.207857, 69.5372, -13.1217, 6.11215, -24.8844, -1.67555, 4.37754, 2.56792, 4.68786e-310, 0, 0, 12.166, -4.50753, -0.614346, -17.2467, 6.94648, 5.06317, 6.94648, 0, 0, -8.46507, 0, 79.3954, 0, 0, 39.6801, -1.47608e-05, 0, 0, 0, 0, 0, 0, 0
0.0138445, -0.0235181, 0.743834, 0.100304, -0.977525, 1.10519, -0.227965, 0.0999964, 0.229998, 0.999994, 0.229997, 0.999995, 0.029465, 0.00621888, -0.000625881, 0.0435469, -0.0435469, 7.53311e-18, 1.47089e-17, 8.32239e-05, -5.32371e-05, -0.000468317, -0.000137471, -0.000356205, -0.0740575, 12.1776, -4.50973, -0.613321, -17.2509, 13.8927, 10.1271, -0.207427, 70.1237, -13.257, 6.18253, -25.1857, -1.77737, 4.35475, 2.5888, 4.68786e-310, 0, 0, 12.1776, -4.50973, -0.613321, -17.2509, 6.94634, 5.06354, 6.94634, 0, 0, -8.45756, 0, 79.4477, 0, 0, 39.7077, -1.35228e-05, 0, 0, 0, 0, 0, 0, 0
0.0140113, -0.0235171, 0.743834, 0.100312, -0.977532, 1.10519, -0.227965, 0.0999964, 0.229998, 0.999994, 0.229997, 0.999995, 0.0294526, 0.00629193, -0.00063328, 0.0440585, -0.0440585, 6.42115e-18, 1.35911e-17, 9.51296e-05, -4.96522e-05, -0.000463699, -0.000134877, -0.000350268, -0.0747853, 12.1893, -4.51195, -0.612284, -17.2551, 13.8924, 10.1278, -0.206994, 70.7101, -13.3923, 6.25292, -25.487, -1.87919, 4.33197, 2.60968, 4.68786e-310, 0, 0, 12.1893, -4.51195, -0.612284, -17.2551, 6.94619, 5.0639, 6.94619, 0, 0, -8.45001, 0, 79.5004, 0, 0, 39.7356, -1.22205e-05, 0, 0, 0, 0, 0, 0, 0
0.0141781, -0.023516, 0.743834, 0.100319, -0.97754, 1.10519, -0.227965, 0.0999965, 0.229998, 0.999994, 0.229997, 0.999994, 0.0294401, 0.00636496, -0.000640678, 0.0445699, -0.0445699, 5.01556e-18, 1.32814e-17, 0.000106776, -4.61551e-05, -0.000459089, -0.000132369, -0.000344341, -0.0755069, 12.2012, -4.5142, -0.611235, -17.2594, 13.8921, 10.1285, -0.206557, 71.2966, -13.5275, 6.3233, -25.7884, -1.98101, 4.30918, 2.63055, 4.68786e-310, 0, 0, 12.2012, -4.5142, -0.611235, -17.2594, 6.94603, 5.06426, 6.94603, 0, 0, -8.44243, 0, 79.5535, 0, 0, 39.7638, -1.08541e-05, 0, 0, 0, 0, 0, 0, 0
0.0143449, -0.0235149, 0.743834, 0.100327, -0.977547, 1.10519, -0.227965, 0.0999965, 0.229998, 0.999994, 0.229997, 0.999994, 0.0294274, 0.00643796, -0.000648075, 0.0450812, -0.0450812, 3.52237e-18, 1.33894e-17, 0.000118145, -4.27522e-05, -0.000454496, -0.000129955, -0.000338431, -0.0762224, 12.2131, -4.51647, -0.610174, -17.2637, 13.8917, 10.1292, -0.206116, 71.8831, -13.6628, 6.39368, -26.0897, -2.08283, 4.28639, 2.65143, 4.68786e-310, 0, 0, 12.2131, -4.51647, -0.610174, -17.2637, 6.94586, 5.06462, 6.94586, 0, 0, -8.43482, 0, 79.607, 0, 0, 39.7922, -9.42357e-06, 0, 0, 0, 0, 0, 0, 0
0.0145117, -0.0235139, 0.743834, 0.100334, -0.977555, 1.10519, -0.227965, 0.0999965, 0.229998, 0.999993, 0.229997, 0.999994, 0.0294146, 0.00651094, -0.000655471, 0.0455922, -0.0455922, 1.94496e-18, 1.39624e-17, 0.000129218, -3.94503e-05, -0.000449928, -0.00012764, -0.000332548, -0.0769316, 12.2252, -4.51876, -0.609102, -17.2681, 13.8914, 10.1299, -0.205672, 72.4696, -13.7981, 6.46406, -26.391, -2.18465, 4.2636, 2.67231, 4.68786e-310, 0, 0, 12.2252, -4.51876, -0.609102, -17.2681, 6.94568, 5.06497, 6.94568, 0, 0, -8.42718, 0, 79.6608, 0, 0, 39.8209, -7.92925e-06, 0, 0, 0, 0, 0, 0, 0
0.0146785, -0.0235128, 0.743834, 0.100342, -0.977563, 1.10519, -0.227965, 0.0999965, 0.229998, 0.999993, 0.229997, 0.999994, 0.0294017, 0.0065839, -0.000662867, 0.0461032, -0.0461032, 2.82952e-19, 1.50581e-17, 0.000139978, -3.62558e-05, -0.000445394, -0.000125433, -0.0003267, -0.0776344, 12.2373, -4.52107, -0.608018, -17.2725, 13.891, 10.1307, -0.205225, 73.0561, -13.9334, 6.53444, -26.6923, -2.28646, 4.24081, 2.69318, 4.68786e-310, 0, 0, 12.2373, -4.52107, -0.608018, -17.2725, 6.94549, 5.06533, 6.94549, 0, 0, -8.4195, 0, 79.7151, 0, 0, 39.8499, -6.37122e-06, 0, 0, 0, 0, 0, 0, 0
0.0148453, -0.0235117, 0.743834, 0.10035, -0.97757, 1.10519, -0.227965, 0.0999965, 0.229998, 0.999993, 0.229997, 0.999994, 0.0293887, 0.00665683, -0.000670262, 0.0466139, -0.0466139, -1.46419e-18, 1.67361e-17, 0.000150405, -3.31754e-05, -0.000440904, -0.000123339, -0.000320897, -0.0783308, 12.2495, -4.5234, -0.606922, -17.277, 13.8906, 10.1314, -0.204774, 73.6426, -14.0686, 6.60482, -26.9937, -2.38828, 4.21802, 2.71406, 4.68786e-310, 0, 0, 12.2495, -4.5234, -0.606922, -17.277, 6.9453, 5.06568, 6.9453, 0, 0, -8.41178, 0, 79.7697, 0, 0, 39.8792, -4.74966e-06, 0, 0, 0, 0, 0, 0, 0
0.0150121, -0.0235106, 0.743834, 0.100357, -0.977578, 1.10519, -0.227965, 0.0999966, 0.229998, 0.999993, 0.229997, 0.999994, 0.0293756, 0.00672975, -0.000677656, 0.0471245, -0.0471245, -3.29713e-18, 1.90585e-17, 0.000160483, -3.02159e-05, -0.000436465, -0.000121364, -0.000315148, -0.0790208, 12.2619, -4.52576, -0.605814, -17.2815, 13.8902, 10.1321, -0.204319, 74.229, -14.2039, 6.6752, -27.295, -2.4901, 4.19523, 2.73494, 4.68786e-310, 0, 0, 12.2619, -4.52576, -0.605814, -17.2815, 6.94509, 5.06603, 6.94509, 0, 0, -8.40404, 0, 79.8247, 0, 0, 39.9087, -3.06472e-06, 0, 0, 0, 0, 0, 0, 0
0.0151789, -0.0235094, 0.743833, 0.100365, -0.977586, 1.10519, -0.227965, 0.0999966, 0.229998, 0.999993, 0.229997, 0.999994, 0.0293624, 0.00680264, -0.000685051, 0.047635, -0.047635, -5.21672e-18, 2.20891e-17, 0.000170191, -2.73837e-05, -0.000432088, -0.000119517, -0.00030946, -0.0797041, 12.2743, -4.52814, -0.604695, -17.2861, 13.8898, 10.1328, -0.203861, 74.8155, -14.3392, 6.74558, -27.5963, -2.59192, 4.17245, 2.75581, 4.68786e-310, 0, 0, 12.2743, -4.52814, -0.604695, -17.2861, 6.94488, 5.06638, 6.94488, 0, 0, -8.39626, 0, 79.88, 0, 0, 39.9384, -1.31656e-06, 0, 0, 0, 0, 0, 0, 0
0.0153457, -0.0235083, 0.743833, 0.100373, -0.977594, 1.10519, -0.227965, 0.0999966, 0.229998, 0.999993, 0.229997, 0.999994, 0.029349, 0.00687551, -0.000692444, 0.0481453, -0.0481453, -7.22392e-18, 2.58945e-17, 0.000179513, -2.46857e-05, -0.000427781, -0.000117802, -0.000303844, -0.0803808, 12.2868, -4.53055, -0.603564, -17.2907, 13.8893, 10.1335, -0.2034, 75.402, -14.4744, 6.81596, -27.8976, -2.69374, 4.14966, 2.77669, 4.68786e-310, 0, 0, 12.2868, -4.53055, -0.603564, -17.2907, 6.94466, 5.06673, 6.94466, 0, 0, -8.38845, 0, 79.9358, 0, 0, 39.9685, 4.94659e-07, 0, 0, 0, 0, 0, 0, 0
0.0155125, -0.0235071, 0.743833, 0.100381, -0.977602, 1.10519, -0.227965, 0.0999967, 0.229998, 0.999993, 0.229997, 0.999994, 0.0293356, 0.00694836, -0.000699838, 0.0486554, -0.0486554, -9.31987e-18, 3.0543e-17, 0.000188429, -2.21283e-05, -0.000423553, -0.000116228, -0.000298308, -0.0810507, 12.2995, -4.53297, -0.602421, -17.2954, 13.8889, 10.1341, -0.202935, 75.9885, -14.6097, 6.88634, -28.1989, -2.79556, 4.12687, 2.79757, 4.68786e-310, 0, 0, 12.2995, -4.53297, -0.602421, -17.2954, 6.94443, 5.06707, 6.94443, 0, 0, -8.3806, 0, 79.9919, 0, 0, 39.9988, 2.36877e-06, 0, 0, 0, 0, 0, 0, 0
0.0156793, -0.023506, 0.743833, 0.10039, -0.97761, 1.10519, -0.227965, 0.0999967, 0.229998, 0.999993, 0.229997, 0.999994, 0.029322, 0.00702119, -0.000707231, 0.0491655, -0.0491655, -1.15058e-17, 3.61054e-17, 0.000196921, -1.97183e-05, -0.000419413, -0.0001148, -0.000292861, -0.0817139, 12.3122, -4.53542, -0.601267, -17.3001, 13.8884, 10.1348, -0.202467, 76.575, -14.745, 6.95672, -28.5003, -2.89738, 4.10408, 2.81844, 4.68786e-310, 0, 0, 12.3122, -4.53542, -0.601267, -17.3001, 6.94419, 5.06742, 6.94419, 0, 0, -8.37272, 0, 80.0484, 0, 0, 40.0294, 4.30561e-06, 0, 0, 0, 0, 0, 0, 0
0.0158461, -0.0235048, 0.743833, 0.100398, -0.977618, 1.10519, -0.227965, 0.0999967, 0.229998, 0.999993, 0.229997, 0.999994, 0.0293083, 0.007094, -0.000714625, 0.0496754, -0.0496754, -1.37833e-17, 4.26544e-17, 0.000204972, -1.74623e-05, -0.000415369, -0.000113525, -0.000287512, -0.0823701, 12.325, -4.53789, -0.6001, -17.3049, 13.8879, 10.1355, -0.201995, 77.1615, -14.8802, 7.02711, -28.8016, -2.9992, 4.08129, 2.83932, 4.68786e-310, 0, 0, 12.325, -4.53789, -0.6001, -17.3049, 6.94395, 5.06776, 6.94395, 0, 0, -8.36481, 0, 80.1053, 0, 0, 40.0602, 6.30502e-06, 0, 0, 0, 0, 0, 0, 0
0.0160129, -0.0235036, 0.743833, 0.100406, -0.977627, 1.10519, -0.227965, 0.0999968, 0.229998, 0.999993, 0.229997, 0.999994, 0.0292945, 0.0071668, -0.000722018, 0.0501852, -0.0501852, -1.61537e-17, 5.02653e-17, 0.000212562, -1.53669e-05, -0.000411431, -0.00011241, -0.00028227, -0.0830194, 12.3379, -4.54038, -0.598922, -17.3097, 13.8874, 10.1362, -0.201519, 77.7479, -15.0155, 7.09749, -29.1029, -3.10102, 4.0585, 2.8602, 4.68786e-310, 0, 0, 12.3379, -4.54038, -0.598922, -17.3097, 6.94369, 5.0681, 6.94369, 0, 0, -8.35687, 0, 80.1626, 0, 0, 40.0914, 8.36682e-06, 0, 0, 0, 0, 0, 0, 0
0.0161797, -0.0235024, 0.743833, 0.100415, -0.977635, 1.10519, -0.227965, 0.0999968, 0.229998, 0.999993, 0.229997, 0.999994, 0.0292806, 0.00723958, -0.000729412, 0.0506948, -0.0506948, -1.8619e-17, 5.90153e-17, 0.000219674, -1.34387e-05, -0.000407608, -0.000111461, -0.000277144, -0.0836617, 12.3509, -4.5429, -0.597733, -17.3146, 13.8869, 10.1369, -0.20104, 78.3344, -15.1508, 7.16787, -29.4042, -3.20283, 4.03571, 2.88107, 4.68786e-310, 0, 0, 12.3509, -4.5429, -0.597733, -17.3146, 6.94343, 5.06843, 6.94343, 0, 0, -8.34889, 0, 80.2203, 0, 0, 40.1228, 1.04908e-05, 0, 0, 0, 0, 0, 0, 0
0.0163466, -0.0235012, 0.743833, 0.100423, -0.977644, 1.10519, -0.227965, 0.0999968, 0.229998, 0.999993, 0.229997, 0.999994, 0.0292666, 0.00731234, -0.000736806, 0.0512044, -0.0512044, -2.11808e-17, 6.89839e-17, 0.00022629, -1.16845e-05, -0.000403908, -0.000110685, -0.000272143, -0.0842968, 12.3641, -4.54544, -0.596531, -17.3195, 13.8863, 10.1375, -0.200558, 78.9209, -15.286, 7.23825, -29.7056, -3.30465, 4.01293, 2.90195, 4.68786e-310, 0, 0, 12.3641, -4.54544, -0.596531, -17.3195, 6.94316, 5.06877, 6.94316, 0, 0, -8.34088, 0, 80.2783, 0, 0, 40.1544, 1.26769e-05, 0, 0, 0, 0, 0, 0, 0
0.0165134, -0.0235, 0.743832, 0.100432, -0.977652, 1.10519, -0.227965, 0.0999969, 0.229998, 0.999993, 0.229997, 0.999994, 0.0292525, 0.00738508, -0.0007442, 0.0517138, -0.0517138, -2.38414e-17, 8.02526e-17, 0.00023239, -1.01109e-05, -0.00040034, -0.000110089, -0.000267276, -0.0849247, 12.3773, -4.548, -0.595318, -17.3245, 13.8858, 10.1382, -0.200072, 79.5074, -15.4213, 7.30863, -30.0069, -3.40647, 3.99014, 2.92283, 4.68786e-310, 0, 0, 12.3773, -4.548, -0.595318, -17.3245, 6.94288, 5.0691, 6.94288, 0, 0, -8.33284, 0, 80.3367, 0, 0, 40.1863, 1.49249e-05, 0, 0, 0, 0, 0, 0, 0
0.0166802, -0.0234987, 0.743832, 0.10044, -0.977661, 1.10519, -0.227965, 0.0999969, 0.229998, 0.999993, 0.229997, 0.999994, 0.0292383, 0.00745782, -0.000751594, 0.0522232, -0.0522232, -2.66028e-17, 9.29055e-17, 0.000237956, -8.72439e-06, -0.000396914, -0.00010968, -0.000262551, -0.0855453, 12.3906, -4.55058, -0.594093, -17.3295, 13.8852, 10.1389, -0.199583, 80.0939, -15.5566, 7.37901, -30.3082, -3.50829, 3.96735, 2.9437, 4.68786e-310, 0, 0, 12.3906, -4.55058, -0.594093, -17.3295, 6.94259, 5.06944, 6.94259, 0, 0, -8.32476, 0, 80.3955, 0, 0, 40.2185, 1.72346e-05, 0, 0, 0, 0, 0, 0, 0
0.0166802, -0.0234987, 0.743832, 0.10044, -0.977661, 1.10519, -0.227965, 0.0999969, 0.229998, 0.999993, 0.229997, 0.999994, 0.0292383, 0.00745782, -0.000751594, 0.0522232, -0.0522232, -2.66028e-17, 9.29055e-17, 0.000237956, -8.72439e-06, -0.000396914, -0.00010968, -0.000262551, -0.0855453, 12.3906, -4.55058, -0.594093, -17.3295, 13.8852, 10.1389, -0.199583, 80.0939, -15.5566, 7.37901, -30.3082, -3.50829, 3.96735, 2.9437, 4.68786e-310, 0, 0, 12.3906, -4.55058, -0.594093, -17.3295, 6.94259, 5.06944, 6.94259, 0, 0, -8.32476, 0, 80.3955, 0, 0, 40.2185, 1.72346e-05, 0, 0, 0, 0, 0, 0, 0
0.0166802, -0.0234987, 0.743832, 0.10044, -0.977661, 1.10519, -0.227965, 0.0999969, 0.229998, 0.999993, 0.229997, 0.999994, 0.0292384, 0.00745782, -0.000751594, 0.0522232, -0.0522232, 4.62597e-12, -1.03928e-12, 0.000237908, -8.74385e-06, -0.000396938, -0.000109699, -0.000262575, -0.0855451, 12.3906, -4.55058, -0.594093, -17.3295, 13.8852, 10.1389, -0.199583, 80.0939, -15.5566, 7.37901, -30.3082, -3.50829, 3.96735, 2.9437, 4.68786e-310, 0, 0, 12.3906, -4.55058, -0.594093, -17.3295, 6.94259, 5.06944, 6.94259, 0, 0, -8.32476, 0, 80.3955, 0, 0, 40.2185, 1.72357e-05, 0, 0, 0, 0, 0, 0, 0
0.016847, -0.0234975, 0.743832, 0.100449, -0.97767, 1.10519, -0.227965, 0.0999969, 0.229998, 0.999993, 0.229997, 0.999994, 0.0292241, 0.00753053, -0.000758989, 0.0527324, -0.0527324, 4.62597e-12, -1.03928e-12, 0.000242899, -7.55965e-06, -0.000393668, -0.000109491, -0.000258007, -0.086158, 12.404, -4.55319, -0.592859, -17.3346, 13.8846, 10.1395, -0.199092, 80.7929, -15.7167, 7.41244, -30.4521, -3.6001, 3.95531, 2.9417, 4.68786e-310, 0, 0, 12.404, -4.55319, -0.592859, -17.3346, 6.94229, 5.06977, 6.94229, 0, 0, -8.31662, 0, 80.4548, 0, 0, 40.251, 1.95508e-05, 0, 0, 0, 0, 0, 0, 0
0.0170138, -0.0234962, 0.743832, 0.100458, -0.977679, 1.10519, -0.227965, 0.099997, 0.229998, 0.999992, 0.229997, 0.999994, 0.0292096, 0.00760323, -0.000766384, 0.0532416, -0.0532416, 4.62596e-12, -1.03928e-12, 0.000247376, -6.55654e-06, -0.000390538, -0.000109463, -0.000253582, -0.0867639, 12.4175, -4.55583, -0.59162, -17.3397, 13.884, 10.1402, -0.198602, 81.492, -15.8769, 7.44587, -30.5961, -3.69192, 3.94328, 2.9397, 4.68786e-310, 0, 0, 12.4175, -4.55583, -0.59162, -17.3397, 6.94199, 5.0701, 6.94199, 0, 0, -8.30838, 0, 80.5147, 0, 0, 40.2837, 2.18215e-05, 0, 0, 0, 0, 0, 0, 0
0.0171806, -0.0234949, 0.743832, 0.100467, -0.977687, 1.10519, -0.227965, 0.099997, 0.229998, 0.999992, 0.229997, 0.999994, 0.0291951, 0.00767592, -0.00077378, 0.0537506, -0.0537506, 4.62596e-12, -1.03928e-12, 0.000251322, -5.74022e-06, -0.000387554, -0.00010962, -0.000249304, -0.0873625, 12.4312, -4.55849, -0.590375, -17.3448, 13.8834, 10.1408, -0.198112, 82.191, -16.037, 7.4793, -30.74, -3.78373, 3.93125, 2.9377, 4.68786e-310, 0, 0, 12.4312, -4.55849, -0.590375, -17.3448, 6.94168, 5.07042, 6.94168, 0, 0, -8.30006, 0, 80.5753, 0, 0, 40.3167, 2.4046e-05, 0, 0, 0, 0, 0, 0, 0
0.0173474, -0.0234936, 0.743832, 0.100476, -0.977696, 1.10519, -0.227965, 0.099997, 0.229998, 0.999992, 0.229997, 0.999994, 0.0291805, 0.00774859, -0.000781176, 0.0542595, -0.0542595, 4.62596e-12, -1.03927e-12, 0.00025475, -5.10704e-06, -0.000384714, -0.00010996, -0.000245169, -0.0879538, 12.445, -4.56118, -0.589125, -17.3499, 13.8827, 10.1415, -0.197622, 82.8901, -16.1972, 7.51273, -30.884, -3.87554, 3.91921, 2.9357, 4.68786e-310, 0, 0, 12.445, -4.56118, -0.589125, -17.3499, 6.94136, 5.07075, 6.94136, 0, 0, -8.29165, 0, 80.6364, 0, 0, 40.3499, 2.62241e-05, 0, 0, 0, 0, 0, 0, 0
0.0175142, -0.0234923, 0.743832, 0.100485, -0.977706, 1.10519, -0.227965, 0.0999971, 0.229998, 0.999992, 0.229997, 0.999993, 0.0291658, 0.00782123, -0.000788572, 0.0547683, -0.0547683, 4.62596e-12, -1.03927e-12, 0.000257666, -4.65448e-06, -0.000382014, -0.00011048, -0.000241178, -0.0885377, 12.4588, -4.56389, -0.587869, -17.3551, 13.8821, 10.1422, -0.197132, 83.5892, -16.3573, 7.54616, -31.0279, -3.96735, 3.90718, 2.9337, 4.68786e-310, 0, 0, 12.4588, -4.56389, -0.587869, -17.3551, 6.94103, 5.07108, 6.94103, 0, 0, -8.28314, 0, 80.6981, 0, 0, 40.3834, 2.8356e-05, 0, 0, 0, 0, 0, 0, 0
0.017681, -0.023491, 0.743832, 0.100494, -0.977715, 1.10519, -0.227965, 0.0999971, 0.229998, 0.999992, 0.229997, 0.999993, 0.029151, 0.00789386, -0.000795968, 0.0552769, -0.0552769, 4.62596e-12, -1.03927e-12, 0.000260084, -4.37795e-06, -0.000379453, -0.000111175, -0.000237326, -0.0891144, 12.4728, -4.56663, -0.586607, -17.3603, 13.8814, 10.1428, -0.196643, 84.2882, -16.5175, 7.57959, -31.1719, -4.05916, 3.89514, 2.9317, 0, 0, 0, 12.4728, -4.56663, -0.586607, -17.3603, 6.9407, 5.0714, 6.9407, 0, 0, -8.27454, 0, 80.7605, 0, 0, 40.4171, 3.04417e-05, 0, 0, 0, 0, 0, 0, 0
0.0178478, -0.0234897, 0.743831, 0.100503, -0.977724, 1.10519, -0.227965, 0.0999972, 0.229998, 0.999992, 0.229997, 0.999993, 0.029136, 0.00796648, -0.000803364, 0.0557854, -0.0557854, 4.62597e-12, -1.03928e-12, 0.000262014, -4.2748e-06, -0.000377028, -0.000112042, -0.000233613, -0.0896837, 12.487, -4.5694, -0.58534, -17.3655, 13.8807, 10.1435, -0.196154, 84.9873, -16.6776, 7.61302, -31.3158, -4.15098, 3.88311, 2.9297, 0, 0, 0, 12.487, -4.5694, -0.58534, -17.3655, 6.94036, 5.07173, 6.94036, 0, 0, -8.26585, 0, 80.8235, 0, 0, 40.4511, 3.24813e-05, 0, 0, 0, 0, 0, 0, 0
0.0180146, -0.0234884, 0.743831, 0.100513, -0.977733, 1.10519, -0.227965, 0.0999972, 0.229998, 0.999992, 0.229997, 0.999993, 0.029121, 0.00803907, -0.00081076, 0.0562938, -0.0562938, 4.62597e-12, -1.03928e-12, 0.000263458, -4.34356e-06, -0.000374739, -0.000113081, -0.000230036, -0.0902457, 12.5012, -4.5722, -0.584067, -17.3707, 13.88, 10.1441, -0.195666, 85.6864, -16.8378, 7.64645, -31.4597, -4.24279, 3.87107, 2.9277, 4.68786e-310, 0, 0, 12.5012, -4.5722, -0.584067, -17.3707, 6.94001, 5.07205, 6.94001, 0, 0, -8.25707, 0, 80.8871, 0, 0, 40.4854, 3.44748e-05, 0, 0, 0, 0, 0, 0, 0
0.0181814, -0.023487, 0.743831, 0.100522, -0.977743, 1.10519, -0.227965, 0.0999973, 0.229998, 0.999992, 0.229997, 0.999993, 0.0291059, 0.00811163, -0.000818156, 0.056802, -0.056802, 4.62598e-12, -1.03929e-12, 0.000264428, -4.58103e-06, -0.000372584, -0.000114287, -0.000226594, -0.0908004, 12.5155, -4.57502, -0.582789, -17.376, 13.8793, 10.1447, -0.195177, 86.3854, -16.9979, 7.67988, -31.6037, -4.3346, 3.85904, 2.9257, 4.68786e-310, 0, 0, 12.5155, -4.57502, -0.582789, -17.376, 6.93965, 5.07237, 6.93965, 0, 0, -8.24819, 0, 80.9513, 0, 0, 40.5199, 3.64224e-05, 0, 0, 0, 0, 0, 0, 0
0.0183482, -0.0234857, 0.743831, 0.100532, -0.977752, 1.10519, -0.227965, 0.0999973, 0.229998, 0.999992, 0.229997, 0.999993, 0.0290908, 0.00818418, -0.000825552, 0.0573101, -0.0573101, 4.62598e-12, -1.03929e-12, 0.00026493, -4.98455e-06, -0.00037056, -0.000115658, -0.000223285, -0.0913478, 12.53, -4.57787, -0.581505, -17.3813, 13.8786, 10.1454, -0.19469, 87.0845, -17.1581, 7.71331, -31.7476, -4.42641, 3.84701, 2.9237, 4.68786e-310, 0, 0, 12.53, -4.57787, -0.581505, -17.3813, 6.93928, 5.07269, 6.93928, 0, 0, -8.23923, 0, 81.0162, 0, 0, 40.5547, 3.8324e-05, 0, 0, 0, 0, 0, 0, 0
0.018515, -0.0234843, 0.743831, 0.100541, -0.977762, 1.10519, -0.227965, 0.0999974, 0.229998, 0.999992, 0.229997, 0.999993, 0.0290755, 0.00825671, -0.000832948, 0.057818, -0.057818, 4.62599e-12, -1.0393e-12, 0.000264977, -5.55043e-06, -0.000368665, -0.000117191, -0.000220107, -0.0918879, 12.5446, -4.58074, -0.580216, -17.3866, 13.8778, 10.146, -0.194202, 87.7835, -17.3182, 7.74674, -31.8916, -4.51823, 3.83497, 2.9217, 4.68786e-310, 0, 0, 12.5446, -4.58074, -0.580216, -17.3866, 6.93891, 5.07301, 6.93891, 0, 0, -8.23017, 0, 81.0816, 0, 0, 40.5897, 4.01798e-05, 0, 0, 0, 0, 0, 0, 0
0.0186818, -0.0234829, 0.743831, 0.100551, -0.977772, 1.10519, -0.227965, 0.0999974, 0.229998, 0.999992, 0.229997, 0.999993, 0.0290601, 0.00832921, -0.000840343, 0.0583257, -0.0583257, 4.62599e-12, -1.0393e-12, 0.000264582, -6.27402e-06, -0.000366897, -0.00011888, -0.000217056, -0.0924208, 12.5593, -4.58365, -0.578921, -17.3919, 13.8771, 10.1467, -0.193715, 88.4826, -17.4784, 7.78017, -32.0355, -4.61004, 3.82294, 2.9197, 4.68786e-310, 0, 0, 12.5593, -4.58365, -0.578921, -17.3919, 6.93853, 5.07333, 6.93853, 0, 0, -8.22102, 0, 81.1477, 0, 0, 40.625, 4.19899e-05, 0, 0, 0, 0, 0, 0, 0
0.0188486, -0.0234815, 0.743831, 0.100561, -0.977781, 1.10519, -0.227965, 0.0999974, 0.229998, 0.999992, 0.229997, 0.999993, 0.0290446, 0.00840168, -0.000847739, 0.0588333, -0.0588333, 4.626e-12, -1.0393e-12, 0.000263752, -7.1531e-06, -0.000365253, -0.000120724, -0.000214131, -0.0929463, 12.5741, -4.58657, -0.577621, -17.3973, 13.8763, 10.1473, -0.193228, 89.1817, -17.6385, 7.8136, -32.1794, -4.70185, 3.8109, 2.9177, 4.68786e-310, 0, 0, 12.5741, -4.58657, -0.577621, -17.3973, 6.93814, 5.07365, 6.93814, 0, 0, -8.21178, 0, 81.2143, 0, 0, 40.6605, 4.37543e-05, 0, 0, 0, 0, 0, 0, 0
0.0190154, -0.0234801, 0.74383, 0.100571, -0.977791, 1.10519, -0.227965, 0.0999975, 0.229998, 0.999992, 0.229997, 0.999993, 0.0290291, 0.00847413, -0.000855133, 0.0593407, -0.0593407, 4.626e-12, -1.0393e-12, 0.000262497, -8.18446e-06, -0.000363732, -0.00012272, -0.000211331, -0.0934646, 12.5891, -4.58953, -0.576314, -17.4027, 13.8755, 10.1479, -0.192742, 89.8807, -17.7987, 7.84703, -32.3234, -4.79366, 3.79887, 2.9157, 4.68786e-310, 0, 0, 12.5891, -4.58953, -0.576314, -17.4027, 6.93774, 5.07397, 6.93774, 0, 0, -8.20245, 0, 81.2816, 0, 0, 40.6963, 4.54731e-05, 0, 0, 0, 0, 0, 0, 0
0.0191822, -0.0234787, 0.74383, 0.10058, -0.977801, 1.10519, -0.227965, 0.0999975, 0.229998, 0.999992, 0.229997, 0.999993, 0.0290135, 0.00854656, -0.000862528, 0.0598479, -0.0598479, 4.626e-12, -1.0393e-12, 0.000260827, -9.36487e-06, -0.000362331, -0.000124863, -0.000208652, -0.0939757, 12.6041, -4.59251, -0.575003, -17.4081, 13.8747, 10.1486, -0.192255, 90.5798, -17.9588, 7.88046, -32.4673, -4.88547, 3.78683, 2.9137, 4.68786e-310, 0, 0, 12.6041, -4.59251, -0.575003, -17.4081, 6.93734, 5.07429, 6.93734, 0, 0, -8.19302, 0, 81.3495, 0, 0, 40.7323, 4.71463e-05, 0, 0, 0, 0, 0, 0, 0
0.019349, -0.0234773, 0.74383, 0.100591, -0.977811, 1.10519, -0.227965, 0.0999976, 0.229998, 0.999992, 0.229997, 0.999993, 0.0289977, 0.00861896, -0.000869921, 0.060355, -0.060355, 4.62599e-12, -1.03929e-12, 0.000258752, -1.06907e-05, -0.000361048, -0.000127152, -0.000206092, -0.0944795, 12.6193, -4.59552, -0.573686, -17.4135, 13.8739, 10.1492, -0.19177, 91.2788, -18.119, 7.91389, -32.6113, -4.97729, 3.7748, 2.9117, 4.68786e-310, 0, 0, 12.6193, -4.59552, -0.573686, -17.4135, 6.93693, 5.0746, 6.93693, 0, 0, -8.18351, 0, 81.4181, 0, 0, 40.7686, 4.87742e-05, 0, 0, 0, 0, 0, 0, 0
0.0195158, -0.0234758, 0.74383, 0.100601, -0.977821, 1.10519, -0.227965, 0.0999976, 0.229998, 0.999992, 0.229997, 0.999993, 0.0289819, 0.00869133, -0.000877314, 0.0608618, -0.0608618, 4.62599e-12, -1.03929e-12, 0.000256283, -1.21589e-05, -0.000359881, -0.000129581, -0.00020365, -0.0949761, 12.6346, -4.59856, -0.572363, -17.4189, 13.873, 10.1498, -0.191284, 91.9779, -18.2791, 7.94732, -32.7552, -5.0691, 3.76276, 2.9097, 4.68786e-310, 0, 0, 12.6346, -4.59856, -0.572363, -17.4189, 6.93651, 5.07492, 6.93651, 0, 0, -8.1739, 0, 81.4872, 0, 0, 40.8052, 5.03566e-05, 0, 0, 0, 0, 0, 0, 0
0.0196826, -0.0234744, 0.74383, 0.100611, -0.977832, 1.10519, -0.227965, 0.0999977, 0.229998, 0.999991, 0.229997, 0.999993, 0.0289661, 0.00876367, -0.000884707, 0.0613684, -0.0613684, 4.62598e-12, -1.03929e-12, 0.000253429, -1.37661e-05, -0.000358828, -0.000132149, -0.000201322, -0.0954654, 12.65, -4.60162, -0.571034, -17.4244, 13.8722, 10.1505, -0.190799, 92.677, -18.4393, 7.98075, -32.8991, -5.16091, 3.75073, 2.9077, 4.68786e-310, 0, 0, 12.65, -4.60162, -0.571034, -17.4244, 6.93608, 5.07523, 6.93608, 0, 0, -8.1642, 0, 81.557, 0, 0, 40.842, 5.18938e-05, 0, 0, 0, 0, 0, 0, 0
0.0198494, -0.0234729, 0.74383, 0.100621, -0.977842, 1.10519, -0.227965, 0.0999977, 0.229998, 0.999991, 0.229997, 0.999993, 0.0289501, 0.00883598, -0.000892098, 0.0618748, -0.0618748, 4.62598e-12, -1.03928e-12, 0.000250201, -1.5509e-05, -0.000357886, -0.000134851, -0.000199108, -0.0959475, 12.6655, -4.60471, -0.5697, -17.4299, 13.8713, 10.1511, -0.190314, 93.376, -18.5994, 8.01418, -33.0431, -5.25272, 3.7387, 2.9057, 4.68786e-310, 0, 0, 12.6655, -4.60471, -0.5697, -17.4299, 6.93565, 5.07554, 6.93565, 0, 0, -8.15441, 0, 81.6274, 0, 0, 40.8791, 5.33858e-05, 0, 0, 0, 0, 0, 0, 0
0.0200162, -0.0234714, 0.74383, 0.100631, -0.977852, 1.10519, -0.227965, 0.0999977, 0.229998, 0.999991, 0.229997, 0.999993, 0.0289341, 0.00890826, -0.000899489, 0.0623811, -0.0623811, 4.62597e-12, -1.03928e-12, 0.000246608, -1.73843e-05, -0.000357054, -0.000137685, -0.000197004, -0.0964223, 12.6811, -4.60782, -0.568361, -17.4354, 13.8704, 10.1517, -0.18983, 94.0751, -18.7596, 8.04761, -33.187, -5.34453, 3.72666, 2.9037, 4.68786e-310, 0, 0, 12.6811, -4.60782, -0.568361, -17.4354, 6.93521, 5.07585, 6.93521, 0, 0, -8.14452, 0, 81.6983, 0, 0, 40.9164, 5.48327e-05, 0, 0, 0, 0, 0, 0, 0
0.020183, -0.0234699, 0.743829, 0.100642, -0.977863, 1.10519, -0.227965, 0.0999978, 0.229998, 0.999991, 0.229997, 0.999993, 0.0289179, 0.0089805, -0.000906879, 0.0628871, -0.0628871, 4.62597e-12, -1.03928e-12, 0.000242661, -1.93887e-05, -0.000356329, -0.000140647, -0.000195009, -0.09689, 12.6969, -4.61097, -0.567016, -17.441, 13.8695, 10.1523, -0.189345, 94.7742, -18.9197, 8.08104, -33.331, -5.43635, 3.71463, 2.9017, 4.68786e-310, 0, 0, 12.6969, -4.61097, -0.567016, -17.441, 6.93476, 5.07616, 6.93476, 0, 0, -8.13455, 0, 81.7699, 0, 0, 40.954, 5.62346e-05, 0, 0, 0, 0, 0, 0, 0
0.0203498, -0.0234684, 0.743829, 0.100652, -0.977873, 1.10519, -0.227965, 0.0999978, 0.229998, 0.999991, 0.229997, 0.999993, 0.0289017, 0.00905272, -0.000914268, 0.0633928, -0.0633928, 4.62597e-12, -1.03929e-12, 0.000238369, -2.15189e-05, -0.000355708, -0.000143734, -0.000193121, -0.0973504, 12.7127, -4.61414, -0.565665, -17.4466, 13.8686, 10.1529, -0.188862, 95.4732, -19.0799, 8.11447, -33.4749, -5.52816, 3.70259, 2.8997, 4.68786e-310, 0, 0, 12.7127, -4.61414, -0.565665, -17.4466, 6.9343, 5.07647, 6.9343, 0, 0, -8.12448, 0, 81.8422, 0, 0, 40.9918, 5.75916e-05, 0, 0, 0, 0, 0, 0, 0
0.0205166, -0.0234669, 0.743829, 0.100663, -0.977884, 1.10519, -0.227965, 0.0999979, 0.229998, 0.999991, 0.229997, 0.999993, 0.0288855, 0.0091249, -0.000921656, 0.0638984, -0.0638984, 4.62597e-12, -1.03929e-12, 0.000233742, -2.37719e-05, -0.000355191, -0.000146943, -0.000191336, -0.0978037, 12.7287, -4.61733, -0.564309, -17.4522, 13.8677, 10.1536, -0.188378, 96.1723, -19.24, 8.1479, -33.6189, -5.61997, 3.69056, 2.89769, 4.68786e-310, 0, 0, 12.7287, -4.61733, -0.564309, -17.4522, 6.93384, 5.07678, 6.93384, 0, 0, -8.11432, 0, 81.915, 0, 0, 41.0299, 5.89038e-05, 0, 0, 0, 0, 0, 0, 0
0.0206834, -0.0234654, 0.743829, 0.100674, -0.977894, 1.10519, -0.227965, 0.0999979, 0.229998, 0.999991, 0.229997, 0.999993, 0.0288691, 0.00919705, -0.000929043, 0.0644037, -0.0644037, 4.62596e-12, -1.03929e-12, 0.00022879, -2.61445e-05, -0.000354775, -0.00015027, -0.000189654, -0.0982497, 12.7448, -4.62055, -0.562947, -17.4578, 13.8667, 10.1542, -0.187895, 96.8713, -19.4001, 8.18133, -33.7628, -5.71178, 3.67852, 2.89569, 4.68786e-310, 0, 0, 12.7448, -4.62055, -0.562947, -17.4578, 6.93336, 5.07709, 6.93336, 0, 0, -8.10407, 0, 81.9885, 0, 0, 41.0683, 6.01712e-05, 0, 0, 0, 0, 0, 0, 0
0.0208502, -0.0234638, 0.743829, 0.100685, -0.977905, 1.10519, -0.227965, 0.0999979, 0.229998, 0.999991, 0.229997, 0.999993, 0.0288527, 0.00926917, -0.000936428, 0.0649087, -0.0649087, 4.62596e-12, -1.0393e-12, 0.000223523, -2.86333e-05, -0.000354457, -0.000153713, -0.000188072, -0.0986886, 12.761, -4.6238, -0.561579, -17.4634, 13.8658, 10.1548, -0.187412, 97.5704, -19.5603, 8.21476, -33.9067, -5.8036, 3.66649, 2.89369, 4.68786e-310, 0, 0, 12.761, -4.6238, -0.561579, -17.4634, 6.93288, 5.07739, 6.93288, 0, 0, -8.09373, 0, 82.0625, 0, 0, 41.1069, 6.1394e-05, 0, 0, 0, 0, 0, 0, 0
0.021017, -0.0234623, 0.743829, 0.100695, -0.977916, 1.10519, -0.227965, 0.099998, 0.229998, 0.999991, 0.229997, 0.999993, 0.0288362, 0.00934124, -0.000943812, 0.0654135, -0.0654135, 4.62596e-12, -1.0393e-12, 0.00021795, -3.12351e-05, -0.000354236, -0.000157268, -0.000186588, -0.0991203, 12.7774, -4.62708, -0.560206, -17.4691, 13.8648, 10.1554, -0.186929, 98.2695, -19.7204, 8.24819, -34.0507, -5.89541, 3.65445, 2.89169, 4.68786e-310, 0, 0, 12.7774, -4.62708, -0.560206, -17.4691, 6.9324, 5.0777, 6.9324, 0, 0, -8.08329, 0, 82.1372, 0, 0, 41.1457, 6.25723e-05, 0, 0, 0, 0, 0, 0, 0
0.0211838, -0.0234607, 0.743828, 0.100706, -0.977927, 1.10519, -0.227965, 0.099998, 0.229998, 0.999991, 0.229997, 0.999993, 0.0288196, 0.00941328, -0.000951195, 0.0659181, -0.0659181, 4.62596e-12, -1.0393e-12, 0.000212082, -3.39468e-05, -0.000354109, -0.000160932, -0.000185199, -0.0995448, 12.7938, -4.63038, -0.558828, -17.4748, 13.8638, 10.156, -0.186447, 98.9685, -19.8806, 8.28162, -34.1946, -5.98722, 3.64242, 2.88969, 4.68786e-310, 0, 0, 12.7938, -4.63038, -0.558828, -17.4748, 6.9319, 5.078, 6.9319, 0, 0, -8.07277, 0, 82.2125, 0, 0, 41.1849, 6.37061e-05, 0, 0, 0, 0, 0, 0, 0
0.0213506, -0.0234591, 0.743828, 0.100717, -0.977938, 1.10519, -0.227965, 0.099998, 0.229998, 0.999991, 0.229997, 0.999993, 0.028803, 0.00948529, -0.000958577, 0.0664224, -0.0664224, 4.62596e-12, -1.0393e-12, 0.000205928, -3.67649e-05, -0.000354074, -0.000164701, -0.000183904, -0.0999621, 12.8104, -4.63371, -0.557443, -17.4805, 13.8628, 10.1566, -0.185965, 99.6676, -20.0407, 8.31505, -34.3386, -6.07903, 3.63039, 2.88769, 4.68786e-310, 0, 0, 12.8104, -4.63371, -0.557443, -17.4805, 6.9314, 5.07831, 6.9314, 0, 0, -8.06215, 0, 82.2884, 0, 0, 41.2242, 6.47956e-05, 0, 0, 0, 0, 0, 0, 0
0.0215174, -0.0234576, 0.743828, 0.100729, -0.977949, 1.10519, -0.227965, 0.0999981, 0.229998, 0.999991, 0.229997, 0.999993, 0.0287863, 0.00955725, -0.000965957, 0.0669264, -0.0669264, 4.62596e-12, -1.03931e-12, 0.000199498, -3.96863e-05, -0.00035413, -0.000168573, -0.0001827, -0.100372, 12.8271, -4.63707, -0.556054, -17.4862, 13.8618, 10.1572, -0.185484, 100.367, -20.2009, 8.34848, -34.4825, -6.17084, 3.61835, 2.88569, 4.68786e-310, 0, 0, 12.8271, -4.63707, -0.556054, -17.4862, 6.93089, 5.07861, 6.93089, 0, 0, -8.05144, 0, 82.3649, 0, 0, 41.2639, 6.58409e-05, 0, 0, 0, 0, 0, 0, 0
0.0216842, -0.023456, 0.743828, 0.10074, -0.97796, 1.10519, -0.227965, 0.0999981, 0.229998, 0.999991, 0.229996, 0.999993, 0.0287695, 0.00962918, -0.000973336, 0.0674301, -0.0674301, 4.62596e-12, -1.03931e-12, 0.000192803, -4.27078e-05, -0.000354273, -0.000172543, -0.000181586, -0.100775, 12.8439, -4.64045, -0.554658, -17.492, 13.8607, 10.1578, -0.185003, 101.066, -20.361, 8.38191, -34.6264, -6.26266, 3.60632, 2.88369, 4.68786e-310, 0, 0, 12.8439, -4.64045, -0.554658, -17.492, 6.93037, 5.07891, 6.93037, 0, 0, -8.04064, 0, 82.4421, 0, 0, 41.3038, 6.6842e-05, 0, 0, 0, 0, 0, 0, 0
0.021851, -0.0234543, 0.743828, 0.100751, -0.977972, 1.10519, -0.227965, 0.0999981, 0.229998, 0.999991, 0.229996, 0.999993, 0.0287526, 0.00970107, -0.000980713, 0.0679336, -0.0679336, 4.62595e-12, -1.03931e-12, 0.00018585, -4.58264e-05, -0.000354502, -0.00017661, -0.000180559, -0.101171, 12.8608, -4.64386, -0.553257, -17.4978, 13.8597, 10.1584, -0.184522, 101.765, -20.5212, 8.41534, -34.7704, -6.35447, 3.59428, 2.88169, 4.68786e-310, 0, 0, 12.8608, -4.64386, -0.553257, -17.4978, 6.92984, 5.07921, 6.92984, 0, 0, -8.02975, 0, 82.5198, 0, 0, 41.3439, 6.77991e-05, 0, 0, 0, 0, 0, 0, 0
0.0220178, -0.0234527, 0.743828, 0.100762, -0.977983, 1.10519, -0.227965, 0.0999982, 0.229998, 0.999991, 0.229996, 0.999993, 0.0287357, 0.00977291, -0.000988088, 0.0684368, -0.0684368, 4.62595e-12, -1.03931e-12, 0.000178651, -4.90387e-05, -0.000354815, -0.00018077, -0.000179617, -0.10156, 12.8778, -4.6473, -0.551851, -17.5036, 13.8586, 10.159, -0.184041, 102.464, -20.6813, 8.44877, -34.9143, -6.44628, 3.58225, 2.87969, 4.68786e-310, 0, 0, 12.8778, -4.6473, -0.551851, -17.5036, 6.92931, 5.07951, 6.92931, 0, 0, -8.01876, 0, 82.5982, 0, 0, 41.3843, 6.87123e-05, 0, 0, 0, 0, 0, 0, 0
0.0221846, -0.0234511, 0.743828, 0.100774, -0.977995, 1.10519, -0.227965, 0.0999982, 0.229998, 0.999991, 0.229996, 0.999993, 0.0287188, 0.00984471, -0.000995462, 0.0689397, -0.0689397, 4.62595e-12, -1.03931e-12, 0.000171216, -5.23415e-05, -0.00035521, -0.000185019, -0.000178759, -0.101942, 12.895, -4.65076, -0.550439, -17.5094, 13.8575, 10.1596, -0.183561, 103.163, -20.8415, 8.4822, -35.0583, -6.53809, 3.57021, 2.87769, 0, 0, 0, 12.895, -4.65076, -0.550439, -17.5094, 6.92877, 5.07981, 6.92877, 0, 0, -8.00769, 0, 82.6772, 0, 0, 41.425, 6.95817e-05, 0, 0, 0, 0, 0, 0, 0
0.0223514, -0.0234494, 0.743827, 0.100785, -0.978006, 1.10519, -0.227965, 0.0999982, 0.229998, 0.99999, 0.229996, 0.999993, 0.0287017, 0.00991648, -0.00100283, 0.0694423, -0.0694423, 4.62595e-12, -1.03931e-12, 0.000163554, -5.57316e-05, -0.000355684, -0.000189355, -0.000177981, -0.102316, 12.9122, -4.65425, -0.549021, -17.5153, 13.8564, 10.1602, -0.183081, 103.862, -21.0016, 8.51563, -35.2022, -6.6299, 3.55818, 2.87569, 0, 0, 0, 12.9122, -4.65425, -0.549021, -17.5153, 6.92822, 5.08011, 6.92822, 0, 0, -7.99652, 0, 82.7568, 0, 0, 41.4659, 7.04073e-05, 0, 0, 0, 0, 0, 0, 0
0.0225182, -0.0234478, 0.743827, 0.100797, -0.978018, 1.10519, -0.227965, 0.0999983, 0.229998, 0.99999, 0.229996, 0.999992, 0.0286846, 0.00998819, -0.0010102, 0.0699446, -0.0699446, 4.62595e-12, -1.03931e-12, 0.000155675, -5.92056e-05, -0.000356235, -0.000193773, -0.000177281, -0.102683, 12.9296, -4.65777, -0.547598, -17.5212, 13.8553, 10.1608, -0.182602, 104.561, -21.1618, 8.54906, -35.3461, -6.72172, 3.54614, 2.87369, 0, 0, 0, 12.9296, -4.65777, -0.547598, -17.5212, 6.92766, 5.0804, 6.92766, 0, 0, -7.98526, 0, 82.837, 0, 0, 41.507, 7.11894e-05, 0, 0, 0, 0, 0, 0, 0
0.022685, -0.0234461, 0.743827, 0.100809, -0.978029, 1.10519, -0.227965, 0.0999983, 0.229998, 0.99999, 0.229996, 0.999992, 0.0286675, 0.0100599, -0.00101757, 0.0704466, -0.0704466, 4.62595e-12, -1.03931e-12, 0.000147588, -6.27605e-05, -0.000356861, -0.000198272, -0.000176658, -0.103044, 12.9471, -4.66131, -0.546169, -17.5271, 13.8542, 10.1614, -0.182123, 105.26, -21.3219, 8.5825, -35.4901, -6.81353, 3.53411, 2.87169, 0, 0, 0, 12.9471, -4.66131, -0.546169, -17.5271, 6.9271, 5.0807, 6.9271, 0, 0, -7.97391, 0, 82.9179, 0, 0, 41.5485, 7.19279e-05, 0, 0, 0, 0, 0, 0, 0
0.0228518, -0.0234444, 0.743827, 0.100821, -0.978041, 1.10519, -0.227965, 0.0999983, 0.229998, 0.99999, 0.229996, 0.999992, 0.0286503, 0.0101315, -0.00102494, 0.0709483, -0.0709483, 4.62595e-12, -1.0393e-12, 0.000139304, -6.6393e-05, -0.000357561, -0.000202847, -0.00017611, -0.103397, 12.9647, -4.66488, -0.544735, -17.533, 13.853, 10.162, -0.181644, 105.959, -21.4821, 8.61593, -35.634, -6.90534, 3.52208, 2.86969, 4.68786e-310, 0, 0, 12.9647, -4.66488, -0.544735, -17.533, 6.92652, 5.08099, 6.92652, 0, 0, -7.96246, 0, 82.9993, 0, 0, 41.5902, 7.26231e-05, 0, 0, 0, 0, 0, 0, 0
0.0230186, -0.0234427, 0.743827, 0.100832, -0.978053, 1.10519, -0.227965, 0.0999983, 0.229998, 0.99999, 0.229996, 0.999992, 0.028633, 0.0102031, -0.0010323, 0.0714496, -0.0714496, 4.62595e-12, -1.0393e-12, 0.000130833, -7.00998e-05, -0.000358331, -0.000207495, -0.000175634, -0.103743, 12.9824, -4.66848, -0.543295, -17.539, 13.8519, 10.1626, -0.181165, 106.658, -21.6422, 8.64936, -35.778, -6.99715, 3.51004, 2.86769, 4.68786e-310, 0, 0, 12.9824, -4.66848, -0.543295, -17.539, 6.92594, 5.08128, 6.92594, 0, 0, -7.95093, 0, 83.0814, 0, 0, 41.6321, 7.32751e-05, 0, 0, 0, 0, 0, 0, 0
0.0231854, -0.023441, 0.743827, 0.100844, -0.978065, 1.10519, -0.227965, 0.0999984, 0.229998, 0.99999, 0.229996, 0.999992, 0.0286156, 0.0102746, -0.00103966, 0.0719506, -0.0719506, 4.62595e-12, -1.0393e-12, 0.000122184, -7.38778e-05, -0.000359171, -0.000212214, -0.000175228, -0.104082, 13.0003, -4.6721, -0.541849, -17.545, 13.8507, 10.1632, -0.180687, 107.357, -21.8024, 8.68279, -35.9219, -7.08897, 3.49801, 2.86569, 4.68786e-310, 0, 0, 13.0003, -4.6721, -0.541849, -17.545, 6.92536, 5.08158, 6.92536, 0, 0, -7.9393, 0, 83.1641, 0, 0, 41.6743, 7.38839e-05, 0, 0, 0, 0, 0, 0, 0
0.0233522, -0.0234393, 0.743826, 0.100856, -0.978077, 1.10519, -0.227965, 0.0999984, 0.229998, 0.99999, 0.229996, 0.999992, 0.0285983, 0.0103461, -0.00104702, 0.0724513, -0.0724513, 4.62595e-12, -1.03929e-12, 0.000113367, -7.7724e-05, -0.000360077, -0.000217, -0.00017489, -0.104414, 13.0183, -4.67575, -0.540398, -17.551, 13.8495, 10.1637, -0.180209, 108.056, -21.9625, 8.71622, -36.0659, -7.18078, 3.48597, 2.86369, 4.68786e-310, 0, 0, 13.0183, -4.67575, -0.540398, -17.551, 6.92476, 5.08187, 6.92476, 0, 0, -7.92758, 0, 83.2474, 0, 0, 41.7167, 7.44497e-05, 0, 0, 0, 0, 0, 0, 0
0.023519, -0.0234376, 0.743826, 0.100869, -0.978089, 1.10519, -0.227965, 0.0999984, 0.229998, 0.99999, 0.229996, 0.999992, 0.0285808, 0.0104175, -0.00105438, 0.0729517, -0.0729517, 4.62595e-12, -1.03929e-12, 0.000104392, -8.16348e-05, -0.000361047, -0.000221849, -0.000174619, -0.104738, 13.0363, -4.67943, -0.538942, -17.557, 13.8483, 10.1643, -0.179732, 108.755, -22.1227, 8.74965, -36.2098, -7.27259, 3.47394, 2.86169, 4.68786e-310, 0, 0, 13.0363, -4.67943, -0.538942, -17.557, 6.92416, 5.08216, 6.92416, 0, 0, -7.91577, 0, 83.3313, 0, 0, 41.7594, 7.49725e-05, 0, 0, 0, 0, 0, 0, 0
0.0236858, -0.0234358, 0.743826, 0.100881, -0.978101, 1.10519, -0.227965, 0.0999984, 0.229998, 0.99999, 0.229996, 0.999992, 0.0285633, 0.0104889, -0.00106173, 0.0734517, -0.0734517, 4.62595e-12, -1.03929e-12, 9.5268e-05, -8.56073e-05, -0.000362081, -0.00022676, -0.000174411, -0.105056, 13.0545, -4.68313, -0.537479, -17.563, 13.8471, 10.1649, -0.179255, 109.454, -22.2828, 8.78308, -36.3537, -7.3644, 3.4619, 2.85969, 4.68786e-310, 0, 0, 13.0545, -4.68313, -0.537479, -17.563, 6.92355, 5.08245, 6.92355, 0, 0, -7.90387, 0, 83.4158, 0, 0, 41.8024, 7.54526e-05, 0, 0, 0, 0, 0, 0, 0
0.0238526, -0.0234341, 0.743826, 0.100893, -0.978114, 1.10519, -0.227965, 0.0999984, 0.229998, 0.99999, 0.229996, 0.999992, 0.0285458, 0.0105603, -0.00106909, 0.0739514, -0.0739514, 4.62595e-12, -1.03928e-12, 8.60057e-05, -8.96381e-05, -0.000363174, -0.000231727, -0.000174265, -0.105367, 13.0729, -4.68686, -0.536012, -17.5691, 13.8459, 10.1655, -0.178778, 110.154, -22.443, 8.81651, -36.4977, -7.45621, 3.44987, 2.85769, 4.68786e-310, 0, 0, 13.0729, -4.68686, -0.536012, -17.5691, 6.92293, 5.08274, 6.92293, 0, 0, -7.89188, 0, 83.501, 0, 0, 41.8456, 7.589e-05, 0, 0, 0, 0, 0, 0, 0
0.0240194, -0.0234323, 0.743826, 0.100905, -0.978126, 1.10519, -0.227965, 0.0999984, 0.229998, 0.99999, 0.229996, 0.999992, 0.0285282, 0.0106315, -0.00107644, 0.0744507, -0.0744507, 4.62595e-12, -1.03928e-12, 7.66146e-05, -9.3724e-05, -0.000364326, -0.000236749, -0.000174179, -0.10567, 13.0913, -4.69062, -0.534538, -17.5752, 13.8446, 10.166, -0.178301, 110.853, -22.6031, 8.84994, -36.6416, -7.54803, 3.43783, 2.85569, 4.68786e-310, 0, 0, 13.0913, -4.69062, -0.534538, -17.5752, 6.9223, 5.08302, 6.9223, 0, 0, -7.87979, 0, 83.5868, 0, 0, 41.8891, 7.62848e-05, 0, 0, 0, 0, 0, 0, 0
0.0241862, -0.0234305, 0.743825, 0.100918, -0.978139, 1.10519, -0.227965, 0.0999984, 0.229998, 0.99999, 0.229996, 0.999992, 0.0285105, 0.0107028, -0.00108378, 0.0749496, -0.0749496, 4.62595e-12, -1.03928e-12, 6.71046e-05, -9.78618e-05, -0.000365534, -0.000241822, -0.00017415, -0.105967, 13.1098, -4.6944, -0.533059, -17.5813, 13.8433, 10.1666, -0.177825, 111.552, -22.7633, 8.88337, -36.7856, -7.63984, 3.4258, 2.85369, 4.68786e-310, 0, 0, 13.1098, -4.6944, -0.533059, -17.5813, 6.92167, 5.08331, 6.92167, 0, 0, -7.86761, 0, 83.6731, 0, 0, 41.9328, 7.66373e-05, 0, 0, 0, 0, 0, 0, 0
0.024353, -0.0234287, 0.743825, 0.10093, -0.978151, 1.10519, -0.227965, 0.0999985, 0.229998, 0.99999, 0.229996, 0.999992, 0.0284928, 0.010774, -0.00109113, 0.0754482, -0.0754482, 4.62595e-12, -1.03928e-12, 5.74854e-05, -0.000102048, -0.000366796, -0.000246942, -0.000174176, -0.106256, 13.1285, -4.69821, -0.531575, -17.5875, 13.8421, 10.1672, -0.177349, 112.251, -22.9234, 8.9168, -36.9295, -7.73165, 3.41377, 2.85169, 4.68786e-310, 0, 0, 13.1285, -4.69821, -0.531575, -17.5875, 6.92103, 5.08359, 6.92103, 0, 0, -7.85534, 0, 83.7601, 0, 0, 41.9768, 7.69474e-05, 0, 0, 0, 0, 0, 0, 0
0.0245198, -0.0234269, 0.743825, 0.100943, -0.978164, 1.10519, -0.227965, 0.0999985, 0.229998, 0.99999, 0.229996, 0.999992, 0.0284751, 0.0108451, -0.00109847, 0.0759464, -0.0759464, 4.62596e-12, -1.03927e-12, 4.77669e-05, -0.00010628, -0.00036811, -0.000252107, -0.000174256, -0.106539, 13.1473, -4.70205, -0.530085, -17.5937, 13.8408, 10.1678, -0.176874, 112.95, -23.0836, 8.95023, -37.0734, -7.82346, 3.40173, 2.84969, 4.68786e-310, 0, 0, 13.1473, -4.70205, -0.530085, -17.5937, 6.92038, 5.08388, 6.92038, 0, 0, -7.84298, 0, 83.8477, 0, 0, 42.0211, 7.72154e-05, 0, 0, 0, 0, 0, 0, 0
0.0246866, -0.0234251, 0.743825, 0.100956, -0.978176, 1.10519, -0.227965, 0.0999985, 0.229998, 0.99999, 0.229996, 0.999992, 0.0284573, 0.0109162, -0.00110581, 0.0764442, -0.0764442, 4.62596e-12, -1.03927e-12, 3.79589e-05, -0.000110554, -0.000369473, -0.000257314, -0.000174387, -0.106814, 13.1662, -4.70591, -0.528589, -17.5999, 13.8395, 10.1683, -0.176399, 113.649, -23.2437, 8.98366, -37.2174, -7.91527, 3.3897, 2.84769, 4.68786e-310, 0, 0, 13.1662, -4.70591, -0.528589, -17.5999, 6.91973, 5.08416, 6.91973, 0, 0, -7.83053, 0, 83.936, 0, 0, 42.0656, 7.74413e-05, 0, 0, 0, 0, 0, 0, 0
0.0248534, -0.0234233, 0.743825, 0.100969, -0.978189, 1.10519, -0.227965, 0.0999985, 0.229998, 0.99999, 0.229996, 0.999992, 0.0284394, 0.0109872, -0.00111315, 0.0769416, -0.0769416, 4.62596e-12, -1.03927e-12, 2.80712e-05, -0.000114868, -0.000370885, -0.000262558, -0.000174567, -0.107082, 13.1852, -4.7098, -0.527088, -17.6061, 13.8381, 10.1689, -0.175924, 114.348, -23.4039, 9.01709, -37.3613, -8.00709, 3.37766, 2.84569, 4.68786e-310, 0, 0, 13.1852, -4.7098, -0.527088, -17.6061, 6.91906, 5.08444, 6.91906, 0, 0, -7.81798, 0, 84.0248, 0, 0, 42.1103, 7.76253e-05, 0, 0, 0, 0, 0, 0, 0
0.0250202, -0.0234214, 0.743825, 0.100981, -0.978202, 1.10519, -0.227965, 0.0999985, 0.229998, 0.99999, 0.229996, 0.999992, 0.0284216, 0.0110582, -0.00112048, 0.0774387, -0.0774387, 4.62596e-12, -1.03926e-12, 1.81133e-05, -0.000119217, -0.000372341, -0.000267837, -0.000174794, -0.107344, 13.2043, -4.71372, -0.525581, -17.6123, 13.8368, 10.1694, -0.175449, 115.047, -23.564, 9.05052, -37.5053, -8.0989, 3.36563, 2.84369, 4.68786e-310, 0, 0, 13.2043, -4.71372, -0.525581, -17.6123, 6.91839, 5.08472, 6.91839, 0, 0, -7.80535, 0, 84.1143, 0, 0, 42.1553, 7.77675e-05, 0, 0, 0, 0, 0, 0, 0
0.025187, -0.0234196, 0.743824, 0.100994, -0.978215, 1.10519, -0.227965, 0.0999985, 0.229998, 0.999989, 0.229996, 0.999992, 0.0284036, 0.0111291, -0.00112781, 0.0779353, -0.0779353, 4.62596e-12, -1.03926e-12, 8.09519e-06, -0.000123599, -0.000373842, -0.000273148, -0.000175066, -0.107598, 13.2236, -4.71766, -0.524068, -17.6186, 13.8354, 10.17, -0.174975, 115.746, -23.7242, 9.08395, -37.6492, -8.19071, 3.35359, 2.84168, 4.68786e-310, 0, 0, 13.2236, -4.71766, -0.524068, -17.6186, 6.91771, 5.085, 6.91771, 0, 0, -7.79262, 0, 84.2043, 0, 0, 42.2006, 7.7868e-05, 0, 0, 0, 0, 0, 0, 0
0.0253538, -0.0234177, 0.743824, 0.101007, -0.978228, 1.10519, -0.227965, 0.0999985, 0.229998, 0.999989, 0.229996, 0.999992, 0.0283857, 0.0111999, -0.00113514, 0.0784315, -0.0784315, 4.62596e-12, -1.03926e-12, -1.97329e-06, -0.00012801, -0.000375384, -0.000278488, -0.00017538, -0.107845, 13.2429, -4.72163, -0.52255, -17.6249, 13.834, 10.1706, -0.174501, 116.445, -23.8843, 9.11738, -37.7931, -8.28252, 3.34156, 2.83968, 4.68786e-310, 0, 0, 13.2429, -4.72163, -0.52255, -17.6249, 6.91702, 5.08528, 6.91702, 0, 0, -7.7798, 0, 84.295, 0, 0, 42.2461, 7.7927e-05, 0, 0, 0, 0, 0, 0, 0
0.0255206, -0.0234159, 0.743824, 0.101021, -0.978241, 1.10519, -0.227965, 0.0999985, 0.229998, 0.999989, 0.229996, 0.999992, 0.0283676, 0.0112707, -0.00114246, 0.0789274, -0.0789274, 4.62596e-12, -1.03926e-12, -1.20824e-05, -0.000132448, -0.000376965, -0.000283853, -0.000175736, -0.108086, 13.2624, -4.72563, -0.521027, -17.6312, 13.8327, 10.1711, -0.174028, 117.144, -24.0445, 9.15081, -37.9371, -8.37434, 3.32952, 2.83768, 4.68786e-310, 0, 0, 13.2624, -4.72563, -0.521027, -17.6312, 6.91633, 5.08556, 6.91633, 0, 0, -7.76689, 0, 84.3863, 0, 0, 42.2919, 7.79446e-05, 0, 0, 0, 0, 0, 0, 0
0.0256874, -0.023414, 0.743824, 0.101034, -0.978254, 1.10519, -0.227965, 0.0999985, 0.229998, 0.999989, 0.229996, 0.999992, 0.0283496, 0.0113414, -0.00114978, 0.0794228, -0.0794228, 4.62596e-12, -1.03926e-12, -2.22223e-05, -0.000136909, -0.000378583, -0.000289239, -0.00017613, -0.108319, 13.282, -4.72965, -0.519498, -17.6375, 13.8313, 10.1717, -0.173555, 117.843, -24.2046, 9.18424, -38.081, -8.46615, 3.31749, 2.83568, 4.68786e-310, 0, 0, 13.282, -4.72965, -0.519498, -17.6375, 6.91563, 5.08584, 6.91563, 0, 0, -7.75388, 0, 84.4782, 0, 0, 42.3379, 7.79209e-05, 0, 0, 0, 0, 0, 0, 0
0.0258542, -0.0234121, 0.743824, 0.101047, -0.978268, 1.10519, -0.227965, 0.0999985, 0.229998, 0.999989, 0.229996, 0.999992, 0.0283315, 0.0114121, -0.0011571, 0.0799178, -0.0799178, 4.62596e-12, -1.03926e-12, -3.23832e-05, -0.000141389, -0.000380236, -0.000294645, -0.00017656, -0.108545, 13.3017, -4.73371, -0.517963, -17.6439, 13.8298, 10.1722, -0.173082, 118.542, -24.3647, 9.21767, -38.225, -8.55796, 3.30546, 2.83368, 4.68786e-310, 0, 0, 13.3017, -4.73371, -0.517963, -17.6439, 6.91492, 5.08612, 6.91492, 0, 0, -7.74079, 0, 84.5708, 0, 0, 42.3842, 7.78561e-05, 0, 0, 0, 0, 0, 0, 0
0.026021, -0.0234102, 0.743823, 0.10106, -0.978281, 1.10519, -0.227965, 0.0999985, 0.229998, 0.999989, 0.229995, 0.999992, 0.0283134, 0.0114827, -0.00116441, 0.0804123, -0.0804123, 4.62596e-12, -1.03926e-12, -4.25554e-05, -0.000145886, -0.000381922, -0.000300066, -0.000177025, -0.108765, 13.3216, -4.73778, -0.516423, -17.6503, 13.8284, 10.1728, -0.172609, 119.241, -24.5249, 9.2511, -38.3689, -8.64977, 3.29342, 2.83168, 4.68786e-310, 0, 0, 13.3216, -4.73778, -0.516423, -17.6503, 6.9142, 5.08639, 6.9142, 0, 0, -7.7276, 0, 84.6639, 0, 0, 42.4308, 7.77503e-05, 0, 0, 0, 0, 0, 0, 0
0.0261878, -0.0234082, 0.743823, 0.101074, -0.978295, 1.10519, -0.227965, 0.0999985, 0.229997, 0.999989, 0.229995, 0.999992, 0.0282952, 0.0115532, -0.00117172, 0.0809065, -0.0809065, 4.62596e-12, -1.03926e-12, -5.27291e-05, -0.000150397, -0.000383639, -0.0003055, -0.000177521, -0.108977, 13.3415, -4.74189, -0.514877, -17.6567, 13.8269, 10.1733, -0.172137, 119.94, -24.685, 9.28453, -38.5129, -8.74158, 3.28139, 2.82968, 4.68786e-310, 0, 0, 13.3415, -4.74189, -0.514877, -17.6567, 6.91347, 5.08667, 6.91347, 0, 0, -7.71432, 0, 84.7577, 0, 0, 42.4776, 7.76037e-05, 0, 0, 0, 0, 0, 0, 0
0.0263546, -0.0234063, 0.743823, 0.101087, -0.978308, 1.10519, -0.227965, 0.0999985, 0.229997, 0.999989, 0.229995, 0.999992, 0.028277, 0.0116237, -0.00117903, 0.0814001, -0.0814001, 4.62596e-12, -1.03926e-12, -6.28944e-05, -0.000154917, -0.000385385, -0.000310943, -0.000178048, -0.109182, 13.3616, -4.74602, -0.513325, -17.6631, 13.8255, 10.1739, -0.171665, 120.639, -24.8452, 9.31796, -38.6568, -8.8334, 3.26935, 2.82768, 4.68786e-310, 0, 0, 13.3616, -4.74602, -0.513325, -17.6631, 6.91274, 5.08694, 6.91274, 0, 0, -7.70095, 0, 84.8521, 0, 0, 42.5247, 7.74163e-05, 0, 0, 0, 0, 0, 0, 0
0.0265214, -0.0234044, 0.743823, 0.101101, -0.978322, 1.10519, -0.227965, 0.0999984, 0.229997, 0.999989, 0.229995, 0.999992, 0.0282588, 0.0116941, -0.00118633, 0.0818934, -0.0818934, 4.62596e-12, -1.03926e-12, -7.30416e-05, -0.000159445, -0.000387157, -0.000316392, -0.000178603, -0.109381, 13.3818, -4.75018, -0.511768, -17.6696, 13.824, 10.1744, -0.171194, 121.338, -25.0053, 9.35139, -38.8007, -8.92521, 3.25732, 2.82568, 4.68786e-310, 0, 0, 13.3818, -4.75018, -0.511768, -17.6696, 6.912, 5.08721, 6.912, 0, 0, -7.68749, 0, 84.9471, 0, 0, 42.572, 7.71883e-05, 0, 0, 0, 0, 0, 0, 0
0.0266882, -0.0234024, 0.743823, 0.101115, -0.978335, 1.10519, -0.227965, 0.0999984, 0.229997, 0.999989, 0.229995, 0.999992, 0.0282405, 0.0117645, -0.00119363, 0.0823862, -0.0823862, 4.62595e-12, -1.03927e-12, -8.31609e-05, -0.000163977, -0.000388954, -0.000321844, -0.000179184, -0.109572, 13.4021, -4.75436, -0.510206, -17.6761, 13.8225, 10.175, -0.170723, 122.038, -25.1655, 9.38482, -38.9447, -9.01702, 3.24528, 2.82368, 4.68786e-310, 0, 0, 13.4021, -4.75436, -0.510206, -17.6761, 6.91125, 5.08748, 6.91125, 0, 0, -7.67394, 0, 85.0427, 0, 0, 42.6195, 7.69199e-05, 0, 0, 0, 0, 0, 0, 0
0.026855, -0.0234004, 0.743822, 0.101128, -0.978349, 1.10519, -0.227965, 0.0999984, 0.229997, 0.999989, 0.229995, 0.999992, 0.0282222, 0.0118348, -0.00120093, 0.0828785, -0.0828785, 4.62595e-12, -1.03927e-12, -9.32425e-05, -0.000168509, -0.000390774, -0.000327295, -0.000179789, -0.109757, 13.4225, -4.75857, -0.508637, -17.6826, 13.821, 10.1755, -0.170252, 122.737, -25.3256, 9.41825, -39.0886, -9.10883, 3.23325, 2.82168, 4.68786e-310, 0, 0, 13.4225, -4.75857, -0.508637, -17.6826, 6.9105, 5.08775, 6.9105, 0, 0, -7.66029, 0, 85.1389, 0, 0, 42.6674, 7.66112e-05, 0, 0, 0, 0, 0, 0, 0
0.0270218, -0.0233985, 0.743822, 0.101142, -0.978363, 1.10519, -0.227965, 0.0999984, 0.229997, 0.999989, 0.229995, 0.999992, 0.0282039, 0.011905, -0.00120822, 0.0833704, -0.0833704, 4.62595e-12, -1.03928e-12, -0.000103277, -0.000173039, -0.000392613, -0.000332743, -0.000180416, -0.109934, 13.443, -4.76281, -0.507064, -17.6891, 13.8195, 10.176, -0.169781, 123.436, -25.4858, 9.45168, -39.2326, -9.20064, 3.22121, 2.81968, 4.68786e-310, 0, 0, 13.443, -4.76281, -0.507064, -17.6891, 6.90973, 5.08802, 6.90973, 0, 0, -7.64655, 0, 85.2358, 0, 0, 42.7155, 7.62623e-05, 0, 0, 0, 0, 0, 0, 0
0.0271887, -0.0233965, 0.743822, 0.101156, -0.978377, 1.10519, -0.227965, 0.0999984, 0.229997, 0.999989, 0.229995, 0.999992, 0.0281856, 0.0119751, -0.00121551, 0.0838618, -0.0838618, 4.62595e-12, -1.03928e-12, -0.000113253, -0.000177562, -0.000394471, -0.000338184, -0.000181062, -0.110105, 13.4637, -4.76707, -0.505484, -17.6957, 13.8179, 10.1766, -0.169311, 124.135, -25.6459, 9.48511, -39.3765, -9.29246, 3.20918, 2.81768, 4.68786e-310, 0, 0, 13.4637, -4.76707, -0.505484, -17.6957, 6.90896, 5.08829, 6.90896, 0, 0, -7.63272, 0, 85.3332, 0, 0, 42.7638, 7.58734e-05, 0, 0, 0, 0, 0, 0, 0
0.0273555, -0.0233945, 0.743822, 0.10117, -0.978391, 1.10519, -0.227965, 0.0999984, 0.229997, 0.999989, 0.229995, 0.999992, 0.0281672, 0.0120452, -0.00122279, 0.0843527, -0.0843527, 4.62595e-12, -1.03928e-12, -0.000123163, -0.000182077, -0.000396345, -0.000343615, -0.000181725, -0.110269, 13.4844, -4.77136, -0.503899, -17.7023, 13.8164, 10.1771, -0.168841, 124.834, -25.8061, 9.51854, -39.5204, -9.38427, 3.19715, 2.81568, 4.68786e-310, 0, 0, 13.4844, -4.77136, -0.503899, -17.7023, 6.90818, 5.08856, 6.90818, 0, 0, -7.6188, 0, 85.4313, 0, 0, 42.8124, 7.54446e-05, 0, 0, 0, 0, 0, 0, 0
0.0275223, -0.0233925, 0.743822, 0.101184, -0.978405, 1.10519, -0.227965, 0.0999983, 0.229997, 0.999989, 0.229995, 0.999992, 0.0281488, 0.0121152, -0.00123007, 0.0848431, -0.0848431, 4.62594e-12, -1.03928e-12, -0.000132995, -0.000186579, -0.000398233, -0.000349033, -0.000182404, -0.110425, 13.5053, -4.77568, -0.502309, -17.7089, 13.8148, 10.1776, -0.168372, 125.533, -25.9662, 9.55197, -39.6644, -9.47608, 3.18511, 2.81368, 4.68786e-310, 0, 0, 13.5053, -4.77568, -0.502309, -17.7089, 6.9074, 5.08882, 6.9074, 0, 0, -7.60479, 0, 85.53, 0, 0, 42.8613, 7.49761e-05, 0, 0, 0, 0, 0, 0, 0
0.0276891, -0.0233904, 0.743821, 0.101199, -0.978419, 1.10519, -0.227965, 0.0999983, 0.229997, 0.999989, 0.229995, 0.999992, 0.0281304, 0.0121852, -0.00123735, 0.0853331, -0.0853331, 4.62594e-12, -1.03929e-12, -0.000142741, -0.000191066, -0.000400133, -0.000354434, -0.000183097, -0.110575, 13.5263, -4.78003, -0.500713, -17.7155, 13.8132, 10.1782, -0.167903, 126.232, -26.1264, 9.5854, -39.8083, -9.56789, 3.17308, 2.81168, 4.68786e-310, 0, 0, 13.5263, -4.78003, -0.500713, -17.7155, 6.9066, 5.08909, 6.9066, 0, 0, -7.59068, 0, 85.6293, 0, 0, 42.9104, 7.4468e-05, 0, 0, 0, 0, 0, 0, 0
