flxalr/sts-optimization-reemc/input/498_125/pos.csv
time;base_link_tx;base_link_ty;base_link_tz;base_link_rz;base_link_ry;base_link_rx;leg_left_1_joint;leg_left_2_joint;leg_left_3_joint;leg_left_4_joint;leg_left_5_joint;leg_left_6_joint;leg_right_1_joint;leg_right_2_joint;leg_right_3_joint;leg_right_4_joint;leg_right_5_joint;leg_right_6_joint;torso_1_joint;torso_2_joint;arm_left_1_joint;arm_left_2_joint;arm_left_3_joint;arm_left_4_joint;arm_left_5_joint;arm_left_6_joint;arm_left_7_joint;arm_right_1_joint;arm_right_2_joint;arm_right_3_joint;arm_right_4_joint;arm_right_5_joint;arm_right_6_joint;arm_right_7_joint;head_1_joint;head_2_joint
0.0;-0.13103933298600226;-0.0697998782804499;0.7505807207680393;0.0030596836077422963;0.12303520955534913;-0.007226814884177105;-0.001542649364089543;9.497982731764693e-06;-0.9772111296568579;1.1051817894313725;-0.22796809512121996;9.527892906483729e-06;-0.0014985630915726525;9.507952790004623e-06;-0.9772179117634674;1.105197079723972;-0.2279708698733622;-9.517922848244122e-06;1.5340011351609728e-05;0.10003221402383837;0.22997745018331314;0.1298482980257405;2.8857629354561712e-05;0.9999760787862984;9.130919118318449e-06;-3.195821691411457e-05;3.195821691411457e-05;0.2300388102287196;0.1300323781619599;5.953765205779504e-05;1.0000843025663841;0.0;3.195821691411457e-05;-5.0220055150751476e-05;-0.005313147336269974;0.037566831913125036
0.019901037216186523;-0.13106817552576877;-0.06989440960325514;0.7505668877965574;0.003129571267924653;0.12299125501531885;-0.007109816926169403;-0.001542649364089543;9.497982731764693e-06;-0.9772111296568579;1.1051817894313725;-0.22796809512121996;9.527892906483729e-06;-0.0014985630915726525;9.507952790004623e-06;-0.9772179117634674;1.105197079723972;-0.2279708698733622;-9.517922848244122e-06;1.5340011351609728e-05;0.10003221402383837;0.22997745018331314;0.1298482980257405;2.8857629354561712e-05;0.9999760787862984;9.130919118318449e-06;-3.6523676473273796e-05;3.6523676473273796e-05;0.2300388102287196;0.1300323781619599;5.953765205779504e-05;1.0000843025663841;0.0;5.4785514709910704e-05;-7.304735294654759e-05;-0.005313147336269974;0.037566831913125036
0.0399169921875;-0.13108087203543956;-0.07005542683084762;0.7505496588128117;0.003226092457276696;0.12296702556801946;-0.006906322811464404;-0.001542649364089543;9.497982731764693e-06;-0.9772111296568579;1.1051817894313725;-0.22796809512121996;9.527892906483729e-06;-0.0014985630915726525;9.507952790004623e-06;-0.9772179117634674;1.105197079723972;-0.2279708698733622;-9.517922848244122e-06;1.5340011351609728e-05;0.10003221402383837;0.22997745018331314;0.1298482980257405;2.8857629354561712e-05;0.9999760787862984;9.130919118318449e-06;-3.6523676473273796e-05;3.6523676473273796e-05;0.2300388102287196;0.1300323781619599;5.953765205779504e-05;1.0000843025663841;0.0;6.848189338738838e-05;-8.674373162402527e-05;-0.005313147336269974;0.037566831913125036
0.05986738204956055;-0.13108015264030834;-0.07006620264295914;0.7505487785727457;0.003344279732404014;0.12295689841640756;-0.006912828300506441;-0.001542649364089543;9.497982731764693e-06;-0.9772111296568579;1.1051817894313725;-0.22796809512121996;9.527892906483729e-06;-0.0014985630915726525;9.507952790004623e-06;-0.9772179117634674;1.105197079723972;-0.2279708698733622;-9.517922848244122e-06;1.5340011351609728e-05;0.10003221402383837;0.22997745018331314;0.1298482980257405;2.8857629354561712e-05;0.9999760787862984;9.130919118318449e-06;-3.6523676473273796e-05;3.6523676473273796e-05;0.2300388102287196;0.1300323781619599;5.953765205779504e-05;1.0000843025663841;0.0;4.108913603243303e-05;-5.935097426906993e-05;-0.005313147336269974;0.037566831913125036
0.07989311218261719;-0.13100580561496863;-0.0700133254132703;0.750566693469541;0.003412977204085749;0.12304885918196881;-0.006997413854792484;-0.001542649364089543;9.497982731764693e-06;-0.9772111296568579;1.1051817894313725;-0.22796809512121996;9.527892906483729e-06;-0.0014985630915726525;9.507952790004623e-06;-0.9772179117634674;1.105197079723972;-0.2279708698733622;-9.517922848244122e-06;1.5340011351609728e-05;0.10003221402383837;0.22997745018331314;0.1298482980257405;2.8857629354561712e-05;0.9999760787862984;9.130919118318449e-06;-3.6523676473273796e-05;3.6523676473273796e-05;0.2300388102287196;0.1300323781619599;5.953765205779504e-05;1.0000843025663841;0.0;1.8261838236636895e-05;-3.6523676473273796e-05;-0.005313147336269974;0.037566831913125036
0.0998992919921875;-0.13100113969326135;-0.0700313974621979;0.7505658218668164;0.003570623505966256;0.12304033990154023;-0.007000984740287048;-0.001542649364089543;9.497982731764693e-06;-0.9772111296568579;1.1051817894313725;-0.22796809512121996;9.527892906483729e-06;-0.0014985630915726525;9.507952790004623e-06;-0.9772179117634674;1.105197079723972;-0.2279708698733622;-9.517922848244122e-06;1.5340011351609728e-05;0.10003221402383837;0.22997745018331314;0.1298482980257405;2.8857629354561712e-05;0.9999760787862984;9.130919118318449e-06;-3.6523676473273796e-05;3.6523676473273796e-05;0.2300388102287196;0.1300323781619599;5.953765205779504e-05;1.0000843025663841;0.0;6.848189338738838e-05;-8.674373162402527e-05;-0.005313147336269974;0.037566831913125036
0.11989259719848633;-0.1309899562874984;-0.06999448654981878;0.750572750651125;0.003684538241868776;0.12304382863314262;-0.007093154039077342;-0.001473617989329715;9.497982731764693e-06;-0.9772111296568579;1.1051817894313725;-0.22796809512121996;9.527892906483729e-06;-0.0014985630915726525;9.507952790004623e-06;-0.9772179117634674;1.105197079723972;-0.2279708698733622;-9.517922848244122e-06;1.5340011351609728e-05;0.10003221402383837;0.22997745018331314;0.1298482980257405;2.8857629354561712e-05;0.9999760787862984;9.130919118318449e-06;-3.6523676473273796e-05;3.6523676473273796e-05;0.2300388102287196;0.1300323781619599;5.953765205779504e-05;1.0000843025663841;0.0;5.935097426906992e-05;-7.761281250570684e-05;-0.005313147336269974;0.03910272165488005
0.13997244834899902;-0.13088691989968648;-0.07001479329806273;0.7505895982819225;0.003822445426817307;0.1231681561254565;-0.007100118115505302;-0.0014391023019498005;9.497982731764693e-06;-0.9772111296568579;1.1051817894313725;-0.22796809512121996;9.527892906483729e-06;-0.0014985630915726525;9.507952790004623e-06;-0.9772179117634674;1.105197079723972;-0.2279708698733622;-9.517922848244122e-06;2.3010017027411123e-05;0.10002454401816258;0.22997745018331314;0.1298482980257405;2.8857629354561712e-05;0.9999760787862984;0.0;-3.6523676473273796e-05;3.6523676473273796e-05;0.2300388102287196;0.1300323781619599;5.953765205779504e-05;1.0000843025663841;0.0;2.739275735495535e-05;-4.565459559159226e-05;-0.005313147336269974;0.03910272165488005
0.15989160537719727;-0.13076736221325208;-0.0699902278071234;0.7506129834297687;0.0038954513191951584;0.12332024014544272;-0.00714983484684843;-0.0014275970728231625;9.497982731764693e-06;-0.9772111296568579;1.1051817894313725;-0.22796809512121996;9.527892906483729e-06;-0.0014985630915726525;9.507952790004623e-06;-0.9772179117634674;1.105197079723972;-0.2279708698733622;-9.517922848244122e-06;2.3010017027411123e-05;0.10002454401816258;0.22997745018331314;0.1298482980257405;2.8857629354561712e-05;0.9999760787862984;9.130919118318449e-06;-3.6523676473273796e-05;3.6523676473273796e-05;0.2300388102287196;0.1300323781619599;5.953765205779504e-05;1.0000843025663841;0.0;6.848189338738838e-05;-8.674373162402527e-05;-0.005313147336269974;0.037566831913125036
0.17986655235290527;-0.13080288690559988;-0.06999411682329135;0.7506064310204992;0.003780142489948678;0.1232838625763397;-0.007123950683481244;-0.0014275970728231625;9.497982731764693e-06;-0.9772111296568579;1.1051817894313725;-0.22796809512121996;9.527892906483729e-06;-0.0014985630915726525;9.507952790004623e-06;-0.9772179117634674;1.1051846527325464;-0.2279708698733622;-9.517922848244122e-06;2.3010017027411123e-05;0.10002454401816258;0.22997745018331314;0.1298482980257405;2.8857629354561712e-05;0.9999760787862984;9.130919118318449e-06;-3.6523676473273796e-05;3.6523676473273796e-05;0.2300388102287196;0.1300323781619599;5.953765205779504e-05;1.0000843025663841;0.0;6.848189338738838e-05;-8.674373162402527e-05;-0.005313147336269974;0.03910272165488005
0.19987702369689941;-0.13084186128975656;-0.06991375949793902;0.7506071272437662;0.0037024003629311662;0.12323843644892228;-0.007220427554397662;-0.0014275970728231625;9.497982731764693e-06;-0.9772111296568579;1.1051817894313725;-0.22796809512121996;9.527892906483729e-06;-0.0014985630915726525;9.507952790004623e-06;-0.9772179117634674;1.1051846527325464;-0.2279708698733622;-9.517922848244122e-06;2.3010017027411123e-05;0.10002454401816258;0.22997745018331314;0.1298482980257405;2.8857629354561712e-05;0.9999760787862984;9.130919118318449e-06;-3.6523676473273796e-05;3.6523676473273796e-05;0.2300388102287196;0.1300323781619599;5.953765205779504e-05;1.0000843025663841;0.0;3.6523676473273796e-05;-5.4785514709910704e-05;-0.005313147336269974;0.037566831913125036
0.21988415718078613;-0.13078859237725166;-0.0698676358563505;0.7506207054603973;0.0038281906498116827;0.12329703107637333;-0.007306062670581825;-0.0014275970728231625;9.497982731764693e-06;-0.9772111296568579;1.1051817894313725;-0.22796809512121996;9.527892906483729e-06;-0.0014985630915726525;9.507952790004623e-06;-0.9772179117634674;1.1051846527325464;-0.2279708698733622;-9.517922848244122e-06;3.0680022703219456e-05;0.10001687401248677;0.22997745018331314;0.1298482980257405;2.8857629354561712e-05;0.9999760787862984;9.130919118318449e-06;-3.195821691411457e-05;3.195821691411457e-05;0.2300388102287196;0.1300323781619599;5.953765205779504e-05;1.0000843025663841;0.0;4.108913603243303e-05;-5.935097426906993e-05;-0.005313147336269974;0.037566831913125036
0.23990893363952637;-0.1309246320202592;-0.06982427998856887;0.7506007679085152;0.003805415936296916;0.12311751951084093;-0.007358655657900429;-0.0014391023019498005;9.497982731764693e-06;-0.9772111296568579;1.1051817894313725;-0.22796809512121996;9.527892906483729e-06;-0.0014985630915726525;9.507952790004623e-06;-0.9772179117634674;1.1051846527325464;-0.2279708698733622;-9.517922848244122e-06;3.0680022703219456e-05;0.10001687401248677;0.22997745018331314;0.1298482980257405;2.8857629354561712e-05;0.9999760787862984;9.130919118318449e-06;-3.6523676473273796e-05;3.6523676473273796e-05;0.2300388102287196;0.1300323781619599;5.953765205779504e-05;1.0000843025663841;0.0;6.848189338738838e-05;-8.674373162402527e-05;-0.005313147336269974;0.037566831913125036
0.2599799633026123;-0.1309103906808669;-0.06979348013467776;0.7506053494067586;0.003918882728716782;0.12312557901080273;-0.007410733249677856;-0.001473617989329715;9.497982731764693e-06;-0.9772111296568579;1.1051817894313725;-0.22796809512121996;9.527892906483729e-06;-0.0014985630915726525;9.507952790004623e-06;-0.9772179117634674;1.1051846527325464;-0.2279708698733622;-9.517922848244122e-06;3.0680022703219456e-05;0.10001687401248677;0.22997745018331314;0.1298482980257405;2.8857629354561712e-05;0.9999760787862984;9.130919118318449e-06;-3.6523676473273796e-05;3.6523676473273796e-05;0.2300388102287196;0.1300323781619599;5.953765205779504e-05;1.0000843025663841;0.0;4.565459559159225e-05;-6.391643382822915e-05;-0.005313147336269974;0.037566831913125036
0.2798938751220703;-0.13086056079554928;-0.06974429143901406;0.7506170765616746;0.003939594627838596;0.12318973402446462;-0.007460620675805038;-0.001542649364089543;9.497982731764693e-06;-0.9772111296568579;1.1051817894313725;-0.22796809512121996;9.527892906483729e-06;-0.0014985630915726525;9.507952790004623e-06;-0.9772179117634674;1.1051846527325464;-0.2279708698733622;-9.517922848244122e-06;3.0680022703219456e-05;0.10001687401248677;0.22997745018331314;0.1298482980257405;2.8857629354561712e-05;0.9999760787862984;9.130919118318449e-06;-3.6523676473273796e-05;3.6523676473273796e-05;0.2300388102287196;0.1300323781619599;5.953765205779504e-05;1.0000843025663841;0.0;2.2827297795796123e-05;-4.108913603243303e-05;-0.005313147336269974;0.037566831913125036
0.29988694190979004;-0.1308266793304584;-0.0697051205994929;0.7506266211130713;0.003929251104259822;0.12323544467989006;-0.007512322304317597;-0.001542649364089543;9.497982731764693e-06;-0.9772111296568579;1.1051817894313725;-0.22796809512121996;9.527892906483729e-06;-0.0014985630915726525;9.507952790004623e-06;-0.9772179117634674;1.1051846527325464;-0.2279708698733622;-9.517922848244122e-06;3.0680022703219456e-05;0.10001687401248677;0.22997745018331314;0.1298482980257405;2.8857629354561712e-05;0.9999760787862984;9.130919118318449e-06;-3.195821691411457e-05;3.195821691411457e-05;0.2300388102287196;0.1300323781619599;5.953765205779504e-05;1.0000843025663841;0.0;6.848189338738838e-05;-8.674373162402527e-05;-0.005313147336269974;0.037566831913125036
0.3201029300689697;-0.13079036032329266;-0.06967430551717536;0.7506358111516218;0.003898878265394552;0.12328637376610317;-0.00754894508111142;-0.001542649364089543;9.497982731764693e-06;-0.9772111296568579;1.1051817894313725;-0.22796809512121996;9.527892906483729e-06;-0.0014985630915726525;9.507952790004623e-06;-0.9772179117634674;1.1051846527325464;-0.2279708698733622;-9.517922848244122e-06;3.0680022703219456e-05;0.10001687401248677;0.22997745018331314;0.1298482980257405;2.8857629354561712e-05;0.9999760787862984;9.130919118318449e-06;-3.6523676473273796e-05;3.6523676473273796e-05;0.2300388102287196;0.1300323781619599;5.953765205779504e-05;1.0000843025663841;0.0;6.391643382822916e-05;-8.217827206486605e-05;-0.005313147336269974;0.037566831913125036
0.34000515937805176;-0.13065455188774092;-0.06963394255124404;0.750663206972231;0.003943737938881293;0.12346266166678112;-0.007611657782147041;-0.001542649364089543;9.497982731764693e-06;-0.9772111296568579;1.1051817894313725;-0.22796809512121996;9.527892906483729e-06;-0.0014985630915726525;9.507952790004623e-06;-0.9772179117634674;1.1051846527325464;-0.2279708698733622;-9.517922848244122e-06;3.0680022703219456e-05;0.10001687401248677;0.22997745018331314;0.1298482980257405;2.8857629354561712e-05;0.9999760787862984;9.130919118318449e-06;-3.6523676473273796e-05;3.6523676473273796e-05;0.2300388102287196;0.1300323781619599;5.953765205779504e-05;1.0000843025663841;0.0;3.195821691411457e-05;-5.0220055150751476e-05;-0.005313147336269974;0.03910272165488005
0.3598971366882324;-0.1306610530146155;-0.0695954894015903;0.7506656414583764;0.003923202527138692;0.12345553640263773;-0.007660763669396051;-0.001542649364089543;9.497982731764693e-06;-0.9772111296568579;1.1051817894313725;-0.22796809512121996;9.527892906483729e-06;-0.0014985630915726525;9.507952790004623e-06;-0.9772179117634674;1.1051846527325464;-0.2279708698733622;-9.517922848244122e-06;3.0680022703219456e-05;0.10001687401248677;0.22997745018331314;0.1298482980257405;2.8857629354561712e-05;0.9999760787862984;9.130919118318449e-06;-3.6523676473273796e-05;3.6523676473273796e-05;0.2300388102287196;0.1300323781619599;5.953765205779504e-05;1.0000843025663841;0.0;6.848189338738838e-05;-8.674373162402527e-05;-0.005313147336269974;0.037566831913125036
0.3800523281097412;-0.13065446258518265;-0.0696034644649835;0.7506660491370977;0.003979327082875338;0.12345911888753888;-0.007659868321186012;-0.001542649364089543;9.497982731764693e-06;-0.9772111296568579;1.1051817894313725;-0.22796809512121996;9.527892906483729e-06;-0.0014985630915726525;9.507952790004623e-06;-0.9772179117634674;1.1051846527325464;-0.2279708698733622;-9.517922848244122e-06;3.0680022703219456e-05;0.10001687401248677;0.22997745018331314;0.1298482980257405;2.8857629354561712e-05;0.9999760787862984;9.130919118318449e-06;-3.195821691411457e-05;3.195821691411457e-05;0.2300388102287196;0.1300323781619599;5.953765205779504e-05;1.0000843025663841;0.0;6.848189338738838e-05;-8.674373162402527e-05;-0.005313147336269974;0.037566831913125036
0.40010905265808105;-0.13067861222108704;-0.06959077480466533;0.7506630219719816;0.004144124967098077;0.12341132020721801;-0.007707022796342984;-0.001542649364089543;9.497982731764693e-06;-0.9772111296568579;1.1051817894313725;-0.22796809512121996;9.527892906483729e-06;-0.0014985630915726525;9.507952790004623e-06;-0.9772179117634674;1.1051846527325464;-0.2279708698733622;-9.517922848244122e-06;3.0680022703219456e-05;0.10001687401248677;0.22997745018331314;0.1298482980257405;2.8857629354561712e-05;0.9999760787862984;9.130919118318449e-06;-3.6523676473273796e-05;3.6523676473273796e-05;0.2300388102287196;0.1300323781619599;5.953765205779504e-05;1.0000843025663841;0.0;3.6523676473273796e-05;-5.4785514709910704e-05;-0.005313147336269974;0.037566831913125036
0.41986775398254395;-0.1305880615880416;-0.06959213283204399;0.7506786538890098;0.004286343810301664;0.12351859540911493;-0.007730183617056256;-0.001542649364089543;9.497982731764693e-06;-0.9772111296568579;1.1051817894313725;-0.22796809512121996;9.527892906483729e-06;-0.0014985630915726525;9.507952790004623e-06;-0.9772179117634674;1.1051846527325464;-0.2279708698733622;-9.517922848244122e-06;3.0680022703219456e-05;0.10001687401248677;0.22997745018331314;0.1298636380370921;2.8857629354561712e-05;0.9999760787862984;9.130919118318449e-06;-3.6523676473273796e-05;3.6523676473273796e-05;0.2300388102287196;0.1300323781619599;5.953765205779504e-05;1.0000843025663841;0.0;2.2827297795796123e-05;-4.108913603243303e-05;-0.005313147336269974;0.037566831913125036
0.4400656223297119;-0.13051695237916566;-0.06975392998290458;0.7506760037323995;0.004422222362561708;0.12360212106056;-0.007532160052345996;-0.001542649364089543;9.497982731764693e-06;-0.9772111296568579;1.1051817894313725;-0.22796809512121996;9.527892906483729e-06;-0.0014985630915726525;9.507952790004623e-06;-0.9772179117634674;1.1051846527325464;-0.2279708698733622;-9.517922848244122e-06;3.0680022703219456e-05;0.10001687401248677;0.22997745018331314;0.12987897804844373;2.8857629354561712e-05;0.9999760787862984;9.130919118318449e-06;-3.6523676473273796e-05;3.6523676473273796e-05;0.2300388102287196;0.1300323781619599;5.953765205779504e-05;1.0000843025663841;0.0;6.848189338738838e-05;-8.674373162402527e-05;-0.005313147336269974;0.037566831913125036
0.4600644111633301;-0.13054796411985256;-0.06981810466662822;0.7506646451718452;0.004527385534454263;0.12355151614812762;-0.00746317797280967;-0.001542649364089543;9.497982731764693e-06;-0.9772111296568579;1.1051817894313725;-0.22796809512121996;9.527892906483729e-06;-0.0014985630915726525;9.507952790004623e-06;-0.9772179117634674;1.1051846527325464;-0.2279708698733622;-9.517922848244122e-06;3.835002837902085e-05;0.10000920400681096;0.22997745018331314;0.1299403380938502;2.8857629354561712e-05;0.9999760787862984;9.130919118318449e-06;-3.195821691411457e-05;3.195821691411457e-05;0.2300388102287196;0.1300323781619599;5.953765205779504e-05;1.0000843025663841;0.0;5.4785514709910704e-05;-7.304735294654759e-05;-0.005313147336269974;0.037566831913125036
0.4798848628997803;-0.13047692624569304;-0.06979644585920664;0.7506802880766653;0.004540224005836181;0.12364454541599378;-0.007512309874520498;-0.0014851232184563527;9.497982731764693e-06;-0.9772111296568579;1.1051817894313725;-0.22796809512121996;9.527892906483729e-06;-0.0014985630915726525;9.507952790004623e-06;-0.9772179117634674;1.1051846527325464;-0.2279708698733622;-9.517922848244122e-06;3.835002837902085e-05;0.10000920400681096;0.22997745018331314;0.1299403380938502;2.8857629354561712e-05;0.9999760787862984;9.130919118318449e-06;-3.6523676473273796e-05;3.6523676473273796e-05;0.2300388102287196;0.1300323781619599;5.953765205779504e-05;1.0000843025663841;0.0;2.2827297795796123e-05;-4.108913603243303e-05;-0.005313147336269974;0.037566831913125036
0.4998900890350342;-0.1304341384539062;-0.06981569392160498;0.7506869564195497;0.004533545154798807;0.12370220681427047;-0.007498476846551929;-0.0014391023019498005;9.497982731764693e-06;-0.9772111296568579;1.1051817894313725;-0.22796809512121996;9.527892906483729e-06;-0.0014985630915726525;9.507952790004623e-06;-0.9772179117634674;1.1051846527325464;-0.2279708698733622;-9.517922848244122e-06;4.6020034054822245e-05;0.10000153400113516;0.22997745018331314;0.1299556781052018;2.8857629354561712e-05;0.9999760787862984;9.130919118318449e-06;-3.6523676473273796e-05;3.6523676473273796e-05;0.2300388102287196;0.1300323781619599;5.953765205779504e-05;1.0000843025663841;0.0;6.848189338738838e-05;-8.674373162402527e-05;-0.005313147336269974;0.037566831913125036
0.5200049877166748;-0.1304138409687621;-0.06987019124074992;0.7506854125332199;0.004552755483086281;0.12372795657248542;-0.007427021975932479;-0.0014391023019498005;9.497982731764693e-06;-0.9772111296568579;1.1051817894313725;-0.22796809512121996;9.527892906483729e-06;-0.0014985630915726525;9.507952790004623e-06;-0.9772179117634674;1.1051846527325464;-0.2279708698733622;-9.517922848244122e-06;4.6020034054822245e-05;0.10000153400113516;0.22997745018331314;0.1299556781052018;2.8857629354561712e-05;0.9999760787862984;9.130919118318449e-06;-3.6523676473273796e-05;3.6523676473273796e-05;0.2300388102287196;0.1300323781619599;5.953765205779504e-05;1.0000843025663841;0.0;6.391643382822916e-05;-8.217827206486605e-05;-0.005313147336269974;0.037566831913125036
0.5398859977722168;-0.13037806902372348;-0.06986726533346299;0.7506918985062272;0.004622204768775611;0.12376903265854709;-0.007443267344509826;-0.0014391023019498005;9.497982731764693e-06;-0.9772111296568579;1.1051817894313725;-0.22796809512121996;9.527892906483729e-06;-0.0014985630915726525;9.507952790004623e-06;-0.9772179117634674;1.1051846527325464;-0.2279708698733622;-9.517922848244122e-06;4.6020034054822245e-05;0.10000153400113516;0.22997745018331314;0.1299556781052018;2.8857629354561712e-05;0.9999760787862984;9.130919118318449e-06;-2.739275735495535e-05;2.739275735495535e-05;0.2300388102287196;0.1300323781619599;5.953765205779504e-05;1.0000843025663841;0.0;3.6523676473273796e-05;-5.4785514709910704e-05;-0.005313147336269974;0.037566831913125036
0.5598571300506592;-0.13044597577411285;-0.06982355609328976;0.7506841683086448;0.0045957848869265325;0.12368064598128312;-0.007498929976187877;-0.0014391023019498005;9.497982731764693e-06;-0.9772111296568579;1.1051817894313725;-0.22796809512121996;9.527892906483729e-06;-0.0014985630915726525;9.507952790004623e-06;-0.9772179117634674;1.1051846527325464;-0.2279708698733622;-9.517922848244122e-06;4.6020034054822245e-05;0.10000153400113516;0.22997745018331314;0.1299556781052018;2.8857629354561712e-05;0.9999760787862984;9.130919118318449e-06;-3.6523676473273796e-05;3.6523676473273796e-05;0.2300388102287196;0.1300323781619599;5.953765205779504e-05;1.0000843025663841;0.0;5.4785514709910704e-05;-7.304735294654759e-05;-0.005313147336269974;0.037566831913125036
0.5798754692077637;-0.13041234086900153;-0.06979123576425729;0.7506930177442575;0.004832367942110411;0.12370286324644252;-0.007585503026127817;-0.0014391023019498005;9.497982731764693e-06;-0.9772111296568579;1.1051817894313725;-0.22796809512121996;9.527892906483729e-06;-0.0014985630915726525;9.507952790004623e-06;-0.9772179117634674;1.1051846527325464;-0.2279708698733622;-9.517922848244122e-06;4.6020034054822245e-05;0.10000153400113516;0.22997745018331314;0.1299556781052018;2.8857629354561712e-05;0.9999760787862984;9.130919118318449e-06;-3.6523676473273796e-05;3.6523676473273796e-05;0.2300388102287196;0.1300323781619599;5.953765205779504e-05;1.0000843025663841;0.0;6.848189338738838e-05;-8.674373162402527e-05;-0.005313147336269974;0.03910272165488005
0.6001756191253662;-0.1304212914650524;-0.06983393520808959;0.7506874918075795;0.00480998366312978;0.12369344008563192;-0.007522960189077351;-0.0014391023019498005;9.497982731764693e-06;-0.9772111296568579;1.1051817894313725;-0.22796809512121996;9.527892906483729e-06;-0.0014985630915726525;9.507952790004623e-06;-0.9772179117634674;1.1051846527325464;-0.2279708698733622;-9.517922848244122e-06;4.6020034054822245e-05;0.10000153400113516;0.22997745018331314;0.1299556781052018;2.8857629354561712e-05;0.9999760787862984;9.130919118318449e-06;-3.6523676473273796e-05;3.6523676473273796e-05;0.2300388102287196;0.1300323781619599;5.953765205779504e-05;1.0000843025663841;0.0;4.108913603243303e-05;-5.935097426906993e-05;-0.005313147336269974;0.037566831913125036
0.6199119091033936;-0.13047351566929155;-0.06982008209385669;0.7506797053175989;0.004802887004188658;0.12362440935399338;-0.007541038520247189;-0.0014391023019498005;9.497982731764693e-06;-0.9772111296568579;1.1051817894313725;-0.22796809512121996;9.527892906483729e-06;-0.0014985630915726525;9.507952790004623e-06;-0.9772179117634674;1.1051846527325464;-0.2279708698733622;-9.517922848244122e-06;4.6020034054822245e-05;0.10000153400113516;0.22997745018331314;0.1299556781052018;2.8857629354561712e-05;0.9999760787862984;9.130919118318449e-06;-3.195821691411457e-05;3.195821691411457e-05;0.2300388102287196;0.1300323781619599;5.953765205779504e-05;1.0000843025663841;0.0;1.8261838236636895e-05;-3.6523676473273796e-05;-0.005313147336269974;0.037566831913125036
0.6398818492889404;-0.13042607845612464;-0.06973509761747491;0.7506950812642953;0.0048683945873235265;0.12368077392232762;-0.007658551434254774;-0.001473617989329715;9.497982731764693e-06;-0.9772111296568579;1.1051817894313725;-0.22796809512121996;9.527892906483729e-06;-0.0014985630915726525;9.507952790004623e-06;-0.9772179117634674;1.1051846527325464;-0.2279708698733622;-9.517922848244122e-06;4.6020034054822245e-05;0.10000153400113516;0.22997745018331314;0.1299556781052018;2.8857629354561712e-05;0.9999760787862984;9.130919118318449e-06;-3.6523676473273796e-05;3.6523676473273796e-05;0.230023470217368;0.1300323781619599;5.953765205779504e-05;1.0000843025663841;0.0;6.848189338738838e-05;-8.674373162402527e-05;-0.005313147336269974;0.03910272165488005
0.6599116325378418;-0.13050569958522548;-0.06980989045091171;0.7506727581023926;0.0048460474007091785;0.12357771799636673;-0.007531389514062801;-0.001542649364089543;9.497982731764693e-06;-0.9772111296568579;1.1051817894313725;-0.22796809512121996;9.527892906483729e-06;-0.0014985630915726525;9.507952790004623e-06;-0.9772179117634674;1.1051846527325464;-0.2279708698733622;-9.517922848244122e-06;5.369003973063058e-05;0.09999386399545936;0.22997745018331314;0.1299556781052018;2.8857629354561712e-05;0.9999760787862984;9.130919118318449e-06;-3.6523676473273796e-05;3.6523676473273796e-05;0.230023470217368;0.1300323781619599;5.953765205779504e-05;1.0000843025663841;0.0;5.935097426906992e-05;-7.761281250570684e-05;-0.005313147336269974;0.037566831913125036
0.6798930168151855;-0.13041180162882218;-0.06984796243692752;0.7506855349115134;0.005012249972252712;0.12368749462848419;-0.007508345616233199;-0.001542649364089543;9.497982731764693e-06;-0.9772111296568579;1.1051817894313725;-0.22796809512121996;9.527892906483729e-06;-0.0014985630915726525;9.507952790004623e-06;-0.9772179117634674;1.1051846527325464;-0.2279708698733622;-9.517922848244122e-06;5.369003973063058e-05;0.09999386399545936;0.22997745018331314;0.1299556781052018;2.8857629354561712e-05;0.9999760787862984;9.130919118318449e-06;-3.6523676473273796e-05;3.6523676473273796e-05;0.230023470217368;0.1300323781619599;5.953765205779504e-05;1.0000843025663841;0.0;2.739275735495535e-05;-4.565459559159226e-05;-0.005313147336269974;0.037566831913125036
0.6999170780181885;-0.1303703905407068;-0.06976635324677662;0.7507003166450379;0.005167224816123736;0.12372735183453679;-0.007647830054616327;-0.001542649364089543;9.497982731764693e-06;-0.9772111296568579;1.1051817894313725;-0.22796809512121996;9.527892906483729e-06;-0.0014985630915726525;9.507952790004623e-06;-0.9772179117634674;1.1051846527325464;-0.2279708698733622;-9.517922848244122e-06;5.369003973063058e-05;0.09999386399545936;0.22997745018331314;0.1299556781052018;2.8857629354561712e-05;0.99999141879765;9.130919118318449e-06;-3.6523676473273796e-05;3.6523676473273796e-05;0.230023470217368;0.1300323781619599;5.953765205779504e-05;1.0000843025663841;0.0;6.848189338738838e-05;-8.674373162402527e-05;-0.005313147336269974;0.037566831913125036
0.7199947834014893;-0.13033361116642297;-0.06974459027017296;0.7507087252153234;0.005204357512729538;0.12377266594453461;-0.007684087710622429;-0.001542649364089543;9.497982731764693e-06;-0.9772111296568579;1.1051817894313725;-0.22796809512121996;9.527892906483729e-06;-0.0014985630915726525;9.507952790004623e-06;-0.9772179117634674;1.1051846527325464;-0.2279708698733622;-9.517922848244122e-06;5.369003973063058e-05;0.09999386399545936;0.22997745018331314;0.12997101811655346;2.8857629354561712e-05;0.99999141879765;9.130919118318449e-06;-3.6523676473273796e-05;3.6523676473273796e-05;0.230023470217368;0.1300323781619599;5.953765205779504e-05;1.0000843025663841;0.0;6.848189338738838e-05;-8.674373162402527e-05;-0.005313147336269974;0.037566831913125036
0.7398769855499268;-0.13031013577543638;-0.06972352547727086;0.750714757211591;0.005282620536975124;0.12379639925714363;-0.007726853764918491;-0.001542649364089543;9.497982731764693e-06;-0.9772111296568579;1.1051817894313725;-0.22796809512121996;9.527892906483729e-06;-0.0014985630915726525;9.507952790004623e-06;-0.9772179117634674;1.1051846527325464;-0.2279708698733622;-9.517922848244122e-06;5.369003973063058e-05;0.09999386399545936;0.22997745018331314;0.12997101811655346;2.8857629354561712e-05;0.99999141879765;9.130919118318449e-06;-3.6523676473273796e-05;3.6523676473273796e-05;0.230023470217368;0.1300323781619599;5.953765205779504e-05;1.0000843025663841;0.0;3.6523676473273796e-05;-5.4785514709910704e-05;-0.005313147336269974;0.037566831913125036
0.7598755359649658;-0.13038737494570046;-0.06973684267781012;0.7507001088411738;0.0052385338574844125;0.12369776441108336;-0.007701232750748766;-0.001542649364089543;9.497982731764693e-06;-0.9772111296568579;1.1051817894313725;-0.22796809512121996;9.527892906483729e-06;-0.0014985630915726525;9.507952790004623e-06;-0.9772179117634674;1.1051846527325464;-0.2279708698733622;-9.517922848244122e-06;5.369003973063058e-05;0.09999386399545936;0.22997745018331314;0.12997101811655346;2.8857629354561712e-05;0.99999141879765;9.130919118318449e-06;-3.6523676473273796e-05;3.6523676473273796e-05;0.230023470217368;0.1300323781619599;5.953765205779504e-05;1.0000843025663841;0.0;4.108913603243303e-05;-5.935097426906993e-05;-0.005313147336269974;0.03910272165488005
0.7798559665679932;-0.13039835225808988;-0.06980600773621883;0.7506917737649431;0.005417124093872655;0.1236669304199882;-0.007638457250418755;-0.001542649364089543;9.497982731764693e-06;-0.9772111296568579;1.1051817894313725;-0.22796809512121996;9.527892906483729e-06;-0.0014985630915726525;9.507952790004623e-06;-0.9772179117634674;1.1051846527325464;-0.2279708698733622;-9.517922848244122e-06;5.369003973063058e-05;0.09999386399545936;0.22997745018331314;0.12997101811655346;2.8857629354561712e-05;0.99999141879765;9.130919118318449e-06;-3.6523676473273796e-05;3.6523676473273796e-05;0.230023470217368;0.1300323781619599;5.953765205779504e-05;1.0000843025663841;0.0;6.848189338738838e-05;-8.674373162402527e-05;-0.005313147336269974;0.037566831913125036
0.7999637126922607;-0.13038225716625235;-0.06976080027954944;0.7506987717764301;0.005557482757591793;0.12367479885715112;-0.007725546556975073;-0.001542649364089543;9.497982731764693e-06;-0.9772111296568579;1.1051817894313725;-0.22796809512121996;9.527892906483729e-06;-0.0014985630915726525;9.507952790004623e-06;-0.9772179117634674;1.1051846527325464;-0.2279708698733622;-9.517922848244122e-06;5.369003973063058e-05;0.09999386399545936;0.22997745018331314;0.12997101811655346;2.8857629354561712e-05;0.99999141879765;9.130919118318449e-06;-3.6523676473273796e-05;3.6523676473273796e-05;0.22997745018331314;0.1300323781619599;5.953765205779504e-05;1.0000843025663841;0.0;4.565459559159225e-05;-6.391643382822915e-05;-0.005313147336269974;0.03910272165488005
0.8198740482330322;-0.13034150206453676;-0.06978288980904;0.7507037959911421;0.005586136038392823;0.12372657724096331;-0.007700067606987507;-0.001542649364089543;9.497982731764693e-06;-0.9772111296568579;1.1051817894313725;-0.22796809512121996;9.527892906483729e-06;-0.0014985630915726525;9.507952790004623e-06;-0.9772179117634674;1.1051846527325464;-0.2279708698733622;-9.517922848244122e-06;5.369003973063058e-05;0.09999386399545936;0.22997745018331314;0.12997101811655346;2.8857629354561712e-05;0.99999141879765;9.130919118318449e-06;-3.6523676473273796e-05;3.6523676473273796e-05;0.22996211017196155;0.1300323781619599;5.953765205779504e-05;1.0000843025663841;0.0;2.2827297795796123e-05;-4.108913603243303e-05;-0.005313147336269974;0.037566831913125036
0.8400518894195557;-0.13029675277759947;-0.06980593452349655;0.7507094217518285;0.005758753286431339;0.12377014488613172;-0.00769905931755012;-0.001542649364089543;9.497982731764693e-06;-0.9772111296568579;1.1051817894313725;-0.22796809512121996;9.527892906483729e-06;-0.0014985630915726525;9.507952790004623e-06;-0.9772179117634674;1.1051846527325464;-0.2279708698733622;-9.517922848244122e-06;5.369003973063058e-05;0.09999386399545936;0.22997745018331314;0.12997101811655346;2.8857629354561712e-05;0.99999141879765;9.130919118318449e-06;-3.195821691411457e-05;3.195821691411457e-05;0.2299314301492583;0.1300323781619599;5.953765205779504e-05;1.0000843025663841;0.0;6.848189338738838e-05;-8.674373162402527e-05;-0.005313147336269974;0.037566831913125036
0.8600490093231201;-0.13033307493215643;-0.06973808134472582;0.7507117234461573;0.005707253661386592;0.12372571685813244;-0.007814797668217991;-0.0014391023019498005;9.497982731764693e-06;-0.9772111296568579;1.1051817894313725;-0.22796809512121996;9.527892906483729e-06;-0.0014985630915726525;9.507952790004623e-06;-0.9772179117634674;1.1051846527325464;-0.2279708698733622;-9.517922848244122e-06;5.369003973063058e-05;0.09999386399545936;0.22997745018331314;0.12997101811655346;2.8857629354561712e-05;0.99999141879765;9.130919118318449e-06;-3.6523676473273796e-05;3.6523676473273796e-05;0.2299314301492583;0.1300323781619599;5.953765205779504e-05;1.0000843025663841;0.0;6.391643382822916e-05;-8.217827206486605e-05;-0.005313147336269974;0.037566831913125036
0.8798885345458984;-0.1304084314327767;-0.06975473736721755;0.750697089215409;0.005756532754347594;0.12362083312155635;-0.007801379527903228;-0.0014391023019498005;9.497982731764693e-06;-0.9772111296568579;1.1051817894313725;-0.22796809512121996;9.527892906483729e-06;-0.0014985630915726525;9.507952790004623e-06;-0.9772179117634674;1.1051846527325464;-0.2279708698733622;-9.517922848244122e-06;5.369003973063058e-05;0.09999386399545936;0.22997745018331314;0.12997101811655346;2.8857629354561712e-05;0.99999141879765;9.130919118318449e-06;-3.6523676473273796e-05;3.6523676473273796e-05;0.2299314301492583;0.1300323781619599;5.953765205779504e-05;1.0000843025663841;0.0;3.195821691411457e-05;-5.0220055150751476e-05;-0.005313147336269974;0.037566831913125036
0.8998947143554688;-0.13048465881778584;-0.06979194551278228;0.7506806405235112;0.005586837845850105;0.12353549426303131;-0.0077239688238535205;-0.0014275970728231625;9.497982731764693e-06;-0.9772111296568579;1.1051817894313725;-0.22796809512121996;9.527892906483729e-06;-0.0014985630915726525;9.507952790004623e-06;-0.9772179117634674;1.1051846527325464;-0.2279708698733622;-9.517922848244122e-06;5.369003973063058e-05;0.09999386399545936;0.22997745018331314;0.12997101811655346;2.8857629354561712e-05;0.99999141879765;9.130919118318449e-06;-3.6523676473273796e-05;3.6523676473273796e-05;0.2299314301492583;0.1300323781619599;5.953765205779504e-05;1.0000843025663841;0.0;6.848189338738838e-05;-8.674373162402527e-05;-0.005313147336269974;0.037566831913125036
0.9199707508087158;-0.13057706400743896;-0.06978820141481733;0.7506649207206397;0.005684477265493686;0.12340318112386878;-0.007747359540511965;-0.0014275970728231625;9.497982731764693e-06;-0.9772111296568579;1.1051817894313725;-0.22796809512121996;9.527892906483729e-06;-0.0014985630915726525;9.507952790004623e-06;-0.9772179117634674;1.1051846527325464;-0.2279708698733622;-9.517922848244122e-06;5.369003973063058e-05;0.09999386399545936;0.22997745018331314;0.12997101811655346;2.8857629354561712e-05;0.99999141879765;9.130919118318449e-06;-3.195821691411457e-05;3.195821691411457e-05;0.2299314301492583;0.1300323781619599;5.953765205779504e-05;1.0000843025663841;0.0;6.848189338738838e-05;-8.674373162402527e-05;-0.005313147336269974;0.037566831913125036
0.9400582313537598;-0.1305224759088707;-0.06979842116794355;0.7506734640222225;0.005740283372074546;0.12347073847190114;-0.0077429363059152555;-0.0014275970728231625;9.497982731764693e-06;-0.9772111296568579;1.1051817894313725;-0.22796809512121996;9.527892906483729e-06;-0.0014985630915726525;9.507952790004623e-06;-0.9772179117634674;1.1051846527325464;-0.2279708698733622;-9.517922848244122e-06;5.369003973063058e-05;0.09999386399545936;0.22997745018331314;0.12998635812790504;2.8857629354561712e-05;0.99999141879765;9.130919118318449e-06;-3.6523676473273796e-05;3.6523676473273796e-05;0.2299314301492583;0.1300323781619599;5.953765205779504e-05;1.0000843025663841;0.0;3.6523676473273796e-05;-5.4785514709910704e-05;-0.005313147336269974;0.037566831913125036
0.9598875045776367;-0.1305765907372259;-0.0698868359481423;0.7506558266040722;0.0058277673126853665;0.12339110931586257;-0.007637775930193239;-0.0014275970728231625;9.497982731764693e-06;-0.9772111296568579;1.1051817894313725;-0.22796809512121996;9.527892906483729e-06;-0.0014985630915726525;9.507952790004623e-06;-0.9772179117634674;1.1051846527325464;-0.2279708698733622;-9.517922848244122e-06;5.369003973063058e-05;0.09999386399545936;0.22997745018331314;0.12998635812790504;2.8857629354561712e-05;0.99999141879765;9.130919118318449e-06;-3.6523676473273796e-05;3.6523676473273796e-05;0.2299314301492583;0.1300323781619599;5.953765205779504e-05;1.0000843025663841;0.0;2.2827297795796123e-05;-4.108913603243303e-05;-0.005313147336269974;0.037566831913125036
0.979999303817749;-0.1305537960085751;-0.06982617542802992;0.7506651808251532;0.005835767240527549;0.12342029099049784;-0.007718749377368876;-0.0014391023019498005;9.497982731764693e-06;-0.9772111296568579;1.1051817894313725;-0.22796809512121996;9.527892906483729e-06;-0.0014985630915726525;9.507952790004623e-06;-0.9772179117634674;1.1051846527325464;-0.2279708698733622;-9.517922848244122e-06;5.369003973063058e-05;0.09999386399545936;0.22997745018331314;0.12998635812790504;2.8857629354561712e-05;0.99999141879765;9.130919118318449e-06;-3.6523676473273796e-05;3.6523676473273796e-05;0.2299314301492583;0.1300323781619599;5.953765205779504e-05;1.0000843025663841;0.0;6.848189338738838e-05;-8.674373162402527e-05;-0.005313147336269974;0.03910272165488005
0.9998905658721924;-0.13056644477190862;-0.06989113897027914;0.7506559126770582;0.005958014605988759;0.12339259199482089;-0.007637645835051518;-0.0014851232184563527;9.497982731764693e-06;-0.9772111296568579;1.1051817894313725;-0.22796809512121996;9.527892906483729e-06;-0.0014985630915726525;9.507952790004623e-06;-0.9772179117634674;1.1051846527325464;-0.2279708698733622;-9.517922848244122e-06;5.369003973063058e-05;0.09999386399545936;0.22997745018331314;0.12998635812790504;2.8857629354561712e-05;0.99999141879765;9.130919118318449e-06;-3.195821691411457e-05;3.195821691411457e-05;0.2299314301492583;0.1300323781619599;5.953765205779504e-05;1.0000689625550323;0.0;5.4785514709910704e-05;-7.304735294654759e-05;-0.005313147336269974;0.03910272165488005
1.0198781490325928;-0.1304115910062841;-0.06997657169758276;0.7506735938680095;0.006020394573363149;0.12359385646582553;-0.0075128078924997874;-0.001542649364089543;9.497982731764693e-06;-0.9772111296568579;1.1051817894313725;-0.22796809512121996;9.527892906483729e-06;-0.0014985630915726525;9.507952790004623e-06;-0.9772179117634674;1.1051846527325464;-0.2279708698733622;-9.517922848244122e-06;5.369003973063058e-05;0.09999386399545936;0.22997745018331314;0.12998635812790504;2.8857629354561712e-05;0.99999141879765;0.0;-3.6523676473273796e-05;3.6523676473273796e-05;0.2299314301492583;0.1300323781619599;5.953765205779504e-05;1.0000689625550323;0.0;2.2827297795796123e-05;-4.108913603243303e-05;-0.005313147336269974;0.037566831913125036
1.0399186611175537;-0.13043500533604593;-0.0699727180503561;0.7506698850344814;0.006225306685827198;0.12354333442267935;-0.007555081064657281;-0.001542649364089543;9.497982731764693e-06;-0.9772111296568579;1.1051817894313725;-0.22796809512121996;9.527892906483729e-06;-0.0014985630915726525;9.507952790004623e-06;-0.9772179117634674;1.1051846527325464;-0.2279708698733622;-9.517922848244122e-06;5.369003973063058e-05;0.09999386399545936;0.22997745018331314;0.12998635812790504;2.8857629354561712e-05;0.99999141879765;9.130919118318449e-06;-3.6523676473273796e-05;3.6523676473273796e-05;0.2299314301492583;0.1300323781619599;5.953765205779504e-05;1.0000689625550323;0.0;6.848189338738838e-05;-8.674373162402527e-05;-0.005313147336269974;0.037566831913125036
1.059990644454956;-0.13040482749635127;-0.07002550536238042;0.750670205716492;0.006321920430861515;0.1235748185870959;-0.007499740824554841;-0.001542649364089543;9.497982731764693e-06;-0.9772111296568579;1.1051817894313725;-0.22796809512121996;9.527892906483729e-06;-0.0014985630915726525;9.507952790004623e-06;-0.9772179117634674;1.1051846527325464;-0.2279708698733622;-9.517922848244122e-06;5.369003973063058e-05;0.09999386399545936;0.22997745018331314;0.12998635812790504;2.8857629354561712e-05;1.0000067588090016;9.130919118318449e-06;-3.6523676473273796e-05;3.6523676473273796e-05;0.2299314301492583;0.1300323781619599;5.953765205779504e-05;1.0000689625550323;0.0;6.391643382822916e-05;-8.217827206486605e-05;-0.005313147336269974;0.037566831913125036
1.0798959732055664;-0.1304811495314502;-0.07003958709480156;0.7506556294617336;0.0063670163059825775;0.12346899131095018;-0.007489182803302016;-0.001542649364089543;9.497982731764693e-06;-0.9772111296568579;1.1051817894313725;-0.22796809512121996;9.527892906483729e-06;-0.0014985630915726525;9.507952790004623e-06;-0.9772179117634674;1.1051846527325464;-0.2279708698733622;-9.517922848244122e-06;5.369003973063058e-05;0.09999386399545936;0.22997745018331314;0.12998635812790504;2.8857629354561712e-05;1.0000067588090016;9.130919118318449e-06;-3.195821691411457e-05;3.195821691411457e-05;0.2299314301492583;0.1300323781619599;5.953765205779504e-05;1.0000689625550323;0.0;3.195821691411457e-05;-5.0220055150751476e-05;-0.005313147336269974;0.037566831913125036
1.0998663902282715;-0.13054058435223545;-0.07011104897411989;0.7506386246622112;0.006333835551590849;0.12339344648797686;-0.007385688384905354;-0.001542649364089543;9.497982731764693e-06;-0.9772111296568579;1.1051817894313725;-0.22796809512121996;9.527892906483729e-06;-0.0014985630915726525;9.507952790004623e-06;-0.9772179117634674;1.1051846527325464;-0.2279708698733622;-9.517922848244122e-06;5.369003973063058e-05;0.09999386399545936;0.22997745018331314;0.12998635812790504;2.8857629354561712e-05;1.0000067588090016;9.130919118318449e-06;-3.6523676473273796e-05;3.6523676473273796e-05;0.2299314301492583;0.1300323781619599;5.953765205779504e-05;1.0000689625550323;0.0;5.4785514709910704e-05;-7.304735294654759e-05;-0.005313147336269974;0.037566831913125036
1.1198928356170654;-0.13045457221926335;-0.07008529243248217;0.7506559828295468;0.0063412513476104534;0.12350715305273527;-0.007421612560338546;-0.001542649364089543;9.497982731764693e-06;-0.9772111296568579;1.1051817894313725;-0.22796809512121996;9.527892906483729e-06;-0.0014985630915726525;9.507952790004623e-06;-0.9772179117634674;1.1051846527325464;-0.2279708698733622;-9.517922848244122e-06;5.369003973063058e-05;0.09999386399545936;0.22997745018331314;0.13000169813925666;2.8857629354561712e-05;1.0000067588090016;9.130919118318449e-06;-3.6523676473273796e-05;3.6523676473273796e-05;0.2299314301492583;0.1300323781619599;5.953765205779504e-05;1.0000689625550323;0.0;6.848189338738838e-05;-8.674373162402527e-05;-0.005313147336269974;0.037566831913125036
1.1398496627807617;-0.13033851371254934;-0.07017657315788643;0.750667615265951;0.006315174306071907;0.12366488639242658;-0.007290679295639359;-0.001542649364089543;9.497982731764693e-06;-0.9772111296568579;1.1051817894313725;-0.22796809512121996;9.527892906483729e-06;-0.0014985630915726525;9.507952790004623e-06;-0.9772179117634674;1.1051846527325464;-0.2279708698733622;-9.517922848244122e-06;5.369003973063058e-05;0.09999386399545936;0.22997745018331314;0.13000169813925666;2.8857629354561712e-05;1.0000067588090016;9.130919118318449e-06;-3.6523676473273796e-05;3.6523676473273796e-05;0.2299314301492583;0.1300323781619599;5.953765205779504e-05;1.0000689625550323;0.0;4.108913603243303e-05;-5.935097426906993e-05;-0.005313147336269974;0.037566831913125036
1.160017490386963;-0.13036951859838847;-0.07017655611914274;0.750662232816952;0.006295901508269976;0.12362540081008551;-0.007287512151073247;-0.001542649364089543;9.497982731764693e-06;-0.9772111296568579;1.1051817894313725;-0.22796809512121996;9.527892906483729e-06;-0.0014985630915726525;9.507952790004623e-06;-0.9772179117634674;1.1051846527325464;-0.2279708698733622;-9.517922848244122e-06;5.369003973063058e-05;0.09999386399545936;0.22997745018331314;0.13007839819601466;2.8857629354561712e-05;1.0000067588090016;9.130919118318449e-06;-2.739275735495535e-05;2.739275735495535e-05;0.2299314301492583;0.1300323781619599;5.953765205779504e-05;1.0000689625550323;0.0;1.8261838236636895e-05;-3.6523676473273796e-05;-0.005313147336269974;0.037566831913125036
1.1799964904785156;-0.1304885346044851;-0.07020666939468286;0.7506387374065704;0.006274176109184804;0.12346911233149208;-0.00724331930580471;-0.001542649364089543;9.497982731764693e-06;-0.9772111296568579;1.1051817894313725;-0.22796809512121996;9.527892906483729e-06;-0.0014985630915726525;9.507952790004623e-06;-0.9772179117634674;1.1051846527325464;-0.2279708698733622;-9.517922848244122e-06;5.369003973063058e-05;0.09999386399545936;0.22997745018331314;0.13017043826412433;2.8857629354561712e-05;1.0000067588090016;9.130919118318449e-06;-3.6523676473273796e-05;3.6523676473273796e-05;0.2299314301492583;0.1300323781619599;5.953765205779504e-05;1.0000689625550323;0.0;6.848189338738838e-05;-8.674373162402527e-05;-0.005313147336269974;0.037566831913125036
1.1999194622039795;-0.13048238300204945;-0.07026594350229858;0.7506347718025295;0.006234629769290685;0.12348140271865582;-0.007161853447309214;-0.001519638905836267;9.497982731764693e-06;-0.9772111296568579;1.1051817894313725;-0.22796809512121996;9.527892906483729e-06;-0.0014985630915726525;9.507952790004623e-06;-0.9772179117634674;1.1051846527325464;-0.2279708698733622;-9.517922848244122e-06;5.369003973063058e-05;0.09999386399545936;0.22997745018331314;0.13020111828682754;2.8857629354561712e-05;1.0000067588090016;9.130919118318449e-06;-3.6523676473273796e-05;3.6523676473273796e-05;0.2299314301492583;0.1300323781619599;4.4197640706178376e-05;1.0000689625550323;0.0;5.935097426906992e-05;-7.761281250570684e-05;-0.005313147336269974;0.037566831913125036
1.2200055122375488;-0.1304579680239813;-0.07024884792250019;0.750642149298458;0.00616270138204542;0.12352037719407603;-0.0071932459625152064;-0.0014506075310764385;9.497982731764693e-06;-0.9772111296568579;1.1051817894313725;-0.22796809512121996;9.527892906483729e-06;-0.0014985630915726525;9.507952790004623e-06;-0.9772179117634674;1.1051846527325464;-0.2279708698733622;-9.517922848244122e-06;6.136004540643197e-05;0.09998619398978356;0.22997745018331314;0.13020111828682754;2.8857629354561712e-05;1.0000067588090016;9.130919118318449e-06;-3.6523676473273796e-05;3.6523676473273796e-05;0.2299314301492583;0.13001703815060828;4.4197640706178376e-05;1.0000689625550323;0.0;2.739275735495535e-05;-4.565459559159226e-05;-0.005313147336269974;0.037566831913125036
1.2398858070373535;-0.13042931425586446;-0.0701990308516541;0.7506520446789232;0.006057236547458539;0.12356810953924964;-0.007245931668714321;-0.0014391023019498005;9.497982731764693e-06;-0.9772111296568579;1.1051817894313725;-0.22796809512121996;9.527892906483729e-06;-0.0014985630915726525;9.507952790004623e-06;-0.9772179117634674;1.1051846527325464;-0.2279708698733622;-9.517922848244122e-06;6.136004540643197e-05;0.09998619398978356;0.22997745018331314;0.13020111828682754;2.8857629354561712e-05;1.0000067588090016;9.130919118318449e-06;-2.739275735495535e-05;2.739275735495535e-05;0.2299314301492583;0.12998635812790504;4.4197640706178376e-05;1.0000689625550323;0.0;6.848189338738838e-05;-8.674373162402527e-05;-0.005313147336269974;0.037566831913125036
1.2599952220916748;-0.13044063908932124;-0.07013048945280997;0.7506564835219194;0.005640225203978423;0.12359189181772012;-0.007265200844798745;-0.0014391023019498005;9.497982731764693e-06;-0.9772111296568579;1.1051817894313725;-0.22796809512121996;9.527892906483729e-06;-0.0014985630915726525;9.507952790004623e-06;-0.9772179117634674;1.1051846527325464;-0.2279708698733622;-9.517922848244122e-06;6.136004540643197e-05;0.09998619398978356;0.22997745018331314;0.13020111828682754;2.8857629354561712e-05;1.0000067588090016;9.130919118318449e-06;-3.6523676473273796e-05;3.6523676473273796e-05;0.2299314301492583;0.12990965807114696;4.4197640706178376e-05;1.0000689625550323;0.0;6.848189338738838e-05;-8.674373162402527e-05;-0.005313147336269974;0.037566831913125036
1.2798867225646973;-0.1303945234194285;-0.07012235865622073;0.7506652550965198;0.00559091481141537;0.1236579212434719;-0.00726715123086986;-0.0014391023019498005;9.497982731764693e-06;-0.9772111296568579;1.1051817894313725;-0.22796809512121996;9.527892906483729e-06;-0.0014985630915726525;9.507952790004623e-06;-0.9772179117634674;1.1051846527325464;-0.2279708698733622;-9.517922848244122e-06;6.136004540643197e-05;0.09998619398978356;0.22997745018331314;0.13020111828682754;2.8857629354561712e-05;1.0000067588090016;9.130919118318449e-06;-3.6523676473273796e-05;3.6523676473273796e-05;0.2299314301492583;0.12989431805979534;4.4197640706178376e-05;1.0000689625550323;0.0;3.6523676473273796e-05;-5.4785514709910704e-05;-0.005313147336269974;0.037566831913125036
1.2998530864715576;-0.13041586286750254;-0.07006839145449192;0.7506665873488173;0.005713034639181204;0.12361752216460584;-0.0073632813530597335;-0.0014391023019498005;9.497982731764693e-06;-0.9772111296568579;1.1051817894313725;-0.22796809512121996;9.527892906483729e-06;-0.0014985630915726525;9.507952790004623e-06;-0.9772179117634674;1.1051846527325464;-0.2279708698733622;-9.517922848244122e-06;6.136004540643197e-05;0.09998619398978356;0.22999279019466476;0.13020111828682754;2.8857629354561712e-05;1.0000067588090016;9.130919118318449e-06;-3.6523676473273796e-05;3.6523676473273796e-05;0.2299314301492583;0.12989431805979534;4.4197640706178376e-05;1.0000689625550323;0.0;4.108913603243303e-05;-5.935097426906993e-05;-0.005313147336269974;0.037566831913125036
1.3199083805084229;-0.1304578013488465;-0.07007240581565127;0.7506589253055254;0.005752205613906971;0.12355798539172835;-0.007365135213062469;-0.0014391023019498005;9.497982731764693e-06;-0.9772111296568579;1.1051817894313725;-0.22796809512121996;9.527892906483729e-06;-0.0014985630915726525;9.507952790004623e-06;-0.9772179117634674;1.1051846527325464;-0.2279708698733622;-9.517922848244122e-06;6.136004540643197e-05;0.09998619398978356;0.22999279019466476;0.13020111828682754;2.8857629354561712e-05;1.0000067588090016;9.130919118318449e-06;-3.6523676473273796e-05;3.6523676473273796e-05;0.2299314301492583;0.12989431805979534;4.4197640706178376e-05;1.0000689625550323;0.0;6.848189338738838e-05;-8.674373162402527e-05;-0.005313147336269974;0.03910272165488005
1.3400986194610596;-0.130525294802365;-0.07002183400163065;0.7506519115477016;0.005812924009288167;0.12346193980160514;-0.0074459640029556394;-0.0014391023019498005;9.497982731764693e-06;-0.9772111296568579;1.1051817894313725;-0.22796809512121996;9.527892906483729e-06;-0.0014985630915726525;9.507952790004623e-06;-0.9772179117634674;1.1051846527325464;-0.2279708698733622;-9.517922848244122e-06;6.136004540643197e-05;0.09998619398978356;0.22999279019466476;0.13020111828682754;2.8857629354561712e-05;1.0000067588090016;9.130919118318449e-06;-3.6523676473273796e-05;3.6523676473273796e-05;0.2299314301492583;0.12989431805979534;4.4197640706178376e-05;1.0000689625550323;0.0;4.565459559159225e-05;-6.391643382822915e-05;-0.005313147336269974;0.037566831913125036
1.3600022792816162;-0.13062340113267246;-0.06990306495844625;0.7506456600452315;0.005831643969886929;0.12332858417427287;-0.007609559630707914;-0.0014506075310764385;9.497982731764693e-06;-0.9772111296568579;1.1051817894313725;-0.22796809512121996;9.527892906483729e-06;-0.0014985630915726525;9.507952790004623e-06;-0.9772179117634674;1.1051846527325464;-0.2279708698733622;-9.517922848244122e-06;6.136004540643197e-05;0.09998619398978356;0.22999279019466476;0.13020111828682754;2.8857629354561712e-05;1.0000067588090016;9.130919118318449e-06;-3.6523676473273796e-05;3.6523676473273796e-05;0.2299314301492583;0.12989431805979534;2.8857629354561712e-05;1.0000689625550323;0.0;2.2827297795796123e-05;-4.108913603243303e-05;-0.005313147336269974;0.037566831913125036
1.3799324035644531;-0.13066409487768713;-0.06994575021387488;0.7506330675276772;0.005962843653749968;0.12326257156386962;-0.007553852413777263;-0.001519638905836267;9.497982731764693e-06;-0.9772111296568579;1.1051817894313725;-0.22796809512121996;9.527892906483729e-06;-0.0014985630915726525;9.507952790004623e-06;-0.9772179117634674;1.1051846527325464;-0.2279708698733622;-9.517922848244122e-06;5.369003973063058e-05;0.09997852398410777;0.22999279019466476;0.13020111828682754;2.8857629354561712e-05;1.0000067588090016;9.130919118318449e-06;-3.6523676473273796e-05;3.6523676473273796e-05;0.2299314301492583;0.12989431805979534;2.8857629354561712e-05;1.0000689625550323;0.0;6.848189338738838e-05;-8.674373162402527e-05;-0.005313147336269974;0.037566831913125036
1.3998973369598389;-0.1306026652581542;-0.06996567917578275;0.7506413895802633;0.006142972785823387;0.12332767321792387;-0.007551368250266458;-0.001542649364089543;9.497982731764693e-06;-0.9772111296568579;1.1051817894313725;-0.22796809512121996;9.527892906483729e-06;-0.0014985630915726525;9.507952790004623e-06;-0.9772179117634674;1.1051846527325464;-0.2279708698733622;-9.517922848244122e-06;5.369003973063058e-05;0.09997852398410777;0.22999279019466476;0.13020111828682754;2.8857629354561712e-05;1.0000067588090016;9.130919118318449e-06;-3.6523676473273796e-05;3.6523676473273796e-05;0.2299314301492583;0.12989431805979534;2.8857629354561712e-05;1.0000689625550323;0.0;6.391643382822916e-05;-8.217827206486605e-05;-0.005313147336269974;0.03910272165488005
1.419844627380371;-0.13062550291123923;-0.06991812749155091;0.7506418464376414;0.006105582872693813;0.12330041632345919;-0.007610080800044696;-0.001542649364089543;9.497982731764693e-06;-0.9772111296568579;1.1051817894313725;-0.22796809512121996;9.527892906483729e-06;-0.0014985630915726525;9.507952790004623e-06;-0.9772179117634674;1.1051846527325464;-0.2279708698733622;-9.517922848244122e-06;5.369003973063058e-05;0.09997852398410777;0.22999279019466476;0.13020111828682754;2.8857629354561712e-05;1.0000067588090016;9.130919118318449e-06;-3.6523676473273796e-05;3.6523676473273796e-05;0.2299314301492583;0.12989431805979534;2.8857629354561712e-05;1.0000689625550323;0.0;3.195821691411457e-05;-5.0220055150751476e-05;-0.005313147336269974;0.037566831913125036
1.439845085144043;-0.13069904370990842;-0.06980590591622958;0.7506394898075777;0.006091348400637862;0.1232029492017751;-0.007762107917354549;-0.001542649364089543;9.497982731764693e-06;-0.9772111296568579;1.1051817894313725;-0.22796809512121996;9.527892906483729e-06;-0.0014985630915726525;9.507952790004623e-06;-0.9772179117634674;1.1051846527325464;-0.2279708698733622;-9.517922848244122e-06;5.369003973063058e-05;0.09997852398410777;0.22999279019466476;0.13020111828682754;2.8857629354561712e-05;1.0000067588090016;9.130919118318449e-06;-3.6523676473273796e-05;3.6523676473273796e-05;0.2299314301492583;0.12989431805979534;2.8857629354561712e-05;1.000053622543681;0.0;6.848189338738838e-05;-8.674373162402527e-05;-0.005313147336269974;0.037566831913125036
1.45991849899292;-0.1306017987815589;-0.06990609415776108;0.7506470917419703;0.006112723703158017;0.12333123530220017;-0.007627676246727371;-0.001542649364089543;9.497982731764693e-06;-0.9772111296568579;1.1051817894313725;-0.22796809512121996;9.527892906483729e-06;-0.0014985630915726525;9.507952790004623e-06;-0.9772179117634674;1.1051846527325464;-0.2279708698733622;-9.517922848244122e-06;4.6020034054822245e-05;0.09997085397843193;0.22999279019466476;0.13020111828682754;2.8857629354561712e-05;1.0000067588090016;9.130919118318449e-06;-3.6523676473273796e-05;3.6523676473273796e-05;0.2299314301492583;0.12989431805979534;1.3517618002945042e-05;0.999915562441516;0.0;6.848189338738838e-05;-8.674373162402527e-05;-0.005313147336269974;0.037566831913125036
1.4798948764801025;-0.1305945610221843;-0.06992379762277187;0.7506467020799351;0.006178227185621999;0.12333484382560886;-0.007615101244436791;-0.001542649364089543;9.497982731764693e-06;-0.9772111296568579;1.1051817894313725;-0.22796809512121996;9.527892906483729e-06;-0.0014985630915726525;9.507952790004623e-06;-0.9772179117634674;1.1051846527325464;-0.2279708698733622;-9.517922848244122e-06;3.835002837902085e-05;0.09996318397275614;0.22999279019466476;0.13020111828682754;2.8857629354561712e-05;1.0000067588090016;9.130919118318449e-06;-3.6523676473273796e-05;3.6523676473273796e-05;0.2299314301492583;0.12989431805979534;-4.784242740352162e-05;0.9997928423507032;0.0;3.6523676473273796e-05;-5.4785514709910704e-05;-0.005313147336269974;0.037566831913125036
1.4999027252197266;-0.13058979631043782;-0.06992186471339351;0.7506477110606883;0.0060796543959206455;0.12335045490164466;-0.007599993143142999;-0.001542649364089543;9.497982731764693e-06;-0.9772111296568579;1.1051817894313725;-0.22796809512121996;9.527892906483729e-06;-0.0014985630915726525;9.507952790004623e-06;-0.9772179117634674;1.1051846527325464;-0.2279708698733622;-9.517922848244122e-06;2.3010017027411123e-05;0.09994784396140452;0.22999279019466476;0.13020111828682754;2.8857629354561712e-05;1.0000067588090016;9.130919118318449e-06;-3.6523676473273796e-05;3.6523676473273796e-05;0.2299314301492583;0.12989431805979534;-6.318243875513829e-05;0.9997775023393516;0.0;2.2827297795796123e-05;-4.108913603243303e-05;-0.005313147336269974;0.037566831913125036
1.5199968814849854;-0.1304860463935732;-0.06987103983251161;0.7506704854164362;0.005966086638448264;0.1234989781165974;-0.007648463737714297;-0.001542649364089543;9.497982731764693e-06;-0.9772111296568579;1.1051817894313725;-0.22796809512121996;9.527892906483729e-06;-0.0014985630915726525;9.507952790004623e-06;-0.9772179117634674;1.1051846527325464;-0.2279708698733622;-9.517922848244122e-06;-2.3010017027411123e-05;0.09990182392734973;0.22999279019466476;0.13020111828682754;2.8857629354561712e-05;1.0000067588090016;9.130919118318449e-06;-3.6523676473273796e-05;3.6523676473273796e-05;0.2299314301492583;0.12989431805979534;-6.318243875513829e-05;0.9997775023393516;0.0;6.848189338738838e-05;-8.674373162402527e-05;-0.005313147336269974;0.037566831913125036
1.5398883819580078;-0.1305394073677617;-0.06986293712948549;0.750661962087973;0.005828041035854947;0.12344081497641478;-0.0076352150127801865;-0.001542649364089543;9.497982731764693e-06;-0.9772111296568579;1.1051817894313725;-0.22796809512121996;9.527892906483729e-06;-0.0014985630915726525;9.507952790004623e-06;-0.9772179117634674;1.1051846527325464;-0.2279708698733622;-9.517922848244122e-06;-5.369003973063058e-05;0.09987114390464648;0.22999279019466476;0.13020111828682754;2.8857629354561712e-05;1.0000067588090016;9.130919118318449e-06;-3.195821691411457e-05;3.195821691411457e-05;0.2299314301492583;0.12989431805979534;-6.318243875513829e-05;0.999762162328;0.0;5.4785514709910704e-05;-7.304735294654759e-05;-0.005313147336269974;0.037566831913125036
1.559959888458252;-0.1305949862173404;-0.06997896807398045;0.7506417424842651;0.005430805906983502;0.12340509044423587;-0.007408575545590019;-0.0015311441349629051;9.497982731764693e-06;-0.9772111296568579;1.1051817894313725;-0.22796809512121996;9.527892906483729e-06;-0.0014985630915726525;9.507952790004623e-06;-0.9772179117634674;1.1051846527325464;-0.2279708698733622;-9.517922848244122e-06;-6.136004540643891e-05;0.09986347389897067;0.22999279019466476;0.13020111828682754;2.8857629354561712e-05;1.0000067588090016;9.130919118318449e-06;-3.6523676473273796e-05;3.6523676473273796e-05;0.2299314301492583;0.12989431805979534;-6.318243875513829e-05;0.999762162328;0.0;2.2827297795796123e-05;-4.108913603243303e-05;-0.005313147336269974;0.037566831913125036
1.5798754692077637;-0.13056261088542545;-0.07002258272107113;0.7506435627360356;0.005047894704625303;0.12348470165024762;-0.007283213039994497;-0.001519638905836267;9.497982731764693e-06;-0.9772111296568579;1.1051817894313725;-0.22796809512121996;9.527892906483729e-06;-0.0014985630915726525;9.507952790004623e-06;-0.9772179117634674;1.1051846527325464;-0.2279708698733622;-9.517922848244122e-06;-6.136004540643891e-05;0.09986347389897067;0.22999279019466476;0.13020111828682754;2.8857629354561712e-05;1.0000067588090016;9.130919118318449e-06;-3.6523676473273796e-05;3.6523676473273796e-05;0.2299314301492583;0.12989431805979534;-6.318243875513829e-05;0.999762162328;0.0;6.848189338738838e-05;-8.674373162402527e-05;-0.005313147336269974;0.037566831913125036
1.5999500751495361;-0.13065113604097933;-0.07002523116049775;0.7506297021718065;0.0049441929566090715;0.12337631549917416;-0.007286125297930955;-0.0014391023019498005;9.497982731764693e-06;-0.9772111296568579;1.1051817894313725;-0.22796809512121996;9.527892906483729e-06;-0.0014985630915726525;9.507952790004623e-06;-0.9772179117634674;1.1051846527325464;-0.2279708698733622;-9.517922848244122e-06;-6.136004540643891e-05;0.09986347389897067;0.22999279019466476;0.13020111828682754;2.8857629354561712e-05;1.0000067588090016;9.130919118318449e-06;-3.6523676473273796e-05;3.6523676473273796e-05;0.2299314301492583;0.12989431805979534;-6.318243875513829e-05;0.999762162328;0.0;6.391643382822916e-05;-8.217827206486605e-05;-0.005313147336269974;0.037566831913125036
1.6198999881744385;-0.13060479305473163;-0.07002684663517535;0.7506376162382742;0.004993590247348378;0.12343340488432382;-0.007292470011007389;-0.0014391023019498005;9.497982731764693e-06;-0.9772111296568579;1.1051817894313725;-0.22796809512121996;9.527892906483729e-06;-0.0014985630915726525;9.507952790004623e-06;-0.9772179117634674;1.1051846527325464;-0.2279708698733622;-9.517922848244122e-06;-6.136004540643891e-05;0.09986347389897067;0.22999279019466476;0.13020111828682754;2.8857629354561712e-05;1.0000067588090016;9.130919118318449e-06;-3.195821691411457e-05;3.195821691411457e-05;0.2299314301492583;0.12989431805979534;-6.318243875513829e-05;0.999762162328;0.0;3.6523676473273796e-05;-5.4785514709910704e-05;-0.005313147336269974;0.03910272165488005
1.6400043964385986;-0.13056653266270912;-0.06991917480722952;0.7506543090352097;0.005103064995717457;0.1234730892417311;-0.007459607839700607;-0.0014391023019498005;9.497982731764693e-06;-0.9772111296568579;1.1051817894313725;-0.22796809512121996;9.527892906483729e-06;-0.0014985630915726525;9.507952790004623e-06;-0.9772179117634674;1.1051846527325464;-0.2279708698733622;-9.517922848244122e-06;-6.136004540643891e-05;0.09986347389897067;0.22999279019466476;0.13020111828682754;2.8857629354561712e-05;1.0000067588090016;9.130919118318449e-06;-3.6523676473273796e-05;3.6523676473273796e-05;0.2299314301492583;0.12989431805979534;-6.318243875513829e-05;0.999762162328;0.0;5.4785514709910704e-05;-7.304735294654759e-05;-0.005313147336269974;0.03910272165488005
1.6598994731903076;-0.13065576164019782;-0.0699685149575193;0.7506341858690381;0.005109218724682415;0.1233540668261248;-0.007393640350237537;-0.0014391023019498005;9.497982731764693e-06;-0.9772111296568579;1.1051817894313725;-0.22796809512121996;9.527892906483729e-06;-0.0014985630915726525;9.507952790004623e-06;-0.9772179117634674;1.1051846527325464;-0.2279708698733622;-9.517922848244122e-06;-6.136004540643891e-05;0.09986347389897067;0.22999279019466476;0.13020111828682754;2.8857629354561712e-05;1.0000067588090016;9.130919118318449e-06;-3.6523676473273796e-05;3.6523676473273796e-05;0.2299314301492583;0.12989431805979534;-6.318243875513829e-05;0.999762162328;0.0;6.848189338738838e-05;-8.674373162402527e-05;-0.005313147336269974;0.037566831913125036
1.6799774169921875;-0.13068361745116946;-0.07002285604964138;0.7506242694523952;0.005133558569197889;0.12331513387249483;-0.007323651354814754;-0.0014391023019498005;9.497982731764693e-06;-0.9772111296568579;1.1051817894313725;-0.22796809512121996;9.527892906483729e-06;-0.0014985630915726525;9.507952790004623e-06;-0.9772179117634674;1.1051846527325464;-0.2279708698733622;-9.517922848244122e-06;-6.136004540643891e-05;0.09986347389897067;0.22999279019466476;0.13020111828682754;2.8857629354561712e-05;1.0000220988203532;9.130919118318449e-06;-3.6523676473273796e-05;3.6523676473273796e-05;0.2299314301492583;0.12989431805979534;-6.318243875513829e-05;0.9997468223166484;0.0;4.108913603243303e-05;-5.935097426906993e-05;-0.005313147336269974;0.037566831913125036
1.6998794078826904;-0.13061443599406256;-0.07011141391656847;0.7506280442929021;0.005275627759422546;0.12339464820206066;-0.007227186301154246;-0.0014391023019498005;9.497982731764693e-06;-0.9772111296568579;1.1051817894313725;-0.22796809512121996;9.527892906483729e-06;-0.0014985630915726525;9.507952790004623e-06;-0.9772179117634674;1.1051846527325464;-0.2279708698733622;-9.517922848244122e-06;-6.136004540643891e-05;0.09986347389897067;0.22999279019466476;0.13020111828682754;2.8857629354561712e-05;1.0000220988203532;9.130919118318449e-06;-3.195821691411457e-05;3.195821691411457e-05;0.2299314301492583;0.12989431805979534;-6.318243875513829e-05;0.9997468223166484;0.0;1.8261838236636895e-05;-3.6523676473273796e-05;-0.005313147336269974;0.037566831913125036
1.7198576927185059;-0.13060270433488042;-0.07004869350153384;0.7506359412455269;0.00533390025700934;0.12340423639875547;-0.007323631835343218;-0.0014391023019498005;9.497982731764693e-06;-0.9772111296568579;1.1051817894313725;-0.22796809512121996;9.527892906483729e-06;-0.0014985630915726525;9.507952790004623e-06;-0.9772179117634674;1.1051846527325464;-0.2279708698733622;-9.517922848244122e-06;-6.136004540643891e-05;0.09986347389897067;0.22999279019466476;0.13020111828682754;2.8857629354561712e-05;1.0000220988203532;9.130919118318449e-06;-3.6523676473273796e-05;3.6523676473273796e-05;0.2299314301492583;0.12989431805979534;-6.318243875513829e-05;0.9997468223166484;0.0;6.848189338738838e-05;-8.674373162402527e-05;-0.005313147336269974;0.03910272165488005
1.7399170398712158;-0.13063131872065456;-0.07003280786744456;0.7506314218279636;0.0053764512920410155;0.1233621147185914;-0.007339244728865402;-0.0014851232184563527;9.497982731764693e-06;-0.9772111296568579;1.1051817894313725;-0.22796809512121996;9.527892906483729e-06;-0.0014985630915726525;9.507952790004623e-06;-0.9772179117634674;1.1051846527325464;-0.2279708698733622;-9.517922848244122e-06;-6.136004540643891e-05;0.09986347389897067;0.22999279019466476;0.13020111828682754;2.8857629354561712e-05;1.0000220988203532;9.130919118318449e-06;-3.6523676473273796e-05;3.6523676473273796e-05;0.2299314301492583;0.12989431805979534;-6.318243875513829e-05;0.9997468223166484;0.0;5.935097426906992e-05;-7.761281250570684e-05;-0.005313147336269974;0.037566831913125036
1.7599592208862305;-0.13063998699708956;-0.07000324915768004;0.7506313922897299;0.005495761270134086;0.1233392495271779;-0.007383762159840152;-0.001542649364089543;9.497982731764693e-06;-0.9772111296568579;1.1051817894313725;-0.22796809512121996;9.527892906483729e-06;-0.0014985630915726525;9.507952790004623e-06;-0.9772179117634674;1.1051846527325464;-0.2279708698733622;-9.517922848244122e-06;-6.136004540643891e-05;0.09986347389897067;0.22999279019466476;0.13020111828682754;2.8857629354561712e-05;1.0000220988203532;9.130919118318449e-06;-3.6523676473273796e-05;3.6523676473273796e-05;0.2299314301492583;0.12989431805979534;-6.318243875513829e-05;0.9997468223166484;0.0;2.739275735495535e-05;-4.565459559159226e-05;-0.005313147336269974;0.03910272165488005
1.7798738479614258;-0.13067462468700206;-0.06998177587448708;0.750627365404709;0.005590357507808857;0.12328400425715284;-0.007430497364759775;-0.001542649364089543;9.497982731764693e-06;-0.9772111296568579;1.1051817894313725;-0.22796809512121996;9.527892906483729e-06;-0.0014985630915726525;9.507952790004623e-06;-0.9772179117634674;1.1051846527325464;-0.2279708698733622;-9.517922848244122e-06;-6.136004540643891e-05;0.09986347389897067;0.22999279019466476;0.13020111828682754;2.8857629354561712e-05;1.0000220988203532;9.130919118318449e-06;-2.739275735495535e-05;2.739275735495535e-05;0.2299314301492583;0.12989431805979534;-6.318243875513829e-05;0.9997468223166484;0.0;6.848189338738838e-05;-8.674373162402527e-05;-0.005313147336269974;0.037566831913125036
1.799882411956787;-0.13073268941724253;-0.07010138174543944;0.7506060940208023;0.0055449813013029245;0.12321190294594987;-0.007258669765173974;-0.001542649364089543;9.497982731764693e-06;-0.9772111296568579;1.1051817894313725;-0.22796809512121996;9.527892906483729e-06;-0.0014985630915726525;9.507952790004623e-06;-0.9772179117634674;1.1051846527325464;-0.2279708698733622;-9.517922848244122e-06;-6.136004540643891e-05;0.09986347389897067;0.22999279019466476;0.13020111828682754;2.8857629354561712e-05;1.0000220988203532;0.0;-3.6523676473273796e-05;3.6523676473273796e-05;0.2299314301492583;0.12989431805979534;-6.318243875513829e-05;0.9997468223166484;0.0;6.848189338738838e-05;-8.674373162402527e-05;-0.005313147336269974;0.037566831913125036
1.8200292587280273;-0.13066865321177087;-0.07009819413323354;0.7506175420499657;0.005527699189376763;0.12329882560837575;-0.007259448554878979;-0.001542649364089543;9.497982731764693e-06;-0.9772111296568579;1.1051817894313725;-0.22796809512121996;9.527892906483729e-06;-0.0014985630915726525;9.507952790004623e-06;-0.9772179117634674;1.1051846527325464;-0.2279708698733622;-9.517922848244122e-06;-6.136004540643891e-05;0.09986347389897067;0.22999279019466476;0.13020111828682754;2.8857629354561712e-05;1.0000220988203532;9.130919118318449e-06;-3.6523676473273796e-05;3.6523676473273796e-05;0.2299314301492583;0.12989431805979534;-6.318243875513829e-05;0.9997468223166484;0.0;3.6523676473273796e-05;-5.4785514709910704e-05;-0.005313147336269974;0.03910272165488005
1.8399317264556885;-0.1308237611682494;-0.07007661669922519;0.7505925389263026;0.00547276338898485;0.12309718257103687;-0.007280341085916155;-0.001542649364089543;9.497982731764693e-06;-0.9772111296568579;1.1051817894313725;-0.22796809512121996;9.527892906483729e-06;-0.0014985630915726525;9.507952790004623e-06;-0.9772179117634674;1.1051846527325464;-0.2279708698733622;-9.517922848244122e-06;-6.136004540643891e-05;0.09986347389897067;0.22999279019466476;0.13020111828682754;2.8857629354561712e-05;1.0000220988203532;9.130919118318449e-06;-3.6523676473273796e-05;3.6523676473273796e-05;0.2299314301492583;0.12989431805979534;-6.318243875513829e-05;0.9997468223166484;0.0;4.108913603243303e-05;-5.935097426906993e-05;-0.005313147336269974;0.037566831913125036
1.8602476119995117;-0.13070014082465453;-0.06997827042852697;0.7506232497347107;0.005501846270715512;0.12325832754144161;-0.007419582941270802;-0.001542649364089543;9.497982731764693e-06;-0.9772111296568579;1.1051817894313725;-0.22796809512121996;9.527892906483729e-06;-0.0014985630915726525;9.507952790004623e-06;-0.9772179117634674;1.1051846527325464;-0.2279708698733622;-9.517922848244122e-06;-6.136004540643891e-05;0.09986347389897067;0.23000813020601635;0.13018577827547595;2.8857629354561712e-05;1.0000220988203532;9.130919118318449e-06;-2.739275735495535e-05;2.739275735495535e-05;0.2299314301492583;0.12989431805979534;-6.318243875513829e-05;0.9997468223166484;0.0;6.848189338738838e-05;-8.674373162402527e-05;-0.005313147336269974;0.037566831913125036
1.8798935413360596;-0.13065674896262428;-0.06994792423997799;0.7506336323607453;0.0056245771389411125;0.12330431988142654;-0.00748296000493714;-0.001542649364089543;9.497982731764693e-06;-0.9772111296568579;1.1051817894313725;-0.22796809512121996;9.527892906483729e-06;-0.0014985630915726525;9.507952790004623e-06;-0.9772179117634674;1.1051846527325464;-0.2279708698733622;-9.517922848244122e-06;-6.136004540643891e-05;0.09986347389897067;0.23000813020601635;0.13018577827547595;2.8857629354561712e-05;1.0000220988203532;9.130919118318449e-06;-3.6523676473273796e-05;3.6523676473273796e-05;0.2299314301492583;0.12989431805979534;-6.318243875513829e-05;0.9997468223166484;0.0;4.565459559159225e-05;-6.391643382822915e-05;-0.005313147336269974;0.037566831913125036
1.9000396728515625;-0.13078055267889352;-0.06988095470498204;0.7506183100594962;0.005571557249179246;0.12314383090164584;-0.007566259378432012;-0.001542649364089543;9.497982731764693e-06;-0.9772111296568579;1.1051817894313725;-0.22796809512121996;9.527892906483729e-06;-0.0014985630915726525;9.507952790004623e-06;-0.9772179117634674;1.1051846527325464;-0.2279708698733622;-9.517922848244122e-06;-6.136004540643891e-05;0.09986347389897067;0.23000813020601635;0.13017043826412433;2.8857629354561712e-05;1.0000220988203532;9.130919118318449e-06;-3.6523676473273796e-05;3.6523676473273796e-05;0.2299314301492583;0.12989431805979534;-6.318243875513829e-05;0.9997468223166484;0.0;2.2827297795796123e-05;-4.108913603243303e-05;-0.005313147336269974;0.03910272165488005
1.91988205909729;-0.13077626082739682;-0.06983762336496137;0.7506230906072563;0.0055511100727298895;0.12315112214881527;-0.007621999625120474;-0.001542649364089543;9.497982731764693e-06;-0.9772111296568579;1.1051817894313725;-0.22796809512121996;9.527892906483729e-06;-0.0014985630915726525;9.507952790004623e-06;-0.9772179117634674;1.1051846527325464;-0.2279708698733622;-9.517922848244122e-06;-6.136004540643891e-05;0.09986347389897067;0.230023470217368;0.13017043826412433;2.8857629354561712e-05;1.0000220988203532;9.130919118318449e-06;-3.6523676473273796e-05;3.6523676473273796e-05;0.2299314301492583;0.12989431805979534;-6.318243875513829e-05;0.9997468223166484;0.0;6.848189338738838e-05;-8.674373162402527e-05;-0.005313147336269974;0.037566831913125036
1.9399113655090332;-0.13079911750554946;-0.06978619307923595;0.7506241470089391;0.0055708128117580615;0.1231183625324686;-0.007699794941563737;-0.0015311441349629051;9.497982731764693e-06;-0.9772111296568579;1.1051817894313725;-0.22796809512121996;9.527892906483729e-06;-0.0014985630915726525;9.507952790004623e-06;-0.9772179117634674;1.1051846527325464;-0.2279708698733622;-9.517922848244122e-06;-6.136004540643891e-05;0.09986347389897067;0.230023470217368;0.13010907821871787;2.8857629354561712e-05;1.0000220988203532;9.130919118318449e-06;-3.6523676473273796e-05;3.6523676473273796e-05;0.22997745018331314;0.12989431805979534;-6.318243875513829e-05;0.9997468223166484;0.0;6.391643382822916e-05;-8.217827206486605e-05;-0.005313147336269974;0.03910272165488005
1.9598994255065918;-0.13077748709371745;-0.06981026320803002;0.7506274671093984;0.005612689314369865;0.1231431704363958;-0.007698712828581912;-0.0014506075310764385;9.497982731764693e-06;-0.9772111296568579;1.1051817894313725;-0.22796809512121996;9.527892906483729e-06;-0.0014985630915726525;9.507952790004623e-06;-0.9772179117634674;1.1051846527325464;-0.2279708698733622;-9.517922848244122e-06;-6.136004540643891e-05;0.09986347389897067;0.230023470217368;0.1300323781619599;2.8857629354561712e-05;1.0000220988203532;9.130919118318449e-06;-3.6523676473273796e-05;3.6523676473273796e-05;0.23000813020601635;0.12989431805979534;-6.318243875513829e-05;0.9997468223166484;0.0;3.195821691411457e-05;-5.0220055150751476e-05;-0.005313147336269974;0.037566831913125036
1.9798977375030518;-0.13073073576228383;-0.06980217784243485;0.7506366183619871;0.005579230210371044;0.12320849985373704;-0.007706937091441762;-0.0014391023019498005;9.497982731764693e-06;-0.9772111296568579;1.1051817894313725;-0.22796809512121996;9.527892906483729e-06;-0.0014985630915726525;9.507952790004623e-06;-0.9772179117634674;1.1051846527325464;-0.2279708698733622;-9.517922848244122e-06;-6.136004540643891e-05;0.09986347389897067;0.230023470217368;0.13001703815060828;2.8857629354561712e-05;1.0000220988203532;9.130919118318449e-06;-3.6523676473273796e-05;3.6523676473273796e-05;0.230023470217368;0.12989431805979534;-6.318243875513829e-05;0.9997468223166484;0.0;6.848189338738838e-05;-8.674373162402527e-05;-0.005313147336269974;0.037566831913125036
1.9999237060546875;-0.13074810204610188;-0.06978333465079972;0.750635345655113;0.005711941298530416;0.12317273429207581;-0.007756802376824152;-0.0014391023019498005;9.497982731764693e-06;-0.9772111296568579;1.1051817894313725;-0.22796809512121996;9.527892906483729e-06;-0.0014985630915726525;9.507952790004623e-06;-0.9772179117634674;1.1051846527325464;-0.2279708698733622;-9.517922848244122e-06;-6.136004540643891e-05;0.09986347389897067;0.230023470217368;0.13000169813925666;2.8857629354561712e-05;1.0000220988203532;9.130919118318449e-06;-3.6523676473273796e-05;3.6523676473273796e-05;0.230023470217368;0.12989431805979534;-6.318243875513829e-05;0.9997468223166484;0.0;6.848189338738838e-05;-8.674373162402527e-05;-0.005313147336269974;0.037566831913125036
2.020097494125366;-0.13079578233542188;-0.0698319063274791;0.7506225218525951;0.005808684573032595;0.12310049438713742;-0.007707948705399424;-0.0014391023019498005;9.497982731764693e-06;-0.9772111296568579;1.1051817894313725;-0.22796809512121996;9.527892906483729e-06;-0.0014985630915726525;9.507952790004623e-06;-0.9772179117634674;1.1051846527325464;-0.2279708698733622;-9.517922848244122e-06;-6.136004540643891e-05;0.09986347389897067;0.230023470217368;0.12998635812790504;2.8857629354561712e-05;1.0000220988203532;9.130919118318449e-06;-3.6523676473273796e-05;3.6523676473273796e-05;0.230023470217368;0.12989431805979534;-6.318243875513829e-05;0.9997468223166484;0.0;3.6523676473273796e-05;-5.4785514709910704e-05;-0.005313147336269974;0.037566831913125036
2.04001784324646;-0.13082356923556868;-0.06974247211277788;0.7506259943850062;0.00589763121581527;0.12305442686230098;-0.007846891307294115;-0.0014391023019498005;9.497982731764693e-06;-0.9772111296568579;1.1051817894313725;-0.22796809512121996;9.527892906483729e-06;-0.0014985630915726525;9.507952790004623e-06;-0.9772179117634674;1.1051846527325464;-0.2279708698733622;-9.517922848244122e-06;-6.136004540643891e-05;0.09986347389897067;0.230023470217368;0.12997101811655346;2.8857629354561712e-05;1.0000220988203532;9.130919118318449e-06;-3.6523676473273796e-05;3.6523676473273796e-05;0.230023470217368;0.12990965807114696;-6.318243875513829e-05;0.9997775023393516;0.0;2.2827297795796123e-05;-4.108913603243303e-05;-0.005313147336269974;0.037566831913125036
2.0599005222320557;-0.13074254587847572;-0.06977910814957898;0.7506367063323499;0.005907583532688716;0.12316171696843582;-0.007797761237277676;-0.0014391023019498005;9.497982731764693e-06;-0.9772111296568579;1.1051817894313725;-0.22796809512121996;9.527892906483729e-06;-0.0014985630915726525;9.507952790004623e-06;-0.9772179117634674;1.1051846527325464;-0.2279708698733622;-9.517922848244122e-06;-6.136004540643891e-05;0.09986347389897067;0.2300388102287196;0.12997101811655346;2.8857629354561712e-05;1.0000220988203532;9.130919118318449e-06;-3.6523676473273796e-05;3.6523676473273796e-05;0.230023470217368;0.12992499808249858;-6.318243875513829e-05;0.9997775023393516;0.0;6.848189338738838e-05;-8.674373162402527e-05;-0.005313147336269974;0.037566831913125036
2.080019235610962;-0.13070261210127956;-0.0697865462263653;0.7506429692511029;0.0058797685062768786;0.12321758998224826;-0.007782228663042439;-0.0014391023019498005;9.497982731764693e-06;-0.9772111296568579;1.1051817894313725;-0.22796809512121996;9.527892906483729e-06;-0.0014985630915726525;9.507952790004623e-06;-0.9772179117634674;1.1051846527325464;-0.2279708698733622;-9.517922848244122e-06;-6.136004540643891e-05;0.09986347389897067;0.2300388102287196;0.1299556781052018;2.8857629354561712e-05;1.0000220988203532;9.130919118318449e-06;-3.6523676473273796e-05;3.6523676473273796e-05;0.230023470217368;0.1299403380938502;-6.318243875513829e-05;0.9998235223734064;0.0;5.4785514709910704e-05;-7.304735294654759e-05;-0.005313147336269974;0.037566831913125036
2.099888324737549;-0.13077811006859563;-0.06976144912357045;0.7506311299080471;0.005890036021932344;0.123116001717908;-0.007805078637774998;-0.0014851232184563527;9.497982731764693e-06;-0.9772111296568579;1.1051817894313725;-0.22796809512121996;9.527892906483729e-06;-0.0014985630915726525;9.507952790004623e-06;-0.9772179117634674;1.1051846527325464;-0.2279708698733622;-9.517922848244122e-06;-6.136004540643891e-05;0.09986347389897067;0.2300388102287196;0.1299556781052018;2.8857629354561712e-05;1.0000220988203532;9.130919118318449e-06;-3.6523676473273796e-05;3.6523676473273796e-05;0.230023470217368;0.1299556781052018;-6.318243875513829e-05;0.9998388623847582;0.0;2.739275735495535e-05;-4.565459559159226e-05;-0.005313147336269974;0.037566831913125036
2.1200008392333984;-0.13092887968441597;-0.06978797382749007;0.750601358332942;0.005992711268084016;0.1229058357968967;-0.007774366297448962;-0.0015311441349629051;9.497982731764693e-06;-0.9772111296568579;1.1051817894313725;-0.22796809512121996;9.527892906483729e-06;-0.0014985630915726525;9.507952790004623e-06;-0.9772179117634674;1.1051846527325464;-0.2279708698733622;-9.517922848244122e-06;-6.136004540643891e-05;0.09986347389897067;0.2300388102287196;0.1299403380938502;2.8857629354561712e-05;1.0000220988203532;9.130919118318449e-06;-3.6523676473273796e-05;3.6523676473273796e-05;0.230023470217368;0.13000169813925666;-6.318243875513829e-05;0.9998542023961098;0.0;6.848189338738838e-05;-8.674373162402527e-05;-0.005313147336269974;0.037566831913125036
2.1398675441741943;-0.1308676333711852;-0.06976061575618334;0.7506140709043699;0.0061107317928783865;0.12297622289068695;-0.007825637404255285;-0.0015541545932161813;9.497982731764693e-06;-0.9772111296568579;1.1051817894313725;-0.22796809512121996;9.527892906483729e-06;-0.0014985630915726525;9.507952790004623e-06;-0.9772179117634674;1.1051846527325464;-0.2279708698733622;-9.517922848244122e-06;-6.136004540643891e-05;0.09986347389897067;0.2300388102287196;0.12992499808249858;2.8857629354561712e-05;1.0000220988203532;9.130919118318449e-06;-3.6523676473273796e-05;3.6523676473273796e-05;0.230023470217368;0.1300477181733114;-6.318243875513829e-05;0.9998542023961098;0.0;6.391643382822916e-05;-8.217827206486605e-05;-0.005313147336269974;0.037566831913125036
2.1599674224853516;-0.13088347678701623;-0.06979057355881114;0.7506087792802086;0.006169805121207702;0.12294974696510956;-0.007798820607497802;-0.001542649364089543;9.497982731764693e-06;-0.9772111296568579;1.1051817894313725;-0.22796809512121996;9.527892906483729e-06;-0.0014985630915726525;9.507952790004623e-06;-0.9772179117634674;1.1051846527325464;-0.2279708698733622;-9.517922848244122e-06;-6.136004540643891e-05;0.09986347389897067;0.2300388102287196;0.1298482980257405;2.8857629354561712e-05;1.0000220988203532;9.130919118318449e-06;-3.195821691411457e-05;3.195821691411457e-05;0.230023470217368;0.1300477181733114;-6.318243875513829e-05;0.9998695424074614;0.0;3.6523676473273796e-05;-5.4785514709910704e-05;-0.005313147336269974;0.03910272165488005
2.179837465286255;-0.13075728315446353;-0.06977092609247332;0.7506325991857217;0.006341761585017772;0.12310158765500989;-0.007855661141361731;-0.001542649364089543;9.497982731764693e-06;-0.9772111296568579;1.1051817894313725;-0.22796809512121996;9.527892906483729e-06;-0.0014985630915726525;9.507952790004623e-06;-0.9772179117634674;1.1051846527325464;-0.2279708698733622;-9.517922848244122e-06;-6.136004540643891e-05;0.09986347389897067;0.2300388102287196;0.1298482980257405;2.8857629354561712e-05;1.0000220988203532;9.130919118318449e-06;-3.6523676473273796e-05;3.6523676473273796e-05;0.230023470217368;0.1300477181733114;-6.318243875513829e-05;0.9998695424074614;0.0;5.4785514709910704e-05;-7.304735294654759e-05;-0.005313147336269974;0.037566831913125036
2.1999094486236572;-0.13070515925631898;-0.06981455593109605;0.7506376205000481;0.0065283757383391445;0.12315381195768638;-0.007828927275516992;-0.001542649364089543;9.497982731764693e-06;-0.9772111296568579;1.1051817894313725;-0.22796809512121996;9.527892906483729e-06;-0.0014985630915726525;9.507952790004623e-06;-0.9772179117634674;1.1051846527325464;-0.2279708698733622;-9.517922848244122e-06;-6.136004540643891e-05;0.09986347389897067;0.2300388102287196;0.1298482980257405;2.8857629354561712e-05;1.0000220988203532;9.130919118318449e-06;-3.6523676473273796e-05;3.6523676473273796e-05;0.230023470217368;0.1300477181733114;-6.318243875513829e-05;0.9998848824188128;0.0;6.848189338738838e-05;-8.674373162402527e-05;-0.005313147336269974;0.037566831913125036
2.2200002670288086;-0.130658373287552;-0.06985670778337605;0.7506418440598478;0.006687202696992323;0.12320150932124235;-0.0077992479648740076;-0.001542649364089543;9.497982731764693e-06;-0.9772111296568579;1.1051817894313725;-0.22796809512121996;9.527892906483729e-06;-0.0014985630915726525;9.507952790004623e-06;-0.9772179117634674;1.1051846527325464;-0.2279708698733622;-9.517922848244122e-06;-5.369003973063058e-05;0.09987114390464648;0.2300388102287196;0.1298482980257405;2.8857629354561712e-05;1.0000220988203532;9.130919118318449e-06;-3.6523676473273796e-05;3.6523676473273796e-05;0.230023470217368;0.1300477181733114;-6.318243875513829e-05;0.9998848824188128;0.0;4.108913603243303e-05;-5.935097426906993e-05;-0.005313147336269974;0.037566831913125036
2.2399137020111084;-0.1306530418387064;-0.06984877505232724;0.7506435102417344;0.006658660396118037;0.12321124067750226;-0.007804948187092059;-0.001542649364089543;9.497982731764693e-06;-0.9772111296568579;1.1051817894313725;-0.22796809512121996;9.527892906483729e-06;-0.0014985630915726525;9.507952790004623e-06;-0.9772179117634674;1.1051846527325464;-0.2279708698733622;-9.517922848244122e-06;-4.6020034054829184e-05;0.0998788139103223;0.2300388102287196;0.1298482980257405;2.8857629354561712e-05;1.0000220988203532;9.130919118318449e-06;-3.195821691411457e-05;3.195821691411457e-05;0.230023470217368;0.1300477181733114;-6.318243875513829e-05;0.9998848824188128;0.0;1.8261838236636895e-05;-3.6523676473273796e-05;-0.005313147336269974;0.037566831913125036
2.2599759101867676;-0.13072291751226411;-0.0697295717228912;0.7506424274249852;0.00670748699573596;0.12311278275050384;-0.007977922342116247;-0.001542649364089543;9.497982731764693e-06;-0.9772111296568579;1.1051817894313725;-0.22796809512121996;9.527892906483729e-06;-0.0014985630915726525;9.507952790004623e-06;-0.9772179117634674;1.1051846527325464;-0.2279708698733622;-9.517922848244122e-06;-3.0680022703219456e-05;0.0998941539216739;0.2300388102287196;0.1298482980257405;2.8857629354561712e-05;1.0000220988203532;9.130919118318449e-06;-3.6523676473273796e-05;3.6523676473273796e-05;0.230023470217368;0.1300477181733114;-6.318243875513829e-05;0.9999002224301644;0.0;6.848189338738838e-05;-8.674373162402527e-05;-0.005313147336269974;0.03910272165488005
2.2798523902893066;-0.1306897572572447;-0.0696927723466156;0.7506516189396618;0.006724788840361831;0.12315509979380895;-0.008031218914307947;-0.001542649364089543;9.497982731764693e-06;-0.9772111296568579;1.1051817894313725;-0.22796809512121996;9.527892906483729e-06;-0.0014985630915726525;9.507952790004623e-06;-0.9772179117634674;1.1051846527325464;-0.2279708698733622;-9.517922848244122e-06;-7.670005675808333e-06;0.09991716393870133;0.2300388102287196;0.1298482980257405;2.8857629354561712e-05;1.0000220988203532;9.130919118318449e-06;-3.6523676473273796e-05;3.6523676473273796e-05;0.230023470217368;0.1300477181733114;-6.318243875513829e-05;0.999915562441516;0.0;5.935097426906992e-05;-7.761281250570684e-05;-0.005313147336269974;0.037566831913125036
2.3000032901763916;-0.13077626380308466;-0.06966869762805944;0.7506395545781582;0.0066016569927055055;0.12305111543619501;-0.008053406536617113;-0.001508133676709629;9.497982731764693e-06;-0.9772111296568579;1.1051817894313725;-0.22796809512121996;9.527892906483729e-06;-0.0014985630915726525;9.507952790004623e-06;-0.9772179117634674;1.1051846527325464;-0.2279708698733622;-9.517922848244122e-06;7.670005675801395e-06;0.09993250395005293;0.2300388102287196;0.1298482980257405;2.8857629354561712e-05;1.0000220988203532;9.130919118318449e-06;-3.6523676473273796e-05;3.6523676473273796e-05;0.230023470217368;0.1300477181733114;-6.318243875513829e-05;0.9999309024528678;0.0;2.739275735495535e-05;-4.565459559159226e-05;-0.005313147336269974;0.03910272165488005
2.319948673248291;-0.13086461667933608;-0.06972849968119407;0.7506198816927067;0.006835849682082609;0.12291165639623598;-0.008031908520596829;-0.0014506075310764385;9.497982731764693e-06;-0.9772111296568579;1.1051817894313725;-0.22796809512121996;9.527892906483729e-06;-0.0014985630915726525;9.507952790004623e-06;-0.9772179117634674;1.1051846527325464;-0.2279708698733622;-9.517922848244122e-06;6.136004540643197e-05;0.09998619398978356;0.2300388102287196;0.1298482980257405;2.8857629354561712e-05;1.0000220988203532;9.130919118318449e-06;-3.195821691411457e-05;3.195821691411457e-05;0.230023470217368;0.1300477181733114;-6.318243875513829e-05;0.9999615824755709;0.0;6.848189338738838e-05;-8.674373162402527e-05;-0.005313147336269974;0.03910272165488005
2.339886426925659;-0.1308542925369665;-0.0696004561448013;0.7506338206872242;0.0069214813238899255;0.12291655570777633;-0.008226423360484353;-0.0014391023019498005;9.497982731764693e-06;-0.9772111296568579;1.1051817894313725;-0.22796809512121996;9.527892906483729e-06;-0.0014985630915726525;9.507952790004623e-06;-0.9772179117634674;1.1051846527325464;-0.2279708698733622;-9.517922848244122e-06;6.136004540643197e-05;0.09998619398978356;0.2300388102287196;0.1298482980257405;2.8857629354561712e-05;1.0000220988203532;9.130919118318449e-06;-3.6523676473273796e-05;3.6523676473273796e-05;0.230023470217368;0.1300477181733114;-6.318243875513829e-05;1.000053622543681;0.0;6.848189338738838e-05;-8.674373162402527e-05;-0.005313147336269974;0.037566831913125036
2.3598792552948;-0.13078974991587095;-0.06967299536101018;0.7506393725519853;0.007042280354695486;0.1229720615908706;-0.00814801379005304;-0.0014391023019498005;9.497982731764693e-06;-0.9771868884079488;1.1051817894313725;-0.22796809512121996;9.527892906483729e-06;-0.0014985630915726525;9.507952790004623e-06;-0.9772179117634674;1.1051846527325464;-0.2279708698733622;-9.517922848244122e-06;6.136004540643197e-05;0.09998619398978356;0.2300388102287196;0.1298482980257405;2.8857629354561712e-05;1.0000220988203532;9.130919118318449e-06;-3.6523676473273796e-05;3.6523676473273796e-05;0.230023470217368;0.1300477181733114;-6.318243875513829e-05;1.0000689625550323;0.0;3.6523676473273796e-05;-5.4785514709910704e-05;-0.005313147336269974;0.037566831913125036
2.3800716400146484;-0.13073356821176263;-0.06963697815893108;0.7506525014987844;0.007002171828040089;0.1230504458494672;-0.008189664110154881;-0.0014391023019498005;9.497982731764693e-06;-0.9771868884079488;1.1051817894313725;-0.22796809512121996;9.527892906483729e-06;-0.0014985630915726525;9.507952790004623e-06;-0.9772179117634674;1.1051846527325464;-0.2279708698733622;-9.517922848244122e-06;6.136004540643197e-05;0.09998619398978356;0.2300388102287196;0.1298482980257405;2.8857629354561712e-05;1.0000220988203532;9.130919118318449e-06;-3.6523676473273796e-05;3.6523676473273796e-05;0.230023470217368;0.1300477181733114;-6.318243875513829e-05;1.0000689625550323;0.0;4.108913603243303e-05;-5.935097426906993e-05;-0.005313147336269974;0.037566831913125036
2.4000332355499268;-0.1307950071624479;-0.06962100660699572;0.7506432802145593;0.007048549553100809;0.12296415785148686;-0.008220519830363801;-0.0014391023019498005;9.497982731764693e-06;-0.9771868884079488;1.1051817894313725;-0.22796809512121996;9.527892906483729e-06;-0.0014985630915726525;9.507952790004623e-06;-0.9772179117634674;1.1051846527325464;-0.2279708698733622;-9.517922848244122e-06;6.136004540643197e-05;0.09998619398978356;0.2300388102287196;0.1298482980257405;2.8857629354561712e-05;1.0000220988203532;9.130919118318449e-06;-2.739275735495535e-05;2.739275735495535e-05;0.230023470217368;0.1300477181733114;-6.318243875513829e-05;1.0000843025663841;0.0;6.848189338738838e-05;-8.674373162402527e-05;-0.005313147336269974;0.037566831913125036
2.4199554920196533;-0.13074618465985516;-0.06957221344993164;0.7506563094409038;0.007038971039063615;0.1230298040023224;-0.008285264514607529;-0.0014391023019498005;9.497982731764693e-06;-0.9771868884079488;1.1051817894313725;-0.22796809512121996;9.527892906483729e-06;-0.0014985630915726525;9.507952790004623e-06;-0.9772179117634674;1.1051846527325464;-0.2279708698733622;-9.517922848244122e-06;6.136004540643197e-05;0.09998619398978356;0.2300388102287196;0.1298482980257405;2.8857629354561712e-05;1.0000220988203532;9.130919118318449e-06;-3.6523676473273796e-05;3.6523676473273796e-05;0.230023470217368;0.1300477181733114;-6.318243875513829e-05;1.0000843025663841;0.0;4.565459559159225e-05;-6.391643382822915e-05;-0.005313147336269974;0.037566831913125036
2.44010066986084;-0.13064901892849526;-0.06955534341254302;0.7506745346017115;0.007124545493070925;0.12315119089617571;-0.008319357349616276;-0.0014506075310764385;9.497982731764693e-06;-0.9771868884079488;1.1051817894313725;-0.22796809512121996;9.527892906483729e-06;-0.0014985630915726525;9.507952790004623e-06;-0.9772179117634674;1.1051846527325464;-0.2279708698733622;-9.517922848244122e-06;6.136004540643197e-05;0.09998619398978356;0.2300388102287196;0.1298482980257405;2.8857629354561712e-05;1.0000220988203532;9.130919118318449e-06;-3.6523676473273796e-05;3.6523676473273796e-05;0.230023470217368;0.1300477181733114;-6.318243875513829e-05;1.0000843025663841;0.0;2.2827297795796123e-05;-4.108913603243303e-05;-0.005313147336269974;0.037566831913125036
2.4600777626037598;-0.13064635877767114;-0.06949561202660895;0.7506795073147554;0.007350906467374753;0.12313340692211502;-0.0084279677550856;-0.001496628447582991;9.497982731764693e-06;-0.9771868884079488;1.1051817894313725;-0.22796809512121996;9.527892906483729e-06;-0.0014985630915726525;9.507952790004623e-06;-0.9772179117634674;1.1051846527325464;-0.2279708698733622;-9.517922848244122e-06;6.136004540643197e-05;0.09998619398978356;0.2300388102287196;0.1298482980257405;2.8857629354561712e-05;1.0000220988203532;9.130919118318449e-06;-3.6523676473273796e-05;3.6523676473273796e-05;0.230023470217368;0.1300477181733114;-6.318243875513829e-05;1.0000843025663841;0.0;6.848189338738838e-05;-8.674373162402527e-05;-0.005313147336269974;0.037566831913125036
2.4799842834472656;-0.13068520850583085;-0.0694295063983309;0.7506780951465498;0.007452886882272541;0.12307188987809707;-0.008526877152321869;-0.0015311441349629051;9.497982731764693e-06;-0.9771868884079488;1.1051817894313725;-0.22796809512121996;9.527892906483729e-06;-0.0014985630915726525;9.507952790004623e-06;-0.9772179117634674;1.1051846527325464;-0.2279708698733622;-9.517922848244122e-06;6.136004540643197e-05;0.09998619398978356;0.2300388102287196;0.1298482980257405;2.8857629354561712e-05;1.0000220988203532;9.130919118318449e-06;-3.195821691411457e-05;3.195821691411457e-05;0.230023470217368;0.1300477181733114;-6.318243875513829e-05;1.0000843025663841;0.0;6.391643382822916e-05;-8.217827206486605e-05;-0.005313147336269974;0.037566831913125036
2.4999334812164307;-0.13066048010814113;-0.06935554296741578;0.750689236776035;0.007533835425212787;0.12309689592859717;-0.008642662405187004;-0.0015311441349629051;9.497982731764693e-06;-0.9771868884079488;1.1051817894313725;-0.22796809512121996;9.527892906483729e-06;-0.0014985630915726525;9.507952790004623e-06;-0.9772179117634674;1.1051846527325464;-0.2279708698733622;-9.517922848244122e-06;6.136004540643197e-05;0.09998619398978356;0.2300388102287196;0.1298482980257405;2.8857629354561712e-05;1.0000220988203532;9.130919118318449e-06;-3.6523676473273796e-05;3.6523676473273796e-05;0.230023470217368;0.1300477181733114;-6.318243875513829e-05;1.0000843025663841;0.0;3.195821691411457e-05;-5.0220055150751476e-05;-0.005313147336269974;0.037566831913125036
2.5198800563812256;-0.13063670073496378;-0.06939053656664304;0.750690141449758;0.00761291880593124;0.12312139542659384;-0.008608639527863287;-0.0015311441349629051;9.497982731764693e-06;-0.9771868884079488;1.1051817894313725;-0.22796809512121996;9.527892906483729e-06;-0.0014985630915726525;9.507952790004623e-06;-0.9772179117634674;1.1051846527325464;-0.2279708698733622;-9.517922848244122e-06;6.136004540643197e-05;0.09998619398978356;0.2300388102287196;0.1298482980257405;2.8857629354561712e-05;1.0000220988203532;9.130919118318449e-06;-3.6523676473273796e-05;3.6523676473273796e-05;0.230023470217368;0.1300477181733114;-6.318243875513829e-05;1.0000843025663841;0.0;6.848189338738838e-05;-8.674373162402527e-05;-0.005313147336269974;0.037566831913125036
2.539968252182007;-0.13063466944389893;-0.06936017795036933;0.7506933005347506;0.007563395473728981;0.12312855328394072;-0.008641355824526192;-0.0015311441349629051;9.497982731764693e-06;-0.9771868884079488;1.1051817894313725;-0.22796809512121996;9.527892906483729e-06;-0.0014985630915726525;9.507952790004623e-06;-0.9772179117634674;1.1051846527325464;-0.2279708698733622;-9.517922848244122e-06;6.136004540643197e-05;0.09998619398978356;0.2300388102287196;0.1298482980257405;2.8857629354561712e-05;1.0000220988203532;9.130919118318449e-06;-3.6523676473273796e-05;3.6523676473273796e-05;0.230023470217368;0.1300477181733114;-6.318243875513829e-05;1.0000843025663841;0.0;6.848189338738838e-05;-8.674373162402527e-05;-0.005313147336269974;0.037566831913125036
2.559943914413452;-0.13063391236157862;-0.06938158291262492;0.7506914542656172;0.007613761169440611;0.12312498499019917;-0.008621045414252635;-0.0015311441349629051;9.497982731764693e-06;-0.9771868884079488;1.1051817894313725;-0.22796809512121996;9.527892906483729e-06;-0.0014985630915726525;9.507952790004623e-06;-0.9772179117634674;1.1051846527325464;-0.2279708698733622;-9.517922848244122e-06;6.136004540643197e-05;0.09998619398978356;0.2300388102287196;0.1298482980257405;2.8857629354561712e-05;1.0000220988203532;9.130919118318449e-06;-3.6523676473273796e-05;3.6523676473273796e-05;0.230023470217368;0.1300477181733114;-6.318243875513829e-05;1.0000843025663841;0.0;3.6523676473273796e-05;-5.4785514709910704e-05;-0.005313147336269974;0.037566831913125036
2.5799291133880615;-0.13058223433863406;-0.06940943761531014;0.7506978704238061;0.007718371303335619;0.12318423138087416;-0.008601108693561252;-0.0015311441349629051;9.497982731764693e-06;-0.9771868884079488;1.1051817894313725;-0.22796809512121996;9.527892906483729e-06;-0.0014985630915726525;9.507952790004623e-06;-0.9772179117634674;1.1051846527325464;-0.2279708698733622;-9.517922848244122e-06;6.136004540643197e-05;0.09998619398978356;0.2300388102287196;0.1298482980257405;2.8857629354561712e-05;1.0000220988203532;0.0;-3.6523676473273796e-05;3.6523676473273796e-05;0.230023470217368;0.1300477181733114;-6.318243875513829e-05;1.0000843025663841;0.0;2.2827297795796123e-05;-4.108913603243303e-05;-0.005313147336269974;0.037566831913125036
2.599853038787842;-0.1305507862718352;-0.06942489758870335;0.7507019104893664;0.007822580779071789;0.12321649800493438;-0.008598307477567686;-0.0015311441349629051;9.497982731764693e-06;-0.9771868884079488;1.1051817894313725;-0.22796809512121996;9.527892906483729e-06;-0.0014985630915726525;9.507952790004623e-06;-0.9772179117634674;1.1051846527325464;-0.2279708698733622;-9.517922848244122e-06;6.136004540643197e-05;0.09998619398978356;0.2300388102287196;0.1298482980257405;2.8857629354561712e-05;1.0000220988203532;9.130919118318449e-06;-3.6523676473273796e-05;3.6523676473273796e-05;0.230023470217368;0.1300477181733114;-6.318243875513829e-05;1.0000843025663841;0.0;6.848189338738838e-05;-8.674373162402527e-05;-0.005313147336269974;0.037566831913125036
