flxalr/sts-optimization-reemc/input/498_125/trq.csv
time;base_link_tx;base_link_ty;base_link_tz;base_link_rz;base_link_ry;base_link_rx;leg_left_1_joint;leg_left_2_joint;leg_left_3_joint;leg_left_4_joint;leg_left_5_joint;leg_left_6_joint;leg_right_1_joint;leg_right_2_joint;leg_right_3_joint;leg_right_4_joint;leg_right_5_joint;leg_right_6_joint;torso_1_joint;torso_2_joint;arm_left_1_joint;arm_left_2_joint;arm_left_3_joint;arm_left_4_joint;arm_left_5_joint;arm_left_6_joint;arm_left_7_joint;arm_right_1_joint;arm_right_2_joint;arm_right_3_joint;arm_right_4_joint;arm_right_5_joint;arm_right_6_joint;arm_right_7_joint;head_1_joint;head_2_joint
0.0;-11.316034564528712;34.82741738091849;545.5569398998475;6.509458228349994;-2.2488842901714463;54.274500128641066;4.826592829748936;13.001144539529562;-9.08884477914869;12.407163522999063;2.0462383252595457;2.3291648791124366;3.746102909372592;10.933111520866134;35.70121932141522;2.8668272408741817;18.771415267787273;5.132564599323846;-0.13145672172397466;-28.523538010928245;6.147355453413863;3.681655752902493;0.8594099725962288;5.418115237806968;-0.018898296767198383;0.12689344006225517;0.05991287359790833;6.185522656902128;3.9362621991614355;0.9551386758578944;5.412015660907111;-0.019630477139197036;0.1451049314278959;0.06039084136211826;6.582537963297549e-05;-0.5087035471383516
0.019901037216186523;-11.408609893757227;34.963731341008284;545.5616388247187;6.54876652437291;-2.158192589720713;54.31330764451484;4.82929544679111;13.005047441756602;-8.949677716888166;12.486247923692531;2.078651161673425;2.3293263194047715;3.765704539314985;10.987607036059277;35.63447280991359;2.8402867428673075;18.761326696151272;5.145856169318392;-0.1282171477714148;-28.520899303739654;6.148648226616022;3.6842865115194883;0.8603776267733831;5.418246964296333;-0.01889091932811264;0.12705219488278832;0.05992895776538499;6.186030446610664;3.93356601463779;0.954146710755919;5.412393720295538;-0.019659186512042758;0.14495512059079338;0.06037791603974793;0.0002699497822206756;-0.5086288319673934
0.0399169921875;-11.385069858801584;34.91888642092383;545.1685156583337;6.533236041640153;-2.115893081820552;54.2563973758965;4.834196765105114;13.012815819395382;-8.955221880550598;12.482438808417996;2.077706769870268;2.329878774248396;3.7301688225793783;10.933408277157724;35.69081964890129;2.806746748965124;18.759112963564007;5.1461320624833915;-0.12294154496824009;-28.519092975640675;6.149964760219416;3.688726264371396;0.8619944163132156;5.418248248298259;-0.018891060265563753;0.12732161993322152;0.059949601869252654;6.185927863113646;3.9291112695805093;0.9525180123294612;5.412741175361236;-0.019675803058798867;0.14469245419923996;0.06035895997192645;0.0006031918628616501;-0.5085785119807195
0.05986738204956055;-11.387177544089528;34.96095481171804;545.3731489415917;6.5374968645394285;-2.1592440956646755;54.25681353102961;4.832405407642373;13.007981294375638;-8.958127191569787;12.481078219082539;2.0772786704408914;2.3288362462926;3.7386563404048916;10.956945104891586;35.64479413406548;2.8046723105071525;18.740153373138536;5.160724641297309;-0.12320586702795835;-28.518305633764907;6.150470510198763;3.6891786040334367;0.862095463163461;5.418322084933515;-0.018892196008765648;0.12730261832227263;0.05995128292734634;6.185917134003181;3.9286188591939846;0.9524128359144247;5.412802625388226;-0.019648197615909205;0.14469221421216497;0.060356100340729454;0.0006605743297614149;-0.5085601795057835
0.07989311218261719;-11.486629783160739;34.88261631415912;545.3743803473623;6.507458086895884;-2.105220609194049;54.21125461705917;4.8290306956800295;13.000624698113665;-8.94922604292841;12.48646751928236;2.0785709879899814;2.3276402690739095;3.717452395616915;10.926261813502615;35.68521780125576;2.83165338561885;18.74772916388808;5.162826720159843;-0.12586586976575445;-28.522725195707785;6.1489881804227;3.688010968960966;0.8615690695826794;5.417985590473506;-0.018898339761716676;0.12716710078750737;0.05993643375874454;6.184242808075114;3.9299780485664817;0.9529915620737031;5.412238328131663;-0.019617520371213365;0.14481744037018193;0.06036340774337189;0.0005895239524632582;-0.5086928612635331
0.0998992919921875;-11.495782020118869;35.003920642389865;545.3799240926454;6.524362825140984;-2.09780762365434;54.298111130318766;4.826487010217042;12.994138615505513;-8.952525738020967;12.484924503316032;2.0780635358064687;2.3262788944642963;3.749299967911469;11.003315766633078;35.69613997160814;2.8426363741762186;18.75756001118707;5.1810374321927295;-0.1270912111576114;-28.522888538291667;6.149308558459026;3.687927138733804;0.8614640923437048;5.41810759059307;-0.018914885632868812;0.1271180512167294;0.05992085848558094;6.18392020530798;3.9301340495836383;0.9531012885771687;5.412124249240252;-0.019652352676610148;0.14490100769701908;0.06038132958128669;0.0005782666584923167;-0.508716676061912
0.11989259719848633;-11.299506757524277;35.005488159295396;544.9882089041251;6.550760306144128;-2.207525340579913;54.281485159721385;4.8218842557582535;12.984518026473392;-8.910368002791774;12.43992272565572;2.065602039231699;2.324689385572233;3.770142803560839;11.015235873634458;35.582555954063196;2.770214593015603;18.74310975442438;5.176247138125356;-0.130487050421198;-28.525784049251797;6.149059055163031;3.6860594457083837;0.8607054671711926;5.418213821441451;-0.01893047928074576;0.1269574059021551;0.05989770434124285;6.18359152457933;3.9320256732460095;0.9538725500477891;5.411862245143877;-0.019625918479901763;0.14505798236992143;0.06040392537965267;0.0004198074832856011;-0.5105957441679438
0.13997244834899902;-11.216181220053958;34.99994013325672;545.4918534179292;6.540836399185945;-2.3649091216201867;54.29127816116111;4.7964266501059605;12.917285245949998;-9.052970198159604;12.399786822658069;2.0545901039168433;2.3108105292767944;3.809516466555026;11.077502227618329;35.58739191811195;2.808315091103427;18.749469827242333;5.18296719208851;-0.1316409964335;-28.532395520528695;6.146988298897952;3.685701220774589;0.860526210788834;5.417720705300752;-0.018946540650132078;0.12692766549348472;0.05987585488569536;6.181235590793768;3.9326381271176816;0.9541280179604996;5.411119181215954;-0.0195732562785374;0.1450849506969955;0.060417648614835076;0.00036185509768685807;-0.5108135470866876
0.15989160537719727;-11.217216091204556;34.979090729505835;545.5921160729959;6.540454128592735;-2.4113113659548233;54.2907127727504;4.793546010308458;12.910791986100405;-9.038360140440751;12.408154511341333;2.0566391044237347;2.309679823076813;3.815909772308042;11.081057718988136;35.53966103118899;2.793672312817243;18.74247729044454;5.176447164049861;-0.13341009145742747;-28.538109027093448;6.144180027251568;3.6844252812506997;0.860043083941581;5.417071292793778;-0.018955456899234974;0.12684203234889546;0.0598542858322988;6.178741900221118;3.9342989302855935;0.9546959970047554;5.410250538164571;-0.019602532156594445;0.14519687582347027;0.06043087357417149;0.0002495308444818347;-0.509231198989494
0.17986655235290527;-11.407347060510574;34.92784741477908;545.4786019466488;6.559741557258921;-2.2256183316509563;54.30223830469078;4.817525449512094;12.973909594740837;-8.931728807316519;12.497338697723908;2.0809424363364273;2.3226332100206033;3.795029699723738;11.005406319815979;35.58825283743718;2.7936838321937287;18.754125537675336;5.1592336878742175;-0.1330303528063634;-28.537312694901658;6.144791525957614;3.684095668049239;0.8599943075912819;5.417286418759559;-0.018964632794981125;0.12687634323068764;0.05984615364042776;6.179701104594066;3.934496270630276;0.9547131615172118;5.410413202426969;-0.019595824451910805;0.14515896686589128;0.06043986328216079;0.00016716326341090302;-0.5109994190195943
0.19987702369689941;-11.40178646330293;34.96409205095852;545.8744898655756;6.576339352220245;-2.279129303553951;54.34803939960432;4.81525287492963;12.971142672743591;-8.934659252204455;12.496111657322517;2.0806539115120257;2.322664822228476;3.8248872557807965;11.05092003082125;35.5163276842316;2.8070791191655085;18.72930056016519;5.1585276104758355;-0.13568163837544195;-28.531193420308472;6.145397363174601;3.6812479821767887;0.8590201517635347;5.417658541870982;-0.0189730564483579;0.12674832755299495;0.05982878324824045;6.181420685461058;3.9370919260294235;0.9556320394494419;5.4105635128930185;-0.019559842535012653;0.14525841771247314;0.06045541261881366;-6.14763283175411e-05;-0.5090673307988407
0.21988415718078613;-11.26678051939897;34.81147359351683;545.6788632277396;6.572132384805755;-2.3333074144454216;54.323747179236875;4.8101170968814335;12.960536651918597;-8.930258151984766;12.499196031998247;2.0813296231636342;2.320968658196968;3.8153595020254096;11.01601285958217;35.47668238324336;2.7486000516246474;18.722767741353575;5.152635263680563;-0.13846229513386557;-28.530684517532897;6.144572356547568;3.6784884977765078;0.8580570373670351;5.417622748124652;-0.018991387435066863;0.12662309476370331;0.05980304009938685;6.181600914113938;3.9398354050343847;0.9565818516437221;5.410243508169945;-0.01955604169669066;0.1453852244520303;0.06047369885704812;-0.00031066551024729744;-0.5090466598644676
0.23990893363952637;-11.25354747582129;34.94290964421081;545.6771295468093;6.578309470774441;-2.3032602381901626;54.440481449791534;4.8071596782668715;12.949940343450011;-8.992109902129524;12.421510394807875;2.0558047879993424;2.3113392471883705;3.8577268166192504;11.12357092558104;35.542285841609925;2.826020601197525;18.735216411476028;5.166070758098632;-0.14052722884372765;-28.519474099845404;6.147610695313442;3.6759760729081;0.8572343164582718;5.418650973721131;-0.019002213008103286;0.12652839033956426;0.059786622348815974;6.185568158024351;3.9418483130705604;0.9572727247739208;5.411038113176628;-0.01957798445574424;0.14548045666499382;0.060497957888972116;-0.0005355548857429579;-0.5087206531164301
0.2599799633026123;-11.136577964248985;34.79102271361937;545.6790359724387;6.590011368465134;-2.370468583240914;54.43431809394587;4.804554555409096;12.951196938459882;-8.94808794274368;12.490116614417513;2.0789551044564534;2.319905675764159;3.8455938531930056;11.085145578445687;35.44323093329525;2.7244373367415133;18.70917453954191;5.159549208267286;-0.14257906859266054;-28.518024838156865;6.1473254049584805;3.6737015412466016;0.8564656608456633;5.418756754548613;-0.019014953271911557;0.12643950483997402;0.05976502543919568;6.186180652223365;3.9440231356005757;0.958023058380925;5.4109057003345296;-0.01954571452362313;0.14555171523767974;0.060514560967557335;-0.0007492313613835207;-0.5086613168147642
0.2798938751220703;-11.134097575240379;34.534798206645064;545.7715433581941;6.5215043553313885;-2.4072873262118932;54.2915231489276;4.781214641576863;12.891814312226813;-9.049171321987128;12.4038731221999;2.0555043464980502;2.3081089893926108;3.8164398727340814;11.032720162687362;35.51359115532666;2.8029601813583556;18.721175626841042;5.148932490492114;-0.14427607860454128;-28.520868317154267;6.145739464752052;3.671675729339035;0.855788425459412;5.418511784369256;-0.019021285241020397;0.1263674908366768;0.05974713753374729;6.185550151390678;3.946140620480689;0.9587353931119139;5.410483362009706;-0.019515378684319386;0.14561399450575035;0.06052587389586179;-0.0009425934154187769;-0.5087224147200143
0.29988694190979004;-11.145608925224982;34.58062792478202;545.4711518393625;6.547373494465544;-2.3822890035743143;54.39610767396026;4.77946611947777;12.889234520743049;-8.979200021892451;12.429192146151648;2.0577042651329065;2.3079430667575367;3.8427941516620567;11.106105621326412;35.48103722238827;2.7498892726956257;18.716393729028553;5.171272737314891;-0.14567782200941345;-28.52439092431202;6.1441366654991585;3.6698345071674656;0.8551835167429886;5.418274100733274;-0.019026485574916284;0.12631130055736572;0.05973575939839699;6.1849372705162535;3.9481838587805744;0.9593871242447022;5.410130920967196;-0.019558059660882303;0.1457122036591097;0.06053707497293799;-0.001115708775831688;-0.50880579697246
0.3201029300689697;-11.273130652226223;34.53307658720359;545.5581925014037;6.552914315538988;-2.31296567718541;54.43531317195723;4.800345418384708;12.944897696382343;-8.92864114120645;12.501175088658727;2.0817297898893172;2.31956455350319;3.822486444248865;11.057940647920784;35.493817873189826;2.742900212644446;18.723730612487866;5.168777791795273;-0.1464639216519188;-28.529502964720372;6.142250664052141;3.668519206354552;0.8547711387430146;5.417938525154729;-0.019018033553571692;0.12627861038654487;0.05972945861780139;6.183903650923903;3.949695405694978;0.9598669825758603;5.409743396582313;-0.019550334805269805;0.14575115834789001;0.060542339332622035;-0.0012433220426474366;-0.5089374820614662
0.34000515937805176;-11.30085664427724;34.50825398790843;545.5547349019856;6.54354055672343;-2.350992632580457;54.46243075024264;4.797784970760084;12.939242775139649;-8.910456934144104;12.511400652398503;2.0842513479218545;2.3186624953463686;3.821266146596438;11.08055918818862;35.464642818106974;2.726092544331993;18.725288576480786;5.181504935484691;-0.14777325073723532;-28.54292165958445;6.138184820964482;3.667169593620989;0.8542989157794884;5.41699671384868;-0.019010161012004;0.12621925412697427;0.05972113484836836;6.180620822853941;3.9515152416014847;0.9604797284755384;5.408736885290164;-0.01951495879484593;0.14580857984130619;0.06054156011209551;-0.0013824476985530038;-0.5110727639922417
0.3598971366882324;-11.327684619563868;34.49568392070158;545.151102385225;6.544290496076361;-2.2962297945841215;54.52168820645471;4.796636602594036;12.937322227936873;-8.910119830375898;12.51167609397617;2.0842878017578585;2.3185138326060253;3.8264788122416107;11.105165111931125;35.53026756715923;2.702657981836265;18.733734237087436;5.201829330946812;-0.1486145976704687;-28.54421999336543;6.137299203901964;3.6662102353495474;0.8539749739803426;5.416899716186681;-0.019001050337815725;0.1261762511704251;0.059724007905416966;6.180261248663966;3.9526334042411584;0.9608479057380179;5.408633760674911;-0.019554174298336398;0.14588562545785824;0.06054467356294955;-0.0014355201142851872;-0.5093314692052022
0.3800523281097412;-11.468669707041494;34.61103468078905;545.3481500232999;6.551184794778614;-2.260617298804803;54.5627463960185;4.795977581586622;12.935266946976185;-8.910265967688755;12.511582615278197;2.084199852711893;2.318042096018838;3.848693979417542;11.14933757705094;35.55402828913458;2.7505443482490675;18.73644972830738;5.1958224957310275;-0.1482439248366371;-28.547735301673747;6.136543837679954;3.6665486344687044;0.8540949673463538;5.4167282511701895;-0.018996359174777343;0.12619635647169739;0.0597326093039689;6.179477960215278;3.95244195365306;0.9607746205132519;5.408529916620685;-0.019555962772513293;0.14587708794203497;0.06054048646328094;-0.0014015707435246529;-0.5094159959394469
0.40010905265808105;-11.415902312427768;34.656529634652244;545.5563597759475;6.555686370303011;-2.356916443818278;54.56396393286801;4.792306466081432;12.926381457145997;-8.916990663562327;12.508268176492079;2.083191917747092;2.316351025985906;3.8509844027196083;11.17411249657347;35.4753146432451;2.7339555198706993;18.727415298507164;5.203195250406538;-0.1489773510173284;-28.549170588568696;6.136603911925817;3.6663421019932043;0.8539820711369666;5.416806868178624;-0.01897849013068617;0.12614451900849855;0.059744357802306615;6.179454479510912;3.9526408953796786;0.9609066690803574;5.408642625539563;-0.01952879740951792;0.14590994272878524;0.060535398688593534;-0.0013807233952250735;-0.5094409880415646
0.41986775398254395;-11.5549702711277;34.8203209103405;545.6606166708284;6.567871690212523;-2.328773461306959;54.6501849857165;4.789811363612254;12.919161498921364;-8.921078095789868;12.522313163666283;2.0849801716857383;2.3147958404332516;3.8839874051302283;11.251443666482233;35.510543171528546;2.7576317884852424;18.733505891933532;5.22091465829764;-0.1486022325712372;-28.558191357735506;6.134144529271866;3.6674722504252513;0.8543275157878653;5.416077941752093;-0.01895705891401489;0.12616278738092174;0.059762633504303504;6.176679081677329;3.952153376209706;0.9607633619203035;5.408087278488934;-0.01952518839958469;0.14591333582295146;0.0605166007527968;-0.0012721133496753608;-0.5096770600198018
0.4400656223297119;-11.57859967878488;34.70968813588433;545.3636751681877;6.542057097950911;-2.321328282439204;54.49498011421542;4.794720129019726;12.926026834235987;-8.902196934061351;12.515770981702545;2.0849311372103325;2.3150642018296725;3.82909743066951;11.142469684538419;35.52663031991361;2.734634428485849;18.73706478827561;5.2105424525833;-0.14234811011786994;-28.566322856463216;6.1326428011942165;3.6729994752403305;0.8563250216236674;5.415291630122744;-0.018932403290142466;0.1264838873363125;0.05980398447139793;6.173756858668604;3.947300426474267;0.9589538206398706;5.407860216485418;-0.01958469246583857;0.1456500204304472;0.060480712500892375;-0.0008499575421109891;-0.5098897452669522
0.4600644111633301;-11.518728804820096;34.495260982914715;545.4714201053688;6.489320455160529;-2.4277846915303343;54.25598613081149;4.774044233105588;12.869040192922597;-9.017927958542339;12.421053440887004;2.059242626121028;2.302888937697819;3.78819740273869;11.04021738737007;35.55073052976246;2.7793529588447505;18.731833703617454;5.199666957201705;-0.1387355498073039;-28.567451003067614;6.133171305372286;3.676918054857256;0.857752369425502;5.415192215538624;-0.018906816428991308;0.1267098256527216;0.05985026433981991;6.173640236028314;3.9444372727384014;0.9579256875962111;5.4082635547938755;-0.019592755173107927;0.14549175939080944;0.06044883579799822;-0.0005804307543423193;-0.5099103128396586
0.4798848628997803;-11.742760381980563;34.75437604272639;545.1701216705085;6.518299267646597;-2.2692709891540943;54.395707951381944;4.794805707021327;12.923520911685312;-8.944231527945494;12.448631588604606;2.061945701384241;2.3141042470914472;3.8141295740110275;11.096846273764102;35.62808124150204;2.798938597838578;18.74831986259163;5.202964479696865;-0.1378828546833996;-28.57514083537685;6.130880033515082;3.677614767746894;0.8579764896735461;5.4144878208327505;-0.01886226986222949;0.12671121780972744;0.05988478400610257;6.171493729639661;3.9439570314482557;0.9577555469766963;5.407900240251634;-0.019585967499122947;0.14546564924172464;0.060416121811954646;-0.0004641065907671415;-0.5101115530438479
0.4998900890350342;-11.479178993853175;34.90847618215475;545.5775475954804;6.55304048392034;-2.5464386226080507;54.41477708488915;4.773148237660462;12.86459909187;-9.003324083744698;12.429142583722294;2.061175611908857;2.3017395693497886;3.864590526451243;11.189896624235384;35.45430526779029;2.7355221646054484;18.723335008842025;5.205934452096896;-0.13549397591040518;-28.580262572570327;6.129515299896654;3.679521325610308;0.8586765143569145;5.4139618982535325;-0.018825832988003756;0.1268156042864037;0.059923643346060415;6.170084538928642;3.9425082559060924;0.9571758873912599;5.40779642458785;-0.019657357518412917;0.1454050867514354;0.06038573707541604;-0.00029095763446197395;-0.5102439278565155
0.5200049877166748;-11.682930258312037;34.95741529543476;545.2771589627346;6.58235960706136;-2.376049957859088;54.40401653703225;4.797714698728929;12.927022657293934;-8.875625626461513;12.493118050541508;2.074823618641769;2.314139056321062;3.8508566340536636;11.126728201089387;35.48249678388017;2.722190063117657;18.730208124813785;5.193486481985851;-0.13213457646150317;-28.583248554750067;6.128886736247583;3.6818643096128536;0.8595499192796915;5.413594665893497;-0.01879585032501415;0.12695873517576794;0.0599599756246236;6.169159980663444;3.940193810759779;0.9562929753356768;5.407839558579426;-0.019672467013564197;0.1452485687165499;0.060355718069267435;-8.03694344539219e-05;-0.5103181878188774
0.5398859977722168;-11.69426078002655;35.089179742803;545.5797380248346;6.599107586032779;-2.431866676393035;54.47495468612504;4.79603571745919;12.922131057835857;-8.889123984546586;12.522547481370417;2.086405714027458;2.3131027302195366;3.8766344957735965;11.184501250656373;35.43926787240896;2.704380318059539;18.70859850903577;5.198336631326683;-0.1315181200586295;-28.585662774405517;6.128031803216035;3.682213234326242;0.859666783523356;5.413297718563907;-0.018782891042978436;0.1269705413358008;0.0599807915468451;6.168414069855579;3.9398314585039222;0.956156507927;5.40771973235496;-0.019659315693763613;0.14521184258163067;0.06033728193589792;-2.0817751345625704e-05;-0.5103780826635486
0.5598571300506592;-11.69865224008159;35.0967153080118;545.6834309465997;6.608596619409573;-2.419218875173044;54.4704596680032;4.794744928809135;12.920215914593161;-8.8974066734416;12.518233292039536;2.0853033152186824;2.313001139756446;3.8877622578815596;11.185670776296396;35.44585842066285;2.7276020648759873;18.713652435490424;5.19737193432362;-0.13250439761734062;-28.58100170286393;6.129433229050742;3.6812665064459935;0.8593257954507156;5.413719546798498;-0.018761093264429672;0.12689383493854814;0.05999237861359616;6.170105969603368;3.940471927351762;0.9563977473426148;5.408151580139473;-0.019688292124141908;0.14527394351745537;0.0603353120366515;-5.889956635681676e-05;-0.5102449199528307
0.5798754692077637;-11.584520733198408;35.01699690586378;545.4943005194621;6.61107987219105;-2.4919301997757515;54.47183363847364;4.788004537715817;12.905058369440974;-8.921693781219231;12.51727975238395;2.075758588765325;2.310275736561299;3.8871163491558924;11.175637012550768;35.41749232743932;2.6559783994392676;18.69807641334783;5.20615737477479;-0.1349134175424304;-28.582672584025133;6.129103372222397;3.679585940737488;0.8586722816170037;5.413713435853496;-0.018757401231936262;0.12675916106578924;0.05998828492935404;6.170067761607687;3.9420763271432415;0.9570050342634138;5.407983902648897;-0.019704092196741782;0.1454020145648488;0.06034026384467657;-0.00017881231115867476;-0.5120611999688702
0.6001756191253662;-11.462644542395743;34.90898219451131;545.3953659077306;6.615228887468377;-2.532235477283649;54.379212704026315;4.79042963378126;12.909888161535985;-8.899513992814258;12.517602349140837;2.0850000381098632;2.31098789204177;3.8697649827886353;11.106180092993814;35.36707303051992;2.6250172956339286;18.696053307503476;5.1919596013850855;-0.13374898938322405;-28.578883498843926;6.129707841876156;3.680418287561372;0.8589845693923371;5.4137941930032945;-0.018759838615946933;0.12681660802973643;0.05999086449199714;6.170345165012531;3.941057997718986;0.9566341153452282;5.408075089520697;-0.019674055088463524;0.14531114175240178;0.06033761942934591;-0.00010603235929567464;-0.5101911475159974
0.6199119091033936;-11.152620015741384;34.89146982311948;545.3998746998063;6.607060011904212;-2.7481178178917673;54.36043558524939;4.767830304324976;12.851506279375595;-9.015321607137325;12.423226923847665;2.059476809924833;2.299172663078325;3.8899925136693283;11.154474854615144;35.2988371242639;2.5939007643826493;18.678220598846615;5.193850938186154;-0.1348593772753149;-28.57413912156262;6.13108530205091;3.6795309498635596;0.8586580156183669;5.414222319293822;-0.018770172275924098;0.12676209433314758;0.05998583279196715;6.171796279815341;3.941649707775503;0.9568776170730081;5.408360398823625;-0.01964765639438794;0.14533837152502047;0.0603455082438483;-0.00017163202897569393;-0.5100640573307028
0.6398818492889404;-11.555112311348173;35.06843726366477;545.893402759773;6.618760521211971;-2.524061310209305;54.498814216409684;4.785239822090135;12.900467508789648;-8.900507258249618;12.517823455599023;2.084999548731167;2.3098348637963206;3.91049420381768;11.221329291135584;35.34480698257697;2.692834865119678;18.69202801980314;5.199702003033542;-0.13883096320316235;-28.57702143528976;6.130112810412601;3.6767761823900895;0.857601748796043;5.414138187816932;-0.018773911424577017;0.12655842537431444;0.05996398840709178;6.171046300562216;3.9444761663601726;0.9579223740633462;5.407860346652871;-0.019691248164358056;0.14556467775704052;0.06036366684760406;-0.0003897229563904524;-0.5119275900901238
0.6599116325378418;-11.345755009712446;34.85108455980499;545.6966165519054;6.567424708970293;-2.638144767640867;54.355559313703196;4.767927351138905;12.85302182436075;-9.019448985133916;12.420950712860837;2.0589530828163256;2.2996766367545023;3.870390102917614;11.15899262682474;35.37083078651106;2.6893032805630215;18.68611904781438;5.195962461076265;-0.13733238006865486;-28.569460356565244;6.132471791423459;3.678198140408012;0.8581239562620188;5.414723059728578;-0.018796609456637033;0.12665553901810384;0.05995421858773278;6.172512174947797;3.942752561275687;0.9573232521756715;5.408311591830464;-0.019662272642248707;0.1454515031108138;0.06037903822757243;-0.0002978852893742671;-0.5099596205126004
0.6798930168151855;-11.336265714783071;34.83352362748252;545.4991952553291;6.569567964513861;-2.627185702352513;54.39717503870671;4.765725128591761;12.847053417759362;-9.010995039068098;12.425761562815776;2.060074449720271;2.298340357390565;3.8810962054881353;11.186032372552837;35.39103449611442;2.6734785851719027;18.69872429381243;5.212294900670238;-0.13906191345757463;-28.57453661651092;6.130877304005554;3.677761449986254;0.8578848832800534;5.414363039175357;-0.018825683701651698;0.12659549184000132;0.05992020932096381;6.17027351181477;3.9433670390411555;0.9576117767886662;5.407536730045176;-0.019598952652920228;0.14549373987081365;0.06040314398371004;-0.0003653636205945181;-0.5101098579534925
0.6999170780181885;-11.34234022662481;35.002515330497;545.3012549232905;6.606260175890026;-2.6032245211592553;54.63952850620709;4.780278230263056;12.889649778133752;-9.045121906665615;12.435799062503415;2.0516879011195757;2.3078005119973293;3.933007632699539;11.287637360410836;35.45592287693026;2.653135642995064;18.71442237506274;5.242139829912673;-0.1452260759493409;-28.576667104892906;6.130070176432215;3.674066655298995;0.8564347406637383;5.414521885244419;-0.01885929638101217;0.1263089572730636;0.05987158978504579;6.169456229871247;3.9471666473901967;0.9590883491147555;5.406910831683028;-0.019607158467517705;0.14581029309263868;0.06044947833183831;-0.0006596421795026456;-0.5101774490149774
0.7199947834014893;-11.442780396405063;34.85973199252079;545.3951445024827;6.610416259128333;-2.539328735833479;54.54668318298654;4.778462382530797;12.885993855105868;-8.895251524382788;12.521363754406298;2.085711171987358;2.3072536438079685;3.9128624721555956;11.225403116765813;35.35799754588979;2.6224092332191526;18.701293595381337;5.2217237702396435;-0.14886348261337673;-28.578545081624156;6.129456630423533;3.672496826650818;0.8557747639582397;5.414540538301563;-0.01889848576086868;0.12617572667933363;0.05982612480431261;6.168414425873051;3.949082177401399;0.9598696270768378;5.406341759828256;-0.01956932722040245;0.14596518393849636;0.060489937360601084;-0.000835809544228623;-0.5102422266274447
0.7398769855499268;-11.527442298951687;34.72749166460726;545.1936723660214;6.552260606624116;-2.477419564700824;54.49733213975007;4.753850375720217;12.823296817526531;-8.938210141527055;12.453936286401023;2.06276360060211;2.2946563925907033;3.9013072423252986;11.251050701642846;35.45394360485324;2.680270500413409;18.704269152179712;5.236205136580316;-0.15250212105415414;-28.57858867133168;6.129379849763909;3.670634384486615;0.8550083919794577;5.414696586499522;-0.01893658543531617;0.12602175516151706;0.05978185450466615;6.1679458729046415;3.9509139849807786;0.9606382723147241;5.405927362745426;-0.019501833950813875;0.1460987006621494;0.06052744116442913;-0.0010090531546696254;-0.5102573498025773
0.7598755359649658;-11.62120360567281;34.78897145511819;545.385770391096;6.55674916908958;-2.3980740744632385;54.57226537021467;4.776615968961221;12.88311862996762;-8.903732511616251;12.51697098362168;2.0845843706204077;2.30688970697842;3.8842697635333594;11.23376889883025;35.46777668574614;2.6856790301777353;18.699134655705745;5.224677919622919;-0.15430647395887423;-28.573947924867944;6.131708033182873;3.670030206675949;0.8547345218620381;5.415412108986203;-0.018976560039258933;0.1259625008149287;0.05974721973540997;6.169560191450541;3.9512535045693875;0.9608470887532216;5.406205086543252;-0.01947450645182388;0.1461559953632927;0.06056356815247406;-0.0011069776178393642;-0.5119158065108433
0.7798559665679932;-11.50331345212528;34.88151423088584;545.4981920703044;6.54966861853108;-2.470212003672195;54.63776790599569;4.753544397087695;12.821775580289895;-9.019180711576594;12.422750840527346;2.059014898638115;2.294018813236963;3.934868762609705;11.363345103176659;35.51564226317913;2.757508648637092;18.722518833232034;5.254476666056228;-0.15533914697109166;-28.568464756786025;6.1331696547679035;3.6702482904581952;0.8547403828896668;5.415820856274635;-0.019020866067905866;0.12594564170715603;0.05970924403850539;6.169968652588882;3.9509508540511584;0.9608134525150758;5.406190727649302;-0.019466188125655023;0.14618997955420948;0.060599108298092695;-0.0011155251784473515;-0.5100137349862959
0.7999637126922607;-11.577159858276005;34.86822368173299;545.1997664266761;6.5833486673013635;-2.3305089616281336;54.72462959346359;4.770312696270934;12.868506950304297;-8.911424687101931;12.513543145046336;2.0835145578102305;2.304021560288073;3.940469584752122;11.351731159653843;35.535993370393875;2.710416067420507;18.73766355876855;5.269206480716315;-0.15982589081788215;-28.56754510665189;6.1336252518359755;3.6678507965578744;0.8537600114050864;5.41612499293752;-0.019060426444403568;0.1257433963080579;0.059662706848181424;6.169433949860838;3.9532834512144706;0.9617816034711595;5.405714555962696;-0.019410436649609453;0.14637684466942563;0.060636604844264;-0.0013351006514176235;-0.5117951604236994
0.8198740482330322;-11.338770801317674;34.55454405238639;545.0032155862398;6.533746546670801;-2.476676600569178;54.51884137560091;4.748732293979539;12.811836056632197;-8.95137803491593;12.447416298004505;2.0609777338197213;2.2922969665654103;3.8898239687904357;11.257470409526666;35.462567880757014;2.66051100016017;18.7230340882113;5.266657007266028;-0.16111847684340636;-28.565217364368785;6.133663150404006;3.6676890992829265;0.8536308984111283;5.416144713601332;-0.01909849857919132;0.1257063382656797;0.059625366317835424;6.168552302567465;3.953484676671241;0.9619293720437564;5.405312585466212;-0.019356379769189774;0.14640358706809495;0.060663215775925934;-0.001368266267224874;-0.5099807034540791
0.8400518894195557;-11.398831687630476;34.55070462918905;544.9079902009302;6.513199347607462;-2.399322816275628;54.552498376838955;4.745827950712153;12.804180959929267;-9.014509585004339;12.426428875897045;2.059758516225587;2.2906575441152084;3.8982969942021835;11.267072284021747;35.5896536033719;2.7068727320004835;18.73284476336133;5.263489663486023;-0.16265865694795353;-28.563152541568627;6.133941311829267;3.667216100919021;0.8533939035968553;5.416226645148388;-0.019138200236344244;0.12565502782942034;0.05959051424357652;6.167885122566473;3.954043423442131;0.9621712914047504;5.404945706240747;-0.019377471352598367;0.14649059005424936;0.06068965802266864;-0.0014363865262521586;-0.5099403648842521
0.8600490093231201;-11.258822497899738;34.92723206513321;544.9153797088549;6.5787699133877835;-2.4504454301727066;54.84486427144264;4.764012896184236;12.854883554777055;-9.019596369781821;12.42456235507927;2.059219736041749;2.3015518173068457;3.9773020842743607;11.438194468155311;35.53968887808991;2.674773084063632;18.72369631363632;5.288504360804554;-0.16616705523156902;-28.556191545608453;6.135537624428175;3.6647626846987618;0.8524623706849817;5.416767082008231;-0.01915684199791702;0.125479661822946;0.059562225643972844;6.16987271021675;3.9562666741120616;0.9630494291786691;5.405196519985656;-0.01936296367999963;0.14665640519831377;0.060712617155917574;-0.0016236252997395909;-0.5097422374331856
0.8798885345458984;-11.212752282319505;34.634426244778965;545.3172190841674;6.5298569912001065;-2.483403665611064;54.5909255233513;4.741256220649419;12.79529744768962;-9.031752543911004;12.417847494115605;2.05753865108192;2.289279679444238;3.922430807686211;11.315881269735446;35.489184997206166;2.704936439995855;18.710866977066324;5.256586169247125;-0.1660041970596696;-28.545576357228686;6.138631347126247;3.6648772883814704;0.8525122993705371;5.4175087006662235;-0.019176370105663053;0.12549232148170142;0.05955192836754104;6.172819688350889;3.955751252688809;0.9629079804458878;5.405929701638177;-0.01932744834780669;0.14661452762110747;0.06071977492268678;-0.0016231927846817509;-0.5094381604248105
0.8998947143554688;-11.051300128002595;34.53328465297004;545.323353185456;6.530233858949025;-2.5074740806722176;54.48512607361168;4.746052634205479;12.806264851591118;-9.039249402161857;12.413294816301732;2.0565663694521112;2.2912064499066886;3.894833224477522;11.227125058577991;35.46709406869486;2.6973272969276207;18.723218933979243;5.236205549480365;-0.1636989013291437;-28.535694092319723;6.141588046178758;3.6665006776825857;0.8531338699986706;5.418080543433482;-0.019188396890385442;0.12560972747939375;0.059554390255953396;6.17540250789247;3.9538619407533737;0.9622058689881211;5.406701555463505;-0.019369908352876407;0.14651379272446025;0.06071591074457407;-0.0015068757177330618;-0.5091532897139895
0.9199707508087158;-11.3027681652131;34.76575131658243;545.0277915584844;6.58611121857454;-2.2209834038220464;54.636453492543176;4.766067901243267;12.860224890621017;-8.9290116973247;12.468491783196932;2.0679261988312767;2.302408301259544;3.942742914983839;11.288066548525135;35.58262668790937;2.7405605199645056;18.73988714647958;5.241654915221544;-0.16402915468711113;-28.52461651675684;6.144980179143732;3.666440036579794;0.8530923499824271;5.418901882583711;-0.01920241969421399;0.1255882793303219;0.05955398720867394;6.178656933160628;3.9535506128384887;0.9621527308616458;5.407576496128638;-0.019376617576371977;0.146530058083579;0.06071736232796519;-0.0014895993087624777;-0.508837994723222
0.9400582313537598;-11.164222696103275;34.907822515430354;545.0374585006856;6.610838239144122;-2.2884222111622847;54.74512578826138;4.765117431777312;12.856794322483678;-8.94028138526844;12.499140544306343;2.0798686156868484;2.3015820283973714;3.970900600801913;11.364210876873692;35.54218552364363;2.681578789119684;18.733260130806684;5.266089380673093;-0.16366433776614592;-28.524389329618334;6.144898675072264;3.667586845175765;0.8534514849049242;5.418698329773899;-0.019204067566311447;0.12561589519701385;0.05955151313739126;6.178094295351961;3.9527549607770847;0.9619243430362422;5.4074690124226965;-0.01934776122637475;0.14650200187464812;0.06070840279492341;-0.0014039329574677952;-0.5088294563499101
0.9598875045776367;-10.859734601395266;34.764863787382126;545.5468044952961;6.5829556011008075;-2.584655611489218;54.55972191306198;4.766742040197478;12.858903566831456;-9.09638673685517;12.410089110545819;2.0449194739833603;2.301499016879457;3.9243106109921224;11.244687748919056;35.42472124540653;2.6661405832318374;18.706782549127773;5.244043067835819;-0.16106150310710365;-28.519197587921788;6.147234052478986;3.6703226168114345;0.8544029664357242;5.41908435141292;-0.019211171658636325;0.12574796281938028;0.05956122906561658;6.17925812032;3.949883156016836;0.9609487376510866;5.408052942311039;-0.019335343960034036;0.14636285751677172;0.060699193927783154;-0.0011794172319623125;-0.5086909341593664
0.979999303817749;-10.767894154000988;34.816694388119586;545.8596043072065;6.589877083504401;-2.7115851844146235;54.4757057068366;4.743140682836069;12.797739240002082;-9.055904287144326;12.404810993951745;2.0543291510066357;2.2892458337755235;3.9459801587440273;11.278862043279464;35.26896438429571;2.645237197429748;18.67615350677655;5.226354764762971;-0.16290084758573517;-28.522536755907318;6.146990502363558;3.6699883794780077;0.8541656736383425;5.4189860954187905;-0.019208046932557656;0.1256425119942383;0.05956157657364381;6.178643166698089;3.9504398761719237;0.9612348003254162;5.407946081406279;-0.01938840605396549;0.1465082303791059;0.06069669048315287;-0.0011701631430364717;-0.510566612866555
0.9998905658721924;-10.987944585186005;34.894567189141874;545.962965090439;6.609729397786337;-2.595535221609097;54.43902522059449;4.766882783646418;12.8581985702274;-8.934743600973754;12.465334588827211;2.0670603154127236;2.3012374633914807;3.9257804973163277;11.224836176510825;35.23592503000829;2.6550882521309322;18.667566995598833;5.217864246523867;-0.16094430638900628;-28.52321854196604;6.147817718959886;3.6727185254240946;0.8550625114722272;5.419008351107197;-0.01921211437505186;0.1257417655312888;0.059574744681996875;6.1780378152380235;3.9478330441705785;0.9603703180380005;5.4080728426852795;-0.019375031907941515;0.14641279755700523;0.06068474587042945;-0.0009275766387414584;-0.5106061917748863
1.0198781490325928;-11.203259730329986;34.97667632323791;545.9638346531633;6.599251205039478;-2.4805258074382905;54.44318958845736;4.726131267245427;12.74634310425782;-8.9316794451119;12.502624887491084;2.080777308889138;2.277541877600308;3.9686307059583683;11.337108454322822;35.348685386354695;2.6978490572262386;18.689924721992107;5.242912927854694;-0.1577535163584328;-28.533839329870144;6.144766814199685;3.676648289709492;0.8563704807510626;5.417877731511843;-0.01920275365067728;0.12590941160857103;0.05958625637453917;6.173328174240324;3.9445206074178816;0.9592346861002204;5.407187337259522;-0.01934080771945982;0.14625305250589665;0.060660996891904066;-0.000587734897984105;-0.5091441886681528
1.0399186611175537;-10.927873861243564;35.173293086642225;545.381194917743;6.61707733794022;-2.615957593981129;54.57519999899618;4.744775494525544;12.795697019536235;-9.048232559580548;12.408587815628865;2.055124450089748;2.2877337580689336;3.986861029845466;11.379855595873025;35.38461625594944;2.640500509318798;18.696867620397132;5.262313400963768;-0.15861548301944547;-28.53473013784278;6.145422125909146;3.6773264148431073;0.8564895856890474;5.418010110430011;-0.01919342164452064;0.12584180201421374;0.05959845873750268;6.173127385232143;3.9439874914610273;0.9591489255406378;5.407369050549507;-0.01939353125328868;0.14634980353483823;0.060656215343012874;-0.0004707472893769075;-0.5091727829209355
1.059990644454956;-11.154201006947078;35.256627293855765;545.4861222338081;6.638324599891739;-2.483588668328636;54.58618692377225;4.767453103952643;12.852922329374273;-8.937937261812825;12.499899967940763;2.0798119422110712;2.299061241385764;3.9711815542366415;11.347358536150185;35.38571758204173;2.644555157793197;18.704533556021698;5.273285687382341;-0.1565403965080538;-28.53905160152531;6.145019577140122;3.679938705584688;0.8573661132632642;5.417745634590741;-0.019179371214825214;0.1259344027098184;0.05962115182443508;6.171544539391078;3.9415978289774145;0.9583442257182802;5.407294937534212;-0.019398354320728332;0.146263210730819;0.06063497456892799;-0.00022430332687894614;-0.5092854822941079
1.0798959732055664;-11.169262650838238;35.23562129184232;544.8917665769143;6.613229794680078;-2.3766346314779625;54.58521751476176;4.767645863364534;12.852423133918315;-8.949286218079358;12.49362351639023;2.078169559384642;2.298806555176594;3.937079765126654;11.329573082098769;35.50961457115767;2.628354477150587;18.726315937917345;5.294774411025083;-0.15477559602355836;-28.536680164113676;6.146591459381965;3.681695397646773;0.8579706809388435;5.41802726486457;-0.019158780418734193;0.12600010841287243;0.059656369232239825;6.172588665980742;3.9397085797324767;0.957716833188049;5.407923954854828;-0.019387869306668956;0.14617748791950344;0.06060933611902349;-2.7785818042956947e-05;-0.5092079105732449
1.0998663902282715;-11.110806958387604;35.50552562891899;545.3920172533012;6.6298874834454855;-2.5176589868480335;54.60642356602223;4.750056078497625;12.802764651371646;-9.065604978335575;12.398207798473624;2.0524288065779426;2.2880261538037887;3.998108847484487;11.44592756607759;35.48697068289462;2.71243329301286;18.725078514058616;5.287119655061709;-0.15001642309787822;-28.536126689530576;6.1476379813347215;3.685213191900779;0.8592840326221455;5.418041744904249;-0.01911976734362123;0.1262111315797294;0.059705691045337024;6.173027598293699;3.936170358494823;0.9563914318216059;5.408529885568671;-0.01943961121307297;0.14597593437308265;0.06057172284271934;0.0002868016566188458;-0.5091776607048413
1.1198928356170654;-11.146477941605816;35.47181626032062;545.6037689641462;6.611686296361337;-2.582093140617431;54.511927184262845;4.7497359566132475;12.801126936129032;-9.053433164656736;12.40494131957358;2.054099153515529;2.287674809187802;3.969457490953814;11.393324720256418;35.42443483045195;2.7039526517633385;18.71092026247506;5.275941126139428;-0.14797660360125967;-28.545018204176607;6.144876747761992;3.6866516216776346;0.8598239457770145;5.417157304236626;-0.019071311314700905;0.12629109082920212;0.059750480726512324;6.170669818651805;3.9353657676520184;0.9560311908027153;5.408168475046802;-0.019489778804389346;0.14592744930653892;0.060529251873260886;0.000436543383983563;-0.509408188207006
1.1398496627807617;-11.25363324975266;35.63301425954489;545.096554047926;6.654257705246581;-2.4765037888858075;54.6044877162457;4.776829595447577;12.867556076289357;-8.928713111424202;12.50357368392051;2.080758632593847;2.3005045745757244;3.963774086476899;11.381805081123773;35.42784660757343;2.604580671911712;18.70731932684077;5.274195030329518;-0.14158999480603773;-28.555847638481445;6.141699200113628;3.6907544903879983;0.8613966415767638;5.415965616194121;-0.019020206429992602;0.126580674233847;0.05980737834718813;6.1673623597175355;3.931633384386228;0.9545433938439603;5.407741048609775;-0.019497211562713924;0.14562015691533928;0.06047149157298409;0.0007753493705630909;-0.5096917770683714
1.160017490386963;-11.383610582786645;35.47353516135658;545.4940554918094;6.605003389547942;-2.4311774331205385;54.450630006552764;4.777808363712717;12.86915140973314;-8.932153774018897;12.501548861697703;2.0802360470348074;2.3007203644723426;3.901841457021037;11.292225354481715;35.454095647977596;2.696170685583782;18.733821026316445;5.279606836674267;-0.13799141216664335;-28.556232368372598;6.14156559846885;3.693412617343063;0.862485511353191;5.415747577590355;-0.018976589670831788;0.12680719980956756;0.05986945143845207;6.168012872837881;3.930171485776222;0.9539049101540842;5.4082086441709745;-0.019518300449271317;0.145462833599521;0.06042449405721873;0.0009267042672835291;-0.5096853238261314
1.1799964904785156;-11.191567166311318;35.504759572502664;545.1014298811871;6.582712710309003;-2.5033322341311077;54.49768570633226;4.779893249387471;12.873342956035211;-9.13119327864819;12.370036822594487;2.042015950114677;2.3013462994356177;3.901540922080324;11.308285416438157;35.60318151828472;2.7260922289798195;18.751082620106924;5.29891638278616;-0.13353564259664386;-28.550115084644126;6.143572017834445;3.696542837408979;0.8638069350970438;5.416095968475457;-0.01891774780081658;0.1270845540943125;0.059935336598408315;6.170823903275695;3.9282304760272497;0.9530430815825853;5.409267743158998;-0.019613552824180785;0.14529709851349976;0.06038454639594885;0.0010835283499485418;-0.5094988725902162
1.1999194622039795;-11.399771805637197;35.507597577136494;545.294931924372;6.594077757105493;-2.402261378864317;54.452103127335256;4.782977483316619;12.87890999519948;-9.068949416776833;12.41105387401334;2.0540756526696446;2.3020314066909555;3.902380926535591;11.282706165196913;35.613724829477974;2.761532381889817;18.743262149445396;5.285679905787341;-0.1285017438425377;-28.55165050292504;6.142805744826366;3.6990240612541765;0.8648833657753454;5.415702577964134;-0.018868044695346628;0.1273342794596773;0.059991637696255797;6.170870283774202;3.9260255579741;0.9520959604418479;5.409505275878343;-0.019641460195423732;0.14505351916961803;0.06033991330350369;0.001243634465273676;-0.5095246181166043
1.2200055122375488;-11.40295731168737;35.67965862447957;545.0920173482309;6.669368260253604;-2.367617943491574;54.54664046416183;4.78284877139393;12.87916549010845;-8.925414522971309;12.46785055211351;2.0675336243983327;2.3021759258269143;3.9606490051194516;11.36229672341593;35.51292512425516;2.704297872052293;18.74762991221505;5.27628184858313;-0.12664021305497777;-28.554147720503774;6.141305400254099;3.6984183530287873;0.8648228930620988;5.415335085161839;-0.01881990425665956;0.1273881879354631;0.06003228700851108;6.17091754630446;3.9261994922822994;0.9519923291965068;5.4095263770838145;-0.019642065713160968;0.14493525041186703;0.060306593466007856;0.0012087594599405286;-0.5095783969554546
1.2398858070373535;-11.217317861459094;35.42677657348916;545.590338242537;6.6156744423429155;-2.602470760453677;54.37369304135829;4.760336577385949;12.820841095674325;-9.044103341681112;12.408477213325694;2.055098380319322;2.2904776940866416;3.922890212115163;11.286327820931126;35.420259860196055;2.703340197172079;18.71870083221375;5.250774039652088;-0.1259910709490025;-28.55700024708716;6.139497268846983;3.696874561580696;0.8644160420894382;5.414971195608219;-0.018790677071519844;0.12739618407265282;0.06005970736243683;6.170841683640861;3.9271832053383346;0.9521498689364547;5.409394413825345;-0.019709747492597893;0.14490244378436698;0.06028592877112706;0.001085338550691086;-0.5096436495344449
1.2599952220916748;-11.098003750727175;35.33040865699667;544.9703825963056;6.611426394608088;-2.59168096434896;54.409436295144786;4.76591110332005;12.836235292102286;-9.035090815753536;12.412835793675129;2.056484436308898;2.2939064961218434;3.901912913850783;11.253731483092912;35.44974667021094;2.618953268598132;18.71410359997371;5.245456542864402;-0.12523914541764725;-28.55799843642373;6.138325535243356;3.695383799231117;0.8640414966810187;5.4147922634019015;-0.018755974757008784;0.12740632637601682;0.06007566146422272;6.171209409988409;3.927190184902062;0.9519666575522421;5.409367155691094;-0.01972466127338534;0.14477319386488982;0.0602706950618621;0.0009460641401013645;-0.5096571763835025
1.2798867225646973;-11.292333924574343;35.24690432005552;545.4523961632924;6.60353168838324;-2.5496707640188916;54.3623118589447;4.788385732017831;12.896512929170589;-8.963173250751158;12.439209060018136;2.059003938504764;2.3064209305174495;3.8746272835180595;11.185046101259044;35.386483887182465;2.6711230889493747;18.696454674506036;5.23078753978568;-0.12617807850492627;-28.55975328206747;6.137017222052513;3.6937135142452746;0.8635104412379239;5.4146039843967095;-0.018759254785419517;0.12736675165064343;0.06006316737453178;6.170669670115516;3.928523131311789;0.9523712932704581;5.4089258835695695;-0.019686137083962676;0.14476043289413398;0.06027699263645467;0.0007718838909763341;-0.5096938068897715
1.2998530864715576;-11.38040114655978;35.16598525755791;545.7562012577039;6.617603451905928;-2.475788512023229;54.404917799919005;4.782196607555546;12.883777191620355;-8.924500290852928;12.50515917490069;2.0814145501013495;2.304394028201043;3.896240177778094;11.206054249576752;35.390536598275844;2.6964882290892795;18.708643352395956;5.2360259624133265;-0.1313880807147084;-28.555299214423425;6.138066667117318;3.6897044899513025;0.8620373083232118;5.415242667884511;-0.018789167201284082;0.1271260431555509;0.060021923142140506;6.172023131312051;3.932249042922772;0.9537592341164595;5.4087551087453765;-0.01966713564240312;0.1449885030924065;0.060316391659833074;0.00042717182037261756;-0.5095522065136023
1.3199083805084229;-11.230686794874826;34.8776211329462;545.2534855195121;6.57826375046098;-2.496940147780606;54.29332059425603;4.758683240971592;12.824278028975773;-8.975866034319237;12.432971460326424;2.057321334364167;2.292417487265498;3.8758323488014885;11.153316037883602;35.43377076632332;2.6686576417351695;18.69956987595618;5.2260311229477265;-0.13569139444629438;-28.550093223717166;6.139944687334586;3.687032107604319;0.8610127169577363;5.416012182418022;-0.018842271930395248;0.12695192076172268;0.05996572489971164;6.173501595699256;3.934603573942854;0.9546799723186827;5.408649197106432;-0.019653681615097528;0.14516313897297842;0.06036872114293524;0.00014262339541473018;-0.5111685999983363
1.3400986194610596;-11.294749017716704;35.08173475953582;545.3532331360857;6.626098291973984;-2.390298903197319;54.517740886975275;4.776269228335143;12.874658813999005;-8.92556501850889;12.468770565352582;2.067960305982794;2.303369863740696;3.93418308259894;11.263187859686974;35.45064042481897;2.702254987793791;18.714556265234254;5.2327336195209755;-0.14281408253215608;-28.53863919372878;6.1425669297092735;3.682664975973925;0.8593138144207122;5.417103036119022;-0.01890822526918135;0.126637291257219;0.059892293942327215;6.175757965177161;3.9384946072559135;0.9562520519563326;5.408597823019973;-0.019579756480143456;0.14544373824995593;0.06043587857438694;-0.00022884701955920225;-0.5090719580529357
1.3600022792816162;-10.866109688033877;34.986784679866965;545.4598321758403;6.618091558934967;-2.6472132426883803;54.55813836543513;4.747660007675496;12.80522773614742;-9.064324408047831;12.39926950625787;2.0528752168563407;2.2901360469074876;3.9635588161968065;11.329355587548243;35.360461922846085;2.643096818865744;18.69777455080171;5.237456933133936;-0.15218530966793575;-28.52742794454774;6.145654904175151;3.676840254714451;0.8570471845902827;5.418424574050038;-0.018976295224995963;0.1262055798013868;0.05981217245959248;6.178701814210514;3.943684018259421;0.9583823903381494;5.4086389573847224;-0.019504766309020483;0.14584295808335102;0.0605115053101635;-0.0007090994951686842;-0.5087507349394218
1.3799324035644531;-11.230805904041045;35.12374309857736;545.2504642260635;6.6496392845470975;-2.266694380045813;54.764531875692875;4.768898167315599;12.861864817063767;-8.964200178454643;12.485212011574067;2.0762558731596696;2.301733601105987;4.0019320175604;11.406968015857972;35.57600652793021;2.7474358774993597;18.762362396172573;5.2638156874776305;-0.1562045058800691;-28.520226958778977;6.1481569955168665;3.6753378939827988;0.856376188484971;5.419295340992999;-0.01904810485603113;0.12606093796114762;0.05974393691467586;6.179841444232094;3.9449530295697213;0.9589780473698176;5.408545195540077;-0.019493030419603208;0.14600988466235798;0.06057627413831076;-0.0008926000505221337;-0.50854551398178
1.3998973369598389;-11.12196593250232;34.671918488825256;545.9543312785149;6.57176806226615;-2.5101145025612155;54.46546239023221;4.765697324416175;12.854647730140565;-8.960276526615743;12.487708844107239;2.0768022356884503;2.300342296625444;3.8935000344700397;11.211903666726384;35.33503086702553;2.686166718327734;18.680673294167054;5.243238712389178;-0.1606855057786161;-28.522789515820392;6.147883515793363;3.67346449033411;0.8555559068820061;5.419424245742649;-0.019107394862442784;0.1258852011645053;0.05967874803722897;6.1785915397936435;3.9469063488175555;0.9598218055283205;5.407806968585021;-0.019436295167893122;0.1461871710935646;0.06062943530692934;-0.0011110485937533415;-0.5103869333522558
1.419844627380371;-11.288877613030545;34.81284744552696;544.8570469323384;6.588029345253434;-2.176925337432124;54.735017883111546;4.763904974298431;12.852340486281118;-8.962227508922288;12.48689704472372;2.0766046790638293;2.3002771628821224;3.953842291871779;11.353925786125874;35.657241879657604;2.7256463856603177;18.74885342074827;5.287118937141818;-0.16516503658876533;-28.518700176740765;6.148542704801121;3.670870560045099;0.8545305412406582;5.419859768464784;-0.019147478956254807;0.12569044691423203;0.05963179520848245;6.1790504256812175;3.9494003286940353;0.9608449808639163;5.407593443605993;-0.019368914728633384;0.14636690219809834;0.06067173905922896;-0.001323179180058004;-0.5085063025074011
1.439845085144043;-11.606288215236034;34.87330811261833;544.6392905011522;6.56319663714892;-1.8749269307082486;54.85081236182393;4.759142537658266;12.844213994402072;-8.97085503783077;12.482831767080679;2.075508187598477;2.2994298341515953;3.9733110077446767;11.420620271791572;35.91591313077071;2.8697146256875876;18.810445153761687;5.291509194619617;-0.17023927653407703;-28.51452536799709;6.149652522909775;3.6671596160463293;0.8531461119622465;5.42048640741724;-0.01916334444244233;0.12544379864910127;0.05960497744657965;6.180842826429928;3.9530164706800925;0.9622057609204059;5.407739961147201;-0.019393070030040822;0.1466460195837815;0.060703947224278194;-0.0016040469373301896;-0.5083942488942268
1.45991849899292;-11.103368944046256;34.777245178776994;544.1453609820883;6.563703856228176;-2.2105127227836476;54.786612093696384;4.741128304885618;12.793243880264493;-9.067466863454747;12.398196347033304;2.052495238560505;2.288287142868508;3.9690915689374;11.412997246189455;35.77796475829618;2.7116154727235946;18.785588652337665;5.291429279379852;-0.16643388939392423;-28.521572738907523;6.147381643740406;3.6696771824136643;0.8541229584170728;5.4197204361718265;-0.01915954194202741;0.1256484223602313;0.0596127104962835;6.177802216106208;3.9509357216565393;0.9612729266503858;5.406673949766626;-0.019390031894010874;0.14646048820555552;0.06068609038319984;-0.0014497135224546803;-0.5086099610629319
1.4798948764801025;-11.244830827215427;34.6895219053911;544.8409787388149;6.577236749251634;-2.233711216678749;54.66863268201385;4.762620209465949;12.848983752207511;-8.959093688874482;12.488577234412443;2.076932184514267;2.299603443249597;3.9261925892942;11.297983651136255;35.623397691282136;2.7103074256906146;18.76621390102837;5.269002304114824;-0.1634911153708933;-28.523972662642958;6.14640202022138;3.670574509994027;0.854575684057945;5.419397245180881;-0.01912626121280992;0.12577663992305282;0.05964592054209013;6.177356471872062;3.9498943007500342;0.9608284284970414;5.406368315802201;-0.01938258376196792;0.14633070154107775;0.06065260004735954;-0.0013731756060687515;-0.5086950461613153
1.4999027252197266;-11.285675706406334;34.70261931739247;545.337890445926;6.56966356157041;-2.327652011763284;54.61473746277677;4.764861663951275;12.85349786686666;-8.969032082285958;12.498833590841354;2.0779316461820008;2.300388369013057;3.906633190305661;11.272850498981613;35.536435780383584;2.7131392595234516;18.7383546563774;5.254605336344356;-0.15832027211198121;-28.527557943252845;6.144930894093475;3.672142532983477;0.8553674636680654;5.418850643951675;-0.019064515270938547;0.12599772687971902;0.059707970284445105;6.177679140619453;3.94845892040205;0.960131451765519;5.406797059549068;-0.019421021504763734;0.14613049628737862;0.06059709719903019;-0.0012308962466933884;-0.5088006648092798
1.5199968814849854;-11.415189925259021;35.032917268409285;545.5339304866748;6.606002027621086;-2.3489789319587615;54.81414611735333;4.788326186021594;12.914453646188186;-8.951212197697057;12.508718027663159;2.0804580308538867;2.3129658711043994;3.9491522534093995;11.391324450642976;35.49822444564649;2.709859437457006;18.704901866850612;5.284610550285229;-0.15264140820720987;-28.53591799745801;6.141300806127977;3.673229692155016;0.8560413183156022;5.417681662379704;-0.018973231030596262;0.1262187204187895;0.05979074287236634;6.1769428676438345;3.9478833984394823;0.9596153001086163;5.407010258474835;-0.019547120818349334;0.14597523119648761;0.060518891888620106;-0.0011014795700056614;-0.5090375638869608
1.5398883819580078;-11.239592533265;34.886026741270655;545.6328317635338;6.589391976535293;-2.496779747758481;54.62135448773415;4.769898261352472;12.86413840370154;-9.002230410056264;12.456656208885782;2.0673577443129374;2.302459260390032;3.918751347396095;11.316617707701532;35.42461989816434;2.6957449833251728;18.69750948357718;5.267103296527185;-0.1436944005123916;-28.534569699084642;6.140956956838791;3.675874448511449;0.8573867749208239;5.4172593015500174;-0.018867466128661185;0.12659057581289693;0.0599071974041202;6.179630934004888;3.945251875830699;0.9583066697527828;5.40832129256437;-0.01963582911516079;0.14561988206796114;0.06041669795644313;-0.00083836555280854;-0.509008138583954
1.559959888458252;-11.246047531684933;34.7303937197505;545.8273388970197;6.571333170670579;-2.5120269646159414;54.37207916828386;4.7838458963879695;12.8933931716925;-8.939995889540603;12.49634342522259;2.079383521090575;2.307285338186439;3.8274823042857964;11.130363957947196;35.34505480865642;2.677608404730344;18.68919776116658;5.22478123393371;-0.1281388499249178;-28.5346528200361;6.140424864147047;3.6829729779863802;0.8604501279039823;5.416420697871569;-0.018740388136433257;0.12729098367937844;0.060051938043834914;6.18151631349223;3.9382040441998405;0.9553043016200283;5.409810000137705;-0.01971849821608434;0.14491754396971293;0.06028273983341923;-0.0002604273228932674;-0.5090188883188399
1.5798754692077637;-11.131678068932708;34.87970207994328;545.3233586466715;6.616493094923917;-2.5153324988264956;54.417820354561;4.7944131954143225;12.915799704877891;-8.940056121581808;12.511090251436853;2.0817784793078262;2.311138470436663;3.841336577069218;11.123983984373929;35.37847700513953;2.603349730029525;18.700973103671387;5.210228977831731;-0.11542401538423963;-28.5398610462038;6.137803802086638;3.6883239943291404;0.8628097080098626;5.415112234874464;-0.018620281486842777;0.12784805082359343;0.0601819669179229;6.181568290077413;3.93322659490269;0.953051004171559;5.410608329363964;-0.019877218580387025;0.14441329661869717;0.06015829863611705;0.00019560559908567577;-0.5091750414401881
1.5999500751495361;-11.246813156227667;34.93272113690268;545.5214672569228;6.6159169448512225;-2.447344536777912;54.36962527099555;4.795826301649607;12.91810663384911;-8.950464496877323;12.505215878176653;2.080277953441193;2.311445832817991;3.8339101923595686;11.102189727822124;35.42704311800435;2.668358779839892;18.709837107255623;5.195876405988552;-0.10773619440988837;-28.536017487014316;6.138347949117659;3.6906871167901203;0.8639882801553065;5.414926613789653;-0.018523006186637915;0.12815717170705934;0.06028658358084542;6.184660604917828;3.9307186163756413;0.9518615949681616;5.411994237372582;-0.019965459222484716;0.144109581746899;0.060068049909414216;0.0004439770484386367;-0.5090859153778656
1.6198999881744385;-11.146543103472851;34.99491082926673;545.4293434188758;6.593773050787526;-2.5303892242548045;54.37206908849413;4.763870891795521;12.860371334669018;-9.053754104130434;12.417672669580082;2.0565292747584034;2.299632089204154;3.861938904941496;11.177463629409733;35.473804606154374;2.7001520090367452;18.718908096456396;5.219828596084054;-0.10252116425666799;-28.54143772633033;6.1365617096046385;3.6925418382773776;0.8648448049561763;5.414167561039788;-0.018458984142780098;0.1283675656902726;0.06035539333292732;6.184531643438368;3.929024403514331;0.9510641475879754;5.412329955332213;-0.01999948488842373;0.1438951397970578;0.06000095123658065;0.000617746733171348;-0.5110301565916502
1.6400043964385986;-11.145244828935631;34.95063780360948;545.1354351225032;6.5987523896760685;-2.5149538052462006;54.333529828091855;4.7678574301347165;12.846356005235954;-9.0367456248054;12.411770334529612;2.0564387819308765;2.297236927541625;3.8571181167121305;11.150917883238574;35.48126148425019;2.6669980449654322;18.70599438172367;5.214462783211969;-0.10302801939385997;-28.543803821583737;6.13504592887418;3.6910116621343594;0.8643488130542837;5.413742078467558;-0.01840374016203576;0.12828531806906068;0.060393506211645506;6.184734568673125;3.930675436409707;0.9515910212793354;5.412451183153593;-0.020063466003734716;0.14399149294408442;0.059965876022043896;0.0005725438753721975;-0.5111226604846173
1.6598994731903076;-11.251933834248987;35.00064989578818;545.3383737702205;6.620773048744902;-2.415894541382052;54.31694289184124;4.769444482654128;12.848678597260385;-9.015242690135672;12.462754022667161;2.067716011941622;2.297365718223468;3.8621505535056238;11.133955689638507;35.526152882201394;2.704165083007413;18.731010568219496;5.203504129380232;-0.09922107806743491;-28.536484406001314;6.137122567048082;3.6933188125311585;0.865252389339169;5.414064162535837;-0.018375692537530935;0.12844746544607846;0.06043494512772435;6.186820805628143;3.928127252152153;0.9506247996870657;5.413363492583359;-0.020104523025014316;0.14383217313737579;0.05993692807444627;0.0008010302437950465;-0.5091731709307242
1.6799774169921875;-11.14574442230938;35.05586067063918;545.1464137993823;6.617659521812119;-2.4419697833311176;54.27808850729152;4.772067820451962;12.853481065138862;-9.054307938708945;12.40154475768103;2.053872046730552;2.2979618674172237;3.8585685610675635;11.119898909133914;35.55417226797318;2.7298044653138827;18.752691397543757;5.19348321054028;-0.09639469133268994;-28.53462321902721;6.138179168304722;3.6955934709937446;0.8660861111659562;5.414166792249858;-0.018358933044784163;0.12856931489249762;0.060463023816582494;6.18724523570364;3.9257254433180475;0.9497612937963649;5.4137207058071395;-0.020091007161307253;0.14368688149262948;0.05991399589145528;0.0010087455817784615;-0.50914031249743
1.6998794078826904;-10.938243341365068;35.21281442212645;545.0586262565531;6.677593293758684;-2.6060892921792345;54.3283899877925;4.773123837234587;12.853781593537976;-8.984552771738414;12.426357247891971;2.0559207533818276;2.29748448837536;3.894384551028705;11.183793353319398;35.36135386887032;2.603773367335414;18.721880506266206;5.209494355513041;-0.0941763852062867;-28.53836627409404;6.137428530422265;3.6981132752170254;0.866929141453849;5.413728156269642;-0.018361097518484477;0.12867653777937385;0.06047309445043037;6.185435397922568;3.923338662518127;0.9489455712350164;5.413461706906954;-0.020065771816108406;0.14356578619487553;0.05990150195564294;0.001216688179158779;-0.5092624989175792
1.7198576927185059;-10.935974655352375;35.24044106288201;545.160755497458;6.687859958077047;-2.641745495963356;54.32402974115325;4.769380580408157;12.846096955754598;-8.983898249984936;12.427274068190087;2.056081375506768;2.296334860716463;3.9117108464949766;11.188896755621355;35.3239911779601;2.589892029824222;18.70181014259372;5.202429761252253;-0.09754748379115906;-28.54025111756696;6.137492052344647;3.6966111678489053;0.8662545865814018;5.413813130415989;-0.018359866044789758;0.12849006910852093;0.060463338126923324;6.18521753126723;3.9248501492511254;0.9495943563264523;5.413318917312519;-0.020111263381642284;0.14377355175706183;0.05991527346018582;0.0011314670703868514;-0.5111048884242517
1.7399170398712158;-11.244654275442702;35.25492064778164;545.7578779964226;6.6528739215331525;-2.4897123344807284;54.33801845720013;4.767977563909533;12.8428137545824;-9.018574033201812;12.461132862709949;2.067200597730265;2.2957729223529486;3.905039350817903;11.203854444653283;35.4471869570843;2.7159121881117914;18.711528928517264;5.214185959394548;-0.09961244845068978;-28.535384794616846;6.138808304604657;3.696172114343835;0.8659756808296606;5.414180596877979;-0.018373974014769597;0.12838188998845657;0.06045115102868337;6.185751550367039;3.9250817378535263;0.9498062034868083;5.413426755685785;-0.020087403972285693;0.14386052875062272;0.059931710503343075;0.001136290643417148;-0.5092199215910375
1.7599592208862305;-11.03861940022227;35.37798819370656;545.8670648531773;6.642480675372036;-2.6638980216806374;54.39618454681003;4.788194799064735;12.897511820867685;-9.117103429043095;12.36085705509996;2.0417482569289684;2.307257844532902;3.9038793831251595;11.22244789205511;35.39369195562646;2.726779533384912;18.694362228689922;5.219750732025007;-0.10267315065114002;-28.534409831314303;6.1398700941224345;3.6950433682577546;0.8654332006262029;5.414522476701306;-0.018390706068090623;0.1282247817989151;0.060433035178271304;6.186149502926067;3.9259838250797765;0.9502795026633402;5.413414243586992;-0.020038483970855725;0.14397932487358345;0.05995095780923747;0.001059607753378764;-0.5109795657320234
1.7798738479614258;-11.017290947448675;35.28827618737946;545.7780641959621;6.6597817906726675;-2.6276982603575263;54.32585914316499;4.785207744667158;12.891523461146157;-8.998508051904242;12.420461668554758;2.054223337496361;2.3062814376506893;3.8894386534003997;11.17875633909572;35.300939071196154;2.67263806142871;18.69239173592815;5.2117848981280135;-0.1054986175233087;-28.527874897068145;6.141481416426885;3.6938433751265367;0.8648850861066675;5.4150167073108015;-0.018414135280577802;0.12808240836909435;0.060419117158426065;6.187261411235606;3.9269697902192426;0.9507359779566434;5.413593923980681;-0.020068612321373705;0.14413492365265934;0.05997123239962809;0.001005758872531225;-0.5090403763760897
1.799882411956787;-10.988563949338943;35.389037358564266;545.581992563786;6.687137320202971;-2.5590336009655132;54.3974840102146;4.790708526368219;12.901981303260497;-8.949045742293322;12.474746513589938;2.075548901115277;2.307644574373139;3.8994122383379595;11.215630452843122;35.31490353359649;2.635849007794392;18.70170004881023;5.2201757129760615;-0.10265717556801618;-28.522355254059914;6.143827413597956;3.6965469548809686;0.8658501882607911;5.4154460121650265;-0.018420814162815526;0.12823857363746377;0.060420742019464235;6.188283142607446;3.923956677125329;0.949674513749956;5.414036906997037;-0.02005551743613214;0.143962036866573;0.05997487078612631;0.0011948259630899434;-0.5088942860911475
1.8200292587280273;-10.758152857165808;35.27622657970008;545.4819432039106;6.657902567136505;-2.7159881749032166;54.34642549099942;4.768750414601472;12.844256079728506;-9.062330506362997;12.397739537309675;2.052824863867489;2.2957984900263884;3.9006775717141613;11.224785713647456;35.309674788496714;2.613589637882617;18.697126779163394;5.229846870880605;-0.10395133172230797;-28.52602441013265;6.142978827927374;3.6960426473198886;0.8656080338930836;5.415222760943673;-0.018431977924779568;0.12816633611879333;0.06040511125506698;6.187149737561326;3.9244573878712767;0.9499013726027106;5.4135918443499875;-0.020011465900831783;0.14399116172638554;0.05998311460579879;0.0011347712687679932;-0.5107693266767777
1.8399317264556885;-10.955026479992975;35.23410994497948;545.6752360116695;6.636760052976594;-2.5549315647322715;54.33830474802707;4.7684675235090115;12.845208839368766;-9.082149903028727;12.386931846592985;2.050112400547993;2.2962363897497964;3.896262790683907;11.218549586907287;35.42992732152257;2.723661864447128;18.712190114959597;5.227659506985782;-0.10614691156887968;-28.51299758899617;6.1467047441631895;3.6944586287088503;0.8650241404580745;5.416390067439809;-0.01845246118470878;0.1280634059377697;0.06038935307506374;6.190809372095735;3.925462574791016;0.9503266239922034;5.414418928796013;-0.02000144871948706;0.14407416886433289;0.06001063896561953;0.0010186482718989006;-0.5086378984148648
1.8602476119995117;-11.348415895497148;35.27544660205356;546.06067504002;6.616586862722741;-2.3397994675201943;54.43089177063693;4.762962241009667;12.834235753764869;-9.031168366900804;12.455138224739585;2.0656864046205934;2.294653051661505;3.915842224492037;11.283081544566135;35.54236409567632;2.8303592347232733;18.73218863425947;5.232441375084222;-0.11163597215386054;-28.51922255391139;6.144227254886138;3.6905037171109933;0.863498234998127;5.4160163270337325;-0.018484250628458307;0.12778948875630666;0.060345943828814294;6.188608691558564;3.9294160947050196;0.9517916081472257;5.413360914151841;-0.020006316049824342;0.1443501942564182;0.060042626748600114;0.0007143729750869496;-0.508796445144871
1.8798935413360596;-10.914262584285545;34.93812360043809;545.1765621468255;6.576390593200665;-2.5286556975478973;54.32009583522563;4.759297823873647;12.826870055169461;-9.062241696425806;12.399136045616926;2.0530510077758666;2.293481685235574;3.8475325577805988;11.166939787142658;35.46224852744685;2.660268520045582;18.709991213313398;5.233943968903216;-0.11542969852375538;-28.519869172193612;6.143589192488461;3.687943482245287;0.8625258964697162;5.416075792652594;-0.01850558091300615;0.127616460201266;0.06030448289405547;6.188114930998676;3.9319362600440835;0.952752498993302;5.412862229227951;-0.01995592781411662;0.14449624123199112;0.06007512052210179;0.00048080378589523097;-0.5088047520477164
1.9000396728515625;-10.993254981728532;35.17478861743491;544.4676474289854;6.628563625296071;-2.310131721036761;54.619946865231825;4.779313110772168;12.883203252945624;-9.012885500941305;12.413555171722873;2.0524999959310173;2.305618879695511;3.9071500670602;11.308663118676384;35.61030226491714;2.663711920916368;18.74504456877424;5.27734873331062;-0.11947408507064923;-28.512285168758417;6.146340224658787;3.684562477033824;0.8612959202072256;5.417121737424967;-0.01853603852518155;0.12741810615824764;0.060269484810895495;6.191270201188968;3.9345750748745068;0.9537669153453908;5.413361054057852;-0.019912172566589503;0.14464738607802025;0.060111417339376444;0.00019648340463009582;-0.510352880648342
1.91988205909729;-10.791522636171258;34.91815476797713;545.1574309392663;6.588124892556818;-2.544340039071052;54.46043239820702;4.755207264341341;12.821496244156432;-9.076184509318862;12.39212625119892;2.0512791144441325;2.2932735737610104;3.8767265623530958;11.261135897805438;35.44895484940935;2.6536598618783627;18.71693879994145;5.275041283074993;-0.12240715305183729;-28.509179474650402;6.146573787215886;3.6823450776667337;0.860486838351548;5.417385211013913;-0.018564907987196462;0.12729729649842406;0.06023384966810788;6.191557426899273;3.9368174645760363;0.9545683029627586;5.41310700800103;-0.01994025979202997;0.14479848254897762;0.06013957397099712;7.54901402608317e-07;-0.5084745824540208
1.9399113655090332;-11.196511442360814;35.066643738546304;545.5573729970677;6.607376212085516;-2.320996250870273;54.6003540516257;4.773501157714073;12.872494621828473;-8.994383085994695;12.479998016223625;2.065989378676673;2.3041834423803884;3.8992603133622663;11.30676679477219;35.52013321264688;2.7288923769059177;18.71330314863409;5.268355171868847;-0.12574573525999136;-28.50893075178295;6.147088608519681;3.6788968192159186;0.8592158524231452;5.417780266849056;-0.018589037245185895;0.12708672836414314;0.06019828638093179;6.1931227315367865;3.9391255128118865;0.9554320188448407;5.413228301312501;-0.019921316631277254;0.14493446985798014;0.060165373216352735;-0.00022986812975989493;-0.5101960985285585
1.9598994255065918;-10.987355456614276;35.13999941536711;545.3638362474171;6.655800999149058;-2.412363366686641;54.67114370400233;4.771843543679177;12.867919217968828;-8.98383200964019;12.490471189603138;2.0760322542014054;2.303163681325679;3.9422116073805085;11.34963561129342;35.44949478262005;2.6562494309504943;18.716622660499763;5.2613380057264925;-0.12680890946837342;-28.507970631279896;6.1467935645728184;3.6770418421349653;0.8585275376861855;5.417825661705509;-0.018611780170701163;0.12697822806857723;0.0601680121077304;6.19314820229369;3.9397384157163593;0.9556653311736767;5.413070587102774;-0.019875673695811932;0.1449391872200187;0.0601781956854741;-0.0002954778514212492;-0.5083570776371074
1.9798977375030518;-10.767507070927909;34.82392706667797;544.9595363690946;6.64066830737878;-2.519932945213469;54.45514591618357;4.727994233887662;12.752833791342303;-8.949858169775725;12.476535642375037;2.075846920872063;2.2795841863085085;3.9299680092875513;11.28938157226078;35.35110454004065;2.556988745442601;18.69873399446416;5.2481397624968755;-0.12769692543257305;-28.510487915064893;6.145805849093953;3.676420034693437;0.8582887114779366;5.417609062937505;-0.018634041117645418;0.12694776395760385;0.06014138852660899;6.1922257683988065;3.9404123035930656;0.9558881121140665;5.412672268122839;-0.01990439803166321;0.14499281066844363;0.06018757986273277;-0.00035850969693819543;-0.5083844653895269
1.9999237060546875;-10.777343679783588;34.92186286735879;545.5667316851159;6.645571302769814;-2.6027980883450965;54.52908704412053;4.76815444891327;12.860043866910212;-8.982288999191855;12.491806666371836;2.076283021923042;2.3018223845153964;3.906558803483601;11.248851607542232;35.282288216877475;2.5758322922634482;18.68194112210978;5.241648619638641;-0.12963582703425072;-28.507793411694138;6.14652195898891;3.675124999673744;0.8577894112702145;5.417897253778065;-0.01865671214087649;0.12685860017019243;0.06011614481504974;6.192798489961933;3.941500954525038;0.9563181113407755;5.412663566164145;-0.019898342158088445;0.14507590728640024;0.06019886206351266;-0.000453066089566005;-0.5082681516774932
2.020097494125366;-10.967271245630403;35.03211352224849;545.3675324839023;6.655871624726945;-2.4052857602803215;54.62126904887135;4.76794063097675;12.858800200215597;-8.991659085046473;12.486631447966083;2.0749248295580913;2.3013552737132734;3.9418351614728158;11.313267096315107;35.45589420007158;2.660492693546221;18.717558107083377;5.256650869168778;-0.12903850053086394;-28.503198704071956;6.148172624998837;3.6757636053876377;0.8580149589474863;5.418294899542129;-0.018680206978441832;0.12690074613526953;0.06010021604489091;6.193767252558515;3.940541226378839;0.956003911383942;5.412924082877666;-0.01985997812266023;0.14500467161153496;0.06020167142884984;-0.0004083916478156693;-0.5080973246508691
2.04001784324646;-10.575350162761865;34.84434810200965;545.7818585980541;6.641711418918162;-2.769274637654142;54.42838208564676;4.740746224763768;12.790799526933476;-9.092023100765026;12.385293114219543;2.0491716975135406;2.2880565378838833;3.939033886582054;11.263652360827797;35.23215701573565;2.6079797293718867;18.668943849492607;5.23850168884018;-0.13261055568723637;-28.500185428120425;6.148830558104508;3.673216219500731;0.8570409416930357;5.418623862780409;-0.018692032451529228;0.12671386358046122;0.06008011799419492;6.194868955684965;3.9430739727477264;0.9570179203069683;5.4131006295720665;-0.019850654359526362;0.14519514657496854;0.06021059237440089;-0.0005661015687924102;-0.5079691771004884
2.0599005222320557;-10.467231901962311;34.7641348282326;545.9822658648748;6.627528989406079;-2.912868161339162;54.338547848277564;4.742223966787158;12.793055562688691;-9.081642279245044;12.390799937964697;2.050595443408753;2.2882368320362043;3.90613251555443;11.211636379871175;35.1005686397463;2.5475398406723855;18.632996337254887;5.236591643730777;-0.1311127738824536;-28.504699063921244;6.147587775638476;3.674765371092505;0.8575920287954855;5.4181343056554105;-0.018700894065007703;0.12680884779209117;0.060074035804446514;6.192848317193006;3.9422186587893076;0.9566694409808916;5.412594694399355;-0.019900647690108367;0.1451668938454666;0.06020074405402093;-0.00046186070087241883;-0.5080526033659115
2.080019235610962;-10.764150234870268;34.98385035714615;546.2781893846632;6.669141884679938;-2.741956009862186;54.45572643467952;4.7648408946832195;12.851729281490483;-8.980518848986708;12.493258447120432;2.0765560711244024;2.3001711364572603;3.9329279019543297;11.243573795793791;35.125906394627386;2.578862420269317;18.63275779148475;5.226685667721904;-0.13017293703448876;-28.506450135139488;6.146954337891239;3.675548549527417;0.85785873548024;5.417834735248275;-0.018703677001165805;0.12684649466731618;0.06007224648715366;6.19206330507179;3.9415923886144086;0.9564865351487755;5.412569821353166;-0.019894832206845396;0.14513141329720125;0.060189724062708644;-0.00037773733650746464;-0.5080642929894711
2.099888324737549;-10.655894345652655;35.11564510764252;546.2853881282949;6.676745977261458;-2.780821084866176;54.51980345078026;4.74237121213518;12.793411931340266;-9.05145079789691;12.446881143846129;2.0632078748641796;2.288364123658145;3.977256183582777;11.35354012026755;35.15796718352855;2.604903220488197;18.647656568078318;5.2413019869944435;-0.13034694743884392;-28.5000644540018;6.14903926369165;3.6757360719849923;0.8579072623634096;5.41832459667492;-0.01870896025525566;0.12683806451255286;0.060073008794371364;6.19393356970189;3.9414322936892927;0.9564976510247846;5.41313928302654;-0.019874889867518078;0.14513721296527982;0.06018630769049748;-0.00034052187972702895;-0.5078605796068895
2.1200008392333984;-10.450541685522904;35.26336282437857;546.0994427633652;6.69104347861445;-2.861805859983008;54.58172612663133;4.7650725655223445;12.85303151483179;-9.169417931437216;12.335545108664176;2.034968639905465;2.3005207998896857;3.9904917517362772;11.360762104427327;35.20274126549215;2.6361888952470056;18.65701906182696;5.244441210884107;-0.12979351995017283;-28.4888852620942;6.153130238526067;3.676489944586027;0.8581558789776712;5.419336957041062;-0.018720740133948907;0.12685731004612133;0.06007505488593078;6.197310464390151;3.9408017459115885;0.956344555018476;5.414186178259165;-0.019918705069340875;0.14517170514236008;0.060194294673066626;-0.00024233864926135815;-0.5075337422999369
2.1398675441741943;-10.447773904211132;35.30819759740819;546.0081297105818;6.700739783138415;-2.858342217135899;54.620769665096674;4.739927828286119;12.78768939150477;-9.102243887856446;12.379933549325632;2.047787056319377;2.287282289026295;4.017044155115954;11.46081728296651;35.14840639094698;2.5862979400983095;18.650931636851162;5.282252833733486;-0.1314467307568785;-28.491990882555996;6.152165491926879;3.676044845832459;0.8578909524547355;5.419055257307085;-0.018730773235251713;0.1267646385512487;0.060060365448728274;6.195799460587564;3.9419600983815712;0.9568479549035374;5.413703925980389;-0.019907410378059494;0.14530057396151336;0.06020187442466023;-0.00023545519753791384;-0.507617127756215
2.1599674224853516;-10.558204842146367;35.045513774174616;545.8053487266657;6.662146438487689;-2.7612925248574456;54.463616285670945;4.739213695439837;12.78492222808475;-9.07202135995816;12.435955664987091;2.0602775470529235;2.2865326871583327;3.946385024080172;11.314008557476432;35.208011972110285;2.554396065990331;18.649759396771817;5.269457059151752;-0.13155862858688494;-28.494319580173794;6.152736810257028;3.675822084071829;0.857709065345762;5.4192039113122465;-0.01874826628488798;0.1266883158277628;0.06004801965753427;6.19537250409416;3.940818847495544;0.9565391601630973;5.413746324123428;-0.01986238702459967;0.14526716046237492;0.060212836837742166;-0.00015891004272494506;-0.5094602008581177
2.179837465286255;-10.690045609295868;35.18357126682326;546.2067451947241;6.670149875295742;-2.802394063958914;54.52008908668117;4.7351833322801555;12.77489170203475;-9.058485710227341;12.443857793416978;2.0621365836851466;2.2846012163094414;3.9809727953613754;11.394120747550582;35.15022839068443;2.5760928375795675;18.626037831963924;5.288099182523191;-0.1337856366962068;-28.5021351959535;6.149982887302712;3.67552114645443;0.8574611751860481;5.418499951760586;-0.018759344449053743;0.12658566218542153;0.060023577454302084;6.19186207919218;3.9415800103374687;0.9568979054384922;5.412755228743581;-0.0198586198163064;0.14539068514136472;0.06022952068365251;-0.00015559649492123163;-0.5079269166513978
2.1999094486236572;-10.613219946408194;35.22846635406958;546.0150449686005;6.668797668112545;-2.876837094333787;54.51737843498026;4.7339570897202705;12.770679990605869;-9.090081639710512;12.387141622487723;2.0492910242413065;2.283507670587538;3.991208647678635;11.413597918765436;35.137510868026474;2.5673850914798733;18.622677240795948;5.295243532820423;-0.13420108738798475;-28.50740413096188;6.149074740738953;3.676508952715126;0.857713369961847;5.418238574383287;-0.01877971316729752;0.12658540181922437;0.06000507787123514;6.18986426332951;3.9408245543439646;0.9567164916105187;5.412342749152957;-0.019846329746531027;0.14540864163272044;0.060248324592530336;-8.478502518206258e-05;-0.5080962307158974
2.2200002670288086;-10.531439695904988;35.25717956825891;546.1238153811828;6.685319550706112;-3.0045673621919136;54.489139692503045;4.732672154324215;12.766756509728907;-9.02311602118657;12.410718560696523;2.0509704877842654;2.282494284740546;3.9869150835922817;11.418564315284303;34.96508488843527;2.484203750893319;18.58652253326291;5.291174186319033;-0.13445828091695228;-28.511889859469072;6.148229356881759;3.6773523751369015;0.8579366810750616;5.417998420039154;-0.018799363202184248;0.12659265072433282;0.05998698973702353;6.1880455034383415;3.9401345097840172;0.9565412702761832;5.411892187692779;-0.01979338976037836;0.14538883847466708;0.06026404977414661;-3.196828571545938e-05;-0.5082487082044653
2.2399137020111084;-10.529265577670875;35.35366465616251;545.8240188304297;6.7085399086988255;-2.9235137979462564;54.62955812076192;4.732173541298566;12.765176796158565;-9.052020250604906;12.447569110701329;2.0628581877663854;2.2821807478981206;4.020048747613495;11.477538453308906;35.08330219157223;2.470591526019955;18.622558407250157;5.302529264665034;-0.13544598649301562;-28.513267065885664;6.148062438435835;3.677173549923829;0.8578226093039563;5.41800765749571;-0.018821884735020444;0.1265623641406778;0.05996878849207646;6.187419385665854;3.9403200715344284;0.9566611968770358;5.4116627744898045;-0.01974947704077802;0.14540702358648205;0.06028197588594192;-6.003549769159622e-05;-0.5083181125125202
2.2599759101867676;-10.825378208282608;35.334904520302246;545.4174899318173;6.673778035868204;-2.6056054238473436;54.69422240688126;4.72806689700284;12.765127296562671;-9.03470610622073;12.425815282364754;2.0605357274718488;2.290988319333302;4.024727800805735;11.513773832907809;35.33716457837828;2.612680555298798;18.683011358859616;5.317249820605606;-0.14066964787264982;-28.51066181986285;6.149312155155798;3.6734896455276695;0.8564332168229442;5.418649167678324;-0.01883375854087955;0.12630223217991396;0.05994150288473838;6.189277620466042;3.943776993744922;0.9579903617906191;5.411892061653593;-0.019785002823660316;0.14568914183949724;0.06031803624394275;-0.00034717305947303163;-0.5100505041274522
2.2798523902893066;-11.000529250145908;35.21205655498987;545.2170615881639;6.634806500078013;-2.411504711136182;54.69818974056769;4.723972885216746;12.749787891890168;-9.057368794258082;12.445833467554104;2.0622851739005172;2.2801401629947082;4.002096277714046;11.488399014352044;35.530965104603325;2.6820534627154875;18.73216236097613;5.327611953442602;-0.14294387554559337;-28.510535038846033;6.14853988783507;3.6719858329269734;0.8558553285622892;5.418570074440069;-0.018852154304243224;0.126202166375371;0.05991590966698465;6.188631061348898;3.9452799827099985;0.9585747996237308;5.411530811766777;-0.01975593188997106;0.14577939056162026;0.06034077480935255;-0.00046752042366345406;-0.5083129103864861
2.3000032901763916;-11.079981127728779;34.96768987428878;544.805370067486;6.569039578115552;-2.237958565873498;54.56905326019549;4.725177562123129;12.754096380413914;-9.100786769125959;12.382512403095639;2.0479519814666274;2.281200823097284;3.94259561388493;11.37101782957041;35.728590785891086;2.784760523426698;18.781646828090878;5.309817604893715;-0.14460214230296414;-28.506606757355424;6.150465436565015;3.670770639616197;0.855415105090469;5.419226881348456;-0.018872155128173883;0.12613482763813863;0.05989728122640545;6.190569338469779;3.94611353747115;0.9589369886425029;5.411925136730301;-0.019704616470445982;0.14581403313713315;0.06036579586627594;-0.0005986855052133181;-0.5100121223909001
2.319948673248291;-11.071965762228366;35.05184003287878;544.6155841875565;6.601843161004638;-2.1812146768641725;54.6712069044805;4.722435693223842;12.753491551851248;-9.058597070685956;12.41338113470004;2.057215048069289;2.288929977998619;3.974227829097621;11.435716615470014;35.73225838697361;2.7564480983711412;18.78405365438705;5.311091033595755;-0.1458681668507006;-28.50158925117938;6.152469495448396;3.670240837664169;0.8551988061781661;5.419887351266807;-0.01890550435818269;0.12610115191655671;0.05987343756543773;6.192147931739372;3.946367219866789;0.9590926026665199;5.4123051220394425;-0.019718197691214877;0.14586832446346595;0.06040054094599413;-0.0006729360226963039;-0.5099080118358037
2.339886426925659;-11.275373351921878;35.21156762178159;544.3099444244255;6.634216371012906;-1.9935873529802066;54.84970693220238;4.735698483762895;12.787888076487729;-8.993626294585775;12.43706164225555;2.058838953022802;2.2889971679855208;4.021298190175394;11.513341259570312;35.829140549592594;2.789719562714313;18.804914474947775;5.318463078049572;-0.15256538782654522;-28.50084046108877;6.152017312657431;3.665633781359883;0.8534430124686478;5.420185447526763;-0.018920726136274026;0.12577160894253978;0.059834936146458566;6.192674587675473;3.950830541823517;0.9608937334082219;5.412299507647326;-0.019693028419658413;0.14619684496249705;0.0604461825890578;-0.0010082688307573437;-0.5081374590430784
2.3598792552948;-11.208754535566149;35.1831370295741;544.808308362591;6.637959807065874;-2.143954230797803;54.851010664884726;4.712490962352955;12.725990029734383;-9.079045436145293;12.435093729245143;2.0591960510521794;2.27591063085535;4.054719453550766;11.566817247302339;35.779441349982335;2.7877095735678497;18.79237528613093;5.32406499927588;-0.15276279443371138;-28.505740305964576;6.151012889026817;3.665993061054552;0.8535486850919588;5.420028702373659;-0.01894499202509102;0.12579623317415242;0.059810777415029666;6.1909927073612065;3.9505580213217475;0.9608407097493797;5.411810086760444;-0.019625672863980974;0.14615790229388248;0.060472541044689104;-0.0010334184816083525;-0.5082968326262386
2.3800716400146484;-11.136484562636667;34.82795436351658;544.8014550137854;6.611307261997505;-2.22069175819351;54.6294992719438;4.711492641775892;12.724743790749304;-9.06973616750731;12.440244326020162;2.0604931794750243;2.275930272271985;3.996496154666333;11.378188229919719;35.72186517304741;2.7545742567892013;18.796732007456082;5.276111783159301;-0.15572644400035054;-28.512754733173782;6.148992245020957;3.664114706120114;0.8528269551124997;5.419770906636048;-0.018961494605169653;0.12567262953037486;0.05978259062700623;6.188985239467544;3.9526641747212166;0.9616314407193293;5.411035042457277;-0.019600391612045256;0.14629518232108;0.06050371740353566;-0.0012112549948515398;-0.5085092409892975
2.4000332355499268;-11.192069652163827;34.87228733815523;544.9972332239736;6.646231702625538;-2.250372210251925;54.701211569456554;4.73139312907308;12.778944102900706;-9.017637445901084;12.47653260804184;2.071212403530924;2.287339468641907;4.00897556165665;11.383168599958678;35.633211172121776;2.7242797020318554;18.769767843353243;5.277544646033498;-0.15880780211705017;-28.5131128015595;6.149524637945575;3.6620818526910766;0.852064550523062;5.42026869592389;-0.018991601987679206;0.12555271176815233;0.059757073956086815;6.189530867388066;3.954625684620331;0.9623995325118799;5.411043862337113;-0.01959551156146179;0.14644583805364605;0.060545486696883345;-0.0014013455071156776;-0.50852989294681
2.4199554920196533;-10.943852328769404;35.10850792201988;544.7966997574;6.689954905875347;-2.4740276592491597;54.95427546948789;4.7290715112764365;12.7750513642851;-9.070886441581118;12.440119478141987;2.060303734559141;2.2869609828383064;4.0792232768378325;11.565335962219573;35.524762105277475;2.6165675230932317;18.741935545437826;5.314265677195809;-0.16303647340825003;-28.52144966755087;6.1472346620582705;3.65940231174784;0.8510372201910764;5.4200520093976134;-0.019004063915183354;0.1253662688944549;0.059719638984222986;6.187306405766506;3.9575315012824044;0.9635148698072956;5.410163971272925;-0.019533306830718515;0.14662678656667125;0.060586582660077;-0.0016453163555431218;-0.5087695836951338
2.44010066986084;-10.882639133682073;34.65036894637524;544.0864395443252;6.619965783261172;-2.4786112963116977;54.77367939837568;4.682156446066094;12.653188210426263;-9.10617831535636;12.396973292914094;2.049331160172251;2.2622119152920512;4.039943230925899;11.507082793032293;35.609499983322735;2.5752939663707792;18.76267955637734;5.335478103916615;-0.16715281644578822;-28.533168837889793;6.143988600984169;3.657151358793897;0.8501354951454556;5.419568753921361;-0.019033400728308836;0.12520112007608222;0.059674467630347415;6.183795821201703;3.960176837604694;0.9645454119782584;5.408944256351802;-0.01946153662295399;0.14679768409820018;0.06063238476372881;-0.0018707277390714394;-0.5090999333288715
2.4600777626037598;-11.242925361660408;34.49899777914388;543.6771215349569;6.59515136323766;-2.17553459251387;54.812427773239506;4.6747270506375465;12.637607817253057;-9.00068260217648;12.486272200258856;2.073364021110325;2.259678894997026;4.020612119676879;11.502503715308997;35.78137905438702;2.615306724035771;18.81236947570735;5.3453751483152905;-0.1735120453927281;-28.538414965589755;6.142899105660163;3.653298712236082;0.8486335081622679;5.419801548615327;-0.019066927333426874;0.12491968110475718;0.059624677503719026;6.18267848339026;3.9642014847572624;0.9661033916798558;5.408292537270985;-0.019458751588444678;0.1471236747094543;0.06069388398929187;-0.002200372570998947;-0.5092469578489914
2.4799842834472656;-11.40619310127533;34.54135361949133;543.2730564319921;6.583348672718235;-2.0201454199284186;54.94034973065169;4.692087585994705;12.686939875381237;-9.067964179754465;12.44269327538797;2.0605308804382094;2.2704446478510785;4.030203935888165;11.50753497324724;36.00110932459991;2.70229193564244;18.866792286064506;5.331290755776732;-0.17930670616112807;-28.54159656304069;6.142520622838433;3.649709200585007;0.8472443979527315;5.420202891960566;-0.019101950130472035;0.12466616579293292;0.059581087587276614;6.1823233431654145;3.96781925871927;0.9675275600766082;5.407895087563016;-0.019408849965328386;0.14738969664290177;0.060749788399181645;-0.0025068992525868056;-0.5093338265674594
2.4999334812164307;-10.932454315818234;34.40728326214896;541.3770139823615;6.625091263293097;-2.073698182942195;55.0772014002638;4.686853734039884;12.676590643010645;-9.065209259728325;12.444695885834236;2.060893388111009;2.2689522136924873;4.0405001098758735;11.505687652185088;36.06755230133963;2.449699126287228;18.91514764865408;5.346779583243919;-0.1847214306956356;-28.549153855131124;6.140531549417576;3.646265746974828;0.8459154949688319;5.420125465614268;-0.019116777978291644;0.12441721334967211;0.05954372200661122;6.18059020427678;3.9714638996753613;0.9689455963155115;5.407154247976617;-0.019339952429738815;0.14763289345686578;0.06079247613017822;-0.0027926583819851292;-0.5095403084017256
2.5198800563812256;-10.28019936298576;34.29130794516051;540.3869248523022;6.666783869659323;-2.444759069275534;55.061637246665775;4.687088236125341;12.676777158788704;-9.097618723902114;12.387219363081142;2.047899786894932;2.2688752540026385;4.034476948221845;11.458846576374754;35.86451697043192;2.1912061676944434;18.897184016161198;5.338630447578532;-0.18559714575732528;-28.557157750679124;6.138800798694079;3.646041583717402;0.8458097870403597;5.419876696147034;-0.019128244975445026;0.12440170953976798;0.059527712978117875;6.178534189814294;3.9720281123020973;0.9691553676745329;5.406618850036636;-0.019349155622334482;0.14769396518417877;0.06081755032002462;-0.002845864912971388;-0.5097593867379852
2.539968252182007;-9.871377927548782;34.16270157149315;541.2863716211924;6.724243206514408;-2.985476679018632;54.90476629797426;4.686064626479675;12.674871908391676;-9.061066584829662;12.446646464052936;2.0612753431828743;2.2686834426923745;4.023302917425053;11.359304203910622;35.352273719326035;1.9546636199903045;18.778615969330122;5.293008110015727;-0.18709135339663663;-28.564636928140597;6.137062056927573;3.645065416449217;0.8454418336066273;5.419650597826379;-0.01912530445459181;0.12433873549247629;0.05952248332998034;6.176989943369917;3.973286294649732;0.9696263997357621;5.4062274540577775;-0.019335579508155655;0.14777931686316684;0.06083148713383701;-0.0029301342012712605;-0.5099638240591249
2.559943914413452;-9.802552594969638;33.94689747600805;543.783950566157;6.720597874959207;-3.604003037030985;54.43414670303149;4.686669752723346;12.675857745662478;-9.095747205470749;12.387915923177387;2.047971881668213;2.2687823238239324;3.986438361287423;11.138501308564635;34.75809955298672;1.9774314212454955;18.610935920912066;5.184849175349567;-0.186804207029321;-28.571831364787414;6.135622773046042;3.645426417644797;0.8455731055445688;5.419396570745502;-0.019117744805820742;0.12436306230330052;0.0595277089066731;6.175467095817044;3.973177182609085;0.9696018606091681;5.4059794956997305;-0.019294681561386487;0.14775783561341094;0.06083394228318155;-0.0029099523841450677;-0.51016130539674
2.5799291133880615;-9.350315286916878;34.17723916809858;542.6082075088648;6.827075532898709;-3.784377024749894;54.72425317383441;4.70670423654416;12.727570530986256;-9.144684867542004;12.425494352783604;2.0507844383972267;2.2792308007263418;4.049178623759945;11.206736198939593;34.74183289510988;1.7148599643421614;18.627586827138824;5.191873760454039;-0.1861660759768191;-28.581975368682283;6.133166144993861;3.646153581139499;0.8458246268711267;5.4188148000505345;-0.019106111414543388;0.12441095369002696;0.05953598474666058;6.172884676246125;3.9728806605240607;0.9694952765752093;5.405478378283701;-0.01927668347396643;0.14773878921391215;0.06082967682433494;-0.002855793523036037;-0.510441264431182
2.599853038787842;-8.742422188676512;34.234587498003165;539.2253740734595;6.9176591285444236;-3.6601603389341975;55.030668144780144;4.68390045859267;12.666991582707107;-9.054104650783888;12.450086851604713;2.0618438760133544;2.2667077139896663;4.109801020979138;11.354876739431218;34.9470790312001;1.355959005216059;18.73364644840457;5.2632524217988985;-0.18562252405447283;-28.590412695964552;6.131211108469707;3.6467564257351506;0.8460337456193899;5.418357217359541;-0.019090553384365522;0.12442978148096877;0.059547718037801387;6.17090203208556;3.972714988180912;0.9694144979881951;5.405151066791265;-0.019324779406875235;0.1477671811939312;0.06082487678043325;-0.0028007449238464685;-0.5106740727876766
2.619877815246582;-7.8491458622303085;34.297164119206585;536.8445910099526;7.024999323767457;-3.9704909412360294;55.20379912991333;4.6837206925563075;12.6657931508198;-9.023929993174876;12.413839794533066;2.049995752531295;2.266249755928503;4.149238307682053;11.405434426203545;34.796902664960356;0.9228375376022528;18.73279040991341;5.291550951550687;-0.18414059019196882;-28.597148254993307;6.129775339381602;3.6479371528371973;0.8464700879658572;5.417974000859867;-0.01907369108068404;0.12450282045907003;0.05956487978110599;6.169380966705247;3.9718387332247467;0.9690884750967469;5.404993759646955;-0.019316410370028042;0.1477088711811589;0.060812090187013106;-0.0027012517087096457;-0.5108588099020732
2.639880657196045;-6.884742558072684;34.54119403388399;536.0655544980751;7.152784461993047;-4.578404149600637;55.527056729157664;4.6808314280652965;12.658529196908956;-9.058894482046124;12.447552375223413;2.060979174691328;2.2649378468576016;4.2246318412908925;11.611946513302797;34.38440900691869;0.46585869249727674;18.649225867706104;5.389403074980398;-0.1840189869957634;-28.59986374658611;6.129313203304212;3.647749345271984;0.8464242266049113;5.417918664085471;-0.019050028008382666;0.12449469506004933;0.05958574053720842;6.1694229553651825;3.9721359775928735;0.969198025778674;5.40517633021832;-0.019304753035481008;0.14771707039682738;0.06079719787405302;-0.002685903099013609;-0.510930776630453
2.6598939895629883;-6.301461338404376;34.70002434557303;535.2856831576249;7.2079719406479565;-4.988457030124849;55.78589375194426;4.678262859300471;12.65170293433785;-9.056130421139262;12.449303545859037;2.061292518340899;2.263552087098499;4.256892606398561;11.810903547659699;34.08423152614448;0.11441935948005977;18.540665898919254;5.519862360726;-0.18277330709876338;-28.605375678449334;6.1276601172945995;3.6482499886637076;0.8466430657326126;5.417439643148816;-0.01902088960291904;0.12453954368959252;0.05961131165886786;6.168326112035879;3.9719813778889232;0.9690747640997395;5.405073719610403;-0.019370121013757416;0.14771871826872865;0.06077351420351174;-0.0026205145029672373;-0.5110788555414683
2.6798923015594482;-5.389022039646797;34.45832699606864;534.5011222997398;7.23201448768883;-5.629264813213595;55.71333950251271;4.680453445632484;12.654903796191958;-9.048526052869224;12.453155621254353;2.0622745595257084;2.263782465960807;4.185913160039015;11.74188034398447;33.59395225046953;-0.36693137182231483;18.394404458828557;5.586681447841096;-0.17843751670418742;-28.6108324981229;6.125896482728889;3.6507089229629264;0.8476250826195839;5.416734912584852;-0.018985853271926277;0.1247374758365697;0.05964998157604475;6.1669285146233035;3.9698407146433436;0.9681872840532204;5.405015146573131;-0.01939793081142087;0.14753408980462934;0.06073054918085281;-0.0024170277152146457;-0.5112232851137342
2.699843168258667;-4.510677922796987;34.30444482417662;535.5188013465779;7.29155122080875;-6.508449967263765;55.4793351721566;4.679801840948738;12.653091046915389;-9.05601127374827;12.449183439989;2.0612318219468153;2.263424534880962;4.150418858596937;11.63083190787597;32.81878647022454;-0.7459480335830575;18.186059560269804;5.572302823516749;-0.17554187285459213;-28.6069247310286;6.126814797489513;3.651614078967217;0.8480704947620732;5.416818155547639;-0.018944591206605056;0.12484619512427476;0.05969563097921873;6.168844553942766;3.968804178065109;0.9677255485181487;5.405763687474518;-0.019416570852382867;0.14740987654571114;0.06068619153960531;-0.0023047354585585544;-0.511105159964546
2.71988844871521;-3.093507269334605;34.749953273290814;536.1628862870127;7.5168518546059655;-7.67406131343828;55.58180823189322;4.700000628445923;12.708444508458824;-9.023908858113812;12.414930431343118;2.0499627832068357;2.2752204486169134;4.266886100679157;11.727061461297303;31.7972844187209;-1.2814335491589155;17.982085000912484;5.533087040124238;-0.17448570384896545;-28.604107452235045;6.126595293191476;3.650917024196382;0.847920565803276;5.41661202473625;-0.018893847096153715;0.1248446935343103;0.05974079202681202;6.170318493099241;3.9694987601097873;0.967864799763685;5.406230042917077;-0.019495848339857486;0.14742204334127146;0.060635800899175064;-0.002290514617673182;-0.5110138353810098
2.7398767471313477;-1.875534861213545;35.12353090589954;537.8003751759848;7.737352645296619;-8.77590704329019;55.568627939036475;4.677802447394843;12.647675706053203;-9.068424378185533;12.442967391252239;2.059617036110647;2.262351274327826;4.415821723452343;11.841522527736863;30.852400468158876;-1.7025596003707042;17.78962437524082;5.477364242539648;-0.16871310883591298;-28.592798875084146;6.129584220845933;3.653672705412675;0.8490801557014449;5.416988667786063;-0.018846001295410017;0.125083817916928;0.05980534458062458;6.174053567644358;3.966381771859859;0.9665984141768262;5.407585166779824;-0.019575455768859364;0.14717785771644712;0.06057177376129777;-0.0020249024180479143;-0.5106861193013442
2.7598860263824463;-0.9021939594753725;35.49855499909075;538.5704932004182;7.919053255115746;-9.58298683450004;55.60864481951995;4.685672999288247;12.662660914773188;-9.060153207672183;12.446737424877657;2.0607842211928835;2.264409182088928;4.526229857398411;11.928069185061318;30.144222630805167;-2.0590532018667176;17.64007831984854;5.460861851822041;-0.1596007233738789;-28.588297616823798;6.130097643869455;3.6591075414452328;0.8512109246976911;5.416409346975446;-0.01879782428655042;0.12549331299657818;0.05987393123886364;6.1746693910705375;3.9608944213514405;0.9644327170203686;5.40820062968871;-0.01961558692360256;0.14673752590984873;0.060485924752785615;-0.0015743387208836217;-0.5105454775742114
2.779862880706787;0.09964711319276276;35.61959641407978;535.1176145289866;8.047370234647522;-9.639357962796929;55.971888708314964;4.687886528463787;12.673014623679142;-9.044052111033377;12.423705088725532;2.05825188719663;2.274164552666469;4.599964050054571;12.06942329588166;30.22941797922571;-2.5439587459287694;17.647381495008524;5.578372886292649;-0.15465333534837877;-28.573247782051663;6.133681082593189;3.6615900628548697;0.852219509800281;5.416831828476969;-0.0187623779330571;0.1256842652322068;0.05993129779576838;6.178785682829877;3.9578812704164714;0.9632570463724842;5.4095276037262545;-0.019661578518290743;0.14650406850686007;0.060418156299113714;-0.0013151643472104771;-0.5101106677431206
2.799863338470459;1.076613058394507;36.10807098890972;534.3176613585819;8.190989332695665;-10.080713501870044;56.349505419000764;4.708978202389795;12.720952313647858;-9.139675871650702;12.396554865060775;2.0465079658030287;2.2757239146901784;4.704994171488743;12.272165486674833;29.985523727153737;-2.8757921554246986;17.599745986265376;5.637260931411556;-0.15045744311394618;-28.557972951991726;6.137601343071162;3.6638270870261844;0.8531079672624923;5.417306148059758;-0.018731130810267373;0.12583659026916247;0.05997499475408771;6.182970738619167;3.9551070545019407;0.9621633688297595;5.410754610261115;-0.01977498295727341;0.1463408710602818;0.06036127771559521;-0.0010980714142298266;-0.5114376591058243
