flxalr/sts-optimization-reemc/input/498_125/vel.csv
time;base_link_tx;base_link_ty;base_link_tz;base_link_rz;base_link_ry;base_link_rx;leg_left_1_joint;leg_left_2_joint;leg_left_3_joint;leg_left_4_joint;leg_left_5_joint;leg_left_6_joint;leg_right_1_joint;leg_right_2_joint;leg_right_3_joint;leg_right_4_joint;leg_right_5_joint;leg_right_6_joint;torso_1_joint;torso_2_joint;arm_left_1_joint;arm_left_2_joint;arm_left_3_joint;arm_left_4_joint;arm_left_5_joint;arm_left_6_joint;arm_left_7_joint;arm_right_1_joint;arm_right_2_joint;arm_right_3_joint;arm_right_4_joint;arm_right_5_joint;arm_right_6_joint;arm_right_7_joint;head_1_joint;head_2_joint
0.0;0.0011561917056100524;0.0006094005463306262;0.0002625163374724324;0.002858399077771546;0.0012632025544758235;-0.001402824721537104;-0.00033745158785453686;2.220446049250313e-16;2.220446049250313e-16;2.220446049250313e-16;2.220446049250313e-16;2.220446049250313e-16;2.220446049250313e-16;2.220446049250313e-16;2.220446049250313e-16;6.466197206971278e-05;2.3924721829728118e-14;2.220446049250313e-16;1.7356333325156035e-05;-1.585687700146141e-05;-2.180118609008241e-12;-7.560960023670812e-05;1.430821122710914e-07;2.220446049250313e-16;8.167994527486955e-07;3.685853258920178e-05;-3.685853258942383e-05;2.699661388463248e-06;1.0804338197589707e-08;7.640105809113382e-10;8.739517675543761e-06;2.220446049250313e-16;-0.00020986855502821684;0.00020986855502843892;2.220446049250313e-16;-0.0021544794745244336
0.019901037216186523;0.0011572342770901731;0.0006134627118162882;0.00026306703984303774;0.0028556644659873745;0.0012648070759097637;-0.0014077743243289887;-0.00027485642737994434;2.220446049250313e-16;2.220446049250313e-16;2.220446049250313e-16;2.220446049250313e-16;2.220446049250313e-16;2.220446049250313e-16;2.220446049250313e-16;2.220446049250313e-16;5.266758038810648e-05;1.9486835459824986e-14;2.220446049250313e-16;1.4136841970422866e-05;-1.2915525423171574e-05;-1.7757202327785189e-12;-6.158449195280022e-05;1.1654127470800562e-07;2.220446049250313e-16;6.65288259260392e-07;-9.83180567604606e-06;9.831805675824014e-06;2.1988910737869927e-06;8.800200989050551e-09;6.222913932184155e-10;7.118391768715863e-06;2.220446049250313e-16;6.927205804969645e-05;-6.92720580494744e-05;2.220446049250313e-16;-0.0017548369974968669
0.0399169921875;0.001160412309727917;0.0006277366316415275;0.00026491095645432084;0.002844889312280798;0.0012699104125386124;-0.001424869992936781;-0.00022387227795363568;2.220446049250313e-16;2.220446049250313e-16;2.220446049250313e-16;2.220446049250313e-16;2.220446049250313e-16;2.220446049250313e-16;2.220446049250313e-16;2.220446049250313e-16;4.289807339849015e-05;1.5872149274749068e-14;2.220446049250313e-16;1.1514546140171734e-05;-1.0519776179207143e-05;-1.4463352278495584e-12;-5.016095359863048e-05;9.492359663263747e-08;2.220446049250313e-16;5.418814452192096e-07;-8.008067171945583e-06;8.008067171723538e-06;1.7910105226687163e-06;7.167818706837852e-09;5.06860229097607e-10;5.797974585567624e-06;2.220446049250313e-16;0.0001712546019504616;-0.00017125460195023954;2.220446049250313e-16;-0.003560246730860481
0.05986738204956055;0.001165049992751276;0.0006526729848459652;0.0002679483105797468;0.0028219381626560587;0.0012780041230148241;-0.0014536693255544314;-0.00018234536959497343;2.220446049250313e-16;2.220446049250313e-16;2.220446049250313e-16;2.220446049250313e-16;2.220446049250313e-16;2.220446049250313e-16;2.220446049250313e-16;2.220446049250313e-16;3.4940748896028965e-05;1.2927964785216084e-14;2.220446049250313e-16;9.378669797083254e-06;-8.568423446565332e-06;-1.1780490826786392e-12;-4.08564102120445e-05;7.731586272976217e-08;2.220446049250313e-16;4.4136582389007866e-07;-6.5226207619900945e-06;6.522620761768051e-06;1.458789264529436e-06;5.838233135586348e-09;4.128408244764326e-10;4.722486537285989e-06;2.220446049250313e-16;-0.00012667600871709342;0.00012667600871731544;2.220446049250313e-16;-0.002899843213827929
0.07989311218261719;0.0011693627917333672;0.000685094724396377;0.00027154332393876433;0.0027844092183457528;0.001286979237344826;-0.001489009647286754;-0.00014852144319366583;2.220446049250313e-16;2.220446049250313e-16;2.220446049250313e-16;2.220446049250313e-16;2.220446049250313e-16;2.220446049250313e-16;2.220446049250313e-16;2.220446049250313e-16;2.8459458355496187e-05;1.0529908117338405e-14;2.220446049250313e-16;7.638985166410539e-06;-6.979034449874004e-06;-9.595283406485185e-13;-3.3277801470274066e-05;6.297425341753335e-08;2.220446049250313e-16;3.5949522209486826e-07;-1.711617341808179e-05;1.7116173417859747e-05;1.1881929733921288e-06;4.755277377892177e-09;3.3626143179120724e-10;3.846494800160295e-06;2.220446049250313e-16;-0.0003149222717144045;0.0003149222717146265;2.220446049250313e-16;-0.0023619404216829345
0.0998992919921875;0.0011720799626760501;0.0007218431294478058;0.0002751500943274731;0.0027316631882327146;0.0012952434772310797;-0.0015260420952686615;-0.00012097164374026071;2.220446049250313e-16;2.220446049250313e-16;2.220446049250313e-16;2.220446049250313e-16;2.220446049250313e-16;2.220446049250313e-16;2.220446049250313e-16;2.220446049250313e-16;2.318040670216636e-05;8.576675973497863e-15;2.220446049250313e-16;6.222001161698674e-06;-5.6844671783876875e-06;-7.81541830510347e-13;-2.710497728379741e-05;5.129292299766477e-08;2.220446049250313e-16;2.9281110524140833e-07;-1.3941230225132074e-05;1.3941230224910028e-05;9.677906030339724e-07;3.873203144776789e-09;2.73887037827887e-10;3.1329940553230614e-06;2.220446049250313e-16;0.0001865893352747213;-0.0001865893352744993;2.220446049250313e-16;-0.0019238152355883851
0.11989259719848633;0.0011725947026412528;0.000760029664183412;0.0002783608031498923;0.0026652381328514806;0.0013018796129848642;-0.0015606317502900092;0.0005743359633094508;2.220446049250313e-16;2.220446049250313e-16;2.220446049250313e-16;2.220446049250313e-16;2.220446049250313e-16;2.220446049250313e-16;2.220446049250313e-16;2.220446049250313e-16;1.8880586136456383e-05;6.985756184638842e-15;2.220446049250313e-16;5.06785883371083e-06;-4.630034044716635e-06;-6.365707055871183e-13;-2.2077173403761008e-05;4.1778406362366686e-08;2.220446049250313e-16;2.3849647528853483e-07;-1.1355219151079573e-05;1.1355219150857526e-05;7.882714948624394e-07;3.154748168940349e-09;2.2308270410480043e-10;2.5518432392734787e-06;2.220446049250313e-16;6.195120915121028e-05;-6.195120915098824e-05;0.0017419662698280013;0.01375304346071703
0.13997244834899902;0.0011696624335620447;0.0007967407502854038;0.000280678599142151;0.0025894975205994863;0.0013048493409513584;-0.0015894568707885508;0.0007729378720592379;2.220446049250313e-16;2.220446049250313e-16;2.220446049250313e-16;2.220446049250313e-16;2.220446049250313e-16;2.220446049250313e-16;2.220446049250313e-16;2.220446049250313e-16;1.537835541180708e-05;5.689942073364489e-15;2.220446049250313e-16;7.723217107461866e-05;-7.687556004757796e-05;-5.184908182676177e-13;-1.798199571969711e-05;3.4028773097187426e-08;2.220446049250313e-16;-8.914148980232411e-05;-9.248896968694596e-06;9.248896968472552e-06;6.420520592622998e-07;2.5695621007779694e-09;1.8170225676026053e-10;2.078492267408493e-06;2.220446049250313e-16;-0.00023814156684848423;0.0002381415668487063;0.0014188424140640931;0.011991462211934529
0.15989160537719727;0.0011634416760393212;0.0008281939038116082;0.00028182453486807227;0.002512975669844731;0.0013035894921204763;-0.001609483467969452;0.0007420726268075813;2.220446049250313e-16;2.220446049250313e-16;2.220446049250313e-16;2.220446049250313e-16;2.220446049250313e-16;2.220446049250313e-16;2.220446049250313e-16;2.220446049250313e-16;1.2525766597638185e-05;4.6344933808933356e-15;2.220446049250313e-16;6.290608604134608e-05;-6.261562413100252e-05;-4.223140120465887e-13;-1.4646447901166541e-05;2.7716648367491014e-08;2.220446049250313e-16;7.339544999057249e-06;-1.3021936435096346e-05;1.30219364348743e-05;5.229554150945135e-07;2.0929243908467858e-09;1.479976237703369e-10;1.6929449423808888e-06;2.220446049250313e-16;0.0002149641423375589;-0.0002149641423373368;0.0011556560140202918;-0.0036929635078638843
0.17986655235290527;0.0011574711806934868;0.0008508644971536685;0.00028213675505623704;0.0024445725549430337;0.001302002599473859;-0.0016181327738096947;0.0006044227924886924;2.220446049250313e-16;2.220446049250313e-16;2.220446049250313e-16;2.220446049250313e-16;2.220446049250313e-16;2.220446049250313e-16;2.220446049250313e-16;2.220446049250313e-16;-0.00011662119035871648;3.774823824321251e-15;2.220446049250313e-16;5.123740024371413e-05;-5.1000817202352364e-05;-3.4397740227452174e-13;-1.1929623355799525e-05;2.257538332437372e-08;2.220446049250313e-16;5.978105273888374e-06;-1.0606448613509286e-05;1.0606448613287241e-05;4.2595045406582545e-07;1.7046999971221498e-09;1.2054498954608795e-10;1.3789142364751237e-06;2.220446049250313e-16;0.00017508963745985182;-0.0001750896374596298;0.0009412890462696152;0.012666561688280908
0.19987702369689941;0.0011560889107460823;0.000860514768930521;0.00028203708752514616;0.0023913196740430807;0.0013052384037280237;-0.0016116515475920652;0.0004923061421244928;2.220446049250313e-16;2.220446049250313e-16;2.220446049250313e-16;2.220446049250313e-16;2.220446049250313e-16;2.220446049250313e-16;2.220446049250313e-16;2.220446049250313e-16;-9.498868842961428e-05;3.0746175975585606e-15;2.220446049250313e-16;4.1733182732256676e-05;-4.15404843664235e-05;-2.801717440113621e-13;-9.716752783444687e-06;1.8387790813848167e-08;2.220446049250313e-16;4.8692041087400425e-06;-8.639018686027741e-06;8.639018685805698e-06;3.469393070269527e-07;1.388488802030973e-09;9.818464739147328e-11;1.123134263822966e-06;2.220446049250313e-16;-0.00015656505744843992;0.0001565650574486619;0.0007666858112431406;-0.004984090141395279
0.21988415718078613;0.0011612485023596555;0.000853782276809033;0.0002816136563266371;0.0023545061758873834;0.0013158035729828386;-0.001586468853964886;0.0004009864296737877;2.220446049250313e-16;2.220446049250313e-16;2.220446049250313e-16;2.220446049250313e-16;2.220446049250313e-16;2.220446049250313e-16;2.220446049250313e-16;2.220446049250313e-16;-7.736888040522349e-05;2.504295249571432e-15;2.220446049250313e-16;0.00010558150933434864;-0.00010542455531101272;-2.282016365706545e-13;-7.914355871820592e-06;1.497697054157192e-08;2.220446049250313e-16;3.965997179094443e-06;3.9623653252877285e-05;-3.962365325309932e-05;2.825842339441218e-07;1.1309328073092398e-09;7.997200895440115e-11;9.147998774729546e-07;2.220446049250313e-16;-5.919863775604781e-05;5.9198637756269864e-05;0.0006244703850438583;-0.005574107324683591
0.23990893363952637;0.0011742713829626249;0.0008291520717730782;0.00028101418164386234;0.0023343157700192185;0.0013354478015613054;-0.001541320531814585;0.0002126485644585043;2.220446049250313e-16;2.220446049250313e-16;2.220446049250313e-16;2.220446049250313e-16;2.220446049250313e-16;2.220446049250313e-16;2.220446049250313e-16;2.220446049250313e-16;-6.301743664555708e-05;2.0397641326212403e-15;2.220446049250313e-16;8.599679923726028e-05;-8.586895920429054e-05;-1.8587165924702656e-13;-6.44629232232207e-06;1.2198836112176207e-08;2.220446049250313e-16;3.230329489854793e-06;-1.569914491495529e-05;1.5699144914733242e-05;2.3016662469894929e-07;9.211518398834214e-10;6.513770111841569e-11;7.451102177009555e-07;2.220446049250313e-16;0.00018553120008824817;-0.00018553120008802613;0.0005086350315581291;-0.0060699322700050245
0.2599799633026123;0.001193948901006603;0.0007861115397042023;0.000280034325832124;0.002331175867297513;0.0013625168871610896;-0.0014763155487959047;-0.0001519992471142604;2.220446049250313e-16;2.220446049250313e-16;2.220446049250313e-16;2.220446049250313e-16;2.220446049250313e-16;2.220446049250313e-16;2.220446049250313e-16;2.220446049250313e-16;-5.132809600678527e-05;1.6614006345458293e-15;2.220446049250313e-16;7.004493045874373e-05;-6.994080395288966e-05;-1.513936281545734e-13;-5.25054538585834e-06;9.936028256093221e-09;2.220446049250313e-16;2.63112355904604e-06;-1.278705165290739e-05;1.2787051652685345e-05;1.8747215435869852e-07;7.502839307840459e-10;5.3055064671581577e-11;6.068969292562888e-07;2.220446049250313e-16;-6.897912343565252e-05;6.897912343587456e-05;0.0004142864121730433;-0.005805333355979343
0.2798938751220703;0.0012154611200403675;0.0007256678809301455;0.0002779643675624931;0.0023452882957885144;0.001390552928959686;-0.0013933856874122094;-0.0007506851921733741;2.220446049250313e-16;2.220446049250313e-16;2.220446049250313e-16;2.220446049250313e-16;2.220446049250313e-16;2.220446049250313e-16;2.220446049250313e-16;2.220446049250313e-16;-4.180705499812664e-05;1.3532212005915434e-15;2.220446049250313e-16;5.705203363946212e-05;-5.696722194965332e-05;-1.2331105634207598e-13;-4.276602032690279e-06;8.092957114764527e-09;2.220446049250313e-16;2.143066583365244e-06;-1.0415133490386489e-05;1.0415133490164446e-05;1.5269724142612465e-07;6.111109508981726e-10;4.321368176915737e-11;4.943213419850549e-07;2.220446049250313e-16;-0.000267949841160867;0.00026794984116108904;0.0003374388720050198;-0.004728480301778651
0.29988694190979004;0.0012347738732830982;0.0006485942615967901;0.00027415919024736;0.002377844460667574;0.0014140628002230998;-0.001293626197327454;-0.000611437780807664;2.220446049250313e-16;2.220446049250313e-16;2.220446049250313e-16;2.220446049250313e-16;2.220446049250313e-16;2.220446049250313e-16;2.220446049250313e-16;2.220446049250313e-16;-3.4052107590067876e-05;1.102207125514316e-15;2.220446049250313e-16;4.646923797455215e-05;-4.6400158323129824e-05;-1.0043762608472301e-13;-3.483319084388936e-06;6.591764150957673e-09;2.220446049250313e-16;1.7455411263171363e-06;3.6842790897969014e-05;-3.684279089819105e-05;1.2437285749933745e-07;4.977536889500046e-10;3.5197813886489724e-11;4.026278225552147e-07;2.220446049250313e-16;0.00019970362959940668;-0.00019970362959918463;0.00027484607024103855;-0.0038513767588005962
0.3201029300689697;0.0012483320092870095;0.0005565759852646296;0.00026811988592639646;0.0024289572783925584;0.0014282871615089274;-0.0011788811858326426;-0.0004980198939539722;2.220446049250313e-16;2.220446049250313e-16;2.220446049250313e-16;2.220446049250313e-16;2.220446049250313e-16;2.220446049250313e-16;2.220446049250313e-16;2.220446049250313e-16;-2.773565445778272e-05;8.977545925259445e-16;2.220446049250313e-16;3.784948476301005e-05;-3.7793218955178745e-05;-8.180707418116991e-14;-2.837185164979065e-06;5.369033099480967e-09;2.220446049250313e-16;1.421754157017347e-06;-1.2820240094373966e-05;1.282024009415192e-05;1.0130246976356972e-07;4.054234906103346e-10;2.8668839396882675e-11;3.2794287789511325e-07;2.220446049250313e-16;0.00011774854110086455;-0.00011774854110064254;0.0002238638419992649;-0.0035611665696629897
0.34000515937805176;0.0012526717063705214;0.0004555568526128873;0.00025975181513541973;0.002493949371566754;0.001428995549782703;-0.0010558634935250704;-0.00040564031624984746;2.220446049250313e-16;2.220446049250313e-16;2.220446049250313e-16;2.220446049250313e-16;2.220446049250313e-16;2.220446049250313e-16;2.220446049250313e-16;2.220446049250313e-16;-2.2590863903704384e-05;7.312267265785849e-16;2.220446049250313e-16;3.0828641898751455e-05;-3.0782813046611554e-05;-6.663237321477649e-14;-2.3109050492827288e-06;4.373111015984118e-09;2.220446049250313e-16;2.792240853947636e-06;-1.0442165683388774e-05;1.044216568316673e-05;8.251149476286354e-08;3.3021996699893383e-10;2.335094886900717e-11;2.671115236885566e-07;2.220446049250313e-16;-0.00019983542212607743;0.0001998354221262995;0.00018233849845741373;0.011669005688477521
0.3598971366882324;0.0012473215551405338;0.0003486224420228201;0.00024922273328657746;0.0025686158709794247;0.0014159304478310241;-0.0009275431361388614;-0.0003303965728374772;2.220446049250313e-16;2.220446049250313e-16;2.220446049250313e-16;2.220446049250313e-16;2.220446049250313e-16;2.220446049250313e-16;2.220446049250313e-16;2.220446049250313e-16;-1.8400399842466614e-05;5.955887389652983e-16;2.220446049250313e-16;2.511012150554492e-05;-2.507279361904664e-05;-5.427248443576804e-14;-1.8822466057973404e-06;3.561926254462914e-09;2.220446049250313e-16;2.274297627045686e-06;-8.505209212676269e-06;8.505209212454224e-06;6.720612818119463e-08;2.6896622699542525e-10;1.9019493797236766e-11;2.1756400549135237e-07;2.220446049250313e-16;0.00021221277442479256;-0.0002122127744245705;0.0001485158466091788;-0.005720458183936354
0.3800523281097412;0.0012328518725847773;0.00023986651199891176;0.00023698000945152092;0.0026477292799652248;0.0013903074184442492;-0.0007981482217183757;-0.00026911007355470543;2.220446049250313e-16;2.220446049250313e-16;2.220446049250313e-16;2.220446049250313e-16;2.220446049250313e-16;2.220446049250313e-16;2.220446049250313e-16;2.220446049250313e-16;-1.498724067418807e-05;4.851107503168539e-16;2.220446049250313e-16;2.045235090452574e-05;-2.0421947107673605e-05;-4.4205277775960777e-14;-1.5331016244632196e-06;2.9012111962991333e-09;2.220446049250313e-16;1.8524296315888802e-06;3.5717268310485074e-05;-3.571726831070711e-05;5.473981144188413e-08;2.1907467292669257e-10;1.549149656968557e-11;1.7720724224774076e-07;2.220446049250313e-16;0.00017284863109885427;-0.00017284863109863222;0.00012096708528721743;-0.004659348943679809
0.40010905265808105;0.0012092451816115477;0.00013719088757629806;0.0002237105174408003;0.0027221951651076313;0.001352884704971875;-0.0006762683171927978;-0.00021919183684826718;2.220446049250313e-16;2.220446049250313e-16;2.220446049250313e-16;2.220446049250313e-16;2.220446049250313e-16;2.220446049250313e-16;2.220446049250313e-16;2.220446049250313e-16;-1.2207201199380395e-05;3.9512573807526705e-16;2.220446049250313e-16;1.6658567638929363e-05;-1.663380355636957e-05;-3.600547503150615e-14;-1.248720855010445e-06;2.3630546519556207e-09;2.220446049250313e-16;1.5088155126143397e-06;-1.6779968362351606e-05;1.677996836212956e-05;4.458591854323613e-08;1.7843769031549685e-10;1.2617920777862455e-11;1.4433640635604892e-07;2.220446049250313e-16;-0.0001587808022677844;0.00015878080226800644;9.85284470107216e-05;-0.003795068835558101
0.41986775398254395;0.0011755481886603085;4.7177057524609776e-05;0.00020981889090559145;0.0027860683194622427;0.0013028916093314462;-0.0005693030655910517;-0.00017853312106189391;2.220446049250313e-16;2.220446049250313e-16;2.220446049250313e-16;2.220446049250313e-16;2.220446049250313e-16;2.220446049250313e-16;2.220446049250313e-16;2.220446049250313e-16;-9.942841671902824e-06;3.2183238319816785e-16;2.220446049250313e-16;1.356850745795571e-05;-1.3548336957935244e-05;-2.9326684447380693e-14;0.00015198195088700762;1.9247227831094277e-09;2.220446049250313e-16;1.228939665121333e-06;-1.366738910595824e-05;1.3667389105736196e-05;3.631550931545672e-08;1.4533861399753663e-10;1.0277375335573832e-11;1.1756290507954152e-07;2.220446049250313e-16;-0.00025663218861026284;0.0002566321886104849;8.025203589302655e-05;-0.003091107285742296
0.4400656223297119;0.001129242920895837;-2.735578068155436e-05;0.00019510191478424186;0.002840117597072503;0.0012368801489415525;-0.0004809109139406463;-0.0001454163429369192;2.220446049250313e-16;2.220446049250313e-16;2.220446049250313e-16;2.220446049250313e-16;2.220446049250313e-16;2.220446049250313e-16;2.220446049250313e-16;2.220446049250313e-16;-8.098506684525297e-06;2.6213448756730267e-16;2.220446049250313e-16;1.1051634127676536e-05;-1.103520512934424e-05;-2.388676777416937e-14;0.00027425084384912564;1.5676987363600224e-09;2.220446049250313e-16;5.007476440303051e-06;-1.1132173848005493e-05;1.1132173847783447e-05;2.9579209309372716e-08;1.1837920946733105e-10;8.370986444420731e-12;9.57557209554433e-08;2.220446049250313e-16;0.00018317723964426211;-0.0001831772396440401;6.536578481009444e-05;-0.002517726203657635
0.4600644111633301;0.0010727228888239232;-8.107814984340114e-05;0.00018042271131132195;0.002884248443179338;0.00115800062731556;-0.0004176949246875228;-0.0001216326224295525;2.220446049250313e-16;2.220446049250313e-16;2.220446049250313e-16;2.220446049250313e-16;2.220446049250313e-16;2.220446049250313e-16;2.220446049250313e-16;2.220446049250313e-16;-6.596284310212631e-06;2.220446049250313e-16;2.220446049250313e-16;8.431783681632965e-05;-8.430445529450678e-05;-1.945592164435953e-14;0.0007788394809430116;1.2769004188823407e-09;2.220446049250313e-16;4.078620857354586e-06;3.4497772986556225e-05;-3.449777298677827e-05;2.4092450852542257e-08;9.64206059812003e-11;6.8182207776459634e-12;7.799363319146451e-08;2.220446049250313e-16;1.5972244519897388e-05;-1.5972244519675347e-05;5.324084026397698e-05;-0.002050703728667916
0.4798848628997803;0.001007260235007229;-0.00011635694039272244;0.00016574706689483063;0.0029230379943166215;0.0010675456985443793;-0.00037672778079522723;0.00045254252366772735;2.220446049250313e-16;2.220446049250313e-16;2.220446049250313e-16;2.220446049250313e-16;2.220446049250313e-16;2.220446049250313e-16;2.220446049250313e-16;2.220446049250313e-16;-5.3727147974451264e-06;2.220446049250313e-16;2.220446049250313e-16;6.867740507338059e-05;-6.866650574022133e-05;-1.5846969778841116e-14;0.0006343696249748387;1.0400433718072846e-09;2.220446049250313e-16;3.3220621796956682e-06;-1.3120506676443025e-05;1.312050667622098e-05;1.962345179721349e-08;7.853518620047502e-11;5.553483437272496e-12;6.352630169465527e-08;2.220446049250313e-16;-0.00028526051943734754;0.00028526051943756947;4.33649971502609e-05;-0.003472689175278435
0.4998900890350342;0.0009326383075739777;-0.00013638596458559726;0.00015072487315556546;0.002961588108175056;0.0009647809835338051;-0.00035432956935485885;0.0007736302185107137;2.220446049250313e-16;2.220446049250313e-16;2.220446049250313e-16;2.220446049250313e-16;2.220446049250313e-16;2.220446049250313e-16;2.220446049250313e-16;2.220446049250313e-16;-4.3761097819865386e-06;2.220446049250313e-16;2.220446049250313e-16;0.00013204195927945313;-0.00013203308170447407;-1.2907455928427206e-14;0.0006675888394957347;8.471218266081067e-10;2.220446049250313e-16;2.7058404082507442e-06;-1.0686734691150164e-05;1.0686734690928121e-05;1.598342413540412e-08;6.396740000520065e-11;4.52334696892993e-12;5.1742569769682316e-08;2.220446049250313e-16;0.00019910909742463048;-0.00019910909742440846;3.5321061210119685e-05;-0.0028285270375716307
0.5200049877166748;0.000851416255402921;-0.00014318265008746463;0.000135639905160092;0.003001961874275198;0.0008529369269564301;-0.00034844355845579825;0.000630126648165842;2.220446049250313e-16;2.220446049250313e-16;2.220446049250313e-16;2.220446049250313e-16;2.220446049250313e-16;2.220446049250313e-16;2.220446049250313e-16;2.220446049250313e-16;-3.564368768114173e-06;2.220446049250313e-16;2.220446049250313e-16;0.00010754900109536003;-0.00010754177025505476;-1.0513203525303509e-14;0.0005437552821995227;6.899860222837193e-10;2.220446049250313e-16;2.2039239240227824e-06;-8.704412198054222e-06;8.704412197832177e-06;1.30185988546875e-08;5.210184710048594e-11;3.684294377111982e-12;4.21446464684673e-08;2.220446049250313e-16;0.00011785238942071922;-0.00011785238942049717;2.876922511227504e-05;-0.002303852950396077
0.5398859977722168;0.0007679647261911937;-0.00014048482075755615;0.00012095931913216428;0.0030435589158896593;0.0007379198458034356;-0.000354554004349012;0.0005132420932226293;2.220446049250313e-16;2.220446049250313e-16;2.220446049250313e-16;2.220446049250313e-16;2.220446049250313e-16;2.220446049250313e-16;2.220446049250313e-16;2.220446049250313e-16;-2.9032006389337937e-06;2.220446049250313e-16;2.220446049250313e-16;8.759933357342759e-05;-8.759344400880619e-05;-8.563069978881737e-15;0.0004428920758220249;5.619979275627286e-10;2.220446049250313e-16;1.7951098106410809e-06;7.862144504054717e-05;-7.862144504076923e-05;1.0603730133385809e-08;4.2437280099890174e-11;3.0008807969975667e-12;3.432707795260704e-08;2.220446049250313e-16;-0.00015417421441390084;0.00015417421441412288;2.3432713661604973e-05;-0.001876502627178545
0.5598571300506592;0.0006843463890433391;-0.00013302580409209705;0.00010664308764531208;0.0030865210807274495;0.0006225039932718682;-0.00036675505400869045;0.0004180388926929141;2.220446049250313e-16;2.220446049250313e-16;2.220446049250313e-16;2.220446049250313e-16;2.220446049250313e-16;2.220446049250313e-16;2.220446049250313e-16;2.220446049250313e-16;-2.364675065415568e-06;2.220446049250313e-16;2.220446049250313e-16;7.135020469139159e-05;-7.134540760419768e-05;-6.974674016986543e-15;0.0003607383638325132;4.5775082448688953e-10;2.220446049250313e-16;1.4621281602034766e-06;-1.2439671723390304e-05;1.243967172316826e-05;8.636804466956074e-09;3.456542987436116e-11;2.444236164659499e-12;2.795961953663563e-08;2.220446049250313e-16;8.44323809664242e-05;-8.443238096620214e-05;1.908609173183763e-05;-0.003214974329456745
0.5798754692077637;0.0006028911571219138;-0.00012441796020519976;9.280805569957434e-05;0.0031286971790774718;0.0005100228933236419;-0.0003803451775880088;0.00034049529084145786;2.220446049250313e-16;2.220446049250313e-16;2.220446049250313e-16;2.220446049250313e-16;2.220446049250313e-16;2.220446049250313e-16;2.220446049250313e-16;2.220446049250313e-16;-1.9260426200001384e-06;2.220446049250313e-16;2.220446049250313e-16;5.811518765991777e-05;-5.811128040241654e-05;-5.680915578548145e-15;0.00029382365195635584;3.728409074872245e-10;2.220446049250313e-16;1.1909125247867331e-06;-1.0132190366670268e-05;1.0132190366448222e-05;7.03473121836364e-09;2.8153758666603878e-11;1.9908456325911904e-12;2.2773284860211816e-08;2.220446049250313e-16;0.00018504242738761484;-0.00018504242738739282;1.5545741003655074e-05;0.012681211157284723
0.6001756191253662;0.0005236588051344665;-0.000116618558120109;7.932555407447874e-05;0.0031702144185442186;0.00040055618273756807;-0.0003932528305965763;0.0002773355424859352;2.220446049250313e-16;2.220446049250313e-16;2.220446049250313e-16;2.220446049250313e-16;2.220446049250313e-16;2.220446049250313e-16;2.220446049250313e-16;2.220446049250313e-16;-1.5687737517564873e-06;2.220446049250313e-16;2.220446049250313e-16;4.7335183568925895e-05;-4.733200108327078e-05;-4.627141244449829e-15;0.0002393212009162765;3.03681249404016e-10;2.220446049250313e-16;9.700056946420736e-07;-8.252732379863318e-06;8.252732379641272e-06;5.729832544427298e-09;2.2931412394940524e-11;1.6215562105307278e-12;1.8548982851672898e-08;2.220446049250313e-16;-0.00010774830738719672;0.00010774830738741877;1.2662103208358328e-05;-0.004438830215471843
0.6199119091033936;0.00045079782486958785;-0.00011202397703589591;6.675751081339932e-05;0.0032107365914499863;0.0002996747464804747;-0.00040296841598147655;0.00022589153270193463;2.220446049250313e-16;2.220446049250313e-16;2.220446049250313e-16;2.220446049250313e-16;2.220446049250313e-16;2.220446049250313e-16;2.220446049250313e-16;2.220446049250313e-16;-1.2777760256416074e-06;2.220446049250313e-16;2.220446049250313e-16;3.855480286178744e-05;-3.855221070733081e-05;-3.7688354632371625e-15;0.0001949286139038129;2.4735027564737984e-10;2.220446049250313e-16;7.900757008215602e-07;3.407248016605623e-05;-3.4072480166278275e-05;4.666984418889436e-09;1.8677778717006518e-11;1.3207676682035936e-12;1.5108262463830394e-08;2.220446049250313e-16;-0.00030594400883103453;0.00030594400883125663;1.0313362201352908e-05;-0.0036154549531906624
0.6398818492889404;0.0003805732979405769;-0.00011299804847278819;5.42676023049313e-05;0.0032501976492109634;0.00020242577245874327;-0.0004067185299507814;-0.00010710463324770129;2.220446049250313e-16;2.220446049250313e-16;2.220446049250313e-16;2.220446049250313e-16;2.220446049250313e-16;2.220446049250313e-16;2.220446049250313e-16;2.220446049250313e-16;-1.040756558985249e-06;2.220446049250313e-16;2.220446049250313e-16;3.140312789844375e-05;-3.1401016572437866e-05;-3.069740040028314e-15;0.0001587705743284925;2.0146834545401364e-10;2.220446049250313e-16;1.0770705488295583e-08;-7.848863534416474e-06;7.848863534194431e-06;-0.00014993752875983745;1.521316750111879e-11;1.0757735205497527e-12;1.2305774203430252e-08;2.220446049250313e-16;0.00019846170481185364;-0.0001984617048116316;8.400297971515701e-06;0.012174216073354015
0.6599116325378418;0.0003125377576003437;-0.00012022440267582096;4.175322121464721e-05;0.003285151320051947;0.00010853781598927495;-0.000403480572661879;-0.0007048813837756043;2.220446049250313e-16;2.220446049250313e-16;2.220446049250313e-16;2.220446049250313e-16;2.220446049250313e-16;2.220446049250313e-16;2.220446049250313e-16;2.220446049250313e-16;-8.47702722021979e-07;2.220446049250313e-16;2.220446049250313e-16;9.729527787733599e-05;-9.72935581891084e-05;-2.5003224484783113e-15;0.0001293196251066467;1.6409722654945314e-10;2.220446049250313e-16;8.772806937126053e-09;-6.3929484041999e-06;6.392948403977855e-06;-0.00012212505428444228;1.2391220011958132e-11;8.762242560722768e-13;1.002312999978271e-08;2.220446049250313e-16;7.266728143134343e-05;-7.266728143112137e-05;6.842095199661859e-06;-0.004193525655891727
0.6798930168151855;0.00024498625320596844;-0.0001339514375270973;2.8884695105827705e-05;0.0033106240763465587;1.6211337060646403e-05;-0.00039189203050104133;-0.0005642168360303855;2.220446049250313e-16;2.220446049250313e-16;2.220446049250313e-16;2.220446049250313e-16;2.220446049250313e-16;2.220446049250313e-16;2.220446049250313e-16;2.220446049250313e-16;-6.904591652289144e-07;2.220446049250313e-16;2.220446049250313e-16;7.924761192657688e-05;-7.924621122976748e-05;-2.036528261300887e-15;0.00010533164289702061;1.336582166321955e-10;2.220446049250313e-16;7.145506080332525e-09;-5.207096431168937e-06;5.2070964309468935e-06;-9.947161999626751e-05;1.0092726144864975e-11;7.136901329724699e-13;8.163902029385513e-09;2.220446049250313e-16;-0.00022906266067656593;0.00022906266067678795;5.572929303219582e-06;-0.0034156528562591607
0.6999170780181885;0.00017556193496824697;-0.00015666595557559966;1.4981879134008607e-05;0.003322181676342536;-7.724840348271323e-05;-0.0003672231304942408;-0.00045955813930197403;2.220446049250313e-16;2.220446049250313e-16;2.220446049250313e-16;2.220446049250313e-16;2.220446049250313e-16;2.220446049250313e-16;2.220446049250313e-16;2.220446049250313e-16;-5.623833054487334e-07;2.220446049250313e-16;2.220446049250313e-16;6.45476752117714e-05;-6.454653433546578e-05;-1.6587649971312058e-15;8.579328146239138e-05;1.0886545281077716e-10;0.0001354298283063016;5.8200593618438426e-09;-9.787658943600605e-06;9.78765894337856e-06;-8.102025618458486e-05;8.220588524530924e-12;5.813050738694074e-13;6.649549227322183e-09;2.220446049250313e-16;0.00021516709339837223;-0.00021516709339815018;4.539185748280494e-06;-0.002782070599253438
0.7199947834014893;0.00010465981770989402;-0.0001899043829440561;-6.758734281664313e-08;0.0033189221487291936;-0.00017121135091081259;-0.00032667945613275946;-0.00037431297669982834;2.220446049250313e-16;2.220446049250313e-16;2.220446049250313e-16;2.220446049250313e-16;2.220446049250313e-16;2.220446049250313e-16;2.220446049250313e-16;2.220446049250313e-16;-4.5806471718365233e-07;2.220446049250313e-16;2.220446049250313e-16;5.257448488295787e-05;-5.2573555632076454e-05;-1.3510744574445988e-15;0.00021909595489796508;8.867159172345805e-11;0.00011030844159190957;4.7404747255928214e-09;-7.972109382451684e-06;7.972109382229639e-06;-6.599150503894552e-05;6.695720731908714e-12;4.73476615823344e-13;5.416099405336588e-09;2.220446049250313e-16;0.00017525494236732853;-0.00017525494236710648;3.6971951618853888e-06;-0.00226601389103317
0.7398769855499268;3.500448042356515e-05;-0.000232430924538594;-1.571875527418956e-05;0.003301403881073041;-0.0002621043490412958;-0.00027144306470107274;-0.00030488025897811456;2.220446049250313e-16;2.220446049250313e-16;2.220446049250313e-16;2.220446049250313e-16;2.220446049250313e-16;2.220446049250313e-16;2.220446049250313e-16;2.220446049250313e-16;-3.730965750505671e-07;2.220446049250313e-16;2.220446049250313e-16;4.282224652769969e-05;-4.282148964704896e-05;-1.1004585898039846e-15;0.0001784550246141106;7.222356565620484e-11;8.984691510437027e-05;3.861146291962386e-09;-6.49333291771113e-06;6.4933329174890845e-06;-5.375049330112761e-05;5.453706384394222e-12;3.8564966281696253e-13;4.4114468162679335e-09;2.220446049250313e-16;-0.0001575503657950133;0.0001575503657952353;3.0113885668254102e-06;-0.001845682476833336
0.7598755359649658;-3.153724790478741e-05;-0.00028313403756236613;-3.1575955815035194e-05;0.003269461594384856;-0.0003474308017699141;-0.00020256459400324462;-0.0002483268764392928;2.220446049250313e-16;2.220446049250313e-16;2.220446049250313e-16;2.220446049250313e-16;2.220446049250313e-16;2.220446049250313e-16;2.220446049250313e-16;2.220446049250313e-16;-3.038894922322809e-07;2.220446049250313e-16;2.220446049250313e-16;3.4878987435852194e-05;-3.487837095183167e-05;-8.963303992615316e-16;0.00014535273289209688;5.882654562426418e-11;7.318087389572898e-05;3.1449277869676875e-09;-5.288860244827044e-06;5.288860244604999e-06;-4.378011273435156e-05;4.442077935753995e-12;3.141140606748085e-13;3.5931510033928327e-09;2.220446049250313e-16;-6.133788273473481e-05;6.133788273495687e-05;2.4527948088578384e-06;0.014111418751779037
0.7798559665679932;-9.26316514867443e-05;-0.0003396797175326494;-4.705714650339996e-05;0.0032213039305947566;-0.00042392704891792494;-0.00012235511378545224;-0.00020226379290278168;2.220446049250313e-16;2.220446049250313e-16;2.220446049250313e-16;2.220446049250313e-16;2.220446049250313e-16;2.220446049250313e-16;2.220446049250313e-16;2.220446049250313e-16;-2.475198907325192e-07;2.220446049250313e-16;2.220446049250313e-16;2.840915326017308e-05;-2.840865113008534e-05;-7.300667122635129e-16;0.00011839070939519344;4.7914589076873325e-11;5.96062791685331e-05;2.5615633382838496e-09;-1.0956541189634624e-05;1.0956541189412579e-05;-3.565917544783392e-05;3.6181002416587267e-12;2.558478656325107e-13;2.926643949457233e-09;2.220446049250313e-16;0.00018378853903874617;-0.00018378853903852413;1.9978167017822647e-06;-0.0019902883629525853
0.7999637126922607;-0.00014853235673429872;-0.00040187347942745365;-6.222379274038259e-05;0.003154606094062645;-0.000491709136603714;-3.0179800487537333e-05;-0.0001647451234680213;2.220446049250313e-16;2.220446049250313e-16;2.220446049250313e-16;2.220446049250313e-16;2.220446049250313e-16;2.220446049250313e-16;2.220446049250313e-16;2.220446049250313e-16;-2.016064980009539e-07;2.220446049250313e-16;2.220446049250313e-16;2.3139432887618837e-05;-2.3139023899524066e-05;-5.946439000555828e-16;9.642997274431876e-05;3.902673226929504e-11;4.8549686922015e-05;2.086409348803059e-09;-8.92417127736043e-06;8.924171277138385e-06;-0.0004790891666015172;2.9469652599575433e-12;2.0838968560684016e-13;2.3837697883576e-09;2.220446049250313e-16;-7.01100940497015e-05;7.011009404992355e-05;1.6272341899560405e-06;0.013398851817764014
0.8198740482330322;-0.00019804865452117168;-0.00046824173574013303;-7.677487099400365e-05;0.0030724575546435197;-0.0005494859444573958;7.198797105165204e-05;-0.000134185932721725;2.220446049250313e-16;2.220446049250313e-16;2.220446049250313e-16;2.220446049250313e-16;2.220446049250313e-16;2.220446049250313e-16;2.220446049250313e-16;2.220446049250313e-16;-1.6420975266238939e-07;2.220446049250313e-16;2.220446049250313e-16;1.8847212708421092e-05;-1.884687958506172e-05;-4.843411731196474e-16;7.854281548757728e-05;3.1787517350417485e-11;3.954402343352447e-05;1.6993934546585209e-09;-7.268793281501146e-06;7.268793281279102e-06;-0.0005233667328974907;2.400321622768293e-12;1.6973470136230633e-13;1.9415953911784424e-09;2.220446049250313e-16;-0.0002705596352536088;0.00027055963525383084;1.325392417932882e-06;-0.0027735673638057514
0.8400518894195557;-0.00024071624009465342;-0.0005391163545905351;-9.069560802771274e-05;0.002975684348733656;-0.00059670929165461;0.00018493734725440712;-0.00010929528086392453;2.220446049250313e-16;2.220446049250313e-16;2.220446049250313e-16;2.220446049250313e-16;2.220446049250313e-16;2.220446049250313e-16;2.220446049250313e-16;2.220446049250313e-16;-1.3374986985447028e-07;2.220446049250313e-16;2.220446049250313e-16;1.5351172546088402e-05;-1.5350901215030174e-05;-3.944989126382847e-16;6.397361410722848e-05;2.5891131553898476e-11;3.220885423675213e-05;1.5496392661586262e-05;4.009673365821288e-05;-4.009673365843493e-05;-0.0006972923472222638;1.955076963754917e-12;1.3824997510148195e-13;1.581441581086036e-09;2.220446049250313e-16;0.00021432936326845;-0.00021432936326822795;1.0795404081089444e-06;-0.0028697595702924772
0.8600490093231201;-0.0002721307366541937;-0.0006122459700335979;-0.00010305427796413955;0.002870676962796793;-0.0006281229410693912;0.00030505997985384;0.0009012803079015637;2.220446049250313e-16;2.220446049250313e-16;2.220446049250313e-16;2.220446049250313e-16;2.220446049250313e-16;2.220446049250313e-16;2.220446049250313e-16;2.220446049250313e-16;-1.089401049331526e-07;2.220446049250313e-16;2.220446049250313e-16;1.2503625983617412e-05;-1.2503404982774667e-05;-3.2132182996208683e-16;5.210690852542576e-05;2.1088488470222514e-11;2.6234313081173582e-05;1.2621908675316142e-05;-9.557122452154177e-06;9.55712245193213e-06;-0.0005679489748897037;1.5924224062094029e-12;1.1260546878250143e-13;1.2880940518044574e-09;2.220446049250313e-16;0.0001292413761437349;-0.0001292413761435129;8.792924095322859e-07;-0.0023374371060005373
0.8798885345458984;-0.0002888766031517238;-0.0006856548074074944;-0.00011306511483787356;0.0027618649748261466;-0.0006396095323795879;0.00042875921613780255;0.0007477328373275327;2.220446049250313e-16;2.220446049250313e-16;2.220446049250313e-16;2.220446049250313e-16;2.220446049250313e-16;2.220446049250313e-16;2.220446049250313e-16;2.220446049250313e-16;-8.873239634370863e-08;2.220446049250313e-16;2.220446049250313e-16;1.018428151131878e-05;-1.0184101504751108e-05;-2.6171863876555697e-16;4.244140266213756e-05;1.717670566204917e-11;2.1368011969072634e-05;1.0280623502974216e-05;-7.784335969315494e-06;7.78433596909345e-06;-0.0004625979897287567;1.2970380024975969e-12;9.171785810752726e-14;1.0491606557825543e-09;2.220446049250313e-16;-0.00018730640882013463;0.00018730640882035668;7.161891631416062e-07;-0.0019038571318193492
0.8998947143554688;-0.0002894469357686119;-0.0007570272449776832;-0.00012020636739256354;0.002649523308663956;-0.0006292118812862775;0.000552209160310525;0.0007071761065550223;2.220446049250313e-16;2.220446049250313e-16;2.220446049250313e-16;2.220446049250313e-16;2.220446049250313e-16;2.220446049250313e-16;2.220446049250313e-16;2.220446049250313e-16;-7.227309139942781e-08;2.220446049250313e-16;2.220446049250313e-16;8.29516094272859e-06;-8.29501432625418e-06;2.220446049250313e-16;3.456878772707768e-05;1.3990534116149435e-11;1.740437929888446e-05;8.373632097069391e-06;-6.340390299127872e-06;6.340390298905828e-06;-0.000376788953871508;1.0564455595218082e-12;7.470476866519412e-14;8.545479113889892e-10;2.220446049250313e-16;0.00022284100585595436;-0.00022284100585573228;5.833405495611078e-07;-0.001550703532973934
0.9199707508087158;-0.0002745633198532665;-0.0008229697380266661;-0.00012423417172435945;0.0025316171546934042;-0.000597733180614721;0.0006703853980290742;0.0005759993586397313;2.220446049250313e-16;2.220446049250313e-16;2.220446049250313e-16;2.220446049250313e-16;2.220446049250313e-16;2.220446049250313e-16;2.220446049250313e-16;2.220446049250313e-16;-5.886688465165517e-08;2.220446049250313e-16;2.220446049250313e-16;6.756460432608327e-06;-6.756341012573567e-06;2.220446049250313e-16;2.815649365862805e-05;1.139537747844194e-11;1.4175975716312009e-05;6.8203756782636255e-06;3.9413530862320394e-05;-3.941353086254243e-05;-0.00030689695785930486;8.604815110152594e-13;6.084750098260475e-14;6.960346147507777e-10;2.220446049250313e-16;0.00018150539202598195;-0.0001815053920257599;4.751345234959569e-07;-0.00126305771950435
0.9400582313537598;-0.00024832560420446855;-0.0008803067520579305;-0.00012550601911572045;0.002402376685153715;-0.0005501249061073672;0.0007791236841899317;0.00046915507760805276;2.220446049250313e-16;2.220446049250313e-16;2.220446049250313e-16;2.220446049250313e-16;2.220446049250313e-16;2.220446049250313e-16;2.220446049250313e-16;2.220446049250313e-16;-4.794744546680222e-08;2.220446049250313e-16;2.220446049250313e-16;5.503179250237185e-06;-5.5030819818724995e-06;2.220446049250313e-16;0.00017125187137616405;9.281606177300199e-12;1.1546420820784355e-05;5.555238617293711e-06;-1.2039570057198372e-05;1.2039570056976327e-05;-0.00024996949028239043;7.008675687313725e-13;4.956066984721272e-14;5.669245439308507e-10;2.220446049250313e-16;-0.0001536154379288559;0.00015361543792907794;3.8700003897822865e-07;-0.0010287684066470398
0.9598875045776367;-0.0002158818098475716;-0.0009250245344402742;-0.00012447884461409662;0.0022588038883802684;-0.0004930023781398365;0.0008725410235510679;0.0003821297429309939;2.220446049250313e-16;2.220446049250313e-16;2.220446049250313e-16;2.220446049250313e-16;2.220446049250313e-16;2.220446049250313e-16;2.220446049250313e-16;2.220446049250313e-16;-3.9053494004244566e-08;2.220446049250313e-16;2.220446049250313e-16;4.482373894188501e-06;-4.482294668497537e-06;2.220446049250313e-16;0.00013948571956008172;7.559926241449619e-12;9.404631923658984e-06;4.524776574027085e-06;-9.806305058921524e-06;9.806305058699478e-06;-0.0002036017121443212;5.708610151540074e-13;4.036747534474129e-14;4.617635843100772e-10;2.220446049250313e-16;-0.0002531486811832685;0.00025314868118349055;3.1521395049801075e-07;-0.0020959793650109325
0.979999303817749;-0.00018082780099309162;-0.0009561049677873223;-0.00012163595568938175;0.0020928407087263258;-0.0004304116470334954;0.0009500188080237266;0.00020425845580059244;2.220446049250313e-16;2.220446049250313e-16;2.220446049250313e-16;2.220446049250313e-16;2.220446049250313e-16;2.220446049250313e-16;2.220446049250313e-16;2.220446049250313e-16;-3.180931495079471e-08;2.220446049250313e-16;2.220446049250313e-16;3.650921551653372e-06;-3.65085702183292e-06;2.220446049250313e-16;0.0001136119903674338;6.157607173199723e-12;7.660131480769763e-06;3.6854587993986483e-06;-7.987296759918791e-06;7.987296759696747e-06;-0.00016583486705225048;4.649698647242836e-13;3.287956096501268e-14;3.7610932544295977e-10;2.220446049250313e-16;0.00018849664112951652;-0.0001884966411292945;2.5674373276782043e-07;0.01323641735769062
0.9998905658721924;-0.00014886697019577953;-0.0009703585691676205;-0.00011760896253434679;0.0019046284870654273;-0.0003699957963451565;0.0010062599644623936;-0.00025579448871211933;2.220446049250313e-16;2.220446049250313e-16;2.220446049250313e-16;2.220446049250313e-16;2.220446049250313e-16;2.220446049250313e-16;2.220446049250313e-16;2.220446049250313e-16;-2.590888583564073e-08;2.220446049250313e-16;2.220446049250313e-16;2.973698422081368e-06;-2.9736458621393e-06;2.220446049250313e-16;9.25376762292146e-05;5.015409527616006e-12;6.239224966908727e-06;3.001829226227694e-06;3.920199036584862e-05;-3.9201990366070666e-05;-0.0001350735356819771;3.787208608795834e-13;2.6780607903258852e-14;-0.000129432739671683;2.220446049250313e-16;1.7345580460658872e-05;-1.7345580460436828e-05;2.091193749877195e-07;0.012208213904919558
1.0198781490325928;-0.00012401506284226532;-0.0009651221654033139;-0.00011282281833866522;0.001688353223721297;-0.0003165801747892997;0.0010382849410092423;-0.0007195643558716131;2.220446049250313e-16;2.220446049250313e-16;2.220446049250313e-16;2.220446049250313e-16;2.220446049250313e-16;2.220446049250313e-16;2.220446049250313e-16;2.220446049250313e-16;-2.1102949443665843e-08;2.220446049250313e-16;2.220446049250313e-16;2.4220959504004124e-06;-2.422053139999097e-06;2.220446049250313e-16;7.53725156491717e-05;4.085082406552784e-12;5.0818877307032006e-06;-9.070411999579828e-05;-1.3979934116990704e-05;1.3979934116768658e-05;-0.00011001823902256832;3.084705081918012e-13;2.181297251600373e-14;-0.00010542377541720877;2.220446049250313e-16;-0.00027861569333557424;0.0002786156933357963;1.7032903792359116e-07;-0.004218448240139343
1.0399186611175537;-0.0001080202479621879;-0.0009393602325226068;-0.00010749779960095152;0.0014432967047445864;-0.0002724303069833682;0.0010449746041573465;-0.0005860896651346528;2.220446049250313e-16;2.220446049250313e-16;2.220446049250313e-16;2.220446049250313e-16;2.220446049250313e-16;2.220446049250313e-16;2.220446049250313e-16;2.220446049250313e-16;-1.718848421529985e-08;2.220446049250313e-16;2.220446049250313e-16;1.9728122897008253e-06;-1.972777420361389e-06;2.220446049250313e-16;6.139138507447314e-05;3.3273251519022817e-12;4.139229318456072e-06;4.344925785010019e-06;-1.138674371289775e-05;1.1386743712675705e-05;-8.961054329787577e-05;2.5125115686289825e-13;1.776680244536326e-14;-8.586832397591288e-05;2.220446049250313e-16;0.00020377104061300544;-0.0002037710406127834;1.3873406594525198e-07;-0.0034359524568949953
1.059990644454956;-9.986292938594278e-05;-0.0008929953069469028;-0.00010148785765378133;0.0011726415756019857;-0.00023648086075607532;0.001026198143017858;-0.00047737369531258183;2.220446049250313e-16;2.220446049250313e-16;2.220446049250313e-16;2.220446049250313e-16;2.220446049250313e-16;2.220446049250313e-16;2.220446049250313e-16;2.220446049250313e-16;-1.4000127821388072e-08;2.220446049250313e-16;2.220446049250313e-16;1.6068679400381326e-06;-1.6068395387432285e-06;2.220446049250313e-16;5.000366683931508e-05;2.710127132006607e-12;0.00013250993509145566;3.5389692076768167e-06;-9.274573921324015e-06;9.274573921101972e-06;-7.298834758201542e-05;2.0464563758456094e-13;1.4471171634263657e-14;-6.994028655540588e-05;2.220446049250313e-16;0.00012157331909096929;-0.00012157331909074724;1.1299976380031991e-07;-0.002798604750843829
1.0798959732055664;-9.82479740196361e-05;-0.0008269397119374688;-9.469475394012532e-05;0.0008871532733509728;-0.00020800603482234114;0.0009818709225671758;-0.0003888238584176935;2.220446049250313e-16;2.220446049250313e-16;2.220446049250313e-16;2.220446049250313e-16;2.220446049250313e-16;2.220446049250313e-16;2.220446049250313e-16;2.220446049250313e-16;-1.1403191611319468e-08;2.220446049250313e-16;2.220446049250313e-16;1.3088039800856836e-06;-1.3087808470534759e-06;2.220446049250313e-16;4.072829916353987e-05;2.2074154873139568e-12;0.00010793017031908492;2.882512538210314e-06;3.781014179227486e-05;-3.7810141792496905e-05;-5.9449465282723936e-05;1.6668515084785982e-13;1.1786859740930458e-14;-5.696680052616905e-05;2.220446049250313e-16;-0.00019720389784892063;0.00019720389784914268;9.203901386388429e-08;-0.003922759348192664
1.0998663902282715;-0.00010263207513553868;-0.0007414467963465984;-8.708166930116412e-05;0.000593404034897967;-0.00018689381160200114;0.000911639995005432;-0.00031669946283032635;2.220446049250313e-16;2.220446049250313e-16;2.220446049250313e-16;2.220446049250313e-16;2.220446049250313e-16;2.220446049250313e-16;2.220446049250313e-16;2.220446049250313e-16;-9.287970837367276e-09;2.220446049250313e-16;2.220446049250313e-16;1.0660290218046643e-06;-1.0660101798053505e-06;2.220446049250313e-16;3.3173454220572995e-05;1.7979537107640128e-12;8.790979828845915e-05;2.347824478075664e-06;-1.1046107557741184e-05;1.104610755751914e-05;-4.842196103193666e-05;1.3576609714777458e-13;9.600470926861236e-15;-4.639981507106797e-05;2.220446049250313e-16;8.465806585311589e-05;-8.465806585289385e-05;7.49663520359704e-08;-0.0047681364080323025
1.1198928356170654;-0.00011520779852216835;-0.0006382977215705404;-7.92328323822477e-05;0.0003007887069231557;-0.00017693142243747968;0.0008167593277216943;-0.00025795369184694345;2.220446049250313e-16;2.220446049250313e-16;2.220446049250313e-16;2.220446049250313e-16;2.220446049250313e-16;2.220446049250313e-16;2.220446049250313e-16;2.220446049250313e-16;-7.565110296853377e-09;2.220446049250313e-16;2.220446049250313e-16;8.682873009412855e-07;-8.682719540150814e-07;2.220446049250313e-16;0.00015794944982988233;1.4644445346279804e-12;7.160308014218928e-05;1.9123177112956156e-06;-8.997123643973024e-06;8.99712364375098e-06;-3.943998989776885e-05;1.1058233466496956e-13;7.819643572871769e-15;-3.779293937422905e-05;2.220446049250313e-16;0.00018585531856281292;-0.00018585531856259093;6.106056227299809e-08;-0.0038836769051948596
1.1398496627807617;-0.00013740901269986634;-0.0005203820892332229;-7.170665346039565e-05;1.9445887044398588e-05;-0.00018095709754429695;0.0006999125227697976;-0.00021010489421990948;2.220446049250313e-16;2.220446049250313e-16;2.220446049250313e-16;2.220446049250313e-16;2.220446049250313e-16;2.220446049250313e-16;2.220446049250313e-16;2.220446049250313e-16;-6.1618296187264305e-09;2.220446049250313e-16;2.220446049250313e-16;7.072254334123078e-07;-7.072129332449962e-07;2.220446049250313e-16;0.00012865081407050058;1.192799226232831e-12;5.832115629506406e-05;1.557594727835974e-06;-7.3282134400593965e-06;7.328213439837352e-06;-3.2124118271669584e-05;9.007000272420934e-14;6.369148562876385e-15;-3.078258532618064e-05;2.220446049250313e-16;-0.00011650936673951001;0.00011650936673973203;4.973420959987115e-08;-0.0031632791122618697
1.160017490386963;-0.00016704174641028806;-0.00038895685259903123;-6.427230552791145e-05;-0.0002466257918135068;-0.00019641139890642874;0.0005625821256633402;-0.00017113174949770512;2.220446049250313e-16;2.220446049250313e-16;2.220446049250313e-16;2.220446049250313e-16;2.220446049250313e-16;2.220446049250313e-16;2.220446049250313e-16;2.220446049250313e-16;-5.018848735887794e-09;2.220446049250313e-16;2.220446049250313e-16;5.760395356732834e-07;-5.760293542088822e-07;2.220446049250313e-16;0.0008367759634915046;9.715424247618046e-13;4.75029463095565e-05;1.2686706407894496e-06;8.321231321440674e-05;-8.321231321462878e-05;-2.6165295108014073e-05;7.336258015638552e-14;5.187711311641333e-15;-2.5072608139332417e-05;2.220446049250313e-16;-0.00030785288148070403;0.00030785288148092607;4.0508824557905046e-08;-0.002576510607431744
1.1799964904785156;-0.0001991802752204791;-0.00025102024393946766;-5.677170957341576e-05;-0.00048532244360368325;-0.00021781454907001974;0.0004128575258725027;-0.00013938787953931517;2.220446049250313e-16;2.220446049250313e-16;2.220446049250313e-16;2.220446049250313e-16;2.220446049250313e-16;2.220446049250313e-16;2.220446049250313e-16;2.220446049250313e-16;-4.087883663185207e-09;2.220446049250313e-16;2.220446049250313e-16;4.691878020529873e-07;-4.691795091865983e-07;2.220446049250313e-16;0.0015024822696095644;7.913273771086445e-13;3.869144666254821e-05;1.0333401661145114e-06;-7.729163725505198e-06;7.729163725283153e-06;-2.1311796398571882e-05;5.975428005350197e-14;4.2254232865275614e-15;-2.0421796033287118e-05;2.220446049250313e-16;0.00018827274773966653;-0.00018827274773944452;3.2994690782567135e-08;-0.002098583992944452
1.1999194622039795;-0.0002324640917509398;-0.00011048475875004947;-4.936934827730807e-05;-0.0006925196710025486;-0.00024370958284043498;0.0002558680671125696;0.00011336419395895944;2.220446049250313e-16;2.220446049250313e-16;2.220446049250313e-16;2.220446049250313e-16;2.220446049250313e-16;2.220446049250313e-16;2.220446049250313e-16;2.220446049250313e-16;-3.3296067929372447e-09;2.220446049250313e-16;2.220446049250313e-16;3.821563971959209e-07;-3.821496426044167e-07;2.220446049250313e-16;0.0015098400953965044;6.445410944510976e-13;3.1514425128187153e-05;8.416620236763073e-07;-6.295452161717859e-06;6.295452161495816e-06;-1.7358591365364286e-05;4.867023456782768e-14;-0.00013397695189691145;-1.6633680505337564e-05;2.220446049250313e-16;6.346930774102076e-05;-6.346930774079872e-05;2.687438185921833e-08;-0.0017093097784032115
1.2200055122375488;-0.00026782695192948915;2.788954362517602e-05;-4.270274535272296e-05;-0.0008648476065648488;-0.00027561953875346725;9.795180832069414e-05;0.0007424205669403518;2.220446049250313e-16;2.220446049250313e-16;2.220446049250313e-16;2.220446049250313e-16;2.220446049250313e-16;2.220446049250313e-16;2.220446049250313e-16;2.220446049250313e-16;-2.7119855428898417e-09;2.220446049250313e-16;2.220446049250313e-16;7.375217282275312e-05;-7.375216732109613e-05;2.220446049250313e-16;0.0012297741942010492;5.249827498122593e-13;2.566869623206548e-05;1.946686151822058e-06;-5.127685132315801e-06;5.127685132093756e-06;-1.4138681158285239e-05;-0.00012811649579965923;-0.00010912506467598372;-1.3548236732100602e-05;2.220446049250313e-16;-0.0002363481344351585;0.00023634813443538052;2.1889351989219942e-08;-0.0013922434976955307
1.2398858070373535;-0.00030438100704240697;0.0001546220982633053;-3.749125218949606e-05;-0.0009956013013465424;-0.0003129249344200915;-4.923806537060512e-05;0.0007177556279590006;2.220446049250313e-16;2.220446049250313e-16;2.220446049250313e-16;2.220446049250313e-16;2.220446049250313e-16;2.220446049250313e-16;2.220446049250313e-16;2.220446049250313e-16;-2.2089291745934187e-09;2.220446049250313e-16;2.220446049250313e-16;6.0071605715212547e-05;-6.007160123407854e-05;2.220446049250313e-16;0.001001658767265468;4.276017308642714e-13;2.090731351036878e-05;1.5855880374475146e-06;8.122757537688396e-05;-8.1227575377106e-05;-1.1516044170180566e-05;-0.00040712182388143636;-8.888304721024294e-05;-1.1035123494775514e-05;2.220446049250313e-16;0.0002171242412815505;-0.00021712424128132848;1.782901400366957e-08;-0.0028482825415282807
1.2599952220916748;-0.00034141390340714184;0.0002666807652086235;-3.385600626027903e-05;-0.0010866973736875553;-0.0003544795371681865;-0.0001817184951923977;0.0005846164449452806;2.220446049250313e-16;2.220446049250313e-16;2.220446049250313e-16;2.220446049250313e-16;2.220446049250313e-16;2.220446049250313e-16;2.220446049250313e-16;2.220446049250313e-16;-1.7991866185136802e-09;2.220446049250313e-16;2.220446049250313e-16;4.892869830257633e-05;-4.892869465266467e-05;2.220446049250313e-16;0.0008158573263050188;3.4828428229976687e-13;1.7029137524904807e-05;1.2914713664262345e-06;-1.0422359112612942e-05;1.0422359112390898e-05;-9.37988995188813e-06;-0.0010164012631394233;-7.239579747178793e-05;-8.988177056016498e-06;2.220446049250313e-16;0.0001768490515503515;-0.00017684905155012945;1.4521843337326383e-08;-0.002319943931840669
1.2798867225646973;-0.0003760424839196691;0.0003580967687098477;-3.1796677011977124e-05;-0.0011446792624135074;-0.0003957866333377922;-0.00029086968736493377;0.000476173748260712;2.220446049250313e-16;2.220446049250313e-16;2.220446049250313e-16;2.220446049250313e-16;2.220446049250313e-16;2.220446049250313e-16;2.220446049250313e-16;2.220446049250313e-16;-1.465448745695758e-09;2.220446049250313e-16;2.220446049250313e-16;3.98527305718128e-05;-3.985272759893695e-05;2.220446049250313e-16;0.0006645208913837273;2.836797247099245e-13;1.3870338946144495e-05;1.0519114996502078e-06;-8.489076636988288e-06;8.489076636766243e-06;-7.639978990125079e-06;-0.0009649210112716877;-5.8966829514505456e-05;-7.320926388232037e-06;2.220446049250313e-16;-0.00015611092166485101;0.00015611092166507306;1.1828132159773197e-08;-0.003389429498669117
1.2998530864715576;-0.000405763082366699;0.0004282356155778047;-3.0895304245717786e-05;-0.0011877928934075212;-0.00043178905057197697;-0.0003730988004052083;0.00038784649404427653;2.220446049250313e-16;2.220446049250313e-16;2.220446049250313e-16;2.220446049250313e-16;2.220446049250313e-16;2.220446049250313e-16;2.220446049250313e-16;2.220446049250313e-16;-1.1936171624238555e-09;2.220446049250313e-16;2.220446049250313e-16;3.2460298130307595e-05;-3.246029570888163e-05;0.0001439253700550295;0.0005412564192876168;2.310589087745129e-13;1.1297477761253104e-05;8.56788490911967e-07;-6.914405977576533e-06;6.91440597735449e-06;-6.222810637325565e-06;-0.0007859341944371098;-4.802885118224916e-05;-5.96294029900492e-06;2.220446049250313e-16;-5.7855436585000574e-05;5.7855436585222605e-05;9.634087569961266e-09;-0.002760711510600363
1.3199083805084229;-0.0004266933684817744;0.0004756344139720297;-3.0566164175667275e-05;-0.0012306590232634706;-0.0004559298064577024;-0.0004243890967312908;0.0003159033934396509;2.220446049250313e-16;2.220446049250313e-16;2.220446049250313e-16;2.220446049250313e-16;2.220446049250313e-16;2.220446049250313e-16;2.220446049250313e-16;2.220446049250313e-16;-9.72208638901495e-10;2.220446049250313e-16;2.220446049250313e-16;2.643911570399884e-05;-2.643911373173226e-05;0.00011722811344338435;0.00044085673636238426;1.8819892531502054e-13;9.20186624577666e-06;6.978595807758654e-07;-1.1244836948328489e-05;1.1244836948106444e-05;-5.068518156668155e-06;-0.0006401483134577411;-3.9119799468261824e-05;-4.856852141916375e-06;2.220446049250313e-16;0.00018582185751385647;-0.00018582185751363448;7.847024538780762e-09;0.01297849304758478
1.3400986194610596;-0.00043579036938439745;0.0004994138261704291;-3.0313956916545303e-05;-0.0012841338647928005;-0.00046313053223131503;-0.0004422184397020988;0.0002573052883528045;2.220446049250313e-16;2.220446049250313e-16;2.220446049250313e-16;2.220446049250313e-16;2.220446049250313e-16;2.220446049250313e-16;2.220446049250313e-16;2.220446049250313e-16;-7.918700126892609e-10;2.220446049250313e-16;2.220446049250313e-16;2.15348249853802e-05;-2.1534823378956746e-05;9.548303107534555e-05;0.0003590805671217642;1.5328920091236746e-13;7.4949775688491245e-06;5.684109901643222e-07;-9.158989974665074e-06;9.15898997444303e-06;-4.128339716844691e-06;-0.0005214048022382892;-3.186332116564593e-05;-3.955936424916774e-06;2.220446049250313e-16;-6.756902624870605e-05;6.75690262489281e-05;6.3914505307402985e-09;-0.003682751602621964
1.3600022792816162;-0.00043193701117152185;0.0004993002211571517;-2.9914279100159408e-05;-0.001354565729222273;-0.0004513099091425508;-0.00042582081146870407;9.78882421876828e-05;2.220446049250313e-16;2.220446049250313e-16;2.220446049250313e-16;2.220446049250313e-16;2.220446049250313e-16;2.220446049250313e-16;2.220446049250313e-16;2.220446049250313e-16;-6.449830745229821e-10;2.220446049250313e-16;2.220446049250313e-16;1.7540249543248334e-05;-1.7540248234806383e-05;7.777152557981316e-05;0.00029247336617422133;1.2485501220062894e-13;6.104706073437415e-06;4.629743040575288e-07;-7.460054578072638e-06;7.460054577850594e-06;-3.3625585014932306e-06;-0.0004246874702031005;-0.00017297358871552854;-3.222134942697368e-06;2.220446049250313e-16;-0.0002665587504049706;0.00026655875040519265;5.205876403853789e-09;-0.002999624197533105
1.3799324035644531;-0.0004171778715581146;0.0004786497889336485;-2.9371695947805492e-05;-0.0014477416426373815;-0.0004226773951177787;-0.0003792957135123697;-0.0005869223092819031;2.220446049250313e-16;2.220446049250313e-16;2.220446049250313e-16;2.220446049250313e-16;2.220446049250313e-16;2.220446049250313e-16;2.220446049250313e-16;2.220446049250313e-16;-5.253427453431846e-10;2.220446049250313e-16;2.220446049250313e-16;-6.126734733055902e-05;-8.984063202389568e-05;6.33453936567927e-05;0.00023822138470744184;1.0169518778123854e-13;4.972321251227733e-06;3.770954642442575e-07;-6.076261079201869e-06;6.076261078979824e-06;-2.73882491545687e-06;-0.00034591059877711405;-0.0001408880690937275;-2.624449049170397e-06;2.220446049250313e-16;0.00019836243257711643;-0.0001983624325768944;4.2402188676664335e-09;-0.002443212656541948
1.3998973369598389;-0.0003957147525856867;0.00044137146058179745;-2.9041801603864953e-05;-0.0015648006620145995;-0.0003827548562454961;-0.0003079810384228616;-0.0006636214107388872;2.220446049250313e-16;2.220446049250313e-16;2.220446049250313e-16;2.220446049250313e-16;2.220446049250313e-16;2.220446049250313e-16;2.220446049250313e-16;2.220446049250313e-16;-4.2789494947418215e-10;2.220446049250313e-16;2.220446049250313e-16;-4.990263732166114e-05;-7.317575628741319e-05;5.1595219042167986e-05;0.00019403280672786576;8.283136604274241e-14;4.049986736132808e-06;3.0714661247359924e-07;-1.8855348596335427e-05;1.8855348596113386e-05;-2.230790011295341e-06;-0.0002817463446452017;-0.00011475421282727285;-2.1376301533558454e-06;2.220446049250313e-16;0.00011398552079291566;-0.0001139855207926936;3.453684769082233e-09;0.014017266663017091
1.419844627380371;-0.00037111259861062645;0.00038994312857481905;-2.934255449023905e-05;-0.0016991905983031277;-0.0003369234414882482;-0.0002160822698296524;-0.0005405237866806408;2.220446049250313e-16;2.220446049250313e-16;2.220446049250313e-16;2.220446049250313e-16;2.220446049250313e-16;2.220446049250313e-16;2.220446049250313e-16;2.220446049250313e-16;-3.4852311069015546e-10;2.220446049250313e-16;2.220446049250313e-16;-4.064600998997626e-05;-5.960211084457483e-05;4.202462837996483e-05;0.00015804093378488868;6.746666533785146e-14;3.2987395089972725e-06;7.686264371443149e-06;-1.5357799277664527e-05;1.5357799277442482e-05;-1.8169924066376262e-06;-0.0002294841586281708;-9.346802356164388e-05;-1.7411131200967942e-06;2.220446049250313e-16;-0.00019749835836707037;0.0001974983583672924;2.813047829947285e-09;-0.002272741165567286
1.439845085144043;-0.0003457351951845497;0.00032675830613200973;-3.049890380426142e-05;-0.0018410652938144244;-0.0002892722225918014;-0.00010816145220949387;-0.00044026000252504863;2.220446049250313e-16;2.220446049250313e-16;2.220446049250313e-16;2.220446049250313e-16;2.220446049250313e-16;2.220446049250313e-16;2.220446049250313e-16;2.220446049250313e-16;-2.8387425192657337e-10;2.220446049250313e-16;2.220446049250313e-16;-3.3106429174398105e-05;-4.854629179609898e-05;3.422932246940873e-05;0.00012872532832362797;5.4952020584338345e-14;2.686843947200209e-06;6.260510369692765e-06;-1.2509023497923833e-05;1.2509023497701787e-05;-1.4799516714088875e-06;-0.0001869162814786365;-7.613028936610618e-05;-0.00012899450075770568;2.220446049250313e-16;0.00021584427279373885;-0.0002158442727935168;2.291245039041e-09;-0.0018511618839868386
1.45991849899292;-0.00032365159246733636;0.0002571506119850063;-3.275810034045888e-05;-0.001979873326021041;-0.0002462506734444274;7.032487656926562e-06;-0.0003585945236816678;2.220446049250313e-16;2.220446049250313e-16;2.220446049250313e-16;2.220446049250313e-16;2.220446049250313e-16;2.220446049250313e-16;2.220446049250313e-16;2.220446049250313e-16;-2.3121735240826854e-10;2.220446049250313e-16;2.220446049250313e-16;-9.175186128653476e-05;-0.0001043277258910515;2.787999708459884e-05;0.00010484758445289699;4.475876421607223e-14;2.18845118776924e-06;5.0992248243045664e-06;-1.0188677820476414e-05;1.018867782025437e-05;-1.205429886060485e-06;-0.00015224447949110863;-0.00019212556232325477;-0.0014577993378732386;2.220446049250313e-16;0.00017580650921722582;-0.0001758065092170038;1.8662334045803877e-09;-0.0015077829242690548
1.4798948764801025;-0.0003083676804616449;0.00018716131987096078;-3.6207246043184024e-05;-0.0021021724607381827;-0.00021383587055011764;0.00011931730400590381;-0.0002920774807544913;2.220446049250313e-16;2.220446049250313e-16;2.220446049250313e-16;2.220446049250313e-16;2.220446049250313e-16;2.220446049250313e-16;2.220446049250313e-16;2.220446049250313e-16;-1.8832797864498725e-10;2.220446049250313e-16;2.220446049250313e-16;-0.00015386716355007924;-0.00016411028386961193;2.270843187538753e-05;8.53990128342874e-05;3.645629319626719e-14;1.78250717025797e-06;4.15335048955122e-06;-1.352667762684913e-05;1.3526677626627084e-05;-9.81830176133053e-07;-0.00012400408007350475;-0.0007072020438330798;-0.002258310648356191;2.220446049250313e-16;-0.00015884831293516466;0.0001588483129353867;1.5200587719895041e-09;-0.0012280986154604215
1.4999027252197266;-0.00030075889835505927;0.00011926180251329507;-4.080197627272251e-05;-0.0021932174097599407;-0.000194596716172583;0.00022310977230198902;-0.00023789893355878784;2.220446049250313e-16;2.220446049250313e-16;2.220446049250313e-16;2.220446049250313e-16;2.220446049250313e-16;2.220446049250313e-16;2.220446049250313e-16;2.220446049250313e-16;-1.5339431565620863e-10;2.220446049250313e-16;2.220446049250313e-16;-0.0002588489149635716;-0.0002671920004833329;1.849615969020236e-05;6.955802969735729e-05;2.9693878660192094e-14;1.4518632308449302e-06;3.382929932180027e-06;-1.1017563468824376e-05;1.1017563468602333e-05;-7.997068148989725e-07;-0.00010100209824537008;-0.0007264626829101714;-0.0019898503357230228;2.220446049250313e-16;-0.0002549704108696519;0.0002549704108698739;1.2380973701527759e-09;-0.00100029399790886
1.5199968814849854;-0.00030139841214718664;5.575727886273259e-05;-4.646247734533182e-05;-0.0022362570162673782;-0.00019088735711414944;0.00031271935880141164;-0.00019377016825196735;2.220446049250313e-16;2.220446049250313e-16;2.220446049250313e-16;2.220446049250313e-16;2.220446049250313e-16;2.220446049250313e-16;2.220446049250313e-16;2.220446049250313e-16;-1.2494062881645475e-10;2.220446049250313e-16;2.220446049250313e-16;-0.0006396429103807415;-0.0006464384056808715;1.506523766866788e-05;5.665544992618311e-05;2.4185849755468084e-14;1.1825516756683882e-06;2.755417573072708e-06;-8.973874305149728e-06;8.973874304927683e-06;-6.513661989028061e-07;-8.226684028396795e-05;-0.0005917083956221027;-0.0016207455350110002;2.220446049250313e-16;0.00018731496047143682;-0.00018731496047121477;1.008438046097999e-09;-0.0008147457131342531
1.5398883819580078;-0.00030835953178378256;8.888541158731637e-07;-5.249955242622379e-05;-0.0022170950498076455;-0.00020150686104904096;0.0003803603276839025;-0.00015782701310477896;2.220446049250313e-16;2.220446049250313e-16;2.220446049250313e-16;2.220446049250313e-16;2.220446049250313e-16;2.220446049250313e-16;2.220446049250313e-16;2.220446049250313e-16;-1.0176492304993248e-10;2.220446049250313e-16;2.220446049250313e-16;-0.0007900353398886664;-0.0007955703132824679;1.2270730238865413e-05;4.614621806143816e-05;1.969952578738972e-14;9.63195730779875e-07;2.244304834627552e-06;3.7891476203625564e-05;-3.78914762038476e-05;-5.305418400450784e-07;-6.700685557904366e-05;-0.0004819501864116753;-0.0014540278961630247;2.220446049250313e-16;1.7110346938884336e-05;-1.7110346938662292e-05;8.213790912846083e-10;-0.0006636154755085559
1.559959888458252;-0.00031863842738672046;-4.1855940284927995e-05;-5.809760078640376e-05;-0.0021244795488114;-0.0002235356972266413;0.00041968316825879444;-1.5843652982673318e-05;2.220446049250313e-16;2.220446049250313e-16;2.220446049250313e-16;2.220446049250313e-16;2.220446049250313e-16;2.220446049250313e-16;2.220446049250313e-16;2.220446049250313e-16;-8.288816585493905e-11;2.220446049250313e-16;2.220446049250313e-16;-0.0007080371872279187;-0.0007125454576507537;9.994586471619867e-06;3.7586383024904256e-05;1.604538687586509e-14;7.845289426935255e-07;1.828000314709357e-06;-1.2575073319818738e-05;1.2575073319596695e-05;-4.3212964460321655e-07;-5.4577502661978416e-05;-0.00039255143902097446;-0.0011843148090991346;2.220446049250313e-16;-0.00027637776954841296;0.00027637776954863506;6.690184034706338e-10;-0.000540518952398441
1.5798754692077637;-0.0003308886075109814;-6.937656523386364e-05;-6.276915365083077e-05;-0.0019577957179110297;-0.00025525953820209447;0.0004268292626025058;0.00010991229316523626;2.220446049250313e-16;2.220446049250313e-16;2.220446049250313e-16;2.220446049250313e-16;2.220446049250313e-16;2.220446049250313e-16;2.220446049250313e-16;2.220446049250313e-16;-6.751292913988442e-11;2.220446049250313e-16;2.220446049250313e-16;-0.0005767007142295598;-0.0005803727286656492;8.140653147299829e-06;3.061434388867841e-05;1.3069067894060092e-14;6.390037271297682e-07;1.4889176813327382e-06;-1.0242475813221202e-05;1.0242475812999156e-05;-3.519722963395985e-07;-4.445371702757306e-05;-0.0003197356005290776;-0.0009646318139788015;2.220446049250313e-16;0.0002056298269010664;-0.00020562982690084435;5.449196709918527e-10;-0.00044025606497198253
1.5999500751495361;-0.0003443128526119824;-8.285632979535492e-05;-6.650927967318478e-05;-0.0017261986927929857;-0.0002947389328248382;0.0004053941664948036;0.0008248503584967819;2.220446049250313e-16;2.220446049250313e-16;2.220446049250313e-16;2.220446049250313e-16;2.220446049250313e-16;2.220446049250313e-16;2.220446049250313e-16;2.220446049250313e-16;-5.498970274024297e-11;2.220446049250313e-16;2.220446049250313e-16;-0.00046972633611944034;-0.00047271721482772537;6.6306128675578795e-06;2.4935574436977868e-05;1.064483748138628e-14;5.204725295204906e-07;1.2127327571810234e-06;-8.342560565363094e-06;8.342560565141051e-06;-2.866836351954551e-07;-3.620783035468968e-05;-0.00026042664497843694;-0.0007856986414345711;2.220446049250313e-16;0.0001227025296679691;-0.00012270252966774706;4.438404777708076e-10;-0.00035859131652008576
1.6198999881744385;-0.00035859112532555447;-8.366831349361689e-05;-6.93729322259299e-05;-0.0014525065363924434;-0.0003393883822755399;0.0003611316294166595;0.0006742802259457505;2.220446049250313e-16;2.220446049250313e-16;2.220446049250313e-16;2.220446049250313e-16;2.220446049250313e-16;2.220446049250313e-16;2.220446049250313e-16;2.220446049250313e-16;-4.4789456567570026e-11;2.220446049250313e-16;2.220446049250313e-16;-0.00038259503655888483;-0.00038503112595977487;5.400675621956315e-06;2.0310181226258694e-05;8.670286658823382e-15;4.23928128247749e-07;2.9198389540172613e-06;3.944768949916977e-05;-3.9447689499391817e-05;-2.3350561263941807e-07;-2.949150412283446e-05;-0.00021211913000146798;-0.000639956454064967;2.220446049250313e-16;-0.00014805428612642358;0.00014805428612664563;3.615108431473088e-10;0.015264689029061796
1.6400043964385986;-0.0003743570283926089;-7.344141082381143e-05;-7.157592492035702e-05;-0.0011525152001180025;-0.00038855418733949303;0.0002984744839770636;0.0005492054582842258;2.220446049250313e-16;2.220446049250313e-16;2.220446049250313e-16;2.220446049250313e-16;2.220446049250313e-16;2.220446049250313e-16;2.220446049250313e-16;2.220446049250313e-16;-3.648129230838932e-11;2.220446049250313e-16;2.220446049250313e-16;-0.00031162604849619015;-0.0003136102585387738;4.398884048306054e-06;1.654276954742037e-05;7.0620026729032585e-15;3.45292110008593e-07;2.3782270770405214e-06;-2.8216000760610425e-05;2.8216000760388374e-05;-1.9019178090488502e-07;-2.402101442994943e-05;-0.00017277235713075812;-0.0005212485315637534;2.220446049250313e-16;7.325347677138608e-05;-7.325347677116404e-05;2.944528411862526e-10;0.011383389091306026
1.6598994731903076;-0.0003898032229956149;-5.187702862571652e-05;-7.271879901357902e-05;-0.0008468388962771434;-0.00043790077647220453;0.00021995369992998168;0.0004473312783066161;2.220446049250313e-16;2.220446049250313e-16;2.220446049250313e-16;2.220446049250313e-16;2.220446049250313e-16;2.220446049250313e-16;2.220446049250313e-16;2.220446049250313e-16;-2.971424059326004e-11;2.220446049250313e-16;2.220446049250313e-16;-0.00025382136416294995;-0.00025543751564394715;3.5829185503705835e-06;1.347418918868356e-05;5.7520453145964094e-15;2.812425816776865e-07;1.937080818168736e-06;-2.298210896954253e-05;2.298210896932049e-05;-1.5491239424565944e-07;-1.9565266384534e-05;-0.00014072416471023458;-0.00042456018676199935;2.220446049250313e-16;0.00017960939079902317;-0.00017960939079880112;2.398336794764601e-10;-0.004304088696825704
1.6799774169921875;-0.0004044080853240593;-1.6811233379730816e-05;-7.246831868990771e-05;-0.0005415988621488074;-0.00048618088773323226;0.00012314302241443363;0.0003643541220012282;2.220446049250313e-16;2.220446049250313e-16;2.220446049250313e-16;2.220446049250313e-16;2.220446049250313e-16;2.220446049250313e-16;2.220446049250313e-16;2.220446049250313e-16;-2.4202434677214002e-11;2.220446049250313e-16;2.220446049250313e-16;-0.0002067390874942487;-0.00020805545297646768;2.9183095525177794e-06;1.0974811307865187e-05;4.6850768590219905e-15;0.00012912157885567634;1.5777644331535489e-06;-1.8719071393894047e-05;1.8719071393672e-05;-1.2617711331555365e-07;-1.593603175311784e-05;-0.00011462071168251543;-0.00047469943063394943;2.220446049250313e-16;-0.00011656456108723122;0.00011656456108745328;1.953460308940734e-10;-0.004243994919569586
1.6998794078826904;-0.0004190889996694537;3.0872177327528074e-05;-7.10090344165856e-05;-0.0002529037507480043;-0.0005331061512424547;1.136457767620219e-05;0.00029676870958326285;2.220446049250313e-16;2.220446049250313e-16;2.220446049250313e-16;2.220446049250313e-16;2.220446049250313e-16;2.220446049250313e-16;2.220446049250313e-16;2.220446049250313e-16;-1.971303430980753e-11;2.220446049250313e-16;2.220446049250313e-16;-0.00016839027888336235;-0.000169462466795914;2.376981369960434e-06;8.939052402826866e-06;3.8160243834037794e-15;0.00010517033298781619;1.2850989918312722e-06;2.960431784688228e-05;-2.9604317847104322e-05;-1.0277204740247664e-07;-1.2979997463112934e-05;-9.335928604485684e-05;-0.0003866456531227932;2.220446049250313e-16;-0.00031001736871592996;0.000310017368716152;1.5911056307591585e-10;-0.003456760386957675
1.7198576927185059;-0.00043408461025458786;8.860136624346661e-05;-6.857842159657728e-05;1.5980924465826854e-05;-0.00057867392080429;-0.00011186948260281778;0.00024171996876000244;2.220446049250313e-16;2.220446049250313e-16;2.220446049250313e-16;2.220446049250313e-16;2.220446049250313e-16;2.220446049250313e-16;2.220446049250313e-16;2.220446049250313e-16;-1.605638965180267e-11;2.220446049250313e-16;2.220446049250313e-16;-0.00013715493458974165;-0.00013802823834568938;1.936066181966336e-06;7.280914051179999e-06;3.1081757104347747e-15;8.566189353315746e-05;1.0467211607152702e-06;-2.096866056381061e-05;2.096866056358857e-05;-8.370847493461348e-08;-1.0572289058689627e-05;-7.604172197907364e-05;-0.00031492530100384704;2.220446049250313e-16;0.0001902803846284101;-0.00019028038462818802;1.2959654806635268e-10;0.012974524111668577
1.7399170398712158;-0.0004475124949392132;0.00015287339476949925;-6.512388158629713e-05;0.0002619999302030005;-0.0006200727712323326;-0.00024189380078065465;-0.00024814793971556133;2.220446049250313e-16;2.220446049250313e-16;2.220446049250313e-16;2.220446049250313e-16;2.220446049250313e-16;2.220446049250313e-16;2.220446049250313e-16;2.220446049250313e-16;-1.3078029723828595e-11;2.220446049250313e-16;2.220446049250313e-16;-0.00011171355144168572;-0.00011242486280905363;1.5769380056252173e-06;5.930350000398927e-06;2.5316285422473136e-15;6.977214766959134e-05;8.525609274098419e-07;-1.7079105083372858e-05;1.7079105083150813e-05;-6.8181076012211e-08;-8.611195515109315e-06;-6.193645781271786e-05;-0.00025650862595076466;2.220446049250313e-16;6.328015961786128e-05;-6.328015961763923e-05;1.0555719837846963e-10;-0.002703727486512113
1.7599592208862305;-0.00045740250644217155;0.00022126030408788403;-6.049581752792376e-05;0.00048295523700593926;-0.0006544644399698994;-0.0003754118241807164;-0.0007288339967452072;2.220446049250313e-16;2.220446049250313e-16;2.220446049250313e-16;2.220446049250313e-16;2.220446049250313e-16;2.220446049250313e-16;2.220446049250313e-16;2.220446049250313e-16;-1.0652136947744163e-11;2.220446049250313e-16;2.220446049250313e-16;-9.09913858589495e-05;-9.157075341336672e-05;1.2844258614442743e-06;4.830307140012429e-06;2.0620272703388254e-15;5.6829850352805065e-05;6.944162038811125e-07;-1.3911037834834552e-05;1.3911037834612506e-05;-5.553391254367093e-08;-7.013872567028506e-06;-5.044763199132002e-05;-0.00020892787901581;2.220446049250313e-16;-0.00023785218828303344;0.0002378521882832555;8.597699781175337e-11;0.012835489373751532
1.7798738479614258;-0.00046224130393881515;0.0002919901770440079;-5.4610650724862883e-05;0.0006800039615979506;-0.0006799356973412062;-0.000509976303707108;-0.0005936398455614508;2.220446049250313e-16;2.220446049250313e-16;2.220446049250313e-16;2.220446049250313e-16;2.220446049250313e-16;2.220446049250313e-16;2.220446049250313e-16;2.220446049250313e-16;-8.676232119793544e-12;2.220446049250313e-16;2.220446049250313e-16;-7.411305247827597e-05;-7.458495097239601e-05;1.0461728918079952e-06;3.934315354959748e-06;1.679534099361413e-15;4.6288268298924433e-05;5.656063381624402e-07;7.875442600983643e-05;-7.875442601005847e-05;-4.523271885377336e-08;-5.712843042548261e-06;-4.1089911554630104e-05;-0.00017017306325762104;2.220446049250313e-16;0.0002156538914180336;-0.00021565389141781156;7.002880207390944e-11;-0.003064979095085055
1.799882411956787;-0.00046108298872632003;0.0003653186228584441;-4.731600924792268e-05;0.0008613821479057358;-0.0006960096158966047;-0.0006469055700649545;-0.00048352336445883613;2.220446049250313e-16;2.220446049250313e-16;2.220446049250313e-16;2.220446049250313e-16;2.220446049250313e-16;2.220446049250313e-16;2.220446049250313e-16;2.220446049250313e-16;-7.066845288022587e-12;2.220446049250313e-16;2.220446049250313e-16;-6.036554445013376e-05;-6.074990872296012e-05;8.521143589581855e-07;3.2045244460856832e-06;1.3679910210179915e-15;3.7702083831150815e-05;-9.240462682496616e-05;-1.2259733090767892e-05;1.2259733090545848e-05;-3.6842332210891226e-08;-4.653146363424574e-06;-3.346798977319342e-05;-0.00013860702360497768;2.220446049250313e-16;0.00017565144239683027;-0.00017565144239660825;5.703889696921221e-11;-0.004010158003542848
1.8200292587280273;-0.0004542881846103368;0.00043871106419336226;-3.8945009417011835e-05;0.0010336935577693852;-0.0007037775028579994;-0.000783433226942168;-0.00039383280237274983;2.220446049250313e-16;2.220446049250313e-16;2.220446049250313e-16;2.220446049250313e-16;2.220446049250313e-16;2.220446049250313e-16;2.220446049250313e-16;2.220446049250313e-16;-5.755989654877447e-12;2.220446049250313e-16;2.220446049250313e-16;-4.916811323928675e-05;-4.948118034178053e-05;6.940524710861856e-07;2.6101051896145765e-06;1.1142372365630352e-15;3.070858291849628e-05;3.2944973766015948e-06;-9.98562922578286e-06;9.985629225560814e-06;-3.000830985034721e-08;-3.7900167951740854e-06;-2.725988684520212e-05;-0.00011289628702015182;2.220446049250313e-16;-0.00015449773635727336;0.0001544977363574954;4.6458538074529383e-11;0.011621212416380077
1.8399317264556885;-0.0004420083779952133;0.0005055284592005563;-3.018557142981813e-05;0.0011982045924946306;-0.0007035162646690212;-0.0009100808498960082;-0.00032077927898761956;2.220446049250313e-16;2.220446049250313e-16;2.220446049250313e-16;2.220446049250313e-16;2.220446049250313e-16;2.220446049250313e-16;2.220446049250313e-16;2.220446049250313e-16;-4.688289548833021e-12;2.220446049250313e-16;2.220446049250313e-16;-4.0047735534106784e-05;-4.030273064575736e-05;5.653100755276423e-07;2.1259469900985072e-06;9.075531931633201e-16;2.5012332715758455e-05;2.683388703850602e-06;-8.13335741460339e-06;8.133357414381348e-06;-2.444195592504436e-08;-3.086992367274261e-06;-2.2203348209709907e-05;-9.195473137970755e-05;2.220446049250313e-16;-6.513839352835168e-05;6.513839352857373e-05;3.7840769627567145e-11;-0.005737040317721946
1.8602476119995117;-0.0004252344300413614;0.0005626043600899862;-2.1528055227352705e-05;0.0013625896118724288;-0.0006972581623256598;-0.0010235717995548434;-0.00026127672760590967;2.220446049250313e-16;2.220446049250313e-16;2.220446049250313e-16;2.220446049250313e-16;2.220446049250313e-16;2.220446049250313e-16;2.220446049250313e-16;2.220446049250313e-16;-3.818641139334174e-12;2.220446049250313e-16;2.220446049250313e-16;-3.261913089087706e-05;-3.28268260030359e-05;0.00013001857300979153;-0.00014472690745636778;7.392077480389819e-16;2.0372701324064734e-05;2.1856368704657144e-06;7.792082947033804e-05;-7.792082947056008e-05;-1.990812586317316e-08;-2.51437457684718e-06;-1.8084765887735026e-05;-7.489770342584291e-05;2.220446049250313e-16;0.0001782971509764579;-0.00017829715097623586;3.08215433664636e-11;-0.004672855195286509
1.8798935413360596;-0.0004065866706657518;0.0006040234348239421;-1.4036259192859554e-05;0.0015189038654353515;-0.0006877021210792394;-0.0011135950426124355;-0.00021281152761456096;2.220446049250313e-16;2.220446049250313e-16;2.220446049250313e-16;2.220446049250313e-16;2.220446049250313e-16;2.220446049250313e-16;2.220446049250313e-16;2.220446049250313e-16;-3.110307074494805e-12;2.220446049250313e-16;2.220446049250313e-16;-2.6568485980187428e-05;-2.673765494713525e-05;0.00010590094033255648;-0.00011788097066638313;6.020893308261758e-16;1.6593692557833993e-05;1.7802148912247643e-06;-2.154678094332248e-05;2.154678094310044e-05;-1.6215292941341182e-08;-2.047973807683133e-06;-1.473015484534697e-05;-6.100464755099544e-05;2.220446049250313e-16;-7.76755364867647e-05;7.767553648698674e-05;2.510433970663064e-11;-0.003806069761905832
1.9000396728515625;-0.0003830039485530216;0.00063134170851301;-7.044056693549299e-06;0.0016792438060841102;-0.0006719505669660355;-0.0011842500239554804;-0.00017333631931410747;2.220446049250313e-16;2.220446049250313e-16;2.220446049250313e-16;2.220446049250313e-16;2.220446049250313e-16;2.220446049250313e-16;2.220446049250313e-16;2.220446049250313e-16;-2.5333645515952338e-12;2.220446049250313e-16;2.220446049250313e-16;-2.1640197883900034e-05;-2.177798706478508e-05;8.625697778174432e-05;-0.00022677885168963756;4.904055230162377e-16;1.3515666298934273e-05;1.4499961552456404e-06;-1.754998774573765e-05;1.7549987745515602e-05;-1.320745744630327e-08;-1.66808746619421e-06;-1.1997803185002887e-05;-4.9688666709332974e-05;2.220446049250313e-16;-0.000276739947906666;0.00027673994790688804;2.0447641593173815e-11;0.01215567353805352
1.91988205909729;-0.00035470134259160473;0.0006436245789281049;-7.247307496023222e-07;0.001840046948461703;-0.0006499522344189345;-0.0012329305264689476;-0.00014118351543333622;2.220446049250313e-16;2.220446049250313e-16;2.220446049250313e-16;2.220446049250313e-16;2.220446049250313e-16;2.220446049250313e-16;2.220446049250313e-16;2.220446049250313e-16;-2.0634412608027646e-12;2.220446049250313e-16;2.220446049250313e-16;-1.762607642767335e-05;-1.7738306576686603e-05;0.00023176183017248618;-0.0001847127920690328;3.9943836353124437e-16;1.1008594673396336e-05;1.1810309309235441e-06;-1.4294574706347318e-05;1.4294574706125272e-05;-1.0757556636623051e-08;-1.358667666761847e-06;-9.77228568045476e-06;-4.047172958891864e-05;2.220446049250313e-16;0.00018136882282571135;-0.00018136882282548933;1.6654731875400027e-11;-0.006269510104654546
1.9399113655090332;-0.0003224150211349206;0.0006433806294900083;4.998185438031843e-06;0.0020053746611394443;-0.0006231202231877438;-0.0012633896639368382;-5.8106928324914845e-06;2.220446049250313e-16;2.220446049250313e-16;2.220446049250313e-16;2.220446049250313e-16;2.220446049250313e-16;2.220446049250313e-16;2.220446049250313e-16;2.220446049250313e-16;-1.6806858034317316e-12;2.220446049250313e-16;2.220446049250313e-16;-1.4356549413317615e-05;-1.4447961571127334e-05;0.0001887714591869285;-0.0007427121859495978;3.253450435859706e-16;8.966569165198023e-06;9.619570746805448e-07;-1.4856432958433152e-05;1.4856432958211109e-05;0.0004593917989382791;-1.1066433062504415e-06;-7.959587763515902e-06;-3.296447669848416e-05;2.220446049250313e-16;0.00010285573225967868;-0.00010285573225945665;1.356538320458754e-11;0.00998849585607892
1.9598994255065918;-0.00028794126649275506;0.0006339028455755432;1.0084180174342243e-05;0.002172019897805995;-0.0005935874731079182;-0.0012790943370468506;0.0007489016207553471;2.220446049250313e-16;2.220446049250313e-16;2.220446049250313e-16;2.220446049250313e-16;2.220446049250313e-16;2.220446049250313e-16;2.220446049250313e-16;2.220446049250313e-16;-1.3689290911814168e-12;2.220446049250313e-16;2.220446049250313e-16;-1.1693499225581026e-05;-1.1767954999443034e-05;0.0001537555333293732;-0.001255469226852254;2.649955714072954e-16;7.303326626111069e-06;7.835200495590204e-07;-1.2100657497370386e-05;1.210065749714834e-05;0.0006863233409981539;-9.013678894616484e-07;-6.483133980807223e-06;-2.684977229889471e-05;2.220446049250313e-16;-0.0002052239008554899;0.00020522390085571195;1.104908940378158e-11;-0.0074908153081159265
1.9798977375030518;-0.0002524390157082749;0.0006186597354647555;1.4662497080541624e-05;0.0023386780319733136;-0.000562831745299627;-0.001284668323970826;0.0007085964927480067;2.220446049250313e-16;2.220446049250313e-16;2.220446049250313e-16;2.220446049250313e-16;2.220446049250313e-16;2.220446049250313e-16;2.220446049250313e-16;2.220446049250313e-16;-1.1150013005740835e-12;2.220446049250313e-16;2.220446049250313e-16;-9.524428203605904e-06;-9.585072896765095e-06;0.00012523484286885774;-0.001157699727052499;2.220446049250313e-16;5.948605182758879e-06;6.381819773661318e-07;-9.856061160738131e-06;9.856061160516085e-06;0.0007105802146942313;-7.341697795158217e-07;-5.280553146954863e-06;-2.1869307348526604e-05;2.220446049250313e-16;0.00021007926238006533;-0.0002100792623798433;8.999552376188869e-12;-0.0077486784483550095
1.9999237060546875;-0.00021553352594049825;0.0006002800344156186;1.909020423349777e-05;0.0025022034289224828;-0.0005301129175119763;-0.0012837732858159117;0.0005771562720713313;2.220446049250313e-16;2.220446049250313e-16;2.220446049250313e-16;2.220446049250313e-16;2.220446049250313e-16;2.220446049250313e-16;2.220446049250313e-16;2.220446049250313e-16;-9.081755280757196e-13;2.220446049250313e-16;2.220446049250313e-16;-7.757706299513278e-06;-7.807101781120771e-06;0.00010200456223445254;-0.0010826969058602837;2.220446049250313e-16;4.845176100139498e-06;1.069681774193624e-05;-8.027823415824055e-06;8.02782341560201e-06;0.0005787720259947933;-5.979858739767586e-07;-4.301043541651903e-06;-1.7812687518545843e-05;2.220446049250313e-16;0.00017111087220397368;-0.00017111087220375164;7.330191657608182e-12;-0.006311347025425454
2.020097494125366;-0.00017584753327630503;0.0005813499057450556;2.3897415736593184e-05;0.002660317772425865;-0.0004934451211833289;-0.0012801885910740595;0.0004700973908287997;2.220446049250313e-16;2.220446049250313e-16;2.220446049250313e-16;2.220446049250313e-16;2.220446049250313e-16;2.220446049250313e-16;2.220446049250313e-16;2.220446049250313e-16;-7.397146437147241e-13;2.220446049250313e-16;2.220446049250313e-16;-6.318700266617935e-06;-6.3589331951089975e-06;8.308335346847554e-05;-0.0010106514219562976;2.220446049250313e-16;3.946426215914247e-06;8.712624905917952e-06;-1.2532704448174035e-05;1.2532704447951992e-05;0.0004714134324979215;-4.87063231765782e-07;-3.5032268461976098e-06;-1.4508545313152576e-05;2.220446049250313e-16;-0.00016304633879094232;0.00016304633879116436;5.970486918819725e-12;-0.005140631598127941
2.04001784324646;-0.00013418429579767845;0.0005638697119609215;2.9188525030396863e-05;0.0028093122897015817;-0.00045356356954854497;-0.0012767993985648943;0.00038289726293874986;2.220446049250313e-16;2.220446049250313e-16;2.220446049250313e-16;2.220446049250313e-16;2.220446049250313e-16;2.220446049250313e-16;2.220446049250313e-16;2.220446049250313e-16;-6.025022005221657e-13;2.220446049250313e-16;2.220446049250313e-16;-5.146620859036973e-06;-5.179390830748747e-06;6.767191067103249e-05;-0.0009694194225517508;2.220446049250313e-16;3.2143888180260018e-06;7.0964874397758335e-06;-1.0207966102461144e-05;1.0207966102239101e-05;0.00038396918710351005;0.00014140645886119823;-2.853400161395741e-06;0.0002710639835762797;2.220446049250313e-16;-0.0002607314252808123;0.0002607314252810344;4.862998910921908e-12;-0.004187076565622694
2.0599005222320557;-9.148411022857672e-05;0.0005495791725385758;3.500829423366567e-05;0.002951894468744682;-0.00041202775429606157;-0.001277105599158766;0.0003118722137715052;2.220446049250313e-16;2.220446049250313e-16;2.220446049250313e-16;2.220446049250313e-16;2.220446049250313e-16;2.220446049250313e-16;2.220446049250313e-16;2.220446049250313e-16;-4.907418079640572e-13;2.220446049250313e-16;2.220446049250313e-16;-4.1919548560659834e-06;-4.218646202837546e-06;0.0002066382291914408;-0.0007895981785397919;2.220446049250313e-16;2.618139782212291e-06;5.780133372743914e-06;-8.314452190263338e-06;8.314452190041291e-06;0.00031274530270322833;0.0002660823846703867;-2.3241122652078397e-06;0.0002207833087727772;2.220446049250313e-16;0.00018818012701386167;-0.00018818012701363965;3.960943006689087e-12;-0.0034104000319282192
2.080019235610962;-4.733052671943941e-05;0.0005409286107097546;4.170518654748842e-05;0.0030906321310664765;-0.0003685975101782253;-0.0012855525856469948;0.0002540218673182269;2.220446049250313e-16;2.220446049250313e-16;2.220446049250313e-16;2.220446049250313e-16;2.220446049250313e-16;2.220446049250313e-16;2.220446049250313e-16;2.220446049250313e-16;-3.9971226972302417e-13;2.220446049250313e-16;2.220446049250313e-16;-3.414373429983593e-06;-3.436113698749948e-06;0.00016830812916536096;-0.0007845005621863693;2.220446049250313e-16;2.13249121598555e-06;4.707954757933496e-06;-6.77217327431627e-06;6.772173274094225e-06;0.0002547330037099213;0.0003651056817798504;-1.8930039657134425e-06;0.0005970718793720634;2.220446049250313e-16;2.129075738321704e-05;-2.1290757382994992e-05;3.2262128348420525e-12;-0.002777792141005733
2.099888324737549;-5.431635525342695e-07;0.0005393737560812733;4.9674999956751014e-05;0.0032202091682949838;-0.00032116736627337456;-0.0013039574869209776;-0.0002359917414451645;2.220446049250313e-16;2.220446049250313e-16;2.220446049250313e-16;2.220446049250313e-16;2.220446049250313e-16;2.220446049250313e-16;2.220446049250313e-16;2.220446049250313e-16;-3.255681418910889e-13;2.220446049250313e-16;2.220446049250313e-16;-2.781028498555573e-06;-2.798736083342449e-06;0.00013708802313099376;-0.0006389806110293113;2.220446049250313e-16;1.7369274234903301e-06;3.834658575054069e-06;-1.5162226620486984e-05;1.516222662026494e-05;0.00020748162360300403;0.000449265498685696;-1.5418635613483843e-06;0.0006219353440716053;2.220446049250313e-16;-0.000233048921690942;0.00023304892169116406;2.6277705178090694e-12;-0.0022625290600500505
2.1200008392333984;5.166566789067985e-05;0.0005460757130669173;5.9541682543443976e-05;0.003338998669113818;-0.0002659500279929943;-0.0013339670899378824;-0.0006140622081581027;2.220446049250313e-16;2.220446049250313e-16;2.220446049250313e-16;2.220446049250313e-16;2.220446049250313e-16;2.220446049250313e-16;2.220446049250313e-16;2.220446049250313e-16;-2.6517728637117865e-13;2.220446049250313e-16;2.220446049250313e-16;-2.265165093501629e-06;-2.279588031982945e-06;0.00011165905164033896;-0.0006659425885774653;2.220446049250313e-16;1.41473824222927e-06;3.123353375997632e-06;-1.2349728346323618e-05;1.2349728346101573e-05;0.00016899507918479432;0.0007862425180616494;-1.2558575073655174e-06;0.000655411132965308;2.220446049250313e-16;0.0002053193261832377;-0.0002053193261830157;2.1403355103212232e-12;-0.0018428440602173914
2.1398675441741943;0.00010519248631117917;0.0005615934158329597;7.062927990274575e-05;0.0034390774798492346;-0.00020758229880912457;-0.0013748413586634096;-0.0007153941549848278;2.220446049250313e-16;2.220446049250313e-16;2.220446049250313e-16;2.220446049250313e-16;2.220446049250313e-16;2.220446049250313e-16;2.220446049250313e-16;2.220446049250313e-16;-2.159885571073648e-13;2.220446049250313e-16;2.220446049250313e-16;-1.844991125938911e-06;-1.8567386994753081e-06;9.09469954301288e-05;-0.0006770068180539192;2.220446049250313e-16;1.1523131404097543e-06;2.543990845708671e-06;-1.0058930923903344e-05;1.00589309236813e-05;0.00013764754821525986;0.001062197064171308;-1.022903788858635e-06;0.0005338364641198243;2.220446049250313e-16;0.00012181360201580794;-0.00012181360201558591;1.7433166502535759e-12;-0.0015010080048224411
2.1599674224853516;0.00015659386890460024;0.0005866118833303358;8.236886110549901e-05;0.003519466563023083;-0.00015061482324638364;-0.0014268898715834072;-0.0004867028553484747;2.220446049250313e-16;2.220446049250313e-16;2.220446049250313e-16;2.220446049250313e-16;2.220446049250313e-16;2.220446049250313e-16;2.220446049250313e-16;2.220446049250313e-16;-1.7592402969243052e-13;2.220446049250313e-16;2.220446049250313e-16;-1.5027568032717796e-06;-1.5123252753395099e-06;7.407689619656131e-05;-0.0012608023439887384;2.220446049250313e-16;9.385662548208723e-07;2.0720964437724974e-06;3.641781734998523e-05;-3.641781735020728e-05;0.00011211478831850546;0.0008651661474991814;-8.331615291740381e-07;0.0005627975558202981;2.220446049250313e-16;-0.00015314613744948257;0.00015314613744970459;1.4199423073606009e-12;0.013785195100679498
2.179837465286255;0.00020086693853577886;0.0006203784684090229;9.3764078417875e-05;0.00357575589907457;-0.0001011575765642878;-0.0014876689347483958;-0.00039642251757417846;2.220446049250313e-16;2.220446049250313e-16;2.220446049250313e-16;2.220446049250313e-16;2.220446049250313e-16;2.220446049250313e-16;2.220446049250313e-16;2.220446049250313e-16;-1.4329122170967024e-13;2.220446049250313e-16;2.220446049250313e-16;-1.2240048084948848e-06;-1.2317983887970013e-06;6.033609493270041e-05;-0.0010269313891934774;2.220446049250313e-16;7.64468080590693e-07;1.6877355040554726e-06;-1.5194865310218014e-05;1.5194865309995968e-05;9.131819580284966e-05;0.0007046832344265049;-6.786152727718113e-07;0.00045840212670035643;2.220446049250313e-16;8.17922516680723e-05;-8.179225166785026e-05;1.1565518839846303e-12;-0.002487217160228221
2.1999094486236572;0.0002371667392485467;0.0006627509586333578;0.00010462571000852832;0.0036084166512990947;-6.03972747225348e-05;-0.0015566662872010396;-0.0003228886182049032;2.220446049250313e-16;2.220446049250313e-16;2.220446049250313e-16;2.220446049250313e-16;2.220446049250313e-16;2.220446049250313e-16;2.220446049250313e-16;2.220446049250313e-16;-1.1671159565266205e-13;2.220446049250313e-16;2.220446049250313e-16;-9.96959566549137e-07;-1.0033074864150877e-06;4.914412642327781e-05;-0.0008364420348192696;2.220446049250313e-16;6.226640295666232e-07;8.92544688309404e-06;-1.2376312763101355e-05;1.2376312762879307e-05;7.437924122014481e-05;0.0005739688987106032;-5.527363810180951e-07;0.0005253648719147924;2.220446049250313e-16;0.00018255520278971044;-0.0001825552027894884;9.420187379547562e-13;-0.002025853922113137
2.2200002670288086;0.00026660187479065245;0.0007116476754141424;0.00011490759311251956;0.003620259707400193;-2.6979337424895547e-05;-0.0016309787571923383;-0.0002629947975817573;2.220446049250313e-16;2.220446049250313e-16;2.220446049250313e-16;2.220446049250313e-16;2.220446049250313e-16;2.220446049250313e-16;2.220446049250313e-16;2.220446049250313e-16;-9.506232410656604e-14;2.220446049250313e-16;2.220446049250313e-16;7.392799958556093e-05;7.392282916515559e-05;4.002819812254992e-05;-0.0006812872651230128;2.220446049250313e-16;5.071637437321992e-07;7.269832270323114e-06;-1.0080584097521416e-05;1.008058409729937e-05;6.0582356844065565e-05;0.00046750125530540333;-4.502072369416198e-07;0.0004279129717050477;2.220446049250313e-16;-0.00011424566487118991;0.00011424566487141194;7.672801496812609e-13;-0.001650070681148163
2.2399137020111084;0.0002922796190360807;0.0007625001212221362;0.00012467812151163002;0.003618816070461163;2.7203522686963817e-06;-0.0017051157649102472;-0.0002142109063478262;2.220446049250313e-16;2.220446049250313e-16;2.220446049250313e-16;2.220446049250313e-16;2.220446049250313e-16;2.220446049250313e-16;2.220446049250313e-16;2.220446049250313e-16;-7.74288571243237e-14;2.220446049250313e-16;2.220446049250313e-16;0.00012827672158316022;0.00012827251024342498;3.2603217547055165e-05;-0.0005549127354881008;2.220446049250313e-16;4.130880390432745e-07;5.9213238206298655e-06;3.631463135764137e-05;-3.6314631357863415e-05;4.934470828922167e-05;0.00038078269432909647;-3.666966082841801e-07;0.00034853778990983454;2.220446049250313e-16;-0.0003082791275471534;0.0003082791275473755;6.249544774163224e-13;-0.0013439928827369359
2.2599759101867676;0.0003188139824533382;0.000810816382748149;0.00013428818454501784;0.003611305914062397;3.4279042334367296e-05;-0.0017737446368911913;-0.00017447612203846908;2.220446049250313e-16;2.220446049250313e-16;2.220446049250313e-16;2.220446049250313e-16;2.220446049250313e-16;2.220446049250313e-16;2.220446049250313e-16;2.220446049250313e-16;-6.306628805811868e-14;2.220446049250313e-16;2.220446049250313e-16;0.0002526683251338393;0.0002526648949713041;2.6555524462186102e-05;-0.00045197989125965487;2.220446049250313e-16;3.36462789600991e-07;4.822955260176903e-06;-1.664989415916612e-05;1.6649894158944074e-05;4.019157330599785e-05;0.00031014988442288867;-2.9867667930126643e-07;0.0004259693849284327;2.220446049250313e-16;0.00019434637231070668;-0.00019434637231048463;5.090293278210785e-13;0.013999298253776509
2.2798523902893066;0.0003483790303388148;0.0008524670310896074;0.0001436785981552473;0.0036025211343491434;7.041890518540397e-05;-0.0018314731579034099;-0.0001421118918760958;2.220446049250313e-16;2.220446049250313e-16;2.220446049250313e-16;2.220446049250313e-16;2.220446049250313e-16;2.220446049250313e-16;2.220446049250313e-16;2.220446049250313e-16;-5.136788578763801e-14;2.220446049250313e-16;2.220446049250313e-16;0.0004207063931480498;0.00042070359925922636;2.1629640646478462e-05;-0.0003681404463053092;2.220446049250313e-16;2.740510450224421e-07;3.928327202884464e-06;-1.3561442854499887e-05;1.3561442854277844e-05;3.2736287655068405e-05;0.00025261901929922047;-2.432740220201271e-07;0.000503808541258349;2.220446049250313e-16;6.911076243256036e-05;-6.91107624323383e-05;4.146075689435671e-13;-0.002443329035459182
2.3000032901763916;0.00038337482449244883;0.0008874398139179674;0.0001532241915045665;0.00359545173467618;0.00011419217843317982;-0.0018783164431976735;0.00022723732921432383;2.220446049250313e-16;2.220446049250313e-16;2.220446049250313e-16;2.220446049250313e-16;2.220446049250313e-16;2.220446049250313e-16;2.220446049250313e-16;2.220446049250313e-16;-4.1839464023317324e-14;2.220446049250313e-16;2.220446049250313e-16;0.00048349141308054385;0.00048348913744063535;1.7617477491810744e-05;-0.00029985269439346366;2.220446049250313e-16;2.2321628898981048e-07;3.199647058794413e-06;-1.1045879964028592e-05;1.1045879963806547e-05;2.6663910896851056e-05;0.00020575977008808563;-1.9814821139803108e-07;0.0005568827162110946;2.220446049250313e-16;-0.00023196248346971118;0.0002319624834699332;3.3770045620184134e-13;0.013568100618941238
2.319948673248291;0.0004233262761940787;0.0009144754077829469;0.0001626827584608986;0.0035884919423375583;0.00016545931174528873;-0.0019119150998857851;0.0007243628903380798;2.220446049250313e-16;2.220446049250313e-16;2.220446049250313e-16;2.220446049250313e-16;2.220446049250313e-16;2.220446049250313e-16;2.220446049250313e-16;2.220446049250313e-16;-3.40785049436421e-14;2.220446049250313e-16;2.220446049250313e-16;0.000884833681232793;0.0008848318277098648;1.4349545526314176e-05;-0.00024423189366281614;2.220446049250313e-16;1.8181106248400677e-07;2.606132527182166e-06;3.445810919639635e-05;-3.44581091966184e-05;2.1717922074928288e-05;0.00016759261873530877;-1.613929566100175e-07;0.0007439349269669816;2.220446049250313e-16;0.0002125793028843788;-0.00021257930288415681;2.7505913220425093e-13;0.012758030140936408
2.339886426925659;0.00046513133742323896;0.0009321712326701033;0.0001713870731623688;0.0035791253387852913;0.00022058585674897952;-0.0019301525533797592;0.0006934312873752079;2.220446049250313e-16;2.220446049250313e-16;2.220446049250313e-16;2.220446049250313e-16;2.220446049250313e-16;2.220446049250313e-16;2.220446049250313e-16;2.220446049250313e-16;-2.775715526725238e-14;2.220446049250313e-16;2.220446049250313e-16;0.0007207025635746175;0.0007207010538686081;1.168779451584243e-05;-0.00019892840383769908;2.220446049250313e-16;1.4808624671236406e-07;2.122711231718169e-06;-1.2977602819959192e-05;1.2977602819737148e-05;1.7689383267042055e-05;0.0001365052354137761;-1.3145557186483807e-07;0.001438934880694126;2.220446049250313e-16;0.00017314717081999014;-0.0001731471708197681;2.2403738229993865e-13;-0.0034163104913854125
2.3598792552948;0.0005036249088290994;0.0009393800854149883;0.0001783565429124127;0.0035683646972657023;0.00027293464709241146;-0.0019322852584608605;0.0005648041175126527;2.220446049250313e-16;0.00021738954351679276;2.220446049250313e-16;2.220446049250313e-16;2.220446049250313e-16;2.220446049250313e-16;2.220446049250313e-16;2.220446049250313e-16;-2.2608376447397483e-14;2.220446049250313e-16;2.220446049250313e-16;0.0005870167424225482;0.0005870155127575678;9.519781681869383e-06;-0.00016202842822832987;2.220446049250313e-16;1.2061717348626244e-07;1.7289615651796471e-06;-1.0570338606894977e-05;1.0570338606672934e-05;1.4408113229651168e-05;0.00011118436740224197;-1.0707138488123473e-07;0.0013202871420043751;2.220446049250313e-16;-0.0001576479963684267;0.00015764799636864868;1.8247984811693932e-13;-0.004411426820195853
2.3800716400146484;0.0005347601491865434;0.000935124181509039;0.00018283966184000317;0.003558456201255324;0.00031692597315895;-0.0019180378783457239;0.00046003648373979;2.220446049250313e-16;0.00017706514187907464;2.220446049250313e-16;2.220446049250313e-16;2.220446049250313e-16;2.220446049250313e-16;2.220446049250313e-16;2.220446049250313e-16;-1.8414663918758046e-14;2.220446049250313e-16;2.220446049250313e-16;0.00047812880555780555;0.00047812780398799354;7.75392167851812e-06;-0.0001319731674696511;2.220446049250313e-16;9.8243441661895e-08;1.4082500008486044e-06;-8.609606859952844e-06;8.609606859730799e-06;1.173549827625856e-05;9.056036215142234e-05;-8.72103121819212e-08;0.001075382128957201;2.220446049250313e-16;-5.891844642946765e-05;5.8918446429689684e-05;1.486309767902978e-13;-0.0035931347164671478
