flxalr/sts-optimization-reemc/input/457_104/acc.csv
time;base_link_tx;base_link_ty;base_link_tz;base_link_rz;base_link_ry;base_link_rx;leg_left_1_joint;leg_left_2_joint;leg_left_3_joint;leg_left_4_joint;leg_left_5_joint;leg_left_6_joint;leg_right_1_joint;leg_right_2_joint;leg_right_3_joint;leg_right_4_joint;leg_right_5_joint;leg_right_6_joint;torso_1_joint;torso_2_joint;arm_left_1_joint;arm_left_2_joint;arm_left_3_joint;arm_left_4_joint;arm_left_5_joint;arm_left_6_joint;arm_left_7_joint;arm_right_1_joint;arm_right_2_joint;arm_right_3_joint;arm_right_4_joint;arm_right_5_joint;arm_right_6_joint;arm_right_7_joint;head_1_joint;head_2_joint
0.0;0.0;0.0;0.0;0.0;0.0;0.0;-5.5825433946623165e-24;1.2749558003959116e-24;4.8847694789652146e-21;-4.580878406217728e-22;4.690904475700674e-22;-1.4570886053451485e-24;-8.693383062235094e-25;-5.239508394831161e-24;4.984254516272381e-21;-4.581081022023758e-22;4.781248044355308e-22;-5.569281791175517e-25;5.539920100327401e-06;-0.0013665345635646658;6.24714282717532e-06;-0.0002752926929698268;0.0017129077291671742;0.0010209044393693968;1.3985332474293716e-05;1.785093113599691e-05;-1.785093113599687e-05;0.00029998303738876535;-0.0007452723233245942;-0.00030157628201883983;-3.1819708196593614e-05;0.0;0.0;0.0;-0.0006528319555377833;0.0036071825992470725
0.020108461380004883;-9.482291649889465e-06;0.000146453589126055;1.2180712385154717e-05;-0.00025213128972837107;9.225896562295256e-06;-0.00016787160404517127;-5.596825391183903e-24;1.2757203523935683e-24;4.872993528792906e-21;-4.558397043251772e-22;4.693797994664068e-22;-1.4599751968546199e-24;-8.730528053111738e-25;-5.251460307644044e-24;4.972727985538728e-21;-4.558706823726988e-22;4.784328582055561e-22;-5.649832070015222e-25;2.599299396384856e-06;-0.0013662651903868412;6.285563075762025e-06;-0.0002744209980420771;0.0017142389984890203;0.0010218342945654644;1.4132485847338675e-05;1.7868005395461996e-05;-1.786800539546204e-05;0.0002991861032463206;-0.0007432974615780924;-0.00030220020503073146;-3.162453813303395e-05;0.0;0.0;0.0;-0.0006540355046734201;0.0035996989036621873
0.0401608943939209;4.548952497860887e-06;0.0002869671038345184;2.806222337865534e-05;-0.0009132866585263334;9.140243339411967e-05;-0.00025055096785380393;-5.6514774139601906e-24;1.278249850454127e-24;4.8241329194586174e-21;-4.467016658042972e-22;4.703445832864073e-22;-1.4708855265765809e-24;-8.875006521638676e-25;-5.2969638362101065e-24;4.924821037299911e-21;-4.467753193756232e-22;4.7946852333073185e-22;-5.968421479844598e-25;-8.181643894569487e-06;-0.0013656045159517612;6.426372566821547e-06;-0.00027134950382586584;0.0017191631245427556;0.0010251199277817103;1.4702029597636551e-05;1.7911766888760688e-05;-1.7911766888760667e-05;0.0002963700668332665;-0.0007362498871282407;-0.00030456469062525084;-3.090216326394721e-05;0.0;0.0;0.0;-0.0006589262279506149;0.00355195840624224
0.06038713455200195;0.0001013530949837481;0.0005705379106684229;7.248565572708787e-05;-0.0016227981618811046;0.000294542780045719;-0.0005336013875633958;-5.769511580026531e-24;1.2825752406999223e-24;4.7075660236414436e-21;-4.2541011348878215e-22;4.720141573217861e-22;-1.4940635430223887e-24;-9.193907224273588e-25;-5.3945838814533265e-24;4.8103115396881286e-21;-4.255807889468557e-22;4.812891807537197e-22;-6.686590856737623e-25;-3.0267921788878497e-05;-0.0013650752169765302;6.714236356606891e-06;-0.00026538885479121174;0.001729246198558151;0.001031425406087871;1.5952857059052515e-05;1.797903873513703e-05;-1.7979038735137095e-05;0.00029087814678851044;-0.0007223024809319113;-0.00030960435972621485;-2.9400566146575113e-05;0.0;0.0;0.0;-0.0006702512738744207;0.003417561725043319
0.0802152156829834;0.00043935553908435506;0.0009402034783721855;0.0001686828334720137;-0.0021021467715757517;0.0008179723123582001;-0.000984469601424763;-5.963371936917964e-24;1.2875369438275535e-24;4.4952302380143765e-21;-3.8749791953100443e-22;4.7397263086819305e-22;-1.5314065852936735e-24;-9.73042950335164e-25;-5.553667250439895e-24;4.601350456172397e-21;-3.8783711752886286e-22;4.834920028048186e-22;-7.923232206820652e-25;-6.464849689012411e-05;-0.0013655210712739169;7.160154089466817e-06;-0.00025666862465680793;0.001744639587867684;0.0010402890892698285;1.805084495568454e-05;1.8081331182813685e-05;-1.8081331182813665e-05;0.0002827836649991603;-0.0007013592699553792;-0.000317754539778266;-2.7018106356572557e-05;0.0;0.0;0.0;-0.0006901505455555891;0.003168160049603944
0.10019540786743164;0.0008737430629821505;0.0013223414971646513;0.0002835045945585262;-0.0022925468159405256;0.0014506955538262816;-0.001507048171349332;-6.249481915396877e-24;1.2911985144478865e-24;4.1463516087034834e-21;-3.2654281795574617e-22;4.755309205857644e-22;-1.5852897183123985e-24;-1.0544099573647066e-24;-5.7863248396236734e-24;4.25744491299128e-21;-3.271463321508123e-22;4.854044578922398e-22;-9.845237947810868e-25;-0.00011272231056850968;-0.0013678468642340886;7.778338025703811e-06;-0.00024531468008451323;0.0017651920895941752;0.001050839086831965;2.1227813747405395e-05;1.8246762967834986e-05;-1.824676296783507e-05;0.0002721274884582927;-0.0006731278386844493;-0.0003295670555557598;-2.3604254257868326e-05;0.0;0.0;0.0;-0.0007215149027502378;0.0027730885720577696
0.12003922462463379;0.0012235044897584268;0.0015108270821970519;0.0003646504731554414;-0.0022100920255359894;0.0019388411794944934;-0.0017970640222323084;-6.631452362754334e-24;1.2904952710600285e-24;3.626244809251084e-21;-2.3750850762010366e-22;4.755727194993607e-22;-1.6553406481346454e-24;-1.1663779050434573e-24;-6.093680170287201e-24;3.743966086468799e-21;-2.3848876828418063e-22;4.8590922348192955e-22;-1.2559613141958695e-24;-0.0001735306728310148;-0.0013727774628069856;8.549923250061101e-06;-0.00023208914988260182;0.0017890838796485098;0.00106388458997411;2.389007897979185e-05;1.8505512813561787e-05;-1.850551281356166e-05;0.0002595126400484023;-0.0006386885207938129;-0.0003450070682477439;-1.9151766618821562e-05;0.0;0.0;0.0;-0.0007661716053288282;0.002218660879460617
0.14015865325927734;0.0015408528775551016;0.0015428403010779332;0.000425097225850485;-0.0020708985396090712;0.0023771757266198017;-0.0018683593364600519;-7.1210971522182e-24;1.2812424603538818e-24;2.8783867717727857e-21;-1.1194379153032804e-22;4.725819247431891e-22;-1.7423217728395823e-24;-1.3148892594841604e-24;-6.482819749551186e-24;3.004587343867258e-21;-1.1344265019161063e-22;4.834971552110883e-22;-1.6260777144594303e-24;-0.0002473444184460037;-0.0013808986931451793;9.468157732021756e-06;-0.00021752885245628564;0.0018141173158725877;0.001082224577152275;2.4657770782485978e-05;1.8900307477289373e-05;-1.8900307477289525e-05;0.00024528728111033223;-0.0005983189764870983;-0.00036430604914426375;-1.353591719019214e-05;0.0;0.0;0.0;-0.0008272277348855487;0.0014770158508556094
0.16006898880004883;0.0016370002803228704;0.0013716681634388466;0.00042624815962443477;-0.002164978511306363;0.0025254623130447776;-0.0015992771023145532;-7.704704311105048e-24;1.2585685742114871e-24;1.8738725370080384e-21;5.365884578254317e-23;4.647721629704025e-22;-1.84206891935236e-24;-1.4988558019341788e-24;-6.939860803750604e-24;2.010155890277439e-21;5.149216358832859e-23;4.7635663379863465e-22;-2.0981175172957794e-24;-0.00033060212985580736;-0.0013920157949618645;1.0474695201746393e-05;-0.00020293992991028757;0.0018358121575369239;0.001106097247580335;2.3938703926798246e-05;1.945742141344308e-05;-1.945742141344287e-05;0.00023050936091092983;-0.0005542199855537482;-0.00038662062030076465;-6.894452408740474e-06;0.0;0.0;0.0;-0.0009049143476123673;0.0008456908170340546
0.1800987720489502;0.0014151207153756972;0.0010205372087009514;0.0003527800110779141;-0.00242181378184236;0.002238821353520842;-0.0010375858148183735;-8.383110814690497e-24;1.2160495812180866e-24;5.491841819204029e-22;2.682836613178895e-22;4.498030034025612e-22;-1.9525695969184855e-24;-1.72234613736139e-24;-7.461743180726094e-24;6.971552098805463e-22;2.6527169192029833e-22;4.621368949667857e-22;-2.6897152063025768e-24;-0.0004220478338547737;-0.001405685497966607;1.153539047581463e-05;-0.00018915446904897612;0.0018493321417277404;0.0011348657654670431;2.2086936096674037e-05;2.014450966842386e-05;-2.0144509668424332e-05;0.00021573014898822182;-0.0005070798990316357;-0.00041160523503601414;8.416973589881231e-07;0.0;0.0;0.0;-0.001001572910034545;0.0005692428899005553
0.2000279426574707;0.0010415737657709949;0.0005267395610326646;0.00023835042114288675;-0.0026603974365220773;0.001736195545950837;-0.0002708715570274658;-9.134890770854815e-24;1.147071762968939e-24;-1.1311710755691497e-21;5.360482656720345e-22;4.252458677058276e-22;-2.067649980862963e-24;-1.983058170904098e-24;-8.027356957896789e-24;-9.702927787331052e-22;5.320062679666901e-22;4.383716615385363e-22;-3.4033079247906445e-24;-0.0005174966167214773;-0.0014204772910150956;1.257674957097356e-05;-0.00017744293805551026;0.0018480510289905383;0.0011657291873130985;1.9400701050228506e-05;2.0849706869713157e-05;-2.084970686971316e-05;0.00020191649015306048;-0.00045882635209152983;-0.00043800069768468446;9.5325711772271e-06;0.0;0.0;0.0;-0.0011167696149890763;0.0005892779142253454
0.21999573707580566;0.0007218303949015742;-0.00010862813436616131;0.00012023094225660947;-0.0027643470365343154;0.0012988493811823907;0.0006786754116746218;-9.944148471180713e-24;1.0432294358296453e-24;-3.227478300076958e-21;8.647915130569646e-22;3.880250247280511e-22;-2.181556439348526e-24;-2.281364758471227e-24;-8.619005424277192e-24;-3.0527661460950767e-21;8.595144316796469e-22;4.0195103907031953e-22;-4.249973528780987e-24;-0.0006137287959110044;-0.0014344242574263074;1.3531416091127089e-05;-0.0001688659626963806;0.0018241810953860613;0.0011949692995710656;1.6084751244123344e-05;2.140046102155873e-05;-2.1400461021558777e-05;0.00018977244229514834;-0.00041053853165455036;-0.000464666299397382;1.9153124458541547e-05;0.0;0.0;0.0;-0.0012511580171614353;0.0008242650844817484
0.24002957344055176;0.00040411859075073725;-0.0007773659343003104;-6.708337228216298e-07;-0.002669485380692956;0.0008456568307783909;0.0016400594935348156;-1.0784306408028396e-23;8.951178427826855e-25;-5.7953759406142205e-21;1.2612570505413825e-21;3.346921288676501e-22;-2.286221053647163e-24;-2.6151142266802024e-24;-9.209804452908094e-24;-5.606383785330852e-21;1.2545256934760142e-21;3.4937780245531303e-22;-5.23590291485988e-24;-0.0007063208437697071;-0.0014446131172298315;1.4312233323077899e-05;-0.00016459854973954047;0.0017710774154193975;0.001217318766622937;1.22988961287857e-05;2.1555342119350166e-05;-2.1555342119349793e-05;0.00018007949685657455;-0.00036352252914038685;-0.0004899693164494945;2.961521979147497e-05;0.0;0.0;0.0;-0.0014042239128872398;0.0011806735846339716
0.2600092887878418;0.0001586797337588776;-0.0015041287890176266;-0.00011399327994668723;-0.002575307151448337;0.000496107293128591;0.002687077765700173;-1.161447649496019e-23;6.938189131515974e-25;-8.86656279549608e-21;1.7282254559177516e-21;2.619646012583116e-22;-2.371117814617673e-24;-2.9776902887794793e-24;-9.761624348864624e-24;-8.663572249121955e-21;1.719822575325348e-21;2.773039313475804e-22;-6.355907153368643e-24;-0.0007894723427269958;-0.0014471555999042427;1.4814047966802834e-05;-0.00016581137427176652;0.0016865400104971793;0.0012260747921285801;8.23875999599047e-06;2.1107201012993346e-05;-2.110720101299316e-05;0.00017363994073572568;-0.00031936171159750357;-0.0005117258451407298;4.07178303100261e-05;0.0;0.0;0.0;-0.0015733129642628663;0.0015806190268745836
0.2801389694213867;1.3358699492517745e-05;-0.0021857784585489763;-0.00020492196075725684;-0.0023072280101572233;0.0002717947499573155;0.003635980481487675;-1.2398062488183954e-23;4.262795087531591e-25;-1.2518715505060296e-20;2.2751325135542032e-21;1.6505430057428923e-22;-2.4251110375913947e-24;-3.366199294943488e-24;-1.0237384356309423e-23;-1.2302669944533498e-20;2.2648209349902697e-21;1.80873771893238e-22;-7.618801863428216e-24;-0.0008579075491937993;-0.0014371712437673937;1.4924970500655103e-05;-0.00017367840133347622;0.0015696873675488641;0.0012133127118519693;4.041067818585736e-06;1.9863262503181172e-05;-1.9863262503180518e-05;0.00017111020550889314;-0.0002788646225843818;-0.0005308278494086249;5.240145041846276e-05;0.0;0.0;0.0;-0.0017574339753399974;0.001967135920377602
0.30000829696655273;-2.370078859292217e-05;-0.0028162032881056897;-0.0002714052672628833;-0.0018902432997824682;0.00018661999949789852;0.004482507024765902;-1.3066447279170378e-23;8.757835022801752e-26;-1.670741998949453e-20;2.892890830059926e-21;4.2114561319092617e-23;-2.4339135119104326e-24;-3.763539134660966e-24;-1.0578935649773906e-23;-1.6480463709590434e-20;2.880479516007366e-21;5.814859131720266e-23;-8.989215309021504e-24;-0.0009036798911292241;-0.0014092403390089086;1.4520584132509083e-05;-0.00018902764614260744;0.0014275694969297266;0.0011705499565398917;-7.274781377695735e-08;1.7692791761232955e-05;-1.7692791761232812e-05;0.00017312818121462088;-0.00024395411886389264;-0.0005496846066917648;6.420791695520349e-05;0.0;0.0;0.0;-0.0019487686396859139;0.0022843968830900964
0.3199930191040039;-5.330667382352015e-05;-0.003213911002534396;-0.0003144770142550874;-0.0014361900664663701;0.00010565689455410377;0.004980765599795403;-1.3569900038367578e-23;-3.392412849666404e-25;-2.1530554268916106e-20;3.593241075100827e-21;-1.1307309290063528e-22;-2.3826583909205458e-24;-4.165302297744742e-24;-1.07363504963966e-23;-2.1295729203684883e-20;3.578515292957756e-21;-9.718044812493874e-23;-1.0477030867488011e-23;-0.0009218456984306532;-0.0013577253421595983;1.3458986300474741e-05;-0.00021304738765697817;0.00126601488699039;0.0010871349543553168;-4.076015101899169e-06;1.5307611420143276e-05;-1.5307611420143032e-05;0.00018023272335937005;-0.0002149766551008304;-0.0005699956617972892;7.60890064320311e-05;0.0;0.0;0.0;-0.002145483006970865;0.0024997089209009057
0.3400273323059082;-0.00022085769490040624;-0.0034355264661565;-0.0003657959067562449;-0.0009941440691954714;-0.00017269379264295235;0.005222274570130755;-1.3830753685049768e-23;-8.65273762356113e-25;-2.6991567674355383e-20;4.373466862256778e-21;-3.0461438048682134e-22;-2.253316149253813e-24;-4.55543445843046e-24;-1.064059494914042e-23;-2.675328628243679e-20;4.356240498100217e-21;-2.893330318295239e-22;-1.2056885461549813e-23;-0.000906368237121323;-0.001277408675946198;1.1583114269153292e-05;-0.00024664853720090304;0.001094095294331191;0.0009544376993398376;-7.872293342278982e-06;1.3438193109425625e-05;-1.3438193109425993e-05;0.00019292533745520222;-0.0001930874893175814;-0.0005917654885956478;8.767907971441946e-05;0.0;0.0;0.0;-0.002340121980510655;0.002548629665977989
0.3601694107055664;-0.0003965743270733132;-0.003411716720400526;-0.00039532329116809343;-0.0006549306312676682;-0.0004558468692041753;0.005122909563233217;-1.3761319186029122e-23;-1.5044788063387987e-24;-3.310823617865594e-20;5.232456991401823e-21;-5.376659336966345e-22;-2.025039416903312e-24;-4.916656365442734e-24;-1.021289634152789e-23;-3.28724613154215e-20;5.21257014882297e-21;-5.235969976108575e-22;-1.370392559362262e-23;-0.0008526192611058882;-0.0011638825580131654;8.712339803245855e-06;-0.0002908050509944599;0.0009173867112938288;0.000764346285745272;-1.1403512348049792e-05;1.1896963913185721e-05;-1.1896963913185689e-05;0.00021167056532736347;-0.00017922271239944216;-0.0006139698751997843;9.861114585190187e-05;0.0;0.0;0.0;-0.0025245946918332233;0.002346864720625191
0.38022375106811523;-0.0005069586219978038;-0.0032243030373433007;-0.0003975175464864753;-0.0003767577361463477;-0.000642230916547243;0.004795238691491636;-1.326579390387798e-23;-2.2613031915667712e-24;-3.979502741309531e-20;6.154209630269962e-21;-8.139232730306711e-22;-1.678705666447076e-24;-5.223647390042074e-24;-9.373481002173635e-24;-3.9569393645021124e-20;6.131577182400195e-21;-8.017921421284985e-22;-1.5362341041116727e-23;-0.0007638335902538417;-0.0010211489599711234;4.698841816857519e-06;-0.0003456986202777685;0.0007386806094583976;0.0005243711103717481;-1.4544808008557528e-05;1.0525444283817404e-05;-1.052544428381718e-05;0.00023653232697844222;-0.00017435840673775014;-0.0006342572455448796;0.00010830934644746942;0.0;0.0;0.0;-0.0026866842279036018;0.0021225903176411457
0.4000968933105469;-0.00042243578165520777;-0.0027873023358761092;-0.0003408209904532427;-0.00015686088126850217;-0.0005487855958080091;0.004113189079370334;-1.2249664513078776e-23;-3.13894215958311e-24;-4.695599232551791e-20;7.121308180046727e-21;-1.1346253532361108e-21;-1.195843653163657e-24;-5.4507115739856956e-24;-8.044336337350453e-24;-4.674978109505666e-20;7.095923815212683e-21;-1.1252779089721504e-21;-1.697391192887221e-23;-0.0006479031273983363;-0.0008572733648542925;-5.94471883236468e-07;-0.00041123829960845374;0.0005586463412547376;0.0002579966522297186;-1.7176933461420485e-05;9.123622426160975e-06;-9.123622426161199e-06;0.00026736281026528487;-0.00017907417220484157;-0.0006495257835893264;0.0001162092141980331;0.0;0.0;0.0;-0.002813843964111537;0.0020815746692003814
0.4200477600097656;-0.00020274744525631844;-0.0021321029417855344;-0.00023899779077777498;0.00024279507036763286;-0.00028311289470536375;0.0030781112365464627;-1.058742652032913e-23;-4.155226570826998e-24;-5.459570613602947e-20;8.129222174890128e-21;-1.5063695401637934e-21;-5.473446196441246e-25;-5.571841419963475e-24;-6.113966308534754e-24;-5.4420413457838e-20;8.101126297601074e-21;-1.5008356712165092e-21;-1.849737219109674e-23;-0.0005092577884794293;-0.0006759329428034308;-7.410253900685349e-06;-0.0004883262069000049;0.000373706594494255;-1.5254980017712002e-05;-1.9235150052241718e-05;7.442464040359585e-06;-7.4424640403599326e-06;0.0003044423746728021;-0.00019400863370870234;-0.0006560776311468539;0.00012179269398558212;0.0;0.0;0.0;-0.0028936006517064814;0.0021177590590281017
0.44009923934936523;0.000112563643660453;-0.0012560767161761983;-9.894307240936484e-05;0.0007007251433376944;0.00011012639480689836;0.0017086224907245698;-8.141791524264305e-24;-5.318078619165537e-24;-6.26066161246988e-20;9.157136390395302e-21;-1.9321492537308845e-21;2.94721209029232e-25;-5.551669705534609e-24;-3.467152639973008e-24;-6.247613685035884e-20;9.126469924912918e-21;-1.9316396606556487e-21;-1.985684375178093e-23;-0.00035220841075349015;-0.0004812801758026363;-1.5961355616248883e-05;-0.0005770300268577783;0.00017866138520145324;-0.0002771161475251038;-2.061449469544858e-05;5.263742398911652e-06;-5.263742398911135e-06;0.0003476273959307864;-0.0002198697761743479;-0.0006490218850824124;0.00012430188836415551;0.0;0.0;0.0;-0.002908706452446086;0.002145016954316555
0.4602375030517578;0.000455443966462079;-0.0002950426515484719;5.417407099721322e-05;0.0012155473521849466;0.0005358973806098846;0.00020392322384329346;-4.767345509777427e-24;-6.630303629294516e-24;-7.082063839486189e-20;1.0175371556806147e-20;-2.4131027940007856e-21;1.358056571739909e-24;-5.349408946132428e-24;1.490379313271562e-26;-7.075139683296425e-20;1.0142405703599221e-20;-2.419009855203291e-21;-2.0957160711450433e-23;-0.00018044576642922157;-0.00027684527415099787;-2.644631951105809e-05;-0.0006768947564371413;-3.1475865482643296e-05;-0.0005146527746179277;-2.120304899555019e-05;2.3840515466019083e-06;-2.3840515466004997e-06;0.0003964700157709009;-0.0002572274713168577;-0.0006251543007345147;0.00012285321657893875;0.0;0.0;0.0;-0.0028390991943135187;0.0020893295370711584
0.4799950122833252;0.0007687001589118706;0.0006329916725882487;0.00019882077246552237;0.00173155879438389;0.0009196794995989701;-0.0012527087267239433;-4.243190332186602e-25;-8.055720097921899e-24;-7.883277208537161e-20;1.112522213824264e-20;-2.9360708301508395e-21;2.637785557382459e-24;-4.931850249956967e-24;4.343203108530908e-24;-7.884180914111994e-20;1.1090421486714214e-20;-2.9497714022787792e-21;-2.1674240636189526e-23;-1.3062667620615954e-06;-7.030344884101681e-05;-3.8742821792032335e-05;-0.0007843952612562792;-0.00025627155159944654;-0.0007154367147985148;-2.0901798914750604e-05;-1.2929321877890615e-06;1.29293218778783e-06;0.0004489721992836077;-0.0003052421053359175;-0.00058379794135057;0.00011665727335620963;0.0;0.0;0.0;-0.0026674671842341425;0.001893016216798564
0.5000193119049072;0.001035205308598427;0.0015440751764200667;0.0003334204058872491;0.002419558587410624;0.0012203855379888766;-0.0027167651485872028;5.165902303337636e-24;-9.631935663787591e-24;-8.663400655365246e-20;1.19939303532801e-20;-3.514979655997354e-21;4.197853057732996e-24;-4.240072116945972e-24;9.7641025681199e-24;-8.674327523167026e-20;1.1957871561296845e-20;-3.538255555191943e-21;-2.1911245883717386e-23;0.0001836957022027049;0.0001381255691618971;-5.3381922904316374e-05;-0.0009014486102308758;-0.0004964530454183799;-0.0008823985851991904;-1.962343267524219e-05;-5.140430049506957e-06;5.1404300495078445e-06;0.0005057461032022115;-0.0003654881616329093;-0.0005205959370368971;0.00010452205580339489;0.0;0.0;0.0;-0.002365557235472035;0.0014973441663794062
0.5200240612030029;0.0012913604335506707;0.0023435213057589055;0.000455565407164896;0.003036645046462784;0.0015145482978194298;-0.004003851312568603;1.2089859024934254e-23;-1.1324622128980298e-23;-9.377453836164879e-20;1.271454925396739e-20;-4.137383644003076e-21;6.042611723260978e-24;-3.228316490189097e-24;1.6327372276057117e-23;-9.400742383505785e-20;1.2678040200886444e-20;-4.172061285896927e-21;-2.1516007179917447e-23;0.0003611336656670238;0.00033497789094460664;-7.030848758748909e-05;-0.0010244063470249696;-0.0007298840419197028;-0.001011350698108505;-1.729727655093642e-05;-8.356852193411003e-06;8.356852193409862e-06;0.0005646374284583311;-0.00043719352589522613;-0.00043163258412895396;8.5396661259718e-05;0.0;0.0;0.0;-0.0019098641753221973;0.0011426730184120393
0.5400097370147705;0.0014741869106477453;0.0029290918473389486;0.0005441509054064601;0.0036496158164326087;0.0017074406835461632;-0.004976678992563633;2.0484259535286632e-23;-1.3111595438175954e-23;-9.985514845525418e-20;1.3225191245800365e-20;-4.7953029686346725e-21;8.189735134801582e-24;-1.8434180584481644e-24;2.4130251717177125e-23;-1.0023736327966329e-19;1.318926825251819e-20;-4.843335751649714e-21;-2.033318952352586e-23;0.0005229940707993444;0.0005126426007439749;-8.958788892657201e-05;-0.00115041879896354;-0.0009412178263005774;-0.0011033040607389749;-1.383697080224237e-05;-1.1083679646194982e-05;1.1083679646196292e-05;0.0006238365687936677;-0.0005199250085992788;-0.00031146495822099453;6.0582191966483424e-05;0.0;0.0;0.0;-0.0012734874458411938;0.0010247946507467886
0.5601065158843994;0.001705002348287037;0.0032450847562539653;0.0006158112763343332;0.0039497976055067;0.0020024245072050757;-0.005495486623906658;3.054588580701218e-23;-1.4974001805682578e-23;-1.0442825756742917e-19;1.3454677155187539e-20;-5.4820195646261226e-21;1.0669080615364233e-23;-1.6662746391299956e-26;3.332033325722943e-23;-1.0498889129117774e-19;1.342064956538376e-20;-5.545566767243947e-21;-1.8173889699647906e-23;0.0006657018208874011;0.0006680179949291188;-0.00011137800836165915;-0.0012766529494178116;-0.0011219873741389458;-0.0011609445407892085;-9.105817469024703e-06;-1.346354084494174e-05;1.346354084494209e-05;0.0006814636144588458;-0.000613554039302414;-0.00016375681197437314;3.314486536908812e-05;0.0;0.0;0.0;-0.0004219348079747245;0.0010207639544903059
0.5800137519836426;0.001794405960654843;0.0034615500496479553;0.0006524648327753187;0.0038251653842105936;0.002138450092907884;-0.005789479457419095;4.222810222770279e-23;-1.684264301913811e-23;-1.0688424259955973e-19;1.3319032544078375e-20;-6.172272842676967e-21;1.3448739460261234e-23;2.2796362230944677e-24;4.381979767904297e-23;-1.0765143449736912e-19;1.328845944881302e-20;-6.2533149554769224e-21;-1.4887406481620875e-23;0.0007840219028639029;0.0007960792988226516;-0.00013528376459552048;-0.0013967084101849324;-0.0012645276853923578;-0.0011868427601550995;-3.0647301336143106e-06;-1.5664174762189994e-05;1.5664174762188734e-05;0.0007339511526847817;-0.0007154864689719334;-6.2394768518454915e-06;5.846045152687342e-06;0.0;0.0;0.0;0.0006603959506177766;0.001027859653456621
0.5999972820281982;0.001854470151890793;0.0036426949555355827;0.0006804765131168291;0.003348287308623338;0.0022671692192773535;-0.0059660115124907705;5.576218422658506e-23;-1.868913304633173e-23;-1.0663653101718809e-19;1.2726071738179992e-20;-6.855895396734566e-21;1.6561692758380557e-23;5.12995860482518e-24;5.579847717530705e-23;-1.0764237648864506e-19;1.2700859687988958e-20;-6.956643865572694e-21;-1.0235197080869766e-23;0.0008773093789977661;0.0008967047632677681;-0.0001614607564992198;-0.0015066736422289927;-0.0013691919956095404;-0.0011854223835115456;4.482183594277859e-06;-1.7977526943973415e-05;1.797752694397285e-05;0.0007787655564158589;-0.0008253847837416415;0.0001496907481491204;-2.003033782154505e-05;0.0;0.0;0.0;0.0017048653341884758;0.0009591452003063153
0.6202225685119629;0.001972064779510438;0.0038677791773444724;0.0007230735403609258;0.002715762841003832;0.0024921513973312367;-0.006177735827879245;7.136080528497157e-23;-2.0460324042108813e-23;-1.0288305146277139e-19;1.1554011701706602e-20;-7.513682023334695e-21;2.0029163088479537e-23;8.628130182974269e-24;6.939682181378722e-23;-1.0416322881038522e-19;1.1536502188779169e-20;-7.636512980951714e-21;-3.926161417078891e-24;0.000945257149974676;0.0009699450545208372;-0.00018992203866107144;-0.0016004214009591492;-0.0014365152432514656;-0.0011601677126282291;1.192777185669877e-05;-2.0667659216468563e-05;2.066765921646859e-05;0.0008121651950714259;-0.0009421178843230711;0.0002959032842157729;-4.355532507196529e-05;0.0;0.0;0.0;0.002448253085848933;0.0007368261557201494
0.6401724815368652;0.002004030578625425;0.004034128471757265;0.0007446309231762891;0.002079854232823114;0.0025963435310633783;-0.006302898270411974;8.863194676232495e-23;-2.2030217199325276e-23;-9.492642953011199e-20;9.720755066054304e-21;-8.099396753130619e-21;2.3736532165924988e-23;1.2734871308054715e-23;8.422568735231317e-23;-9.650955671139698e-20;9.713443837121554e-21;-8.245987541901034e-21;4.09737303230531e-24;0.0009871271331878438;0.001015255583755223;-0.00021955683195284002;-0.0016677809244007825;-0.001467144158032746;-0.00111587789790983;1.7455996333673606e-05;-2.2997896609981376e-05;2.299789660998156e-05;0.0008288791668055511;-0.001059866484778078;0.00042280753486223076;-6.348619763368659e-05;0.0;0.0;0.0;0.002927374508818928;0.0003036210643863029
0.6600408554077148;0.001947714622333922;0.004114489144697462;0.0007420818875397419;0.0014075151987007386;0.0025795670136927497;-0.006295342671624233;1.0764819943943427e-22;-2.3322106314312124e-23;-8.19239456369273e-20;7.104567129221226e-21;-8.585137742430137e-21;2.767129868931736e-23;1.751716197959283e-23;1.0029896297594236e-22;-8.383974445280147e-20;7.11034837505635e-21;-8.757118583504398e-21;1.409015756521687e-23;0.0010058775329380766;0.0010359713948118585;-0.00025008528198970875;-0.0017039295845662202;-0.0014657213537567898;-0.001056594018272139;2.1353398217935e-05;-2.4302171533347065e-05;2.4302171533345967e-05;0.0008244406435975743;-0.0011761590278018873;0.0005287665196263365;-7.97898203457261e-05;0.0;0.0;0.0;0.003201645861579893;-0.00039360257832290714
0.6800718307495117;0.0016074694723490672;0.004175839121971035;0.0006864036342131901;0.0007087362295858115;0.0021614459335467066;-0.006255790122578587;1.2853866592320254e-22;-2.4235043172908227e-23;-6.272138503207741e-20;3.53749333977262e-21;-8.934208290728149e-21;3.1823185947203905e-23;2.3072951041712634e-23;1.1766194412407895e-22;-6.500161224618435e-20;3.559818450531828e-21;-9.133188129377743e-21;2.641115561444418e-23;0.00100411609525982;0.0010349864466618708;-0.0002811829915583294;-0.0017070043778463198;-0.0014361631392872949;-0.0009852595690471849;2.3819015852774134e-05;-2.4747866208409452e-05;2.474786620840923e-05;0.0007928950589912994;-0.001287998188306756;0.0006135332307811337;-9.257881531144814e-05;0.0;0.0;0.0;0.0033152883971439917;-0.001413048138000875
0.7000079154968262;0.0011121626264329306;0.004173986954460789;0.0005967149885460636;0.00011648997831354468;0.001513204875835595;-0.006143796712308223;1.5084415908484105e-22;-2.4622987748165518e-23;-3.651695882103765e-20;-1.0745066302894593e-21;-9.093016265278278e-21;3.605846485751469e-23;2.935531049835259e-23;1.3585972665710998e-22;-3.9185104423788274e-20;-1.032012170581231e-21;-9.319788292522494e-21;4.1123804844093004e-23;0.0009845935221409448;0.0010152756283060558;-0.00031155638487927217;-0.0016748132358734296;-0.00138315046440493;-0.000906159603036043;2.4947295650239862e-05;-2.4435410299504783e-05;2.4435410299505115e-05;0.0007281518439294475;-0.0013886203868088743;0.0006759157447016409;-0.00010178537363649296;0.0;0.0;0.0;0.0033019293639600204;-0.002483477190704103
0.7199759483337402;0.00046499811481758133;0.004049826517068485;0.00046798577307784054;-0.00018041079430179335;0.0006219828223952826;-0.005907845374672481;1.7439755976886234e-22;-2.4338849798003776e-23;-2.106267215024611e-21;-6.89424445358362e-21;-9.00781631909145e-21;4.0296785741147104e-23;3.6403213246723284e-23;1.5467211014966515e-22;-5.1826211569783906e-21;-6.827490865410338e-21;-9.2627110477841e-21;5.850043517254962e-23;0.0009502462134566714;0.0009799920050785728;-0.0003402800065419776;-0.001604754522668843;-0.0013110184317022234;-0.0008219245487696605;2.485961508296289e-05;-2.349142413269638e-05;2.3491424132695706e-05;0.000622947124950001;-0.0014723801202193543;0.0007174423406634161;-0.00010772626720459171;0.0;0.0;0.0;0.0031928731884458537;-0.003373293670457792
0.7400422096252441;-0.0003979110515606512;0.0037884807142333533;0.00028725596617235576;-3.993337115660736e-05;-0.0006166694723175236;-0.005552789564941152;1.988647015190327e-22;-2.32024601537695e-23;4.18120491002924e-20;-1.409130627424979e-20;-8.612673449549294e-21;4.4415925659916875e-23;4.4226615660055275e-23;1.7372506391572125e-22;3.83133632592015e-20;-1.399576168333863e-20;-8.895297339591138e-21;7.878327610240644e-23;0.000903789143084165;0.0009320275092684051;-0.0003660553204513715;-0.0014955055318315548;-0.001223846112548994;-0.0007349764588236319;2.362649263728396e-05;-2.2040598154497178e-05;2.2040598154496558e-05;0.0004767871848302434;-0.0015344621905145485;0.0007397780092676106;-0.00011071504199320713;0.0;0.0;0.0;0.0030130085025145163;-0.0038886079747647013
0.7600927352905273;-0.001264500445838678;0.0033843159002053956;9.232948790435035e-05;0.00020717149363425294;-0.0018687631417114992;-0.00500801315900072;2.235488325669545e-22;-2.1023303657857725e-23;9.615259101570127e-20;-2.2765831738861893e-20;-7.837599370350905e-21;4.8223442222527074e-23;5.273574153830195e-23;1.9234639457522932e-22;9.222993036401038e-20;-2.263683283184974e-20;-8.146375914548745e-21;1.0198609637919365e-22;0.0008482434130224459;0.0008745693200617554;-0.0003870705968699435;-0.0013483713678404336;-0.0011263161178607858;-0.0006481756079867431;2.1433422589355222e-05;-2.0218476894233974e-05;2.0218476894233734e-05;0.0003046842145581121;-0.0015703614126072285;0.0007448396913911416;-0.00011108918780516976;0.0;0.0;0.0;0.0027847521607633477;-0.003864940016335627
0.7800302505493164;-0.0020750595338445495;0.0028204939263904083;-0.00010760306931956762;0.0006154219604882211;-0.0030543126183872303;-0.004258808426795979;2.4761301534197124e-22;-1.7613733970729946e-23;1.6161371619541233e-19;-3.2981711270088863e-20;-6.6135423763187666e-21;5.150206511068941e-23;6.179818095996065e-23;2.0975262447340399e-22;1.5728034554154807e-19;-3.2814612683047984e-20;-6.945546800346738e-21;1.28016129849633e-22;0.0007865558831830929;0.0008107127537294832;-0.0004013489706131026;-0.0011666729223738918;-0.0010229384230081757;-0.0005639528644257143;1.8564446023409013e-05;-1.816158449542741e-05;1.816158449542701e-05;0.00012570902029247278;-0.001574116429115114;0.0007351392811417253;-0.00010926149910431298;0.0;0.0;0.0;0.0025274914864011886;-0.0034511239988683612
0.8000204563140869;-0.0028221341321498167;0.0020732290066762435;-0.0003134515045780616;0.0009659611758529643;-0.004141149753311226;-0.003229486015836485;2.703644436716414e-22;-1.2725391626105531e-23;2.396773295438896e-19;-4.4919182137759057e-20;-4.849431557013897e-21;5.404057529165046e-23;7.135983357338021e-23;2.2524109724923973e-22;2.349590434599174e-19;-4.47089562820814e-20;-5.200458841200553e-21;1.5704341894016353e-22;0.0007205794398933284;0.0007424072112874958;-0.0004068045710407256;-0.0009524494175289015;-0.0009164867590307269;-0.0004832935214531792;1.5201134957594051e-05;-1.5969088359334476e-05;1.596908835933357e-05;-4.8686994050533715e-05;-0.001537903398064708;0.0007131181129594925;-0.00010561794943171402;0.0;0.0;0.0;0.002253724022765628;-0.002761083248222804
0.8200547695159912;-0.003331208272002704;0.0012905692985493464;-0.0004796549011166038;0.0009694518549603309;-0.004855024610202326;-0.0020829527213420992;2.9068994309992186e-22;-6.1096970923812996e-24;3.3126253558914165e-19;-5.866184810207217e-20;-2.453789824682538e-21;5.555033767056469e-23;8.124398868426438e-23;2.3777033191700908e-22;3.2620495479680037e-19;-5.840349557381117e-20;-2.8178434490091935e-21;1.8894191021585376e-22;0.0006523630028273337;0.0006717945504538153;-0.0004008134330043456;-0.0007071329541560257;-0.000810230457763478;-0.00040766546425667876;1.1491827691037486e-05;-1.3747361198192477e-05;1.3747361198194649e-05;-0.00020957713684404599;-0.0014543800882894295;0.0006811166325810796;-0.00010052424871536364;0.0;0.0;0.0;0.0019750099512578587;-0.0018853957617004152
0.8400087356567383;-0.003573564076653246;0.0005120029742279998;-0.0005972875934825686;0.0007752767157506353;-0.005170088606438554;-0.0009049185213387634;3.0717061327984094e-22;2.4358601307966777e-24;4.364301388747389e-19;-7.415977053746081e-20;6.4830881123008745e-22;5.570197715810254e-23;9.11571417213149e-23;2.460792973910273e-22;4.3110392245565974e-19;-7.384881583835537e-20;2.7930712591860466e-22;2.232475745767081e-22;0.0005840737606669854;0.0006011311422189611;-0.00038347631862603506;-0.0004351413364398746;-0.0007076863238257223;-0.0003386642829520557;7.5675690290657445e-06;-1.156323602654304e-05;1.1563236026539561e-05;-0.0003504510639902647;-0.001317736834182663;0.0006416413891109762;-9.436561001545244e-05;0.0;0.0;0.0;0.0017020137566355804;-0.0009026668243810837
0.8600335121154785;-0.0037160420964685963;-0.0002552507086019351;-0.0006957801130855291;0.00030820200159066314;-0.005316649346089001;0.0003076264901710552;3.1839559057977743e-22;1.3229169004766199e-23;5.563725534522272e-19;-9.152278848575689e-20;4.573836935551952e-21;5.412870880004539e-23;1.0087700619033382e-22;2.48846347144697e-22;5.508734943310976e-19;-9.115477974755425e-20;4.210241052776601e-21;2.598081569114263e-22;0.0005166461791427588;0.0005313917207217223;-0.0003567605617769381;-0.0001410984914732245;-0.0006106017312292278;-0.0002766881884293654;3.4725055244563165e-06;-9.409589446796375e-06;9.409589446796917e-06;-0.0004693058420256276;-0.0011180223628523504;0.0005965138125312606;-8.741598539425933e-05;0.0;0.0;0.0;0.0014394309028205544;0.00013664900187662253
0.8799982070922852;-0.003835412256672683;-0.0008345789447643029;-0.0007722682204483328;-0.00027567341904600703;-0.005421697224651733;0.001266320063928306;3.225168102241235e-22;2.6452192666081193e-23;6.903742606407516e-19;-1.1057388168319818e-19;9.390565158690213e-21;5.0429118709732725e-23;1.0997249230717555e-22;2.444766125566945e-22;6.848305966754395e-19;-1.1014539858748217e-19;9.045295991183228e-21;2.978022198454277e-22;0.0004516816839028164;0.0004642365612276469;-0.0003216348806957029;0.00016647165228812947;-0.0005218051699183211;-0.00022288273372165002;-6.142366883282025e-07;-7.274114426209043e-06;7.2741144262087995e-06;-0.000564165606978609;-0.0008540062782815305;0.0005479111402341121;-8.000211474190697e-05;0.0;0.0;0.0;0.001193845138910782;0.0011802593807155037
0.8999745845794678;-0.0038959188257430915;-0.0012109658474675855;-0.0008188798143580792;-0.0007814971020147264;-0.005453386932975734;0.0019129000588583769;3.175503693756255e-22;4.2383967335896525e-23;8.384802084569405e-19;-1.3123757981540749e-19;1.5201752010129112e-20;4.4144075337078205e-23;1.1803077416969224e-22;2.3120932522666743e-22;8.330551778908464e-19;-1.307459521971121e-19;1.4890633909832615e-20;3.3657001500614543e-22;0.00038983722734715675;0.0004003458056605694;-0.00027773117767694485;0.0004731275390810209;-0.0004428517288712257;-0.0001776093979709631;-4.487800278951318e-06;-5.146024006114814e-06;5.1460240061136096e-06;-0.0006356664173105608;-0.0005418498720771102;0.0004973279128532051;-7.234391143721025e-05;0.0;0.0;0.0;0.0009676161855923629;0.002195299210780653
0.920189619064331;-0.003964610941816489;-0.001455739297873022;-0.0008544773365662902;-0.0012704517143674056;-0.005500201993811509;0.002363238856962338;3.009438197028793e-22;6.148009355810638e-23;1.001686766090459e-18;-1.5354902761099267e-19;2.217546072558339e-20;3.465028925960083e-23;1.2457838496596e-22;2.067229374110452e-22;9.965888342684234e-19;-1.529921380743549e-19;2.191822401288677e-20;3.7551903916540303e-22;0.00033114272919407473;0.0003397503262942479;-0.00022612537774357734;0.0007615460290204695;-0.00037471182533519516;-0.00014098650934019305;-8.013750036350825e-06;-3.0179169689992296e-06;3.017916969001484e-06;-0.0006854054281589658;-0.00020460541033739596;0.0004455975040521598;-6.456117013956476e-05;0.0;0.0;0.0;0.000760589112263338;0.003162087843777166
0.9401471614837646;-0.0038280497290669145;-0.0016262198108319076;-0.000845957072070315;-0.0016819644857638664;-0.005263354342329987;0.0026905634686516964;2.7059801744714834e-22;8.345239358919076e-23;1.1743734442988548e-18;-1.7662972953070912e-19;3.020828321645332e-20;2.165865475470352e-23;1.288303078799874e-22;1.6949371169841966e-22;1.1698469221123922e-18;-1.760087447230239e-19;3.002670071294697e-20;4.124031881956144e-22;0.00027747884396485303;0.00028438944352962553;-0.00017137645412162216;0.0010115218305985323;-0.00032046148610690605;-0.00011426399565569557;-1.0971785067054246e-05;-9.901361719041103e-07;9.901361719060623e-07;-0.0007140558546849154;0.0001253227427218622;0.00039516667986840774;-5.701514677660402e-05;0.0;0.0;0.0;0.0005787676842214354;0.0040313054389451404
0.9600863456726074;-0.0035122983663072984;-0.0018130931842015292;-0.0008066111718359412;-0.0018721136935817787;-0.004792490251229024;0.003001038118021493;2.236749532521998e-22;1.0863553338885788e-22;1.3559779975097844e-18;-2.0028344261997387e-19;3.942442440263357e-20;4.5341104094107585e-24;1.3015749499057734e-22;1.1704033932236494e-22;1.3523171330529672e-18;-1.996008775683283e-19;3.9344308536227936e-20;4.461075394210596e-22;0.0002283752543492175;0.00023377386590844233;-0.00011462194052065264;0.0012191532943136916;-0.0002804088160439641;-9.72143054352389e-05;-1.329984087575385e-05;8.879372024488405e-07;-8.879372024479182e-07;-0.0007246581660733331;0.0004326863148359438;0.00034637021999580074;-4.974870691499267e-05;0.0;0.0;0.0;0.00041962446938412744;0.00479186496730967
0.9800848960876465;-0.003183868784693542;-0.0021000301597769596;-0.0007744275359693005;-0.0018793007762712994;-0.004319644783288381;0.003424195911137211;1.5696007899211495e-22;1.3720743144292805e-22;1.5439092794277518e-18;-2.2401252130904953e-19;4.9891242676056593e-20;-1.737484009170742e-23;1.2772738924046665e-22;4.6669303522965646e-23;1.5414644738284666e-18;-2.2327327697208088e-19;4.9942626427145757e-20;4.748355225899883e-22;0.00018376030985359112;0.00018782593868564324;-5.607642680094243e-05;0.0013817359037960586;-0.0002555013848154291;-9.002730090894633e-05;-1.4914478316684302e-05;2.5850397560968015e-06;-2.5850397560950384e-06;-0.0007196916263949924;0.0007061129659812062;0.0002997687520047451;-4.2839471136957566e-05;0.0;0.0;0.0;0.0002820775594060191;0.005423952429363405
1.0000560283660889;-0.002686527941135601;-0.0025433149974696;-0.0007265314161115557;-0.0014341971640996118;-0.003647633956868735;0.003992747408920285;6.754965602629511e-23;1.690355304323311e-22;1.7329775957616969e-18;-2.469659938148118e-19;6.156268689534976e-20;-4.45578308741536e-23;1.2061290058554279e-22;-4.3881930264853756e-23;1.7321493768884623e-18;-2.4617837815473213e-19;6.17788982149111e-20;4.961861193301337e-22;0.00014381575280052728;0.00014672845552584577;1.5710486707159042e-06;0.001498211291967462;-0.0002467874296574758;-9.29301812326701e-05;-1.565554794750332e-05;4.084161612533652e-06;-4.084161612533085e-06;-0.0007016884126355319;0.0009371172065827584;0.00025612561432123397;-3.639513075690776e-05;0.0;0.0;0.0;0.00016576101760888264;0.005901639217007242
1.0200188159942627;-0.0021951853690531696;-0.003064505699751812;-0.0006870713600890446;-0.0005656763734542545;-0.0030238043651214927;0.004596614128104362;-4.78475266007191e-23;2.040162820553411e-22;1.9177542777127344e-18;-2.6824323960736075e-19;7.440357719085242e-20;-7.758557604352115e-23;1.0779107809009813e-22;-1.5720496007540895e-22;1.9190000840070812e-18;-2.6741922295916927e-19;7.482176104403839e-20;5.075618072959998e-22;0.00010836491264807014;0.00011029458353827288;5.4284266874793746e-05;0.0015708147368546888;-0.000254971656052408;-0.00010601831778016344;-1.532178996341743e-05;5.408046784662744e-06;-5.4080467846616784e-06;-0.0006731616769854923;0.0011228178805894604;0.00021577910555152036;-3.046040539499332e-05;0.0;0.0;0.0;6.914199461833284e-05;0.00620133149009051
1.0399928092956543;-0.0016390298412795822;-0.0034442536049793223;-0.0006225037069635924;0.0004503740932003003;-0.0023240812154644167;0.004965516292739955;-1.9266905299589747e-22;2.4192569207250037e-22;2.0914439299485977e-18;-2.8674502751008364e-19;8.83349484540266e-20;-1.1701511795371251e-22;8.812436922397234e-23;-2.959392713771784e-22;2.0952804056934493e-18;-2.8590089987050877e-19;8.89960321716865e-20;5.059422048020287e-22;7.716830612512223e-05;7.827285817490649e-05;9.964576705251917e-05;0.0016031479639871146;-0.0002806717449807424;-0.00012936790169035354;-1.3734615125793036e-05;6.601652336340527e-06;-6.60165233633981e-06;-0.0006364444468579453;0.0012631496746403057;0.00017893222751678672;-2.5060397825366414e-05;0.0;0.0;0.0;-9.470770647050632e-06;0.0062963495822244055
1.0600154399871826;-0.0009710098179563722;-0.003674398304243212;-0.0005235624753558401;0.0014122727057650163;-0.0014621854167065037;0.00512509887699749;-3.7060935028902554e-22;2.824258645782844e-22;2.2457993501971536e-18;-3.0115697312828766e-19;1.0323651332175829e-19;-1.634123617868613e-22;6.033220516261293e-23;-4.628650511539248e-22;2.2528065711368833e-18;-3.0031408169296023e-19;1.0418531771426327e-19;4.87823403956306e-22;4.992196086059897e-05;5.034570325307617e-05;0.00013651913462935745;0.001599625704922289;-0.00032445651021017054;-0.00016305805641239076;-1.0726251210488685e-05;7.727583111991912e-06;-7.727583111992305e-06;-0.0005936142431659206;0.0013600855766579087;0.0001456492273889808;-2.0200237434887608e-05;0.0;0.0;0.0;-7.18909244323665e-05;0.006155796032061013
1.0799946784973145;-0.0003297321349802115;-0.0037744167217580488;-0.00041712598833565595;0.0021748120277960163;-0.000621106858740852;0.005130783518380333;-5.839856675536923e-22;3.2471964785708336e-22;2.369962301787352e-18;-3.098535761882242e-19;1.1881951108906195e-19;-2.169349591534086e-22;2.32621162452165e-23;-6.593857649671371e-22;2.380758938466772e-18;-3.090389380946287e-19;1.2010226634650383e-19;4.494549032565249e-22;2.645037424033132e-05;2.632709083216637e-05;0.0001645503058397894;0.001565307421158111;-0.0003863784495648908;-0.0002068343400480738;-6.166341762981359e-06;8.853474138462253e-06;-8.853474138462102e-06;-0.0005468163040576154;0.0014165407539386097;0.0001160970866041586;-1.5900341370338166e-05;0.0;0.0;0.0;-0.00011962814643443313;0.005746679852986685
1.1000268459320068;0.0002857479712263019;-0.0038412630607345187;-0.0003121931432320793;0.002675241910400238;0.000208078607093278;0.005136499413642814;-8.366919885587532e-22;3.6817250223394623e-22;2.452535472983176e-18;-3.1106836617705397e-19;1.3485567927580458e-19;-2.780855274837411e-22;-2.4601776634983664e-23;-8.882698583078694e-22;2.467806486790357e-18;-3.103155172352619e-19;1.3652222806957145e-19;3.8640485355645803e-22;6.317734989770305e-06;5.764448726392479e-06;0.00018446360256159356;0.0015052972590944443;-0.0004667619600543384;-0.00026068877359408074;9.993257565263824e-08;1.0066015356752365e-05;-1.006601535675279e-05;-0.0004975393048431552;0.0014370960743688788;9.006293712562139e-05;-1.2126146361099456e-05;0.0;0.0;0.0;-0.0001547145758581471;0.005029441672107851
1.1200048923492432;0.0008419645700002748;-0.0037330857817328774;-0.00020140414016855463;0.002746733470153906;0.0009915524439102685;0.004965204528472489;-1.1297321108982017e-21;4.114598878461265e-22;2.4793019186070822e-18;-3.0275675095356476e-19;1.5086299295278755e-19;-3.4660222827320063e-22;-8.434314456596849e-23;-1.1495557917567339e-21;2.499746996044011e-18;-3.021058628824665e-19;1.5296206041265568e-19;2.944503511436827e-22;-1.069840545129558e-05;-1.1576510127989203e-05;0.00019733354486384144;0.0014251427519626231;-0.0005649009492145221;-0.0003239497866480748;6.361837127584675e-06;1.136625442998139e-05;-1.1366254429981037e-05;-0.00044750726286886663;0.0014264787850944568;6.754551252435674e-05;-8.874266778100885e-06;0.0;0.0;0.0;-0.00017871842920284454;0.003967199977954296
1.1400363445281982;0.0013471293168536443;-0.003455546423530668;-8.381184026430712e-05;0.0025415957286089837;0.001726370448562643;0.004596844113600374;-1.466381298486582e-21;4.534241877619518e-22;2.434613969699054e-18;-2.825788862935292e-19;1.6642203989436324e-19;-4.2269747637074136e-22;-1.5760938075468182e-22;-1.4452092805751669e-21;2.460987284859894e-18;-2.8207827681848025e-19;1.6900428862611082e-19;1.6820829910962903e-22;-2.5014288696644588e-05;-2.612760994909409e-05;0.00020485772548353451;0.001329450731197167;-0.0006806896549164571;-0.0003963698391794803;1.1013964107097155e-05;1.2706467921892312e-05;-1.2706467921892532e-05;-0.0003976747243118179;0.0013896934559419238;4.823084657035078e-05;-6.096518193439488e-06;0.0;0.0;0.0;-0.00019344852562572882;0.002818064436932927
1.1600027084350586;0.0018916567640191986;-0.0030447967371868756;5.350462725851828e-05;0.0023358331294208697;0.0025151365012381034;0.004033126520682248;-1.8454021669309877e-21;4.921118979166238e-22;2.3011558878638218e-18;-2.481459648214605e-19;1.8081978461477904e-19;-5.054849879444179e-22;-2.4520503838339147e-22;-1.773097204211406e-21;2.3341861618766118e-18;-2.478510793194626e-19;1.8393092604188814e-19;3.3686328498682075e-24;-3.685188403887281e-05;-3.812260972524611e-05;0.00020893394699119313;0.0012234743602664742;-0.0008123639476272061;-0.00047667655074567117;1.422875313517741e-05;1.3992086261941997e-05;-1.3992086261941503e-05;-0.0003493209134823653;0.0013319685970297748;3.2001655704681484e-05;-3.773556761875904e-06;0.0;0.0;0.0;-0.00020038392930433736;0.001823667965042296
1.1799888610839844;0.0024362893883262213;-0.0025497842968027124;0.00019882462460706987;0.0020583810888703514;0.0033096060059178197;0.0033590684928341587;-2.2678860738787485e-21;5.256293088938055e-22;2.0590633494266587e-18;-1.9661405536211776e-19;1.9336679555951014e-19;-5.945271446347792e-22;-3.485790656618118e-22;-2.132997544064078e-21;2.0994943891205086e-18;-1.96589490328011e-19;1.9705052550170535e-19;-2.0586359289799572e-22;-4.654709577443754e-05;-4.7910643125347045e-05;0.00021175970832622924;0.0011110799352057324;-0.0009588321618816259;-0.0005640348152455542;1.6185563027743946e-05;1.5112868536616576e-05;-1.5112868536616343e-05;-0.0003030076890681;0.001257917933892928;1.852425260472926e-05;-1.855441723168711e-06;0.0;0.0;0.0;-0.00020101439418821311;0.0008857337386081821
1.199993371963501;0.0029306786001237796;-0.0019668365894993664;0.0003433942307298935;0.0016255615210446807;0.004046126003739368;0.0025848476788613572;-2.732087557569966e-21;5.51499778151833e-22;1.6866209295643977e-18;-1.2499537427812085e-19;2.0315894877709378e-19;-6.886677992791439e-22;-4.686998804231155e-22;-2.522063550684419e-21;1.735161205518471e-18;-1.2531458973631856e-19;2.0745247118850527e-19;-4.64827956601124e-22;-5.433499246477133e-05;-5.5737925767094825e-05;0.0002156526556320351;0.0009961013544361168;-0.0011178924737625649;-0.0006569334901680807;1.700634855914151e-05;1.5982986789877903e-05;-1.598298678987772e-05;-0.0002593214105900503;0.001171960631206138;7.538162685482504e-06;-3.0330504484066416e-07;0.0;0.0;0.0;-0.00019661877655325531;-8.172042866895143e-05
1.220015287399292;0.003324247171509775;-0.0012928644814972296;0.00047836041879955097;0.0010107731333340365;0.004655216311125553;0.0017108744483811697;-3.2344489060847877e-21;5.668218786797063e-22;1.1604215178207653e-18;-3.0138500534055584e-20;2.0913586542112422e-19;-7.86274115669924e-22;-6.062601917071035e-22;-2.9357412547464764e-21;1.217711846607627e-18;-3.0883860008765163e-20;2.140669403694386e-19;-7.787121787215447e-22;-6.0410279587250926e-05;-6.180932561919051e-05;0.00022030954348902271;0.0008819372291251938;-0.0012865784536514476;-0.0007534096275205812;1.678154292688037e-05;1.6538392331353416e-05;-1.6538392331353226e-05;-0.0002186750243349307;0.0010781293692207357;-1.2253188194626703e-06;9.22374190889664e-07;0.0;0.0;0.0;-0.0001883403604399918;-0.0011585758125229359
1.240013837814331;0.0036036705450950704;-0.0006713860740441658;0.0005877358877232216;0.0003345950333879006;0.005108598837662935;0.0009252317719746432;-3.768120774543317e-21;5.682592022713781e-22;4.572553376679144e-19;9.094445625547587e-20;2.1007604554779876e-19;-8.849609109762127e-22;-7.612510648552619e-22;-3.366571538568895e-21;5.238108674217734e-19;8.968304982767242e-20;2.1565822129255271e-19;-1.1515350615060098e-21;-6.491393767126359e-05;-6.62750528498389e-05;0.00022324356407156716;0.0007717734773748427;-0.0014606744774912416;-0.0008507767322839467;1.5576064279311672e-05;1.6729930573916402e-05;-1.672993057391609e-05;-0.00018140093527097977;0.000980222312366602;-8.023804085642695e-06;1.8590778451636914e-06;0.0;0.0;0.0;-0.0001772099929795631;-0.002450950020269098
1.260019063949585;0.0035053459294828713;-0.0001686770002931981;0.0006175475306827204;-0.0004851150278869886;0.0050401020505985855;0.00034034630572967616;-4.325482028626262e-21;5.520710754743611e-22;-4.489778332639662e-19;2.4161683370778117e-19;2.04610026195584e-19;-9.820646892999553e-22;-9.33679456275705e-22;-3.806238321973796e-21;-3.727818409260904e-19;2.397409675562799e-19;2.1084098781356436e-19;-1.587843405144822e-21;-6.795607833689696e-05;-6.925332503544754e-05;0.00022289341360421554;0.0006679810661649665;-0.0016355480525525234;-0.0009460935321739223;1.3555697479379294e-05;1.6519639089601585e-05;-1.6519639089602855e-05;-0.00014756028247296825;0.0008812395455907308;-1.3138014021636152e-05;2.5469609161665983e-06;0.0;0.0;0.0;-0.0001640892817893624;-0.003784439823464276
1.2799932956695557;0.0031148656105439;0.00023615723762299896;0.000585264603512738;-0.0014048111963939403;0.004567011922545413;-8.24728802356868e-05;-4.894101763882109e-21;5.141244615046789e-22;-1.5817268977892388e-18;4.246700685469933e-19;1.9122157144487025e-19;-1.073904616773113e-21;-1.1223818970760672e-21;-4.2423219592068975e-21;-1.4957393437295076e-18;4.2207585147657565e-19;1.9807660318011071e-19;-2.089830624629778e-21;-6.95806738498226e-05;-7.079531823086321e-05;0.0002184081788032908;0.0005728980997874174;-0.0018048457933747453;-0.0010354366519779272;1.0973247564900191e-05;1.587521385967117e-05;-1.5875213859671416e-05;-0.00011722330993568741;0.0007840439193367262;-1.6817732128184072e-05;3.0213832827290054e-06;0.0;0.0;0.0;-0.00014974754158370991;-0.004988411588994747
1.2999992370605469;0.002616383056017786;0.0006514857896619177;0.0005344597250393083;-0.002431859178178101;0.003950378518169595;-0.0005007217782134757;-5.460966885841631e-21;4.496569240711791e-22;-2.9697730987056117e-18;6.43622931166682e-19;1.6816456975672204e-19;-1.156480542696196e-21;-1.3264005520219119e-21;-4.6615676790489216e-21;-2.874078432086203e-18;6.401988766874609e-19;1.7559473674983537e-19;-2.660949266823535e-21;-6.978386597663058e-05;-7.090295530893914e-05;0.00020945776169644281;0.00048804575420237253;-0.0019617672260348463;-0.0011174878098550501;8.006183533441567e-06;1.471642208416505e-05;-1.4716422084166945e-05;-9.021958198712808e-05;0.0006905728525291161;-1.931737009639536e-05;3.3176193099155836e-06;0.0;0.0;0.0;-0.00013476002012351285;-0.0059023442035573215
1.3200058937072754;0.00207672576333303;0.0010134936011462678;0.0004711758438936127;-0.0031807497548863987;0.003249084410400371;-0.000892583598514193;-6.006522699860583e-21;3.536597180041681e-22;-4.635500264749227e-18;9.00823047913278e-19;1.3359802344546964e-19;-1.224505534905701e-21;-1.5430142338325575e-21;-5.045306701160099e-21;-4.530532518890205e-18;8.964554236141286e-19;1.4152178716268388e-19;-3.3006887283579786e-21;-6.849611989622835e-05;-6.951190588693981e-05;0.000196143572900444;0.00041509826148566843;-0.002097283991844383;-0.001192052831729248;4.792781818310021e-06;1.2927396120345997e-05;-1.2927396120346489e-05;-6.645426642858445e-05;0.0006028115041731189;-2.0856671855302334e-05;3.465768157487514e-06;0.0;0.0;0.0;-0.000119655803603706;-0.006363852265933684
1.3400139808654785;0.0015783645011033963;0.0013085466067620038;0.0004090289085500075;-0.003688348673876036;0.002584315733296021;-0.0012311259599384165;-6.507779273212341e-21;2.207251480627948e-22;-6.600551879509429e-18;1.1983720818821618e-18;8.553283558280255e-20;-1.271926039621569e-21;-1.768736674671157e-21;-5.371870356508963e-21;-6.4871551052563594e-18;1.192946567846107e-18;9.383117496279856e-20;-4.007172554576387e-21;-6.559464042160257e-05;-6.650358076239298e-05;0.00017887514498042325;0.00035531019987420666;-0.0022010882366618975;-0.0012572214628978123;1.426789035398918e-06;1.0346254942857167e-05;-1.0346254942856979e-05;-4.572945750747623e-05;0.000522212888551446;-2.164436944567147e-05;3.4938660038941328e-06;0.0;0.0;0.0;-0.00010483985358421843;-0.006553310029441769
1.3600177764892578;0.0011080961420826454;0.001452030997454249;0.0003376168973950575;-0.0038613903903118255;0.0019296626029704034;-0.00140958773699926;-6.93685028464541e-21;4.522651829566991e-23;-8.882119514353223e-18;1.537542515743846e-18;2.1896259434293848e-20;-1.291713672925925e-21;-1.9987824101355753e-21;-5.61551745650374e-21;-8.761633206479184e-18;1.530948060686932e-18;3.040633388605855e-20;-4.775649785007481e-21;-6.090276288367066e-05;-6.170475684474843e-05;0.0001583029322803286;0.00030972203184366867;-0.0022611952197334156;-0.0013093261817296654;-2.028774282772309e-06;7.686987525666054e-06;-7.686987525666962e-06;-2.781559653818589e-05;0.000449914179403544;-2.1870604372514063e-05;3.4269634915959603e-06;0.0;0.0;0.0;-9.0630654471449e-05;-0.006650246364007402
1.380018949508667;0.0005849467943448618;0.0013615111720398487;0.0002344874932938145;-0.0037580941601260674;0.0011769014140221715;-0.0012962019224167839;-7.260915246252937e-21;-1.7866945383530623e-22;-1.149277141678631e-17;1.9187519419802797e-18;-5.946360402430853e-20;-1.2758624502045e-21;-2.227048353802788e-21;-5.746411058918358e-21;-1.1367116570709169e-17;1.91088470938118e-18;-5.0954815604120716e-20;-5.598435352878665e-21;-5.419042358472581e-05;-5.4888055398096626e-05;0.00013524698154100795;0.0002791483106639021;-0.0022639363674265196;-0.0013430850403965274;-5.441858394130458e-06;5.673440201921653e-06;-5.673440201921711e-06;-1.2451164034932989e-05;0.00038671934224638;-2.1707050879783894e-05;3.287147658687735e-06;0.0;0.0;0.0;-7.726090280272143e-05;-0.0068010374326879465
1.4000191688537598;5.348922450991177e-05;0.0010461659380041192;0.00010856789158724032;-0.0032311047797784613;0.00037505968919744327;-0.0009318641145129964;-7.44165894812138e-21;-4.568378461930686e-22;-1.4438098139304243e-17;2.341208212182458e-18;-1.6071817029575505e-19;-1.2153412122095033e-21;-2.4458517211532068e-21;-5.7302626702201264e-21;-1.430987270128828e-17;2.3319767783555538e-18;-1.5248062095189313e-19;-6.4640771742578866e-21;-4.517819462042594e-05;-4.577610057238177e-05;0.00011065892333410661;0.0002642284504883952;-0.002193850417006882;-0.0013516505239520589;-8.620724009415468e-06;4.071727481494617e-06;-4.071727481495095e-06;6.362698108663442e-07;0.0003331698791052371;-2.1306462433815167e-05;3.0935756659095775e-06;0.0;0.0;0.0;-6.489404451682299e-05;-0.007123913420846654
1.4200177192687988;-0.0005528902694132604;0.0005963192263899989;-4.362335245310771e-05;-0.002531149621507886;-0.0005478824764611268;-0.0004023684695953639;-7.435008252838898e-21;-7.949777026959401e-22;-1.771424285635593e-17;2.8025506007943047e-18;-2.8397918368038113e-19;-1.1001186049948948e-21;-2.645723184952638e-21;-5.528246855628341e-21;-1.7586821298065744e-17;2.791882340184523e-18;-2.7634644526503145e-19;-7.356592486659041e-21;-3.354417649676991e-05;-3.404850649460227e-05;8.559587296035114e-05;0.0002654377992046312;-0.0020336977289059296;-0.0013292569076334398;-1.1415896549292336e-05;2.629572042565253e-06;-2.62957204256575e-06;1.1718759055635045e-05;0.0002895828374738485;-2.0803231968600135e-05;2.8626632662129903e-06;0.0;0.0;0.0;-5.36358224999829e-05;-0.007407430058027969
1.44000244140625;-0.0010972266386760415;-3.24373156071113e-07;-0.0001984955580784723;-0.0016075719782176591;-0.0014016584034916382;0.00030089939746429973;-7.191283404445286e-21;-1.1981572198025987e-21;-2.130368591753837e-17;3.298262076481755e-18;-4.311328089660634e-19;-9.19344271437671e-22;-2.8151795905927605e-21;-5.097387647929073e-21;-2.1181315258921418e-17;3.286111340349828e-18;-4.2450777252946166e-19;-8.254367796402616e-21;-1.8940254920223336e-05;-1.9358246500361105e-05;6.121173805004482e-05;0.0002830679606705232;-0.0017647225664904867;-0.0012708699978553396;-1.3708259187220851e-05;1.135689626342158e-06;-1.1356896263420603e-06;2.1056480845245663e-05;0.00025608635529281653;-2.0314185376710217e-05;2.6084076348505933e-06;0.0;0.0;0.0;-4.3547370601493214e-05;-0.0074450280903040995
1.4600131511688232;-0.0015099035534291319;-0.0006366377202169173;-0.00033332451963932156;-0.0003453360350876941;-0.002100143712039891;0.00099935079427424;-6.653907053052496e-21;-1.671956240638872e-21;-2.5184609712073004e-17;3.822935603427909e-18;-6.042570939111181e-19;-6.607261196523461e-22;-2.9410288472007278e-21;-4.38885394221056e-21;-2.5072530275825533e-17;3.809288284974075e-18;-5.991212551681986e-19;-9.132279262513117e-21;-9.489105775348997e-07;-1.288277332747535e-06;3.867085889317114e-05;0.0003173049335988195;-0.0013864272050016682;-0.0011690434905581941;-1.5405945934217727e-05;-5.92192137905557e-07;5.921921379055491e-07;2.8916933429305125e-05;0.00023255561448463075;-1.9937775172794327e-05;2.3417589727788917e-06;0.0;0.0;0.0;-3.462405504790164e-05;-0.0073728768337291434
1.4800069332122803;-0.0018696331266070583;-0.0012030144086998523;-0.0004519568455134125;0.0009867911425203008;-0.002731235911021649;0.0015822315675374787;-5.762397807696449e-21;-2.2191578496410244e-21;-2.930277946232177e-17;4.366435512208705e-18;-8.044136772677465e-19;-3.121965522607869e-22;-3.007269556074458e-21;-3.3522955923481772e-21;-2.920728693723326e-17;4.351324804431313e-18;-8.013269455624686e-19;-9.955026934282794e-21;2.0793540449514726e-05;2.0524600666833583e-05;1.9297959454041588e-05;0.00036802579971515045;-0.0009351690878983402;-0.0010173532959559927;-1.6423634240689256e-05;-2.7016588709855457e-06;2.701658870985591e-06;3.55112514512574e-05;0.00021881751519151236;-1.9757428240935393e-05;2.0725960857060324e-06;0.0;0.0;0.0;-2.6866697021247754e-05;-0.007069467277593367
1.499983310699463;-0.0020493509804967256;-0.00151072164823261;-0.0005135964380023303;0.002309357596109261;-0.0031096950750584234;0.0017873934698133193;-4.4511163906083494e-21;-2.8419751378843692e-21;-3.3591491877790605e-17;4.916656612087903e-18;-1.0324604542186763e-18;1.3906898005627229e-22;-2.996053862436018e-21;-1.9335380890701352e-21;-3.3520025677376545e-17;4.900170487605938e-18;-1.0320664149625785e-18;-1.0682158309996169e-20;4.6676954340212946e-05;4.647022098778667e-05;4.420277300125232e-06;0.0004348974382237889;-0.000454958772227291;-0.0008097691194607296;-1.6599897129604574e-05;-5.318777789871021e-06;5.318777789872564e-06;4.1044829380725226e-05;0.00021446518172148595;-1.9838802728188573e-05;1.808319365388818e-06;0.0;0.0;0.0;-2.022678983461013e-05;-0.006443003926412116
1.520035743713379;-0.0021603740726790694;-0.001707779237700114;-0.0005523425085927171;0.003406974894861012;-0.0033705321934730395;0.0018721209221233249;-2.6405419846226634e-21;-3.544314085562625e-21;-3.7981836845618246e-17;5.4606103817656064e-18;-1.2898832253779695e-18;7.090201358357329e-22;-2.886490453307569e-21;-6.623762659000068e-23;-3.794322447912429e-17;5.442897949441537e-18;-1.2929289976098489e-18;-1.1267915925313875e-20;7.722659229954148e-05;7.707427163279026e-05;-4.6087741676609676e-06;0.0005177378460852494;2.293670638994346e-05;-0.0005560225434335017;-1.569736267275263e-05;-8.564606631930324e-06;8.564606631930732e-06;4.571135105897311e-05;0.0002189869541608063;-2.0233854983847983e-05;1.5534436350891505e-06;0.0;0.0;0.0;-1.4611382979022962e-05;-0.005681922538211008
1.5402092933654785;-0.002298033032408576;-0.0018372103485258529;-0.0005894913008457423;0.004138535650082573;-0.003635006428539355;0.0019258675069150403;-2.435079517161817e-22;-4.327257468460926e-21;-4.236720213046276e-17;5.979680716228294e-18;-1.577144663453151e-18;1.4140616959221255e-21;-2.6537702057141902e-21;2.3204681205294587e-21;-4.237178615399921e-17;5.960971753136734e-18;-1.5844852094735993e-18;-1.1653655293057938e-20;0.00011293043592732671;0.00011282507774290528;-6.246322516493171e-06;0.0006160573748404209;0.0004739016275184555;-0.0002800306207926944;-1.3492798512095175e-05;-1.1627374788397498e-05;1.1627374788397526e-05;4.9646945271622274e-05;0.0002318348371809345;-2.09826985272786e-05;1.3118386248249652e-06;0.0;0.0;0.0;-9.940105619213021e-06;-0.004933011730699126
1.5601422786712646;-0.0023376545917799638;-0.0019686406004648716;-0.0006091033381634851;0.004698948865086081;-0.0037433127998666065;0.0020143689579312785;2.7682057344765014e-21;-5.1716734827008074e-21;-4.652379817091964e-17;6.441171521085964e-18;-1.88729301995476e-18;2.2529364910108144e-21;-2.2782334706170132e-21;5.2381900432556715e-21;-4.6582371967868917e-17;6.421805079957989e-18;-1.8997838348578307e-18;-1.1768696562821885e-20;0.0001533875259185045;0.00015332136084701524;9.699053801084188e-07;0.0007266719080131375;0.0008740783349928357;-6.55560702489619e-06;-9.859553421209989e-06;-1.3656257184363925e-05;1.3656257184364442e-05;5.288573118905965e-05;0.00025187258472660865;-2.208638325295387e-05;1.090642799969611e-06;0.0;0.0;0.0;-6.195238597843067e-06;-0.004027934863289786
1.5799870491027832;-0.0022347150139436518;-0.002051509025233384;-0.0005983492728497308;0.005080821473805605;-0.0036322738392053624;0.002064764323491766;6.4776949048840056e-21;-6.074481856185481e-21;-5.031003828979032e-17;6.821706562716283e-18;-2.2192703141887934e-18;3.239896713028011e-21;-1.733775277227264e-21;8.752089334419414e-21;-5.043483116246625e-17;6.802116151105288e-18;-2.2378624424416057e-18;-1.154622211654255e-20;0.00019897191459350953;0.00019893818488813858;1.558007974521729e-05;0.0008483404954366668;0.001218717643188621;0.00025089961143514417;-4.647745593628024e-06;-1.4808797735830865e-05;1.4808797735831585e-05;5.552538497387135e-05;0.00027807687729503115;-2.354514051976341e-05;8.89591871647004e-07;0.0;0.0;0.0;-3.2269257357941216e-06;-0.0027991501397580487
1.5999810695648193;-0.00200913816113925;-0.002107395316636061;-0.0005628688569791712;0.005224980716602913;-0.0033241262935088892;0.0021197237238607313;1.1007075124698277e-20;-7.034821625110781e-21;-5.3553463365385937e-17;7.091950685956327e-18;-2.572857964001791e-18;4.397122878323262e-21;-9.842202425566194e-22;1.2960057201005163e-20;-5.3758822270185984e-17;7.072692972862024e-18;-2.598649336112257e-18;-1.089776496442644e-20;0.00025032665603111484;0.00025031955403790744;3.416452370549934e-05;0.0009802347466423473;0.0015080833911299337;0.00048558534095989017;2.3556066573098614e-06;-1.5193089346970198e-05;1.519308934696988e-05;5.7609310694455945e-05;0.0003095972103549018;-2.5361223208810125e-05;7.073591365425302e-07;0.0;0.0;0.0;-8.977125574696604e-07;-0.0013748954085235918
1.6200933456420898;-0.0016130516184763447;-0.0021071234934922274;-0.0004912512485204677;0.005215082704845165;-0.0027593787489223484;0.002120803935954438;1.6435123741136155e-20;-8.035317962350135e-21;-5.597941593118278e-17;7.209955731335538e-18;-2.9417840929562195e-18;5.733253326240872e-21;3.806961090703052e-24;1.791546180854616e-20;-5.628101968917886e-17;7.191738630688171e-18;-2.975937714464744e-18;-9.721626545718948e-21;0.00030739595095108835;0.000307410130928987;5.4100469851489753e-05;0.0011193084896798976;0.0017409498885958554;0.0006914846895940652;9.472571352355139e-06;-1.4968336933164945e-05;1.496833693316515e-05;5.909210681896559e-05;0.0003450713975588249;-2.7502823280028913e-05;5.449063315891621e-07;0.0;0.0;0.0;8.842759511516228e-07;0.0001359564798842336
1.640176773071289;-0.0011648620874556291;-0.0021001625784620344;-0.0004095689153598861;0.004974717397205297;-0.0020982571540399874;0.0021549194668507307;2.2788837694029127e-20;-9.046357921213355e-21;-5.726392401641768e-17;7.128960095475884e-18;-3.315275502784468e-18;7.243272264798135e-21;1.2558643166137134e-21;2.3622832894494386e-20;-5.767785970888119e-17;7.112644338400173e-18;-3.3589349291430603e-18;-7.920179884178165e-21;0.0003695122505530714;0.0003695428050296812;7.336777236905424e-05;0.0012607813403469016;0.0019184726266975583;0.000865327380203123;1.496758565717158e-05;-1.4366300802460007e-05;1.4366300802459934e-05;5.988142505815644e-05;0.00038260961296691226;-2.990000240939527e-05;4.032472479135421e-07;0.0;0.0;0.0;2.2115640523795213e-06;0.0016405589678335382
1.6600356101989746;-0.0006885723967967584;-0.0020585635087385853;-0.000319511949504085;0.0044229977658071405;-0.0013675934848043213;0.0021961465949813293;3.0035449813108135e-20;-1.0029430262677864e-20;-5.707687627138568e-17;6.803801405463901e-18;-3.679268849459363e-18;8.908166644845686e-21;2.785367648122546e-21;3.00333714639311e-20;-5.761858387208569e-17;6.790380044830182e-18;-3.733469852348909e-18;-5.414365827123072e-21;0.00043545035854401976;0.00043549292094497105;9.055100339050087e-05;0.0013986134194788886;0.0020450299093687425;0.0010071205657527357;1.8954009807682425e-05;-1.3569808348334594e-05;1.3569808348334719e-05;5.9859551959786624e-05;0.0004199155240347349;-3.244743083297578e-05;2.8262338701495577e-07;0.0;0.0;0.0;3.1862631816975173e-06;0.0030649203820148066
1.6802349090576172;-0.00011996883090430593;-0.001970108340651012;-0.0002083164017790189;0.003734766865120684;-0.0004931839421238107;0.0021939227390215966;3.8419275347227736e-20;-1.0975784160316119e-20;-5.5004954591829577e-17;6.1661681789080494e-18;-4.03076492136504e-18;1.0769943280667525e-20;4.668887374061906e-21;3.7338839794415627e-20;-5.569409653170726e-17;6.156910675304661e-18;-4.0968247425970106e-18;-2.008540789416581e-21;0.0005062888397831219;0.0005063399508916337;0.0001053358805009472;0.0015309457710472154;0.002130205663009807;0.0011206866173564328;2.164136101534755e-05;-1.2676960409128257e-05;1.2676960409128211e-05;5.884324991112042e-05;0.00045580186746470676;-3.5115524463641304e-05;1.786599452660238e-07;0.0;0.0;0.0;3.940959143055992e-06;0.004404670035110313
1.7001709938049316;0.0004588893666626;-0.00169043417970112;-7.714830756104914e-05;0.003085472318613115;0.00038850159252383585;0.0019038845348918615;4.770062783548993e-20;-1.1813290199893284e-20;-5.0669492874106226e-17;5.172588569501312e-18;-4.34328477270623e-18;1.2760179544260825e-20;6.879476979573166e-21;4.5304166394304424e-20;-5.152142479100873e-17;5.168837738472288e-18;-4.422102076792072e-18;2.3195233216820556e-21;0.0005787725351419586;0.0005788290131056847;0.0001168617388271878;0.001647064723497524;0.0021780129229007216;0.0012014106380668975;2.3016983746136114e-05;-1.1790418476130309e-05;1.1790418476130016e-05;5.6638638418375804e-05;0.00048666494283761054;-3.7698366599886296e-05;9.32534552086306e-08;0.0;0.0;0.0;4.554217384809366e-06;0.005587884693095541
1.7200524806976318;0.0009110853678360308;-0.001164543318912022;5.4442132789651486e-05;0.0023102905318996736;0.001097525279252746;0.001276234013986389;5.792739985918917e-20;-1.2500882643147672e-20;-4.3607174630148147e-17;3.755805397742065e-18;-4.60189683070926e-18;1.4873843564516623e-20;9.45563204303903e-21;5.3944056425772614e-20;-4.463799976380663e-17;3.759126203517683e-18;-4.69435601508371e-18;7.71258894712201e-21;0.0006520415900603735;0.0006521008960339628;0.00012518971229542964;0.0017406217709888918;0.002196707687697999;0.001251685921968283;2.317149770921762e-05;-1.0941228441866012e-05;1.0941228441866415e-05;5.2986332859034305e-05;0.0005100640327557683;-4.0069990421981006e-05;2.3632832551828386e-08;0.0;0.0;0.0;5.13484045900942e-06;0.006607249332520388
1.7401726245880127;0.0012460784385792995;-0.0003900254878016643;0.00018839754757310907;0.0011751329625528063;0.001669981355892712;0.0003510458058470667;6.92000820034129e-20;-1.2984176732246204e-20;-3.315460760156376e-17;1.818201530440849e-18;-4.78685561334826e-18;1.7111091846576036e-20;1.2459157652836317e-20;6.330784858948703e-20;-3.438206255356955e-17;1.8304894030996453e-18;-4.893867225422548e-18;1.438587958826836e-20;0.0007267098429150587;0.0007267699225001101;0.00013046491111987042;0.0018033272910915959;0.0021929051237264837;0.0012739619756622382;2.2107918859235766e-05;-1.0126967979248664e-05;1.0126967979247946e-05;4.7497172638846865e-05;0.0005229333789150765;-4.2075477713806765e-05;-3.258788872495929e-08;0.0;0.0;0.0;5.788263045339328e-06;0.0074574280903923875
1.7602534294128418;0.0013357370063265465;0.00044430123899086434;0.00028366248397409367;-0.00026432845661536323;0.0019216116999576111;-0.000604815001115402;8.126671037336934e-20;-1.31811870085333e-20;-1.885387067347358e-17;-6.943558577868316e-19;-4.868079958773329e-18;1.9397919738665827e-20;1.5865404331812675e-20;7.314484698688595e-20;-2.0291152101477363e-17;-6.7110207621354285e-19;-4.9901036547186145e-18;2.2379110288785277e-20;0.0008020182525490887;0.0008020774384597342;0.0001327721717015424;0.001826101675617586;0.002172472585438025;0.001270466962319536;1.9972928347460203e-05;-9.361845321336586e-06;9.361845321336928e-06;3.9864384422482524e-05;0.0005212372275426467;-4.346304953820636e-05;-7.601439151006234e-08;0.0;0.0;0.0;6.599171862903448e-06;0.008108535125067037
1.7799811363220215;0.0012918912560377404;0.001325356066271275;0.00035922886837898706;-0.0018130502727061659;0.00199289705497739;-0.0016086758211136204;9.375431596752594e-20;-1.3016965987906838e-20;-4.780202589319529e-19;-3.798464841391958e-18;-4.817959742516482e-18;2.1640428915429883e-20;1.9610184853962308e-20;8.311095170612509e-20;-2.1316990715380805e-18;-3.762291338130054e-18;-4.954869651536199e-18;3.162792293808041e-20;0.0008759538046761555;0.0008760108626988195;0.0001324475377091464;0.0018031709987781396;0.0021414332731237926;0.0012453481642549684;1.7079040879132816e-05;-8.651904242231775e-06;8.651904242231687e-06;2.9887126936201432e-05;0.0005043315031614355;-4.3984173372274644e-05;-1.0786801569739865e-07;0.0;0.0;0.0;7.635886051117347e-06;0.008541585468065651
1.8001720905303955;0.0012002470069096384;0.002265800098763445;0.00043179615279927337;-0.003327173735715919;0.001991600568610888;-0.0027060329302088723;1.0695234765043584e-19;-1.238768416635203e-20;2.3370614981788075e-17;-7.702995643543498e-18;-4.598873698076143e-18;2.3856876983730788e-20;2.3839996321127447e-20;9.337899408678132e-20;2.1489155670957813e-17;-7.651222197276463e-18;-4.750712480796961e-18;4.2612092559121754e-20;0.000949650727112712;0.0009497046626716253;0.00012980717513640065;0.0017238849243953285;0.0021028941771553946;0.0012010801789579114;1.348166088630729e-05;-7.971650584048807e-06;7.971650584048587e-06;1.6701148423754503e-05;0.0004723208232919684;-4.3363690746258373e-05;-1.309126095687853e-07;0.0;0.0;0.0;9.027065667739811e-06;0.008756406772238578
1.8200628757476807;0.000956357773959449;0.00308061308590089;0.0004649230971803737;-0.004752833353449139;0.00176728621902527;-0.003635304757528799;1.200678925874251e-19;-1.1210274852412055e-20;5.24335518608482e-17;-1.2338832790007347e-17;-4.179924604570666e-18;2.5873353472378657e-20;2.8372860730867796e-20;1.0326179169361789e-19;5.032685965738112e-17;-1.2269200454792665e-17;-4.345624714238686e-18;5.499243071570919e-20;0.0010174066615424508;0.0010174568702492589;0.00012528691529525255;0.0015818952286715316;0.0020615369753285285;0.0011427011878651356;9.424871365561123e-06;-7.356463241569559e-06;7.356463241569782e-06;3.28524467488762e-07;0.0004257602661988692;-4.1296015252334164e-05;-1.4557071528582303e-07;0.0;0.0;0.0;1.0799267965904047e-05;0.008723785348338379
1.8401978015899658;0.0007495734654513473;0.0038378904054935945;0.0004993092976722295;-0.006023114574744578;0.0015816796832546151;-0.004509150122827298;1.3306628907051044e-19;-9.340922955765165e-21;8.806139927242197e-17;-1.789485107809443e-17;-3.508663190190234e-18;2.763499510623575e-20;3.328448965412284e-20;1.1264777588973404e-19;8.57329161688292e-17;-1.7804520955407944e-17;-3.6868611601244046e-18;6.912606921738193e-20;0.0010770772774193786;0.0010771233036957846;0.00011914648236363119;0.001370550794858225;0.002018476703982268;0.0010722135905857201;4.868388023048188e-06;-6.761189475546944e-06;6.7611894755463996e-06;-2.013025279428651e-05;0.00036480748670039074;-3.737228599373354e-05;-1.5362383995237637e-07;0.0;0.0;0.0;1.3069192313722013e-05;0.008421511261504519
1.8600358963012695;0.0005339203951675419;0.004398282422080995;0.0005134126647756609;-0.007073386004439542;0.0013656899570896914;-0.005135089844273879;1.4512411352647255e-19;-6.713235096322126e-21;1.297926908810114e-16;-2.4272076158572953e-17;-2.560246049090387e-18;2.896789822056217e-20;3.837404378591795e-20;1.2083487784528925e-19;1.2726028517881344e-16;-2.415873164837337e-17;-2.748460549984172e-18;8.460804638968069e-20;0.0011221743105399595;0.0011222160144217608;0.00011190725544639628;0.001100489390843314;0.0019758495364228866;0.000994743826635062;-3.568849876509302e-08;-6.144150721007349e-06;6.1441507210077375e-06;-4.456221275724126e-05;0.00029392349491047054;-3.1325160120257794e-05;-1.560779670794221e-07;0.0;0.0;0.0;1.583332579037612e-05;0.007833052690416549
1.8800153732299805;0.00024308271214721114;0.0047705810712034055;0.0004960683100363812;-0.007916051800494518;0.0010259626757129193;-0.005523586602358098;1.5592877306810425e-19;-3.1499774876581242e-21;1.789292290734436e-16;-3.164104579821587e-17;-1.2698256287150915e-18;2.975479013684597e-20;4.365601563657695e-20;1.2746815615451132e-19;1.762165552052045e-16;-3.1501919649136905e-17;-1.4648826699952401e-18;1.0168801736695386e-19;0.0011478219169085498;0.0011478592336748527;0.00010375395439637334;0.0007774529014438615;0.0019324530741630368;0.0009115976696240509;-5.1829224784287016e-06;-5.415307074884348e-06;5.415307074883676e-06;-7.389948752258952e-05;0.00021529680872446863;-2.263153662991116e-05;-1.541467573694251e-07;0.0;0.0;0.0;1.919637823677139e-05;0.006918376650236254
1.9000182151794434;-0.00019323694752280696;0.005034965990635326;0.0004421720564188493;-0.008605002603439348;0.0004661874911871626;-0.005782094895349244;1.6469878950009955e-19;1.4725377092706675e-21;2.3562253687859864e-16;-3.999088686928126e-17;4.082932401364688e-19;2.981016970282787e-20;4.897601057562794e-20;1.318460169521171e-19;2.3276706424383533e-16;-3.982344852741662e-17;2.10735645719109e-19;1.2014264643864432e-19;0.0011478356963290984;0.001147868721936726;9.502232332815384e-05;0.00041610312444234784;0.0018869974528333852;0.0008257712289141789;-1.0188174263994072e-05;-4.4855978355626e-06;4.485597835562687e-06;-0.00010843356935424447;0.00013359391778441075;-1.0871698816312113e-05;-1.4875890391095686e-07;0.0;0.0;0.0;2.318284523178426e-05;0.0056140700034819305
1.9200317859649658;-0.0006570036201275042;0.005080288670448532;0.0003625138146913697;-0.00881103968613585;-0.00017556742616834742;-0.005809077261353588;1.7059721995045307e-19;7.290180037167782e-21;3.000679530105108e-16;-4.9314612975102224e-17;2.5242893612863844e-18;2.893422269411171e-20;5.4170707055187155e-20;1.3321509220660555e-19;2.971219534084388e-16;-4.911657085747609e-17;2.329830100723624e-18;1.3974177648742435e-19;0.0011163489684505841;0.0011163779078049844;8.59792639737559e-05;3.95487893620028e-05;0.001836660088119994;0.0007395196766538311;-1.4773320027292907e-05;-3.249949712751349e-06;3.249949712750823e-06;-0.00014850395462792724;5.106048519319916e-05;4.412263490307157e-06;-1.4076275816305164e-07;0.0;0.0;0.0;2.7813783435419592e-05;0.004128495471200856
1.940157413482666;-0.001025397598452656;0.004926564944072555;0.0002811989224506412;-0.008659012982283248;-0.00071267677982581;-0.005610865203843041;1.7266125072374228e-19;1.447952627858586e-20;3.7268715245178725e-16;-5.963193894572727e-17;5.143277966568497e-18;2.6890249262684333e-20;5.906432082731823e-20;1.3069692153773916e-19;3.697199675436993e-16;-5.940118984422378e-17;4.9589976332959534e-18;1.602744288180452e-19;0.0010456021760592011;0.0010456272958281887;7.680330125799083e-05;-0.00032617127839850807;0.0017769425460628088;0.0006542621551320183;-1.874453325792751e-05;-1.665142346590114e-06;1.6651423465908595e-06;-0.00019462839553461246;-2.96213633381971e-05;2.380056222205122e-05;-1.308380895939207e-07;0.0;0.0;0.0;3.3122094775061706e-05;0.002634545809325537
1.9599764347076416;-0.0012146214190048798;0.004751875762524752;0.0002302832707004862;-0.008111409195252287;-0.0010328693258506783;-0.005455886134082953;1.6983039824176647e-19;2.299834080034938e-20;4.516447678181563e-16;-7.064052967545364e-17;8.250690854130445e-18;2.3497346429538863e-20;6.332195014170145e-20;1.234616072613171e-19;4.487440587596751e-16;-7.037618831454139e-17;8.084884298269622e-18;1.8088010507198038e-19;0.0009292253645292592;0.0009292470624372325;6.787042086621932e-05;-0.0006551049777399909;0.0017038463265887744;0.000573214156534783;-2.1866678870426698e-05;2.068571816727109e-07;-2.068571816734152e-07;-0.0002459034873390008;-0.00010303886454033163;4.7285836998372635e-05;-1.1983415060152556e-07;0.0;0.0;0.0;3.896956685496126e-05;0.0010223929298777009
1.9799976348876953;-0.0013724235401946093;0.004535816254057752;0.00018112207297731102;-0.007496436125401571;-0.001314119504904488;-0.0052527989182597126;1.6083987183524181e-19;3.3171400491890056e-20;5.38396475045213e-16;-8.249334163054564e-17;1.1965899421620494e-17;1.84132833996939e-20;6.676807512812588e-20;1.1030118669336245e-19;5.35672515625167e-16;-8.21943739997823e-17;1.1828971722783555e-17;2.0152793682844167e-19;0.0007652676352134825;0.0007652862552853022;5.910175498624132e-05;-0.0009441115658028813;0.0016088462448945085;0.0004954348480808817;-2.4094143796099614e-05;2.3296421086782984e-06;-2.3296421086792395e-06;-0.0003035872588391599;-0.00016917169167671056;7.587967770825042e-05;-1.0800235485128156e-07;0.0;0.0;0.0;4.5456321552601874e-05;-0.0008746815836858123
2.000013589859009;-0.0015078562327904936;0.004282852374170046;0.0001325045286019067;-0.006833096955062873;-0.001567522119602005;-0.0050046046271555195;1.443336209542334e-19;4.5015032370391984e-20;6.312786793026714e-16;-9.490005560657424e-17;1.6295912759896512e-17;1.1383025689606527e-20;6.901643154990449e-20;9.01135564047655e-20;6.288653118236816e-16;-9.456668485964766e-17;1.619994580073476e-17;2.213042187957195e-19;0.0005656686537653911;0.0005656845970094436;5.070914434317993e-05;-0.0011831975798915239;0.0014877444986109536;0.00042265128867310995;-2.521545323360687e-05;4.55498303198863e-06;-4.554983031988623e-06;-0.0003669619869789468;-0.0002267415610308252;0.00010976124715022456;-9.588254366582147e-08;0.0;0.0;0.0;5.244794714796705e-05;-0.002841119965983412
2.020035743713379;-0.0017179011670506708;0.004149060397469472;8.169184875996741e-05;-0.006402480991265136;-0.0019068182734175085;-0.0048876921502606025;1.188122554300449e-19;5.860844461059056e-20;7.290460711650067e-16;-1.0762337941783837e-16;2.1270772659812713e-17;2.103963123904333e-21;6.96764252334565e-20;6.164454946566836e-20;7.271033222356125e-16;-1.0725695772087084e-16;2.1229810293529894e-17;2.3936093112170238e-19;0.00033922098505233657;0.0003392346556983506;4.277489908642914e-05;-0.0013702073909564435;0.0013369173457651814;0.00035541865947939804;-2.5015807442596817e-05;6.778532505908443e-06;-6.7785325059076196e-06;-0.0004356149327783498;-0.000276434645460997;0.00014929406749830494;-8.38115887994173e-08;0.0;0.0;0.0;5.983632629722279e-05;-0.004378552536772312
2.040163040161133;-0.0019002445974855213;0.003929621640167835;2.776531062418185e-05;-0.005963024977163918;-0.002205835337560319;-0.0046468305284266525;8.245674106057955e-20;7.407002649090249e-20;8.30404465047841e-16;-1.2040595406718377e-16;2.69350521899576e-17;-9.798542263864374e-21;6.828750069112723e-20;2.335966567261972e-20;8.291241730162296e-16;-1.2000910811818953e-16;2.6965557843830778e-17;2.5472842837509657e-19;9.78832254530061e-05;9.789501180186371e-05;3.5324338472171544e-05;-0.0015063577754264713;0.0011579791722444055;0.0002938178091656072;-2.3293768222859376e-05;8.922716395568414e-06;-8.92271639556992e-06;-0.0005091806764651564;-0.0003199495861491507;0.00019497872015649916;-7.200057934895115e-08;0.0;0.0;0.0;6.75059518019179e-05;-0.005322483019689846
2.0601871013641357;-0.0020292171435732954;0.0036481387670373915;-2.2389041580580103e-05;-0.00539597345300628;-0.0024400340688336126;-0.0043388431179350265;3.39455724572077e-20;9.12293145516706e-20;9.319219880068802e-16;-1.3270973015635092e-16;3.3227646242607934e-17;-2.451019459530786e-20;6.436199887545482e-20;-2.5706729819755116e-20;9.315185798730124e-16;-1.322871073225437e-16;3.3347388528341676e-17;2.6602176175847214e-19;-0.0001377887555300802;-0.00013777846456280518;2.847161239906455e-05;-0.001593078080536416;0.0009658154037583689;0.00023865113750225913;-1.9898179595593387e-05;1.0915293703379564e-05;-1.0915293703377882e-05;-0.0005858086193056434;-0.0003563107549696892;0.00024647909762606123;-6.077319854120002e-08;0.0;0.0;0.0;7.517581733906283e-05;-0.005797489622793373
2.0802154541015625;-0.0019510753355829742;0.003403332870941216;-3.161666487946237e-05;-0.0048616639999780106;-0.0023769269529141015;-0.00407917588093302;-2.865380624325978e-20;1.1009534085697765e-19;1.0310894854531933e-15;-1.4410147575585644e-16;4.015335448293308e-17;-4.238965307654611e-20;5.734094425071628e-20;-8.711700424955917e-20;1.0318109475590365e-15;-1.4365957580013213e-16;4.038246656077669e-17;2.7190100363877295e-19;-0.0003555904524702081;-0.0003555813072495159;2.2193417460573213e-05;-0.0016354696547863014;0.0007727409347940162;0.00018957453700086592;-1.4667411931449396e-05;1.2745981999414243e-05;-1.2745981999415202e-05;-0.0006643868477095231;-0.00038350802914114047;0.0003040069591616942;-5.0209620994344175e-08;0.0;0.0;0.0;8.263099722637052e-05;-0.00592181843951738
2.0999817848205566;-0.0017186014667779162;0.003137161217205939;-1.4952212993938921e-05;-0.0043467068729495;-0.0020917534430550024;-0.0037850420567209246;-1.0598414052801412e-19;1.3024521320846177e-19;1.1229347939417693e-15;-1.5385409850459316e-16;4.7558529225110896e-17;-6.341261903323444e-20;4.6784238400961193e-20;-1.6114308776782457e-19;1.1250394069507617e-15;-1.5340185519298986e-16;4.791717908115238e-17;2.7079045107527046e-19;-0.000544557746824644;-0.0005445494250040281;1.6564275427535376e-05;-0.0016388434005546574;0.0005916755323339093;0.00014698930169050823;-7.564031833530959e-06;1.43915757077716e-05;-1.439157570777175e-05;-0.0007419164350463203;-0.0004002928273359403;0.00036647014255663976;-4.0531237964893823e-08;0.0;0.0;0.0;8.946851393222622e-05;-0.005791182218375985
2.1200387477874756;-0.0014250154218232566;0.002887477060480698;1.4339565073815064e-05;-0.0038191852910087025;-0.0017210798163022007;-0.0035176490968185903;-2.020079011908773e-19;1.5201526843080623e-19;1.2054008457202056e-15;-1.6151436608178166e-16;5.556885976196076e-17;-8.842162702432794e-20;3.173545465476403e-20;-2.5117326251179004e-19;1.209216346721899e-15;-1.610631547024171e-16;5.608262446665783e-17;2.6078603223963233e-19;-0.0007050904312375792;-0.0007050826768547376;1.1418409513711083e-05;-0.001608813523063112;0.00042603521628167514;0.00010947430681058179;-1.1704810853202936e-07;1.5826624014364423e-05;-1.5826624014363095e-05;-0.0008180716384921159;-0.00040690427344390503;0.00043516872079249887;-3.152534844304208e-08;0.0;0.0;0.0;9.549695606744686e-05;-0.0054775493153456116
2.1402227878570557;-0.0010974960595901925;0.0027106130331925526;5.668436200631357e-05;-0.003308803813655111;-0.0013018250203791952;-0.0033540436929578;-3.181854765440606e-19;1.749327305770609e-19;1.2719321284491014e-15;-1.660983742037423e-16;6.401315296793663e-17;-1.1752601721815257e-19;1.1485945197386737e-20;-3.58109244674355e-19;1.2778106380943696e-15;-1.6566301701358877e-16;6.470855005623983e-17;2.3960263640858617e-19;-0.0008329526239284711;-0.0008329452190530256;6.797413881673579e-06;-0.0015503461115741989;0.0002816895863067753;7.718850722808468e-05;5.9058842886912765e-06;1.6900603237535245e-05;-1.6900603237535076e-05;-0.0008890453708060524;-0.00040340548705953107;0.000508952377211698;-2.3315266300892063e-08;0.0;0.0;0.0;0.00010018261803329542;-0.005039985519513172
2.1601243019104004;-0.0008259541805655634;0.002620944276656156;9.718352549305395e-05;-0.0025013516314171848;-0.0009927910065082408;-0.003373557283399574;-4.53429527172287e-19;1.980711740012272e-19;1.3149894013674275e-15;-1.6658866064494783e-16;7.255286803818939e-17;-1.502133751528953e-19;-1.4199676345654836e-20;-4.805361389393959e-19;1.3232622825173034e-15;-1.6618687037647225e-16;7.345345871694405e-17;2.0554950181872456e-19;-0.0009261356289914155;-0.0009261284072968847;2.7657033741777535e-06;-0.001470475654537572;0.00016446345789578365;5.034816466302662e-05;1.0565504619070274e-05;1.7497352331266876e-05;-1.749735233126591e-05;-0.0009497761163196283;-0.0003908715747496384;0.0005851854465438374;-1.6056745240644017e-08;0.0;0.0;0.0;0.00010292473146724881;-0.004537475517825356
2.180111885070801;-0.0006661043120831504;0.002558271728527731;0.00012005444666501429;-0.0014715746943329462;-0.0008647966962940141;-0.0034737574650885636;-6.111930128889199e-19;2.212583806400086e-19;1.3282595696020026e-15;-1.6195331761563485e-16;8.112792280267628e-17;-1.8706102738697776e-19;-4.6432566969118026e-20;-6.211359321477357e-19;1.339317763183167e-15;-1.6160692072498237e-16;8.226116069478072e-17;1.5573275922346736e-19;-0.0009885870816930356;-0.0009885799452015412;-7.846203071225415e-07;-0.0013733323821241866;7.445854383658352e-05;2.7965248947107748e-05;1.4108336328970963e-05;1.7556949746343622e-05;-1.7556949746342582e-05;-0.000997100699365563;-0.00037041744874592925;0.000663729251459698;-9.583301622978828e-09;0.0;0.0;0.0;0.00010319619740547514;-0.00400039604091847
2.200127363204956;-0.0006011619470952321;0.002429332213093243;0.0001195074110420024;-0.0001884139557473076;-0.0008950459478919305;-0.003523656452019272;-7.920954997404172e-19;2.43677525520724e-19;1.3029744989138014e-15;-1.5093134716747585e-16;8.944105852031134e-17;-2.2790760140807847e-19;-8.588116880729564e-20;-7.799327726187396e-19;1.317218035831426e-15;-1.5066626291723696e-16;9.083370871654823e-17;8.754781641911962e-20;-0.0010226498722421904;-0.0010226427901121058;-3.864042992576046e-06;-0.0012639313158507054;1.1518995624184743e-05;9.707089382822137e-06;1.6629523027480155e-05;1.6936566147450476e-05;-1.6936566147449605e-05;-0.0010255943371783496;-0.00034345738077184063;0.0007424111839014764;-3.888362944092957e-09;0.0;0.0;0.0;0.0001002888188586849;-0.003459724493397237
2.21999192237854;-0.00064758664699797;0.0023176987787485084;0.00010047940902508867;0.0012652209736196047;-0.001100603316897319;-0.0036303543696732713;-9.947095052454476e-19;2.6422303488911505e-19;1.2303115690983612e-15;-1.3233848113538322e-16;9.708816754862466e-17;-2.7211769511567614e-19;-1.3278845777521068e-19;-9.55133512330159e-19;1.248113454285515e-15;-1.3218395112923847e-16;9.876330929073751e-17;-9.313794852391455e-22;-0.0010317031693333637;-0.0010316961835087311;-6.4715823856421034e-06;-0.0011477203561311249;-2.7288280597894485e-05;-4.7394429645438116e-06;1.8204663488798605e-05;1.5460654320815023e-05;-1.5460654320814505e-05;-0.001029292085414058;-0.00031182430680604014;0.000818072097218959;1.0239978917971803e-09;0.0;0.0;0.0;9.349973332346709e-05;-0.0029422641633624685
2.2400214672088623;-0.0006379993539581282;0.0021829512283237477;8.943821332883166e-05;0.0027992574150650343;-0.0012336219766775256;-0.0037184041741955384;-1.2220570075168233e-18;2.821007357367344e-19;1.0984944341379492e-15;-1.0439079747277304e-16;1.0378212190563286e-16;-3.1997964629975945e-19;-1.885109352739148e-19;-1.1487111642791468e-18;1.1202785042842527e-15;-1.0438241012096259e-16;1.0576510549732328e-16;-1.1394480872043922e-19;-0.0010197174805787845;-0.0010197107142641733;-8.665991362028882e-06;-0.001026773726058538;-4.796312122165932e-05;-1.6039656283615905e-05;1.892298598520394e-05;1.2945717641786832e-05;-1.2945717641784052e-05;-0.0010014450628373073;-0.00027663859697493124;0.0008888322258520543;5.27442893763425e-09;0.0;0.0;0.0;8.186844515630073e-05;-0.002455804190143297
2.260145902633667;-0.0005404173906473542;0.0019489777584295303;8.497414401131484e-05;0.004335260383664927;-0.0012393318193770885;-0.0036616787671539;-1.4727680730591843e-18;2.958557440491345e-19;8.95229537524625e-16;-6.541259184792127e-17;1.0899153127057996e-16;-3.7075087785647563e-19;-2.5351686386183077e-19;-1.3587157955646802e-18;9.213928909589025e-16;-6.559080522636576e-17;1.113034746637734e-16;-2.54385987331828e-19;-0.0009903529390434221;-0.0009903466028196078;-1.0442445570720281e-05;-0.0009048973929176394;-5.417561867210722e-05;-2.4518215344642615e-05;1.8849674050789124e-05;1.0150468322353246e-05;-1.0150468322355959e-05;-0.0009369357686635322;-0.00023963264484438474;0.0009505831693785462;8.877159243278512e-09;0.0;0.0;0.0;6.441445412376847e-05;-0.0020135892358588733
2.280142307281494;-0.00033226953666023367;0.001623548162932297;9.191314754467858e-05;0.005723534151669044;-0.0010711886441798473;-0.0034438158194634513;-1.7420221933639208e-18;3.037979029264751e-19;6.105743746902048e-16;-1.4201708067118683e-17;1.1209655426838049e-16;-4.22974545482964e-19;-3.2740725037470653e-19;-1.5802804172111787e-18;6.414270050532375e-16;-1.4609477883321116e-17;1.1474973443043219e-16;-4.2333746803022836e-19;-0.0009479476972507111;-0.00094794208673802;-1.1785598360433392e-05;-0.0007863874252567557;-4.8869389922506713e-05;-3.0491228225399286e-05;1.8083329251918772e-05;7.856368724556495e-06;-7.856368724556644e-06;-0.0008336613973835168;-0.00020288703349268758;0.0009982407776559681;1.1832231392541106e-08;0.0;0.0;0.0;4.03617699284762e-05;-0.0016268747657083242
2.3000216484069824;-0.00010034304080328122;0.0010851315076208909;8.305874604485792e-05;0.006823917064589081;-0.0008364543390071167;-0.002860041288231069;-2.026467816441128e-18;3.042705371916614e-19;2.329377875656591e-16;5.073687950711842e-17;1.1249069976017228e-16;-4.754753988947548e-19;-4.1019209938813444e-19;-1.8097410920785386e-18;2.6872814681997214e-16;5.0052805498664174e-17;1.1549039696354668e-16;-6.228296740489785e-19;-0.0008965109208988698;-0.0008965064210940101;-1.269809749662456e-05;-0.0006736080391736329;-3.72820823367416e-05;-3.438017096823151e-05;1.6695980731197667e-05;5.8864894039202616e-06;-5.886489403921375e-06;-0.0006876688312726423;-0.00016802792092855155;0.0010269537878334894;1.4183769386567167e-08;0.0;0.0;0.0;8.795704766658135e-06;-0.001297423381014779
2.3203165531158447;0.00020531603493264836;0.000342513015535702;6.829656064945112e-05;0.007628601884685322;-0.0004634371209065349;-0.0019220303871605076;-2.3294481316268483e-18;2.9504401191790093e-19;-2.638339400577234e-16;1.3322614340477815e-16;1.093638480973942e-16;-5.281169381878789e-19;-5.041784497247073e-19;-2.048494798490983e-18;-2.228039159302497e-16;1.3220622914467864e-16;1.1271547082523566e-16;-8.611380858227112e-19;-0.0008381443881336067;-0.0008381415248977957;-1.3178484863059809e-05;-0.000565804586001002;-2.592579442572798e-05;-3.659872794974276e-05;1.4666155370289605e-05;4.034016845655438e-06;-4.034016845657144e-06;-0.0004996663876832323;-0.00013585446872225782;0.0010309506133439957;1.60040951379444e-08;0.0;0.0;0.0;-3.239533740572779e-05;-0.0010177742510346834
2.3401689529418945;0.0005795022960339375;-0.0005312045404110841;5.359969184995893e-05;0.008112134919938988;4.1340428065376284e-05;-0.0007322652411958428;-2.6320634280889954e-18;2.7429825921647968e-19;-8.720262677460983e-16;2.313997851248688e-16;1.0203782222155924e-16;-5.768077741908921e-19;-6.049332804029219e-19;-2.280254985878807e-18;-8.257863670389199e-16;2.2999521848534635e-16;1.0572059844703842e-16;-1.129753620950374e-18;-0.0007785894966764012;-0.0007785888273915962;-1.318116890797338e-05;-0.00046923997019020924;-2.3341019986629487e-05;-3.736713054590754e-05;1.2083110124156157e-05;2.2253378148896504e-06;-2.2253378148913788e-06;-0.00029384738162008907;-0.00010933839767871007;0.0010034344070883018;1.7228055217119255e-08;0.0;0.0;0.0;-8.25069325936456e-05;-0.0007974938211398688
2.3599812984466553;0.0010312004248864096;-0.0013948922031604188;5.393156809513905e-05;0.008288025063924242;0.0006862559125066159;0.0004996379006850601;-2.932326406005478e-18;2.3957566352044043e-19;-1.6128448503913881e-15;3.4816378878269496e-16;8.961524320993425e-17;-6.203536708078986e-19;-7.133430290872568e-19;-2.5019911180955887e-18;-1.56146435617229e-15;3.4631721193153035e-16;9.36016487183737e-17;-1.4337947062802999e-18;-0.0007196795971853995;-0.0007196818062382988;-1.2686203925372894e-05;-0.0003830566403068184;-3.5475462687847374e-05;-3.70306503294069e-05;8.895955803713666e-06;2.7488966273313506e-07;-2.7488966273268836e-07;-8.33953588687295e-05;-8.93746232712698e-05;0.0009374965200027995;1.7898901128630925e-08;0.0;0.0;0.0;-0.00014322893539277936;-0.0006262170918969409
2.3800253868103027;0.0015001844773484402;-0.0022238518833689424;6.072110960977127e-05;0.00811408530676216;0.0013891233849585916;0.0017456025537202964;-3.224237979402644e-18;1.8748133817453683e-19;-2.511210177183977e-15;4.867821475197805e-16;7.08539570104576e-17;-6.565061867568079e-19;-8.296819637119921e-19;-2.706895147576219e-18;-2.4548694031287735e-15;4.844275816365819e-16;7.510318589088603e-17;-1.7780353915903056e-18;-0.0006632773853832977;-0.000663283312738374;-1.163127383007699e-05;-0.00030741333016829736;-6.762812990160795e-05;-3.5819024547812625e-05;5.203458021255197e-06;-1.9725638328918195e-06;1.972563832892864e-06;0.00012023811396657672;-7.741537589644421e-05;0.0008232801615061817;1.8002471527562443e-08;0.0;0.0;0.0;-0.00021652970358712246;-0.0004967978970652772
2.400175094604492;0.0019481390015858237;-0.003013827928672265;6.742856137708356e-05;0.007716123246843494;0.002083068728672606;0.002976154482689933;-3.4931384662909975e-18;1.1498635442198707e-19;-3.576849586329989e-15;6.480209964685209e-16;4.463845020038464e-17;-6.815466012301548e-19;-9.51476773440936e-19;-2.881393777927917e-18;-3.5159894427550055e-15;6.450938779550716e-16;4.9086535558908754e-17;-2.1601665277527904e-18;-0.0006121622913563338;-0.000612172879106801;-9.949887199961423e-06;-0.0002440738825389223;-0.00012680784441499842;-3.3938364025880877e-05;1.3107012367714558e-06;-4.615868646014111e-06;4.615868646012337e-06;0.0003058135494681707;-7.53853059300923e-05;0.0006573733037727123;1.7493839564770384e-08;0.0;0.0;0.0;-0.000303120305673712;-0.0004314240951848407
2.4199981689453125;0.0023151285942279104;-0.00381104695085271;5.883261344257734e-05;0.00732677194875324;0.002661180161351795;0.004216089956842528;-3.7189402170028415e-18;2.09791777763453e-20;-4.79356871267181e-15;8.287702266771908e-16;1.0547887632154399e-17;-6.914038010673319e-19;-1.0735246448716292e-18;-3.0086553756221116e-18;-4.7289810091650755e-15;8.252209025717049e-16;1.5104488754815118e-17;-2.5689606507127434e-18;-0.0005692879183722846;-0.0005693040911970317;-7.621424229164118e-06;-0.00019499566242850227;-0.00021919136556827583;-3.162488973527748e-05;-2.4822172988686018e-06;-7.676714579924227e-06;7.676714579924427e-06;0.00046384868604221695;-8.190870394834084e-05;0.0004561641450035386;1.6351013840223278e-08;0.0;0.0;0.0;-0.0004016102866196479;-0.0004704981668049654
2.440159797668457;0.0026528704037435923;-0.004396901318669003;6.488974769220959e-05;0.006853659472940272;0.003201196687600879;0.0051616509366196025;-3.891195243462874e-18;-1.0089583333788085e-19;-6.209073961067429e-15;1.0353209774336245e-15;-3.374258371932466e-17;-6.82012517722075e-19;-1.1965677106214636e-18;-3.076565356665465e-18;-6.1417447799384075e-15;1.0310828890594812e-15;-2.919172089228631e-17;-3.0139079850473593e-18;-0.000534892379732917;-0.0005349153427418035;-4.490020575508099e-06;-0.00015924309829202596;-0.0003431820353168995;-2.8962367408716083e-05;-6.141222660510183e-06;-1.0413272945372245e-05;1.0413272945372145e-05;0.0005965553244717496;-9.349440989752254e-05;0.00023451813756137583;1.4476764575430849e-08;0.0;0.0;0.0;-0.0005157711096402544;-0.0006468076480333814
2.4599924087524414;0.0029492988245162976;-0.004812275540964292;7.955517203738344e-05;0.006496775512253099;0.003667409466843961;0.005835640367434524;-3.983862550880371e-18;-2.497118008954996e-19;-7.779367567762047e-15;1.260400097193834e-15;-8.791541799598489e-17;-6.48893369225481e-19;-1.3124480003317656e-18;-3.0646808215178663e-18;-7.710733065145134e-15;1.2554361225517795e-15;-8.351455910004137e-17;-3.474170863185115e-18;-0.0005114148348145191;-0.0005114456454323697;-5.782017203918469e-07;-0.00013858542884181695;-0.00047705875997562614;-2.6169393640961074e-05;-9.43257663508697e-06;-1.1920714798847287e-05;1.1920714798847815e-05;0.00069868574061714;-0.00010709443285429515;1.7522054924258405e-05;1.1863602992420298e-08;0.0;0.0;0.0;-0.0006419573489674283;-0.0009770607594847178
2.4799890518188477;0.0030588123622032697;-0.0049809574586249265;8.360652399070278e-05;0.006112737906414608;0.003864760793407113;0.006153752265048717;-3.976453066015743e-18;-4.3187258480726183e-19;-9.539131519294558e-15;1.5080495244449153e-15;-1.5432087630520858e-16;-5.861171471103125e-19;-1.41900411707242e-18;-2.9527687598226445e-18;-9.470996492768148e-15;1.502315254907837e-15;-1.5025048821125936e-16;-3.952280997836183e-18;-0.0004991360027185897;-0.0004991759583844372;4.286659645209264e-06;-0.00013282907135161705;-0.0006088009328704148;-2.3287741669878855e-05;-1.2360378868411841e-05;-1.2322703828743532e-05;1.2322703828743144e-05;0.0007738837567882074;-0.00012105115523188533;-0.00018765131385173813;8.374437141886277e-09;0.0;0.0;0.0;-0.0007828500515335218;-0.0014836051725621573
2.5000407695770264;0.0029844458768709253;-0.004813644905653356;8.597456862897652e-05;0.005701974774259792;0.003795495129907043;0.005984910905789166;-3.84043437373143e-18;-6.497793818869871e-19;-1.1473352935126027e-14;1.7749774169645587e-15;-2.3385647723254564e-16;-4.876240065729577e-19;-1.5093368298333745e-18;-2.716443305581453e-18;-1.1408022272508254e-14;1.7684461126295405e-15;-2.3033593935866057e-16;-4.4344730149726415e-18;-0.000498980638066793;-0.0004990310416262797;1.0179479230749541e-05;-0.0001426786085758118;-0.0007274357660100152;-2.041950390846623e-05;-1.4661695104699368e-05;-1.1645970731693904e-05;1.1645970731695491e-05;0.0008231737458718608;-0.00013391196977019753;-0.0003714412188350511;3.923135908527881e-09;0.0;0.0;0.0;-0.0009371127337858116;-0.002176739271126671
2.5201332569122314;0.0027951150457447126;-0.004295618045046174;0.00010051861624127233;0.0052458274380823644;0.0035591316580177237;0.005310648624588996;-3.544758547559952e-18;-9.06060553088342e-19;-1.3565845611752588e-14;2.057622885170885e-15;-3.2750450535084197e-16;-3.468146326317727e-19;-1.5759478798466943e-18;-2.3291596596005484e-18;-1.3506168412192563e-14;2.0502869665748856e-15;-3.2479556761544554e-16;-4.90580897896473e-18;-0.0005113771607292076;-0.0005114393197717595;1.7186606463715365e-05;-0.00016858708245625246;-0.0008264364425036846;-1.7635489941986676e-05;-1.5955426897031128e-05;-1.0087969209950312e-05;1.0087969209949705e-05;0.000849001279545962;-0.0001447248588152723;-0.0005287028522291996;-1.5920997496016462e-09;0.0;0.0;0.0;-0.0011033029000716993;-0.0027608293403278495
