flxalr/sts-optimization-reemc/input/457_104/augmented.txt
time, StatePelvisPosX, StatePelvisPosZ, StatePelvisRotY, StateHipRotY, StateKneeRotY, StateAnkleRotY, StateMiddleTrunkRotY, StateLShoulderRotY, StateLElbowRotY, StateRShoulderRotY, StateRElbowRotY, StateHeadRotY, StatePelvisVelX, StatePelvisVelZ, StatePelvisRotVelY, StateHipRotVelY, StateKneeRotVelY, StateAnkleRotVelY, StateMiddleTrunkRotVelY, StateLShoulderRotVelY, StateLElbowRotVelY, StateRShoulderRotVelY, StateRElbowRotVelY, StateHeadRotVelY, StateHipTorque, StateKneeTorque, StateAnkleTorque, StateMiddleTrunkTorque, StateShoulderTorque, StateElbowTorque, StateHeadTorque, ControlHipDTorque, ControlKneeDTorque, ControlAnkleDTorque, ControlMiddleTrunkDTorque, ControlShoulderDTorque, ControlElbowDTorque, ControlHeadDTorque, TauPelvisPosX, TauPelvisPosZ, TauPelvisRotY, Tauleg_3_joint, Tauleg_4_joint, Tauleg_5_joint, Tautorso_2_joint, Tauarm_1_joint, Tauarm_4_joint, Tauarm_1_joint, Tauarm_4_joint, Tauhead_2_joint, Heel_Fx, Heel_Fy, Heel_Fz, Toe_Fx, Toe_Fy, Toe_Fz, CoP, Hand_x, Hand_y, Hand_z, Box_Hand_Fx, Box_Hand_Fz, Box_Hand_Ty, Phase
0, -0.0393147, 0.695585, 0.1, -1.13537, 1.37653, -0.341153, 0.1, 0.23, 1, 0.23, 1, 0.03, 1.78966e-17, -1.55111e-18, 1.19586e-17, -1.66198e-18, -3.23038e-18, 2.56446e-18, 1.41631e-18, -3.6875e-19, 1.60938e-18, 6.3269e-18, 1.89049e-18, -9.04194e-18, 10.9532, -10.9681, -2.61843, -16.9703, 13.958, 10.0464, -0.27686, 15.1265, -3.68332, -1.34157, 1.18653, 0.821522, 4.52842, -1.02301, 4.66012e-310, 0, 0, 10.9532, -10.9681, -2.61843, -16.9703, 6.979, 5.02322, 6.979, 0, 0, -25.8285, 0, 70.0449, 0, 0, 35.2792, 0.000243747, 0, 0, 0, 0, 0, 0, 0
0.000164924, -0.0393146, 0.695585, 0.1, -1.13537, 1.37653, -0.341153, 0.1, 0.23, 1, 0.23, 1, 0.0299999, 7.95921e-05, -7.98585e-06, 0.000557317, -0.000557317, -3.0301e-18, 3.10796e-18, -3.75214e-05, -3.52818e-06, -3.49517e-05, -4.56701e-06, -3.35673e-05, -0.00146939, 10.9558, -10.9687, -2.61864, -16.9702, 13.9581, 10.0472, -0.277025, 16.0986, -3.92007, -1.174, 0.797647, 0.729428, 4.50358, -0.983372, 4.66012e-310, 0, 0, 10.9558, -10.9687, -2.61864, -16.9702, 6.97906, 5.02359, 6.97906, 0, 0, -25.8229, 0, 70.0639, 0, 0, 35.2801, 0.000235552, 0, 0, 0, 0, 0, 0, 0
0.000329849, -0.0393146, 0.695585, 0.1, -1.13537, 1.37653, -0.341153, 0.1, 0.23, 1, 0.23, 1, 0.0299995, 0.000159125, -1.59657e-05, 0.00111422, -0.00111422, -4.79658e-18, 6.04062e-18, -7.39492e-05, -6.97446e-06, -6.88335e-05, -9.05225e-06, -6.60648e-05, -0.0029421, 10.9585, -10.9694, -2.61882, -16.9701, 13.9582, 10.0479, -0.277184, 17.0708, -4.15682, -1.00643, 0.408767, 0.637334, 4.47873, -0.943736, 4.66012e-310, 0, 0, 10.9585, -10.9694, -2.61882, -16.9701, 6.97912, 5.02396, 6.97912, 0, 0, -25.8172, 0, 70.0835, 0, 0, 35.2814, 0.00022746, 0, 0, 0, 0, 0, 0, 0
0.000494773, -0.0393146, 0.695585, 0.1, -1.13537, 1.37653, -0.341153, 0.1, 0.23, 1, 0.23, 1, 0.0299989, 0.000238593, -2.39393e-05, 0.00167067, -0.00167067, -4.36007e-18, 1.15952e-17, -0.000109222, -1.03342e-05, -0.000101586, -1.34511e-05, -9.74329e-05, -0.00441825, 10.9614, -10.9701, -2.61897, -16.97, 13.9583, 10.0487, -0.277336, 18.0429, -4.39358, -0.838857, 0.0198877, 0.545239, 4.45389, -0.9041, 4.66012e-310, 0, 0, 10.9614, -10.9701, -2.61897, -16.97, 6.97917, 5.02433, 6.97917, 0, 0, -25.8113, 0, 70.1037, 0, 0, 35.2832, 0.000219478, 0, 0, 0, 0, 0, 0, 0
0.000659697, -0.0393145, 0.695585, 0.100001, -1.13537, 1.37653, -0.341153, 0.1, 0.23, 1, 0.23, 1, 0.029998, 0.000317999, -3.19066e-05, 0.00222668, -0.00222668, -5.46663e-18, 1.45908e-17, -0.000143353, -1.36085e-05, -0.000133224, -1.77645e-05, -0.000127686, -0.00589773, 10.9645, -10.9708, -2.61909, -16.9701, 13.9584, 10.0494, -0.277482, 19.015, -4.63033, -0.671286, -0.368992, 0.453145, 4.42904, -0.864465, 4.66012e-310, 0, 0, 10.9645, -10.9708, -2.61909, -16.9701, 6.97921, 5.0247, 6.97921, 0, 0, -25.8053, 0, 70.1246, 0, 0, 35.2853, 0.000211606, 0, 0, 0, 0, 0, 0, 0
0.000824622, -0.0393145, 0.695585, 0.100001, -1.13537, 1.37653, -0.341153, 0.0999999, 0.23, 1, 0.23, 1, 0.0299969, 0.000397341, -3.98676e-05, 0.00278225, -0.00278225, -6.55389e-18, 8.36677e-18, -0.000176359, -1.67985e-05, -0.000163764, -2.19937e-05, -0.000156841, -0.00738042, 10.9677, -10.9716, -2.61919, -16.9702, 13.9585, 10.0501, -0.277621, 19.9871, -4.86708, -0.503714, -0.757872, 0.361051, 4.4042, -0.824829, 4.66012e-310, 0, 0, 10.9677, -10.9716, -2.61919, -16.9702, 6.97924, 5.02506, 6.97924, 0, 0, -25.7992, 0, 70.146, 0, 0, 35.2879, 0.000203845, 0, 0, 0, 0, 0, 0, 0
0.000989546, -0.0393144, 0.695585, 0.100002, -1.13537, 1.37653, -0.341153, 0.0999999, 0.23, 1, 0.23, 1, 0.0299956, 0.00047662, -4.78224e-05, 0.00333737, -0.00333737, -7.46556e-18, 2.96732e-18, -0.000208249, -1.99048e-05, -0.000193215, -2.61393e-05, -0.000184908, -0.00886624, 10.9711, -10.9724, -2.61926, -16.9703, 13.9585, 10.0508, -0.277754, 20.9592, -5.10383, -0.336143, -1.14675, 0.268957, 4.37935, -0.785193, 4.66012e-310, 0, 0, 10.9711, -10.9724, -2.61926, -16.9703, 6.97927, 5.02542, 6.97927, 0, 0, -25.793, 0, 70.1681, 0, 0, 35.291, 0.000196194, 0, 0, 0, 0, 0, 0, 0
0.00115447, -0.0393143, 0.695585, 0.100002, -1.13538, 1.37653, -0.341153, 0.0999999, 0.23, 1, 0.23, 1, 0.029994, 0.000555836, -5.57709e-05, 0.00389206, -0.00389206, -7.54184e-18, 1.85364e-19, -0.000239036, -2.29284e-05, -0.000221592, -3.02023e-05, -0.0002119, -0.0103551, 10.9746, -10.9733, -2.6193, -16.9705, 13.9586, 10.0516, -0.27788, 21.9313, -5.34059, -0.168572, -1.53563, 0.176863, 4.35451, -0.745558, 4.66012e-310, 0, 0, 10.9746, -10.9733, -2.6193, -16.9705, 6.97928, 5.02578, 6.97928, 0, 0, -25.7866, 0, 70.1909, 0, 0, 35.2944, 0.000188655, 0, 0, 0, 0, 0, 0, 0
0.00131939, -0.0393142, 0.695585, 0.100003, -1.13538, 1.37653, -0.341153, 0.0999998, 0.23, 1, 0.23, 1, 0.0299922, 0.000634989, -6.37134e-05, 0.0044463, -0.0044463, -7.80007e-18, -3.85539e-18, -0.000268737, -2.58706e-05, -0.000248912, -3.41839e-05, -0.000237835, -0.0118469, 10.9783, -10.9742, -2.61932, -16.9708, 13.9586, 10.0523, -0.278, 22.9034, -5.57734, -0.00100042, -1.92451, 0.0847694, 4.32966, -0.705922, 4.66012e-310, 0, 0, 10.9783, -10.9742, -2.61932, -16.9708, 6.9793, 5.02614, 6.9793, 0, 0, -25.78, 0, 70.2142, 0, 0, 35.2983, 0.000181226, 0, 0, 0, 0, 0, 0, 0
0.00148432, -0.0393141, 0.695585, 0.100004, -1.13538, 1.37653, -0.341153, 0.0999998, 0.23, 1, 0.23, 1, 0.0299901, 0.00071408, -7.16497e-05, 0.00500011, -0.00500011, -7.93401e-18, -6.71885e-18, -0.000297366, -2.87322e-05, -0.000275188, -3.80851e-05, -0.000262727, -0.0133414, 10.9821, -10.9751, -2.6193, -16.9712, 13.9586, 10.053, -0.278113, 23.8756, -5.81409, 0.166571, -2.31339, -0.00732463, 4.30482, -0.666286, 4.66012e-310, 0, 0, 10.9821, -10.9751, -2.6193, -16.9712, 6.9793, 5.0265, 6.9793, 0, 0, -25.7733, 0, 70.2382, 0, 0, 35.3026, 0.000173908, 0, 0, 0, 0, 0, 0, 0
0.00164924, -0.039314, 0.695585, 0.100005, -1.13538, 1.37653, -0.341153, 0.0999997, 0.23, 1, 0.23, 1, 0.0299878, 0.000793108, -7.95799e-05, 0.00555348, -0.00555348, -9.34981e-18, -9.22996e-18, -0.000324937, -3.15145e-05, -0.000300436, -4.19068e-05, -0.00028659, -0.0148387, 10.9862, -10.9761, -2.61926, -16.9716, 13.9586, 10.0537, -0.27822, 24.8477, -6.05084, 0.334142, -2.70227, -0.0994187, 4.27997, -0.62665, 4.66012e-310, 0, 0, 10.9862, -10.9761, -2.61926, -16.9716, 6.97929, 5.02685, 6.97929, 0, 0, -25.7665, 0, 70.2628, 0, 0, 35.3074, 0.000166702, 0, 0, 0, 0, 0, 0, 0
0.00181417, -0.0393139, 0.695585, 0.100006, -1.13538, 1.37653, -0.341153, 0.0999997, 0.23, 1, 0.23, 1, 0.0299852, 0.000872074, -8.75042e-05, 0.00610641, -0.00610641, -1.24035e-17, -1.12881e-17, -0.000351466, -3.42184e-05, -0.000324672, -4.56503e-05, -0.000309441, -0.0163385, 10.9903, -10.9771, -2.61919, -16.9721, 13.9586, 10.0544, -0.27832, 25.8198, -6.28759, 0.501713, -3.09115, -0.191513, 4.25513, -0.587015, 4.66012e-310, 0, 0, 10.9903, -10.9771, -2.61919, -16.9721, 6.97928, 5.0272, 6.97928, 0, 0, -25.7596, 0, 70.288, 0, 0, 35.3126, 0.000159607, 0, 0, 0, 0, 0, 0, 0
0.00197909, -0.0393137, 0.695585, 0.100007, -1.13538, 1.37653, -0.341153, 0.0999996, 0.23, 1, 0.23, 1, 0.0299824, 0.000950977, -9.54224e-05, 0.00665891, -0.00665891, -1.54337e-17, -1.14763e-17, -0.000376966, -3.6845e-05, -0.00034791, -4.93164e-05, -0.000331295, -0.0178408, 10.9947, -10.9782, -2.61909, -16.9726, 13.9585, 10.0551, -0.278413, 26.7919, -6.52435, 0.669285, -3.48003, -0.283607, 4.23028, -0.547379, 4.66012e-310, 0, 0, 10.9947, -10.9782, -2.61909, -16.9726, 6.97926, 5.02755, 6.97926, 0, 0, -25.7525, 0, 70.3139, 0, 0, 35.3182, 0.000152623, 0, 0, 0, 0, 0, 0, 0
0.00214402, -0.0393135, 0.695585, 0.100008, -1.13538, 1.37653, -0.341153, 0.0999995, 0.23, 1, 0.23, 1, 0.0299793, 0.00102982, -0.000103335, 0.00721097, -0.00721097, -1.82964e-17, -9.33328e-18, -0.000401453, -3.93953e-05, -0.000370167, -5.29063e-05, -0.000352167, -0.0193455, 10.9992, -10.9793, -2.61897, -16.9732, 13.9585, 10.0558, -0.2785, 27.764, -6.7611, 0.836856, -3.86891, -0.375701, 4.20544, -0.507743, 4.66012e-310, 0, 0, 10.9992, -10.9793, -2.61897, -16.9732, 6.97924, 5.0279, 6.97924, 0, 0, -25.7453, 0, 70.3403, 0, 0, 35.3242, 0.000145751, 0, 0, 0, 0, 0, 0, 0
0.00230894, -0.0393134, 0.695585, 0.100009, -1.13538, 1.37653, -0.341153, 0.0999995, 0.23, 1, 0.23, 1, 0.029976, 0.0011086, -0.000111241, 0.0077626, -0.0077626, -2.07756e-17, -7.3382e-18, -0.00042494, -4.18704e-05, -0.000391456, -5.6421e-05, -0.000372072, -0.0208524, 11.0038, -10.9804, -2.61882, -16.9739, 13.9584, 10.0565, -0.278581, 28.7361, -6.99785, 1.00443, -4.25779, -0.467795, 4.18059, -0.468108, 4.66012e-310, 0, 0, 11.0038, -10.9804, -2.61882, -16.9739, 6.9792, 5.02825, 6.9792, 0, 0, -25.7379, 0, 70.3674, 0, 0, 35.3306, 0.000138991, 0, 0, 0, 0, 0, 0, 0
0.00247387, -0.0393132, 0.695585, 0.10001, -1.13538, 1.37653, -0.341153, 0.0999994, 0.23, 0.999999, 0.23, 0.999999, 0.0299725, 0.00118732, -0.000119141, 0.0083138, -0.0083138, -2.24828e-17, -5.59584e-18, -0.000447442, -4.42713e-05, -0.000411793, -5.98614e-05, -0.000391024, -0.0223614, 11.0087, -10.9816, -2.61864, -16.9746, 13.9583, 10.0572, -0.278655, 29.7083, -7.2346, 1.172, -4.64667, -0.559889, 4.15575, -0.428472, 4.66012e-310, 0, 0, 11.0087, -10.9816, -2.61864, -16.9746, 6.97916, 5.02859, 6.97916, 0, 0, -25.7304, 0, 70.3952, 0, 0, 35.3375, 0.000132342, 0, 0, 0, 0, 0, 0, 0
0.00263879, -0.039313, 0.695585, 0.100012, -1.13538, 1.37653, -0.341153, 0.0999993, 0.23, 0.999999, 0.23, 0.999999, 0.0299686, 0.00126597, -0.000127036, 0.00886456, -0.00886456, -2.30587e-17, -4.60852e-18, -0.000468974, -4.6599e-05, -0.000431193, -6.32286e-05, -0.00040904, -0.0238725, 11.0136, -10.9828, -2.61843, -16.9754, 13.9582, 10.0579, -0.278722, 30.6804, -7.47136, 1.33957, -5.03555, -0.651983, 4.1309, -0.388836, 0, 0, 0, 11.0136, -10.9828, -2.61843, -16.9754, 6.97911, 5.02893, 6.97911, 0, 0, -25.7228, 0, 70.4235, 0, 0, 35.3448, 0.000125805, 0, 0, 0, 0, 0, 0, 0
0.00280371, -0.0393128, 0.695585, 0.100013, -1.13539, 1.37653, -0.341153, 0.0999992, 0.23, 0.999999, 0.23, 0.999999, 0.0299646, 0.00134457, -0.000134925, 0.0094149, -0.0094149, -2.22908e-17, -4.78589e-18, -0.00048955, -4.88546e-05, -0.00044967, -6.65236e-05, -0.000426133, -0.0253855, 11.0188, -10.984, -2.6182, -16.9763, 13.9581, 10.0585, -0.278783, 31.6525, -7.70811, 1.50714, -5.42443, -0.744077, 4.10606, -0.349201, 0, 0, 0, 11.0188, -10.984, -2.6182, -16.9763, 6.97905, 5.02927, 6.97905, 0, 0, -25.715, 0, 70.4525, 0, 0, 35.3526, 0.00011938, 0, 0, 0, 0, 0, 0, 0
0.00296864, -0.0393125, 0.695585, 0.100015, -1.13539, 1.37653, -0.341153, 0.0999992, 0.23, 0.999999, 0.23, 0.999999, 0.0299603, 0.0014231, -0.000142808, 0.00996481, -0.00996481, -2.16683e-17, -4.13032e-18, -0.000509184, -5.10389e-05, -0.00046724, -6.97474e-05, -0.000442319, -0.0269002, 11.0241, -10.9853, -2.61794, -16.9772, 13.958, 10.0592, -0.278837, 32.6246, -7.94486, 1.67471, -5.81331, -0.836171, 4.08121, -0.309565, 0, 0, 0, 11.0241, -10.9853, -2.61794, -16.9772, 6.97899, 5.02961, 6.97899, 0, 0, -25.7071, 0, 70.4821, 0, 0, 35.3607, 0.000113067, 0, 0, 0, 0, 0, 0, 0
0.00313356, -0.0393123, 0.695585, 0.100017, -1.13539, 1.37653, -0.341153, 0.0999991, 0.23, 0.999999, 0.23, 0.999999, 0.0299557, 0.00150158, -0.000150685, 0.0105143, -0.0105143, -2.03757e-17, -3.90471e-18, -0.000527891, -5.31532e-05, -0.000483918, -7.2901e-05, -0.000457612, -0.0284167, 11.0295, -10.9867, -2.61765, -16.9782, 13.9578, 10.0599, -0.278885, 33.5967, -8.18161, 1.84228, -6.20219, -0.928265, 4.05637, -0.269929, 0, 0, 0, 11.0295, -10.9867, -2.61765, -16.9782, 6.97891, 5.02994, 6.97891, 0, 0, -25.699, 0, 70.5123, 0, 0, 35.3693, 0.000106865, 0, 0, 0, 0, 0, 0, 0
0.00329849, -0.039312, 0.695585, 0.100018, -1.13539, 1.37653, -0.341153, 0.099999, 0.23, 0.999999, 0.23, 0.999999, 0.0299509, 0.00157999, -0.000158557, 0.0110634, -0.0110634, -1.84009e-17, -4.23508e-18, -0.000545684, -5.51983e-05, -0.000499718, -7.59854e-05, -0.000472029, -0.0299348, 11.0352, -10.988, -2.61733, -16.9793, 13.9577, 10.0606, -0.278926, 34.5688, -8.41837, 2.00985, -6.59107, -1.02036, 4.03152, -0.230293, 0, 0, 0, 11.0352, -10.988, -2.61733, -16.9793, 6.97883, 5.03028, 6.97883, 0, 0, -25.6908, 0, 70.5432, 0, 0, 35.3783, 0.000100776, 0, 0, 0, 0, 0, 0, 0
0.00346341, -0.0393118, 0.695585, 0.10002, -1.13539, 1.37653, -0.341153, 0.0999989, 0.23, 0.999999, 0.23, 0.999999, 0.0299458, 0.00165834, -0.000166423, 0.011612, -0.011612, -1.57998e-17, -5.16359e-18, -0.000562579, -5.71753e-05, -0.000514655, -7.90016e-05, -0.000485582, -0.0314543, 11.0409, -10.9894, -2.61698, -16.9804, 13.9575, 10.0612, -0.278961, 35.5409, -8.65512, 2.17743, -6.97995, -1.11245, 4.00668, -0.190658, 0, 0, 0, 11.0409, -10.9894, -2.61698, -16.9804, 6.97874, 5.03061, 6.97874, 0, 0, -25.6825, 0, 70.5747, 0, 0, 35.3878, 9.47994e-05, 0, 0, 0, 0, 0, 0, 0
0.00362834, -0.0393115, 0.695585, 0.100022, -1.1354, 1.37653, -0.341153, 0.0999988, 0.23, 0.999999, 0.23, 0.999999, 0.0299405, 0.00173663, -0.000174283, 0.0121602, -0.0121602, -1.31056e-17, -6.14109e-18, -0.000578589, -5.90851e-05, -0.000528745, -8.19506e-05, -0.000498289, -0.0329752, 11.0469, -10.9909, -2.61661, -16.9816, 13.9573, 10.0619, -0.278989, 36.5131, -8.89187, 2.345, -7.36883, -1.20455, 3.98183, -0.151022, 0, 0, 0, 11.0469, -10.9909, -2.61661, -16.9816, 6.97865, 5.03094, 6.97865, 0, 0, -25.674, 0, 70.6068, 0, 0, 35.3977, 8.89345e-05, 0, 0, 0, 0, 0, 0, 0
0.00379326, -0.0393112, 0.695585, 0.100024, -1.1354, 1.37653, -0.341153, 0.0999987, 0.23, 0.999999, 0.23, 0.999999, 0.029935, 0.00181486, -0.000182138, 0.012708, -0.012708, -1.01286e-17, -7.51353e-18, -0.000593728, -6.09288e-05, -0.000542002, -8.48333e-05, -0.000510162, -0.0344973, 11.053, -10.9924, -2.61621, -16.9828, 13.9571, 10.0625, -0.279011, 37.4852, -9.12862, 2.51257, -7.7577, -1.29664, 3.95699, -0.111386, 0, 0, 0, 11.053, -10.9924, -2.61621, -16.9828, 6.97855, 5.03127, 6.97855, 0, 0, -25.6654, 0, 70.6395, 0, 0, 35.408, 8.31818e-05, 0, 0, 0, 0, 0, 0, 0
0.00395818, -0.0393109, 0.695585, 0.100026, -1.1354, 1.37653, -0.341153, 0.0999986, 0.23, 0.999999, 0.23, 0.999999, 0.0299291, 0.00189303, -0.000189987, 0.0132553, -0.0132553, -6.94295e-18, -9.30046e-18, -0.000608012, -6.27073e-05, -0.000554441, -8.76508e-05, -0.000521218, -0.0360206, 11.0592, -10.9939, -2.61578, -16.9841, 13.9569, 10.0632, -0.279026, 38.4573, -9.36538, 2.68014, -8.14658, -1.38873, 3.93214, -0.0717506, 0, 0, 0, 11.0592, -10.9939, -2.61578, -16.9841, 6.97844, 5.03159, 6.97844, 0, 0, -25.6567, 0, 70.6729, 0, 0, 35.4187, 7.75413e-05, 0, 0, 0, 0, 0, 0, 0
0.00412311, -0.0393106, 0.695585, 0.100029, -1.1354, 1.37653, -0.341153, 0.0999985, 0.23, 0.999999, 0.23, 0.999999, 0.0299231, 0.00197114, -0.000197831, 0.0138023, -0.0138023, -3.62269e-18, -1.15214e-17, -0.000621454, -6.44218e-05, -0.000566077, -9.0404e-05, -0.000531471, -0.037545, 11.0657, -10.9954, -2.61532, -16.9855, 13.9566, 10.0638, -0.279035, 39.4294, -9.60213, 2.84771, -8.53546, -1.48083, 3.90729, -0.0321149, 0, 0, 0, 11.0657, -10.9954, -2.61532, -16.9855, 6.97832, 5.03191, 6.97832, 0, 0, -25.6478, 0, 70.7068, 0, 0, 35.4299, 7.20131e-05, 0, 0, 0, 0, 0, 0, 0
0.00428803, -0.0393102, 0.695585, 0.100031, -1.1354, 1.37653, -0.341153, 0.0999984, 0.23, 0.999999, 0.23, 0.999999, 0.0299168, 0.00204919, -0.000205669, 0.0143488, -0.0143488, -2.3585e-19, -1.41969e-17, -0.000634069, -6.60731e-05, -0.000576925, -9.3094e-05, -0.000540937, -0.0390702, 11.0723, -10.9971, -2.61484, -16.9869, 13.9564, 10.0645, -0.279037, 40.4015, -9.83888, 3.01528, -8.92434, -1.57292, 3.88245, 0.00752079, 0, 0, 0, 11.0723, -10.9971, -2.61484, -16.9869, 6.97819, 5.03224, 6.97819, 0, 0, -25.6388, 0, 70.7414, 0, 0, 35.4414, 6.65971e-05, 0, 0, 0, 0, 0, 0, 0
0.00445296, -0.0393099, 0.695585, 0.100033, -1.13541, 1.37653, -0.341153, 0.0999983, 0.23, 0.999998, 0.23, 0.999999, 0.0299102, 0.00212718, -0.000213502, 0.0148949, -0.0148949, 3.15603e-18, -1.73485e-17, -0.000645871, -6.76622e-05, -0.000587001, -9.57216e-05, -0.00054963, -0.0405963, 11.079, -10.9987, -2.61433, -16.9884, 13.9561, 10.0651, -0.279032, 41.3736, -10.0756, 3.18285, -9.31322, -1.66502, 3.8576, 0.0471565, 0, 0, 0, 11.079, -10.9987, -2.61433, -16.9884, 6.97806, 5.03256, 6.97806, 0, 0, -25.6296, 0, 70.7767, 0, 0, 35.4535, 6.12933e-05, 0, 0, 0, 0, 0, 0, 0
0.00461788, -0.0393095, 0.695585, 0.100036, -1.13541, 1.37653, -0.341153, 0.0999982, 0.23, 0.999998, 0.23, 0.999998, 0.0299034, 0.00220511, -0.000221329, 0.0154406, -0.0154406, 6.47321e-18, -2.09948e-17, -0.000656874, -6.91901e-05, -0.000596318, -9.82879e-05, -0.000557565, -0.0421231, 11.0859, -11.0004, -2.61379, -16.99, 13.9558, 10.0657, -0.279021, 42.3458, -10.3124, 3.35043, -9.7021, -1.75711, 3.83276, 0.0867922, 0, 0, 0, 11.0859, -11.0004, -2.61379, -16.99, 6.97792, 5.03287, 6.97792, 0, 0, -25.6203, 0, 70.8125, 0, 0, 35.4659, 5.61019e-05, 0, 0, 0, 0, 0, 0, 0
0.00478281, -0.0393092, 0.695585, 0.100038, -1.13541, 1.37653, -0.341153, 0.0999981, 0.23, 0.999998, 0.23, 0.999998, 0.0298963, 0.00228298, -0.000229151, 0.0159859, -0.0159859, 9.64384e-18, -2.51558e-17, -0.000667092, -7.06578e-05, -0.000604892, -0.000100794, -0.000564757, -0.0436505, 11.093, -11.0021, -2.61322, -16.9916, 13.9555, 10.0664, -0.279004, 43.3179, -10.5491, 3.518, -10.091, -1.84921, 3.80791, 0.126428, 0, 0, 0, 11.093, -11.0021, -2.61322, -16.9916, 6.97777, 5.03319, 6.97777, 0, 0, -25.6109, 0, 70.849, 0, 0, 35.4788, 5.10226e-05, 0, 0, 0, 0, 0, 0, 0
0.00494773, -0.0393088, 0.695585, 0.100041, -1.13541, 1.37653, -0.341153, 0.099998, 0.23, 0.999998, 0.23, 0.999998, 0.029889, 0.0023608, -0.000236968, 0.0165308, -0.0165308, 1.25961e-17, -2.98512e-17, -0.00067654, -7.20663e-05, -0.000612737, -0.00010324, -0.000571221, -0.0451783, 11.1002, -11.0039, -2.61263, -16.9933, 13.9552, 10.067, -0.278979, 44.29, -10.7859, 3.68557, -10.4799, -1.9413, 3.78307, 0.166064, 0, 0, 0, 11.1002, -11.0039, -2.61263, -16.9933, 6.97761, 5.0335, 6.97761, 0, 0, -25.6013, 0, 70.8861, 0, 0, 35.4921, 4.60556e-05, 0, 0, 0, 0, 0, 0, 0
0.00511265, -0.0393084, 0.695585, 0.100044, -1.13542, 1.37653, -0.341153, 0.0999979, 0.23, 0.999998, 0.23, 0.999998, 0.0298814, 0.00243855, -0.000244779, 0.0170752, -0.0170752, 1.5258e-17, -3.51011e-17, -0.000685232, -7.34166e-05, -0.00061987, -0.000105629, -0.000576972, -0.0467066, 11.1076, -11.0057, -2.61201, -16.9951, 13.9549, 10.0676, -0.278949, 45.2621, -11.0226, 3.85314, -10.8687, -2.03339, 3.75822, 0.205699, 0, 0, 0, 11.1076, -11.0057, -2.61201, -16.9951, 6.97745, 5.03381, 6.97745, 0, 0, -25.5916, 0, 70.9239, 0, 0, 35.5058, 4.12009e-05, 0, 0, 0, 0, 0, 0, 0
0.00527758, -0.039308, 0.695585, 0.100047, -1.13542, 1.37653, -0.341153, 0.0999977, 0.23, 0.999998, 0.23, 0.999998, 0.0298736, 0.00251624, -0.000252585, 0.0176192, -0.0176192, 1.75578e-17, -4.09253e-17, -0.000693183, -7.47097e-05, -0.000626304, -0.000107959, -0.000582025, -0.0482351, 11.1151, -11.0075, -2.61136, -16.9969, 13.9546, 10.0682, -0.278912, 46.2342, -11.2594, 4.02071, -11.2576, -2.12549, 3.73338, 0.245335, 4.66012e-310, 0, 0, 11.1151, -11.0075, -2.61136, -16.9969, 6.97728, 5.03412, 6.97728, 0, 0, -25.5818, 0, 70.9622, 0, 0, 35.5199, 3.64583e-05, 0, 0, 0, 0, 0, 0, 0
0.0054425, -0.0393076, 0.695585, 0.10005, -1.13542, 1.37653, -0.341153, 0.0999976, 0.23, 0.999998, 0.23, 0.999998, 0.0298655, 0.00259388, -0.000260386, 0.0181629, -0.0181629, 1.94237e-17, -4.73436e-17, -0.000700406, -7.59466e-05, -0.000632054, -0.000110234, -0.000586394, -0.0497637, 11.1228, -11.0094, -2.61068, -16.9988, 13.9542, 10.0689, -0.278868, 47.2063, -11.4961, 4.18828, -11.6465, -2.21758, 3.70853, 0.284971, 0, 0, 0, 11.1228, -11.0094, -2.61068, -16.9988, 6.9771, 5.03443, 6.9771, 0, 0, -25.5718, 0, 71.0012, 0, 0, 35.5345, 3.18279e-05, 0, 0, 0, 0, 0, 0, 0
0.00560743, -0.0393071, 0.695585, 0.100053, -1.13543, 1.37653, -0.341153, 0.0999975, 0.23, 0.999998, 0.23, 0.999998, 0.0298572, 0.00267145, -0.000268182, 0.0187061, -0.0187061, 2.16779e-17, -5.36839e-17, -0.000706916, -7.7128e-05, -0.000637136, -0.000112452, -0.000590096, -0.0512925, 11.1307, -11.0113, -2.60998, -17.0008, 13.9538, 10.0695, -0.278818, 48.1784, -11.7329, 4.35585, -12.0354, -2.30968, 3.68369, 0.324606, 0, 0, 0, 11.1307, -11.0113, -2.60998, -17.0008, 6.97691, 5.03473, 6.97691, 0, 0, -25.5617, 0, 71.0408, 0, 0, 35.5495, 2.73096e-05, 0, 0, 0, 0, 0, 0, 0
0.00577235, -0.0393067, 0.695585, 0.100056, -1.13543, 1.37653, -0.341153, 0.0999974, 0.23, 0.999998, 0.23, 0.999998, 0.0298486, 0.00274897, -0.000275972, 0.0192489, -0.0192489, 2.40076e-17, -6.01526e-17, -0.000712727, -7.82552e-05, -0.000641565, -0.000114617, -0.000593145, -0.0528211, 11.1387, -11.0132, -2.60925, -17.0028, 13.9534, 10.0701, -0.278761, 49.1506, -11.9697, 4.52342, -12.4243, -2.40177, 3.65884, 0.364242, 0, 0, 0, 11.1387, -11.0132, -2.60925, -17.0028, 6.97672, 5.03503, 6.97672, 0, 0, -25.5514, 0, 71.0811, 0, 0, 35.565, 2.29034e-05, 0, 0, 0, 0, 0, 0, 0
0.00593728, -0.0393062, 0.695584, 0.100059, -1.13543, 1.37653, -0.341153, 0.0999973, 0.23, 0.999998, 0.23, 0.999998, 0.0298397, 0.00282643, -0.000283758, 0.0197913, -0.0197913, 2.62094e-17, -6.68715e-17, -0.000717854, -7.93289e-05, -0.000645355, -0.000116727, -0.000595555, -0.0543496, 11.1469, -11.0152, -2.60849, -17.0049, 13.953, 10.0707, -0.278697, 50.1227, -12.2064, 4.691, -12.8131, -2.49386, 3.634, 0.403878, 0, 0, 0, 11.1469, -11.0152, -2.60849, -17.0049, 6.97651, 5.03533, 6.97651, 0, 0, -25.541, 0, 71.1219, 0, 0, 35.5808, 1.86093e-05, 0, 0, 0, 0, 0, 0, 0
0.0061022, -0.0393057, 0.695584, 0.100062, -1.13544, 1.37653, -0.341153, 0.0999972, 0.23, 0.999997, 0.23, 0.999998, 0.0298306, 0.00290383, -0.000291538, 0.0203333, -0.0203333, 2.82732e-17, -7.38126e-17, -0.00072231, -8.03503e-05, -0.000648522, -0.000118785, -0.000597342, -0.0558778, 11.1552, -11.0173, -2.6077, -17.007, 13.9526, 10.0713, -0.278628, 51.0948, -12.4432, 4.85857, -13.202, -2.58596, 3.60915, 0.443514, 0, 0, 0, 11.1552, -11.0173, -2.6077, -17.007, 6.97631, 5.03563, 6.97631, 0, 0, -25.5305, 0, 71.1634, 0, 0, 35.5971, 1.44272e-05, 0, 0, 0, 0, 0, 0, 0
0.00626713, -0.0393053, 0.695584, 0.100066, -1.13544, 1.37653, -0.341153, 0.099997, 0.23, 0.999997, 0.23, 0.999997, 0.0298213, 0.00298118, -0.000299313, 0.0208748, -0.0208748, 3.0189e-17, -8.09478e-17, -0.00072611, -8.13203e-05, -0.000651079, -0.000120791, -0.000598521, -0.0574056, 11.1638, -11.0193, -2.60688, -17.0092, 13.9522, 10.0719, -0.278551, 52.0669, -12.6799, 5.02614, -13.5909, -2.67805, 3.58431, 0.483149, 0, 0, 0, 11.1638, -11.0193, -2.60688, -17.0092, 6.97609, 5.03593, 6.97609, 0, 0, -25.5198, 0, 71.2055, 0, 0, 35.6138, 1.03569e-05, 0, 0, 0, 0, 0, 0, 0
0.00643205, -0.0393048, 0.695584, 0.100069, -1.13544, 1.37653, -0.341153, 0.0999969, 0.23, 0.999997, 0.23, 0.999997, 0.0298117, 0.00305846, -0.000307084, 0.021416, -0.021416, 3.19469e-17, -8.82492e-17, -0.000729269, -8.22399e-05, -0.000653043, -0.000122747, -0.000599106, -0.0589329, 11.1724, -11.0214, -2.60604, -17.0115, 13.9517, 10.0724, -0.278468, 53.039, -12.9167, 5.19371, -13.9798, -2.77015, 3.55946, 0.522785, 0, 0, 0, 11.1724, -11.0214, -2.60604, -17.0115, 6.97586, 5.03622, 6.97586, 0, 0, -25.509, 0, 71.2483, 0, 0, 35.631, 6.39854e-06, 0, 0, 0, 0, 0, 0, 0
0.00659697, -0.0393043, 0.695584, 0.100073, -1.13545, 1.37653, -0.341153, 0.0999968, 0.23, 0.999997, 0.23, 0.999997, 0.0298019, 0.00313569, -0.000314849, 0.0219568, -0.0219568, 3.3537e-17, -9.56888e-17, -0.0007318, -8.31101e-05, -0.000654428, -0.000124653, -0.000599113, -0.0604596, 11.1812, -11.0236, -2.60517, -17.0138, 13.9513, 10.073, -0.278379, 54.0111, -13.1534, 5.36128, -14.3687, -2.86224, 3.53462, 0.562421, 0, 0, 0, 11.1812, -11.0236, -2.60517, -17.0138, 6.97563, 5.03652, 6.97563, 0, 0, -25.498, 0, 71.2916, 0, 0, 35.6485, 2.55193e-06, 0, 0, 0, 0, 0, 0, 0
0.0067619, -0.0393037, 0.695584, 0.100076, -1.13545, 1.37653, -0.341153, 0.0999967, 0.23, 0.999997, 0.23, 0.999997, 0.0297918, 0.00321286, -0.00032261, 0.0224972, -0.0224972, 3.49491e-17, -1.03239e-16, -0.000733717, -8.39318e-05, -0.000655249, -0.00012651, -0.000598557, -0.0619856, 11.1902, -11.0258, -2.60427, -17.0162, 13.9508, 10.0736, -0.278283, 54.9833, -13.3902, 5.52885, -14.7575, -2.95433, 3.50977, 0.602056, 0, 0, 0, 11.1902, -11.0258, -2.60427, -17.0162, 6.97539, 5.03681, 6.97539, 0, 0, -25.4869, 0, 71.3356, 0, 0, 35.6665, -1.18298e-06, 0, 0, 0, 0, 0, 0, 0
0.00692682, -0.0393032, 0.695584, 0.10008, -1.13545, 1.37653, -0.341153, 0.0999966, 0.23, 0.999997, 0.229999, 0.999997, 0.0297814, 0.00328998, -0.000330365, 0.0230371, -0.0230371, 3.61734e-17, -1.10871e-16, -0.000735036, -8.4706e-05, -0.000655522, -0.00012832, -0.000597451, -0.0635107, 11.1994, -11.028, -2.60335, -17.0187, 13.9503, 10.0742, -0.27818, 55.9554, -13.6269, 5.69642, -15.1464, -3.04643, 3.48493, 0.641692, 0, 0, 0, 11.1994, -11.028, -2.60335, -17.0187, 6.97514, 5.0371, 6.97514, 0, 0, -25.4757, 0, 71.3802, 0, 0, 35.685, -4.80629e-06, 0, 0, 0, 0, 0, 0, 0
0.00709175, -0.0393026, 0.695584, 0.100084, -1.13546, 1.37653, -0.341153, 0.0999964, 0.23, 0.999997, 0.229999, 0.999997, 0.0297708, 0.00336703, -0.000338116, 0.0235767, -0.0235767, 3.73967e-17, -1.18391e-16, -0.00073577, -8.54337e-05, -0.00065526, -0.000130082, -0.000595813, -0.0650349, 11.2087, -11.0303, -2.60239, -17.0212, 13.9498, 10.0748, -0.278071, 56.9275, -13.8637, 5.86399, -15.5353, -3.13852, 3.46008, 0.681328, 0, 0, 0, 11.2087, -11.0303, -2.60239, -17.0212, 6.97489, 5.03738, 6.97489, 0, 0, -25.4643, 0, 71.4255, 0, 0, 35.7038, -8.31808e-06, 0, 0, 0, 0, 0, 0, 0
0.00725667, -0.0393021, 0.695584, 0.100088, -1.13546, 1.37653, -0.341153, 0.0999963, 0.23, 0.999997, 0.229999, 0.999997, 0.02976, 0.00344403, -0.000345862, 0.0241159, -0.0241159, 3.87823e-17, -1.25625e-16, -0.000735933, -8.61155e-05, -0.000654479, -0.000131799, -0.000593656, -0.0665581, 11.2182, -11.0326, -2.60141, -17.0238, 13.9493, 10.0753, -0.277955, 57.8996, -14.1004, 6.03157, -15.9242, -3.23062, 3.43524, 0.720963, 0, 0, 0, 11.2182, -11.0326, -2.60141, -17.0238, 6.97463, 5.03767, 6.97463, 0, 0, -25.4528, 0, 71.4713, 0, 0, 35.7231, -1.17184e-05, 0, 0, 0, 0, 0, 0, 0
0.0074216, -0.0393015, 0.695584, 0.100092, -1.13547, 1.37653, -0.341153, 0.0999962, 0.23, 0.999997, 0.229999, 0.999997, 0.0297489, 0.00352097, -0.000353603, 0.0246547, -0.0246547, 4.01672e-17, -1.32674e-16, -0.00073554, -8.67527e-05, -0.000653194, -0.00013347, -0.000590995, -0.0680801, 11.2278, -11.0349, -2.6004, -17.0265, 13.9487, 10.0759, -0.277833, 58.8717, -14.3372, 6.19914, -16.3131, -3.32271, 3.41039, 0.760599, 0, 0, 0, 11.2278, -11.0349, -2.6004, -17.0265, 6.97436, 5.03795, 6.97436, 0, 0, -25.4412, 0, 71.5178, 0, 0, 35.7428, -1.50075e-05, 0, 0, 0, 0, 0, 0, 0
0.00758652, -0.0393009, 0.695584, 0.100096, -1.13547, 1.37653, -0.341153, 0.0999961, 0.23, 0.999996, 0.229999, 0.999997, 0.0297375, 0.00359786, -0.000361339, 0.025193, -0.025193, 4.15798e-17, -1.39478e-16, -0.000734605, -8.73461e-05, -0.00065142, -0.000135097, -0.000587845, -0.0696008, 11.2376, -11.0373, -2.59937, -17.0292, 13.9482, 10.0765, -0.277704, 59.8438, -14.5739, 6.36671, -16.7019, -3.4148, 3.38555, 0.800235, 0, 0, 0, 11.2376, -11.0373, -2.59937, -17.0292, 6.97408, 5.03823, 6.97408, 0, 0, -25.4294, 0, 71.5649, 0, 0, 35.763, -1.81854e-05, 0, 0, 0, 0, 0, 0, 0
0.00775144, -0.0393003, 0.695584, 0.1001, -1.13547, 1.37653, -0.341153, 0.0999959, 0.23, 0.999996, 0.229999, 0.999997, 0.0297259, 0.00367469, -0.000369071, 0.025731, -0.025731, 4.30511e-17, -1.45974e-16, -0.000733141, -8.78967e-05, -0.000649171, -0.000136682, -0.000584222, -0.0711202, 11.2475, -11.0397, -2.5983, -17.032, 13.9476, 10.077, -0.277569, 60.8159, -14.8107, 6.53428, -17.0908, -3.5069, 3.3607, 0.839871, 0, 0, 0, 11.2475, -11.0397, -2.5983, -17.032, 6.97379, 5.03851, 6.97379, 0, 0, -25.4175, 0, 71.6127, 0, 0, 35.7835, -2.12522e-05, 0, 0, 0, 0, 0, 0, 0
0.00791637, -0.0392997, 0.695584, 0.100105, -1.13548, 1.37653, -0.341153, 0.0999958, 0.23, 0.999996, 0.229999, 0.999996, 0.0297141, 0.00375146, -0.000376798, 0.0262686, -0.0262686, 4.46147e-17, -1.52098e-16, -0.000731164, -8.84055e-05, -0.000646464, -0.000138224, -0.00058014, -0.0726381, 11.2576, -11.0422, -2.59721, -17.0348, 13.947, 10.0776, -0.277427, 61.7881, -15.0474, 6.70185, -17.4797, -3.59899, 3.33586, 0.879506, 0, 0, 0, 11.2576, -11.0422, -2.59721, -17.0348, 6.9735, 5.03878, 6.9735, 0, 0, -25.4054, 0, 71.6611, 0, 0, 35.8045, -2.4208e-05, 0, 0, 0, 0, 0, 0, 0
0.00808129, -0.0392991, 0.695584, 0.100109, -1.13548, 1.37653, -0.341153, 0.0999957, 0.23, 0.999996, 0.229999, 0.999996, 0.029702, 0.00382817, -0.00038452, 0.0268058, -0.0268058, 4.63072e-17, -1.57781e-16, -0.000728688, -8.88734e-05, -0.000643311, -0.000139725, -0.000575614, -0.0741543, 11.2679, -11.0447, -2.59609, -17.0378, 13.9464, 10.0781, -0.277279, 62.7602, -15.2842, 6.86942, -17.8686, -3.69109, 3.31101, 0.919142, 0, 0, 0, 11.2679, -11.0447, -2.59609, -17.0378, 6.9732, 5.03906, 6.9732, 0, 0, -25.3932, 0, 71.7101, 0, 0, 35.8259, -2.7053e-05, 0, 0, 0, 0, 0, 0, 0
0.00824622, -0.0392984, 0.695584, 0.100113, -1.13549, 1.37653, -0.341153, 0.0999956, 0.23, 0.999996, 0.229999, 0.999996, 0.0296896, 0.00390483, -0.000392237, 0.0273426, -0.0273426, 4.81679e-17, -1.62956e-16, -0.000725726, -8.93014e-05, -0.00063973, -0.000141185, -0.000570659, -0.0756689, 11.2783, -11.0472, -2.59495, -17.0407, 13.9458, 10.0787, -0.277124, 63.7323, -15.5209, 7.03699, -18.2575, -3.78318, 3.28617, 0.958778, 0, 0, 0, 11.2783, -11.0472, -2.59495, -17.0407, 6.97289, 5.03933, 6.97289, 0, 0, -25.3809, 0, 71.7597, 0, 0, 35.8478, -2.97873e-05, 0, 0, 0, 0, 0, 0, 0
0.00841114, -0.0392978, 0.695584, 0.100118, -1.13549, 1.37653, -0.341153, 0.0999955, 0.23, 0.999996, 0.229999, 0.999996, 0.029677, 0.00398144, -0.000399951, 0.027879, -0.027879, 5.02386e-17, -1.67549e-16, -0.000722293, -8.96904e-05, -0.000635734, -0.000142606, -0.00056529, -0.0771816, 11.2889, -11.0498, -2.59377, -17.0438, 13.9452, 10.0792, -0.276963, 64.7044, -15.7577, 7.20456, -18.6463, -3.87527, 3.26132, 0.998413, 0, 0, 0, 11.2889, -11.0498, -2.59377, -17.0438, 6.97258, 5.0396, 6.97258, 0, 0, -25.3684, 0, 71.8099, 0, 0, 35.8701, -3.24111e-05, 0, 0, 0, 0, 0, 0, 0
0.00857607, -0.0392971, 0.695584, 0.100123, -1.1355, 1.37653, -0.341153, 0.0999953, 0.229999, 0.999996, 0.229999, 0.999996, 0.0296642, 0.00405798, -0.000407659, 0.028415, -0.028415, 5.25642e-17, -1.71486e-16, -0.000718403, -9.00413e-05, -0.000631338, -0.000143989, -0.000559522, -0.0786924, 11.2997, -11.0524, -2.59257, -17.0469, 13.9445, 10.0797, -0.276795, 65.6765, -15.9944, 7.37214, -19.0352, -3.96737, 3.23648, 1.03805, 0, 0, 0, 11.2997, -11.0524, -2.59257, -17.0469, 6.97225, 5.03987, 6.97225, 0, 0, -25.3558, 0, 71.8608, 0, 0, 35.8928, -3.49245e-05, 0, 0, 0, 0, 0, 0, 0
0.00874099, -0.0392965, 0.695584, 0.100127, -1.1355, 1.37653, -0.341153, 0.0999952, 0.229999, 0.999996, 0.229999, 0.999996, 0.0296511, 0.00413447, -0.000415363, 0.0289506, -0.0289506, 5.51921e-17, -1.74692e-16, -0.000714071, -9.0355e-05, -0.000626558, -0.000145334, -0.000553371, -0.0802012, 11.3106, -11.0551, -2.59134, -17.0501, 13.9438, 10.0803, -0.27662, 66.6486, -16.2312, 7.53971, -19.4241, -4.05946, 3.21163, 1.07768, 0, 0, 0, 11.3106, -11.0551, -2.59134, -17.0501, 6.97192, 5.04013, 6.97192, 0, 0, -25.3431, 0, 71.9123, 0, 0, 35.9159, -3.73277e-05, 0, 0, 0, 0, 0, 0, 0
0.00890591, -0.0392958, 0.695583, 0.100132, -1.13551, 1.37653, -0.341153, 0.0999951, 0.229999, 0.999996, 0.229999, 0.999996, 0.0296377, 0.00421091, -0.000423063, 0.0294859, -0.0294859, 5.81725e-17, -1.77088e-16, -0.00070931, -9.06326e-05, -0.000621409, -0.000146642, -0.00054685, -0.0817078, 11.3217, -11.0578, -2.59008, -17.0533, 13.9432, 10.0808, -0.276439, 67.6208, -16.468, 7.70728, -19.813, -4.15156, 3.18679, 1.11732, 0, 0, 0, 11.3217, -11.0578, -2.59008, -17.0533, 6.97158, 5.0404, 6.97158, 0, 0, -25.3302, 0, 71.9644, 0, 0, 35.9395, -3.96208e-05, 0, 0, 0, 0, 0, 0, 0
0.00907084, -0.0392951, 0.695583, 0.100137, -1.13551, 1.37653, -0.341153, 0.099995, 0.229999, 0.999995, 0.229999, 0.999996, 0.0296241, 0.00428729, -0.000430758, 0.0300207, -0.0300207, 6.15584e-17, -1.78591e-16, -0.000704135, -9.0875e-05, -0.000615904, -0.000147915, -0.000539975, -0.0832122, 11.3329, -11.0605, -2.5888, -17.0566, 13.9425, 10.0813, -0.276252, 68.5929, -16.7047, 7.87485, -20.2019, -4.24365, 3.16194, 1.15696, 0, 0, 0, 11.3329, -11.0605, -2.5888, -17.0566, 6.97124, 5.04066, 6.97124, 0, 0, -25.3172, 0, 72.0172, 0, 0, 35.9634, -4.18039e-05, 0, 0, 0, 0, 0, 0, 0
0.00923576, -0.0392944, 0.695583, 0.100142, -1.13552, 1.37653, -0.341153, 0.0999949, 0.229999, 0.999995, 0.229999, 0.999996, 0.0296103, 0.00436362, -0.000438448, 0.0305552, -0.0305552, 6.45125e-17, -1.79612e-16, -0.00069856, -9.10831e-05, -0.00061006, -0.000149153, -0.000532761, -0.0847142, 11.3443, -11.0633, -2.58749, -17.06, 13.9418, 10.0818, -0.276058, 69.565, -16.9415, 8.04242, -20.5907, -4.33574, 3.1371, 1.19659, 0, 0, 0, 11.3443, -11.0633, -2.58749, -17.06, 6.97088, 5.04092, 6.97088, 0, 0, -25.304, 0, 72.0705, 0, 0, 35.9879, -4.38774e-05, 0, 0, 0, 0, 0, 0, 0
0.00940069, -0.0392936, 0.695583, 0.100147, -1.13552, 1.37653, -0.341153, 0.0999948, 0.229999, 0.999995, 0.229999, 0.999996, 0.0295962, 0.00443989, -0.000446135, 0.0310893, -0.0310893, 6.67443e-17, -1.80257e-16, -0.0006926, -9.12581e-05, -0.000603891, -0.000150358, -0.000525223, -0.0862138, 11.3558, -11.0661, -2.58615, -17.0634, 13.941, 10.0824, -0.275857, 70.5371, -17.1782, 8.20999, -20.9796, -4.42784, 3.11225, 1.23623, 0, 0, 0, 11.3558, -11.0661, -2.58615, -17.0634, 6.97052, 5.04118, 6.97052, 0, 0, -25.2907, 0, 72.1245, 0, 0, 36.0127, -4.58412e-05, 0, 0, 0, 0, 0, 0, 0
0.00956561, -0.0392929, 0.695583, 0.100152, -1.13553, 1.37653, -0.341153, 0.0999946, 0.229999, 0.999995, 0.229999, 0.999996, 0.0295819, 0.0045161, -0.000453817, 0.031623, -0.031623, 6.89469e-17, -1.80089e-16, -0.000686268, -9.14007e-05, -0.000597412, -0.000151529, -0.000517376, -0.0877107, 11.3676, -11.069, -2.58478, -17.0669, 13.9403, 10.0829, -0.27565, 71.5092, -17.415, 8.37756, -21.3685, -4.51993, 3.08741, 1.27586, 0, 0, 0, 11.3676, -11.069, -2.58478, -17.0669, 6.97015, 5.04143, 6.97015, 0, 0, -25.2773, 0, 72.1792, 0, 0, 36.038, -4.76957e-05, 0, 0, 0, 0, 0, 0, 0
0.00973054, -0.0392921, 0.695583, 0.100158, -1.13553, 1.37653, -0.341153, 0.0999945, 0.229999, 0.999995, 0.229999, 0.999995, 0.0295673, 0.00459226, -0.000461494, 0.0321563, -0.0321563, 7.11032e-17, -1.79063e-16, -0.000679579, -9.15118e-05, -0.000590638, -0.000152669, -0.000509234, -0.089205, 11.3794, -11.0719, -2.58338, -17.0704, 13.9396, 10.0834, -0.275436, 72.4813, -17.6517, 8.54513, -21.7574, -4.61203, 3.06256, 1.3155, 0, 0, 0, 11.3794, -11.0719, -2.58338, -17.0704, 6.96978, 5.04169, 6.96978, 0, 0, -25.2637, 0, 72.2344, 0, 0, 36.0637, -4.9441e-05, 0, 0, 0, 0, 0, 0, 0
0.00989546, -0.0392914, 0.695583, 0.100163, -1.13554, 1.37653, -0.341153, 0.0999944, 0.229999, 0.999995, 0.229999, 0.999995, 0.0295525, 0.00466837, -0.000469168, 0.0326892, -0.0326892, 7.31943e-17, -1.77134e-16, -0.000672546, -9.15925e-05, -0.000583585, -0.000153778, -0.000500813, -0.0906964, 11.3915, -11.0748, -2.58196, -17.074, 13.9388, 10.0839, -0.275216, 73.4534, -17.8885, 8.71271, -22.1463, -4.70412, 3.03771, 1.35513, 0, 0, 0, 11.3915, -11.0748, -2.58196, -17.074, 6.96939, 5.04194, 6.96939, 0, 0, -25.25, 0, 72.2903, 0, 0, 36.0898, -5.10774e-05, 0, 0, 0, 0, 0, 0, 0
0.0100604, -0.0392906, 0.695583, 0.100168, -1.13554, 1.37653, -0.341153, 0.0999943, 0.229999, 0.999995, 0.229999, 0.999995, 0.0295374, 0.00474442, -0.000476837, 0.0332218, -0.0332218, 7.51997e-17, -1.74255e-16, -0.000665185, -9.16436e-05, -0.000576266, -0.000154857, -0.000492128, -0.0921849, 11.4037, -11.0778, -2.58051, -17.0777, 13.938, 10.0844, -0.274989, 74.4256, -18.1252, 8.88028, -22.5351, -4.79621, 3.01287, 1.39477, 0, 0, 0, 11.4037, -11.0778, -2.58051, -17.0777, 6.969, 5.04219, 6.969, 0, 0, -25.2361, 0, 72.3468, 0, 0, 36.1163, -5.26049e-05, 0, 0, 0, 0, 0, 0, 0
0.0102253, -0.0392898, 0.695583, 0.100174, -1.13555, 1.37653, -0.341153, 0.0999942, 0.229999, 0.999995, 0.229999, 0.999995, 0.0295221, 0.00482042, -0.000484502, 0.033754, -0.033754, 7.7097e-17, -1.70382e-16, -0.000657509, -9.16661e-05, -0.000568697, -0.000155907, -0.000483193, -0.0936704, 11.416, -11.0808, -2.57903, -17.0815, 13.9372, 10.0849, -0.274756, 75.3977, -18.362, 9.04785, -22.924, -4.88831, 2.98802, 1.43441, 0, 0, 0, 11.416, -11.0808, -2.57903, -17.0815, 6.9686, 5.04243, 6.9686, 0, 0, -25.2221, 0, 72.4039, 0, 0, 36.1433, -5.40238e-05, 0, 0, 0, 0, 0, 0, 0
0.0103902, -0.039289, 0.695583, 0.10018, -1.13555, 1.37653, -0.341153, 0.0999941, 0.229999, 0.999995, 0.229999, 0.999995, 0.0295065, 0.00489636, -0.000492163, 0.0342858, -0.0342858, 7.88624e-17, -1.6547e-16, -0.000649533, -9.16609e-05, -0.000560893, -0.000156928, -0.000474024, -0.0951528, 11.4285, -11.0838, -2.57752, -17.0853, 13.9364, 10.0854, -0.274516, 76.3698, -18.5987, 9.21542, -23.3129, -4.9804, 2.96318, 1.47404, 0, 0, 0, 11.4285, -11.0838, -2.57752, -17.0853, 6.96819, 5.04268, 6.96819, 0, 0, -25.208, 0, 72.4617, 0, 0, 36.1707, -5.53344e-05, 0, 0, 0, 0, 0, 0, 0
0.0105552, -0.0392882, 0.695583, 0.100185, -1.13556, 1.37653, -0.341153, 0.099994, 0.229999, 0.999995, 0.229999, 0.999995, 0.0294907, 0.00497225, -0.000499819, 0.0348172, -0.0348172, 8.04703e-17, -1.59474e-16, -0.00064127, -9.1629e-05, -0.000552869, -0.000157922, -0.000464636, -0.0966319, 11.4412, -11.0869, -2.57599, -17.0892, 13.9356, 10.0858, -0.27427, 77.3419, -18.8355, 9.38299, -23.7018, -5.0725, 2.93833, 1.51368, 0, 0, 0, 11.4412, -11.0869, -2.57599, -17.0892, 6.96778, 5.04292, 6.96778, 0, 0, -25.1938, 0, 72.5201, 0, 0, 36.1986, -5.65368e-05, 0, 0, 0, 0, 0, 0, 0
0.0107201, -0.0392874, 0.695583, 0.100191, -1.13556, 1.37653, -0.341153, 0.0999939, 0.229999, 0.999995, 0.229999, 0.999995, 0.0294746, 0.00504809, -0.000507472, 0.0353482, -0.0353482, 8.18932e-17, -1.52348e-16, -0.000632735, -9.15712e-05, -0.000544639, -0.00015889, -0.000455043, -0.0981077, 11.454, -11.09, -2.57443, -17.0931, 13.9347, 10.0863, -0.274017, 78.314, -19.0722, 9.55056, -24.0906, -5.16459, 2.91349, 1.55331, 0, 0, 0, 11.454, -11.09, -2.57443, -17.0931, 6.96736, 5.04316, 6.96736, 0, 0, -25.1793, 0, 72.5791, 0, 0, 36.2268, -5.76313e-05, 0, 0, 0, 0, 0, 0, 0
0.010885, -0.0392865, 0.695583, 0.100197, -1.13557, 1.37653, -0.341153, 0.0999938, 0.229999, 0.999994, 0.229999, 0.999995, 0.0294583, 0.00512387, -0.00051512, 0.0358789, -0.0358789, 8.31023e-17, -1.44049e-16, -0.000623942, -9.14885e-05, -0.00053622, -0.000159833, -0.00044526, -0.09958, 11.467, -11.0932, -2.57284, -17.0971, 13.9339, 10.0868, -0.273758, 79.2861, -19.309, 9.71813, -24.4795, -5.25668, 2.88864, 1.59295, 4.66012e-310, 0, 0, 11.467, -11.0932, -2.57284, -17.0971, 6.96693, 5.0434, 6.96693, 0, 0, -25.1648, 0, 72.6387, 0, 0, 36.2555, -5.86181e-05, 0, 0, 0, 0, 0, 0, 0
0.0110499, -0.0392857, 0.695582, 0.100203, -1.13558, 1.37653, -0.341153, 0.0999937, 0.229999, 0.999994, 0.229999, 0.999995, 0.0294418, 0.0051996, -0.000522765, 0.0364092, -0.0364092, 8.40667e-17, -1.34531e-16, -0.000614906, -9.13819e-05, -0.000527624, -0.00016075, -0.000435303, -0.101049, 11.4802, -11.0964, -2.57122, -17.1012, 13.933, 10.0873, -0.273492, 80.2583, -19.5457, 9.88571, -24.8684, -5.34878, 2.8638, 1.63258, 4.66012e-310, 0, 0, 11.4802, -11.0964, -2.57122, -17.1012, 6.96649, 5.04364, 6.96649, 0, 0, -25.1501, 0, 72.699, 0, 0, 36.2846, -5.94974e-05, 0, 0, 0, 0, 0, 0, 0
0.0112149, -0.0392848, 0.695582, 0.100209, -1.13558, 1.37653, -0.341153, 0.0999936, 0.229999, 0.999994, 0.229999, 0.999995, 0.029425, 0.00527527, -0.000530405, 0.0369391, -0.0369391, 8.47541e-17, -1.2375e-16, -0.000605639, -9.12523e-05, -0.000518869, -0.000161645, -0.000425186, -0.102514, 11.4935, -11.0996, -2.56958, -17.1053, 13.9321, 10.0878, -0.273219, 81.2304, -19.7825, 10.0533, -25.2573, -5.44087, 2.83895, 1.67222, 4.66012e-310, 0, 0, 11.4935, -11.0996, -2.56958, -17.1053, 6.96605, 5.04388, 6.96605, 0, 0, -25.1353, 0, 72.7599, 0, 0, 36.3142, -6.02695e-05, 0, 0, 0, 0, 0, 0, 0
0.0113798, -0.0392839, 0.695582, 0.100215, -1.13559, 1.37653, -0.341153, 0.0999935, 0.229999, 0.999994, 0.229999, 0.999995, 0.029408, 0.00535089, -0.000538042, 0.0374686, -0.0374686, 8.51304e-17, -1.11662e-16, -0.000596158, -9.11005e-05, -0.000509968, -0.000162516, -0.000414925, -0.103975, 11.507, -11.1029, -2.56791, -17.1095, 13.9312, 10.0882, -0.27294, 82.2025, -20.0192, 10.2208, -25.6462, -5.53297, 2.81411, 1.71186, 4.66012e-310, 0, 0, 11.507, -11.1029, -2.56791, -17.1095, 6.96559, 5.04411, 6.96559, 0, 0, -25.1203, 0, 72.8214, 0, 0, 36.3442, -6.09346e-05, 0, 0, 0, 0, 0, 0, 0
0.0115447, -0.0392831, 0.695582, 0.100221, -1.13559, 1.37653, -0.341153, 0.0999934, 0.229999, 0.999994, 0.229999, 0.999995, 0.0293907, 0.00542646, -0.000545675, 0.0379978, -0.0379978, 8.51597e-17, -9.82225e-17, -0.000586475, -9.09276e-05, -0.000500937, -0.000163366, -0.000404533, -0.105432, 11.5206, -11.1062, -2.56621, -17.1138, 13.9303, 10.0887, -0.272654, 83.1746, -20.256, 10.3884, -26.035, -5.62506, 2.78926, 1.75149, 4.66012e-310, 0, 0, 11.5206, -11.1062, -2.56621, -17.1138, 6.96513, 5.04434, 6.96513, 0, 0, -25.1053, 0, 72.8835, 0, 0, 36.3746, -6.1493e-05, 0, 0, 0, 0, 0, 0, 0
0.0117096, -0.0392822, 0.695582, 0.100228, -1.1356, 1.37653, -0.341153, 0.0999933, 0.229999, 0.999994, 0.229999, 0.999995, 0.0293732, 0.00550197, -0.000553303, 0.0385266, -0.0385266, 8.48047e-17, -8.33876e-17, -0.000576605, -9.07344e-05, -0.000491789, -0.000164195, -0.000394028, -0.106886, 11.5344, -11.1096, -2.56448, -17.1181, 13.9293, 10.0891, -0.272362, 84.1467, -20.4927, 10.556, -26.4239, -5.71715, 2.76442, 1.79113, 4.66012e-310, 0, 0, 11.5344, -11.1096, -2.56448, -17.1181, 6.96467, 5.04457, 6.96467, 0, 0, -25.09, 0, 72.9463, 0, 0, 36.4054, -6.19449e-05, 0, 0, 0, 0, 0, 0, 0
0.0118746, -0.0392812, 0.695582, 0.100234, -1.13561, 1.37653, -0.341153, 0.0999932, 0.229999, 0.999994, 0.229999, 0.999995, 0.0293555, 0.00557744, -0.000560928, 0.0390551, -0.0390551, 8.56408e-17, -7.19703e-17, -0.000566562, -9.05219e-05, -0.000482542, -0.000165004, -0.000383422, -0.108335, 11.5484, -11.113, -2.56273, -17.1225, 13.9284, 10.0896, -0.272064, 85.1188, -20.7295, 10.7236, -26.8128, -5.80925, 2.73957, 1.83076, 4.66012e-310, 0, 0, 11.5484, -11.113, -2.56273, -17.1225, 6.96419, 5.0448, 6.96419, 0, 0, -25.0746, 0, 73.0097, 0, 0, 36.4367, -6.22906e-05, 0, 0, 0, 0, 0, 0, 0
0.0120395, -0.0392803, 0.695582, 0.10024, -1.13561, 1.37653, -0.341153, 0.0999931, 0.229999, 0.999994, 0.229999, 0.999994, 0.0293375, 0.00565285, -0.000568549, 0.0395831, -0.0395831, 8.67515e-17, -6.12928e-17, -0.000556361, -9.0291e-05, -0.000473209, -0.000165795, -0.000372732, -0.10978, 11.5625, -11.1164, -2.56094, -17.1269, 13.9274, 10.09, -0.271758, 86.091, -20.9662, 10.8911, -27.2017, -5.90134, 2.71473, 1.8704, 4.66012e-310, 0, 0, 11.5625, -11.1164, -2.56094, -17.1269, 6.96371, 5.04502, 6.96371, 0, 0, -25.0591, 0, 73.0737, 0, 0, 36.4683, -6.25303e-05, 0, 0, 0, 0, 0, 0, 0
0.0122044, -0.0392794, 0.695582, 0.100247, -1.13562, 1.37653, -0.341153, 0.099993, 0.229999, 0.999994, 0.229999, 0.999994, 0.0293193, 0.0057282, -0.000576166, 0.0401108, -0.0401108, 8.78834e-17, -5.06772e-17, -0.000546015, -9.00427e-05, -0.000463805, -0.000166567, -0.000361971, -0.111221, 11.5768, -11.1199, -2.55913, -17.1315, 13.9264, 10.0905, -0.271447, 87.0631, -21.203, 11.0587, -27.5906, -5.99344, 2.68988, 1.91003, 4.66012e-310, 0, 0, 11.5768, -11.1199, -2.55913, -17.1315, 6.96322, 5.04524, 6.96322, 0, 0, -25.0435, 0, 73.1383, 0, 0, 36.5004, -6.26643e-05, 0, 0, 0, 0, 0, 0, 0
0.0123693, -0.0392784, 0.695582, 0.100254, -1.13563, 1.37653, -0.341153, 0.0999929, 0.229999, 0.999994, 0.229999, 0.999994, 0.0293008, 0.00580351, -0.00058378, 0.0406382, -0.0406382, 8.9048e-17, -4.02478e-17, -0.000535539, -8.97778e-05, -0.000454345, -0.000167322, -0.000351156, -0.112657, 11.5912, -11.1234, -2.5573, -17.1361, 13.9254, 10.0909, -0.271128, 88.0352, -21.4398, 11.2263, -27.9794, -6.08553, 2.66504, 1.94967, 4.66012e-310, 0, 0, 11.5912, -11.1234, -2.5573, -17.1361, 6.96272, 5.04546, 6.96272, 0, 0, -25.0277, 0, 73.2036, 0, 0, 36.533, -6.2693e-05, 0, 0, 0, 0, 0, 0, 0
0.0125343, -0.0392775, 0.695582, 0.10026, -1.13563, 1.37653, -0.341153, 0.0999928, 0.229999, 0.999994, 0.229999, 0.999994, 0.0292821, 0.00587876, -0.00059139, 0.0411651, -0.0411651, 9.02575e-17, -3.0136e-17, -0.000524947, -8.94972e-05, -0.000444845, -0.00016806, -0.000340301, -0.114088, 11.6058, -11.127, -2.55543, -17.1407, 13.9244, 10.0914, -0.270804, 89.0073, -21.6765, 11.3938, -28.3683, -6.17762, 2.64019, 1.98931, 4.66012e-310, 0, 0, 11.6058, -11.127, -2.55543, -17.1407, 6.96221, 5.04568, 6.96221, 0, 0, -25.0118, 0, 73.2695, 0, 0, 36.566, -6.26165e-05, 0, 0, 0, 0, 0, 0, 0
0.0126992, -0.0392765, 0.695581, 0.100267, -1.13564, 1.37653, -0.341153, 0.0999927, 0.229999, 0.999994, 0.229999, 0.999994, 0.0292632, 0.00595396, -0.000598996, 0.0416917, -0.0416917, 9.15248e-17, -2.04808e-17, -0.000514252, -8.92019e-05, -0.000435319, -0.000168783, -0.000329421, -0.115515, 11.6206, -11.1306, -2.55354, -17.1454, 13.9234, 10.0918, -0.270472, 89.9794, -21.9133, 11.5614, -28.7572, -6.26972, 2.61535, 2.02894, 4.66012e-310, 0, 0, 11.6206, -11.1306, -2.55354, -17.1454, 6.9617, 5.0459, 6.9617, 0, 0, -24.9957, 0, 73.336, 0, 0, 36.5994, -6.24351e-05, 0, 0, 0, 0, 0, 0, 0
0.0128641, -0.0392755, 0.695581, 0.100274, -1.13565, 1.37653, -0.341153, 0.0999926, 0.229999, 0.999993, 0.229999, 0.999994, 0.029244, 0.00602911, -0.000606598, 0.042218, -0.042218, 9.28636e-17, -1.14286e-17, -0.00050347, -8.88929e-05, -0.000425782, -0.000169492, -0.000318532, -0.116938, 11.6355, -11.1342, -2.55162, -17.1502, 13.9224, 10.0922, -0.270134, 90.9515, -22.15, 11.729, -29.1461, -6.36181, 2.5905, 2.06858, 4.66012e-310, 0, 0, 11.6355, -11.1342, -2.55162, -17.1502, 6.96118, 5.04611, 6.96118, 0, 0, -24.9795, 0, 73.4031, 0, 0, 36.6332, -6.21492e-05, 0, 0, 0, 0, 0, 0, 0
0.013029, -0.0392745, 0.695581, 0.100281, -1.13565, 1.37653, -0.341153, 0.0999926, 0.229999, 0.999993, 0.229999, 0.999994, 0.0292246, 0.00610421, -0.000614197, 0.0427439, -0.0427439, 9.42884e-17, -3.13323e-18, -0.000492614, -8.85709e-05, -0.000416249, -0.000170187, -0.000307647, -0.118355, 11.6506, -11.1379, -2.54967, -17.155, 13.9213, 10.0927, -0.26979, 91.9236, -22.3868, 11.8966, -29.535, -6.45391, 2.56566, 2.10821, 4.66012e-310, 0, 0, 11.6506, -11.1379, -2.54967, -17.155, 6.96065, 5.04633, 6.96065, 0, 0, -24.9632, 0, 73.4709, 0, 0, 36.6674, -6.1759e-05, 0, 0, 0, 0, 0, 0, 0
0.0131939, -0.0392735, 0.695581, 0.100288, -1.13566, 1.37653, -0.341153, 0.0999925, 0.229999, 0.999993, 0.229999, 0.999994, 0.029205, 0.00617925, -0.000621792, 0.0432694, -0.0432694, 9.58142e-17, 4.24388e-18, -0.000481699, -8.8237e-05, -0.000406735, -0.00017087, -0.000296782, -0.119767, 11.6658, -11.1416, -2.54769, -17.1599, 13.9202, 10.0931, -0.269439, 92.8958, -22.6235, 12.0641, -29.9238, -6.546, 2.54081, 2.14785, 4.66012e-310, 0, 0, 11.6658, -11.1416, -2.54769, -17.1599, 6.96011, 5.04654, 6.96011, 0, 0, -24.9467, 0, 73.5393, 0, 0, 36.7021, -6.12649e-05, 0, 0, 0, 0, 0, 0, 0
0.0133589, -0.0392725, 0.695581, 0.100295, -1.13567, 1.37653, -0.341153, 0.0999924, 0.229999, 0.999993, 0.229998, 0.999994, 0.0291851, 0.00625425, -0.000629384, 0.0437946, -0.0437946, 9.74571e-17, 1.0534e-17, -0.000470739, -8.78919e-05, -0.000397255, -0.00017154, -0.000285952, -0.121174, 11.6812, -11.1454, -2.54569, -17.1649, 13.9191, 10.0935, -0.269081, 93.8679, -22.8603, 12.2317, -30.3127, -6.63809, 2.51597, 2.18748, 4.66012e-310, 0, 0, 11.6812, -11.1454, -2.54569, -17.1649, 6.95957, 5.04675, 6.95957, 0, 0, -24.9301, 0, 73.6083, 0, 0, 36.7372, -6.06671e-05, 0, 0, 0, 0, 0, 0, 0
0.0135238, -0.0392714, 0.695581, 0.100303, -1.13568, 1.37653, -0.341153, 0.0999923, 0.229999, 0.999993, 0.229998, 0.999994, 0.029165, 0.00632919, -0.000636972, 0.0443194, -0.0443194, 9.92337e-17, 1.5561e-17, -0.000459747, -8.75368e-05, -0.000387823, -0.0001722, -0.000275172, -0.122576, 11.6968, -11.1491, -2.54366, -17.1699, 13.918, 10.0939, -0.268717, 94.84, -23.097, 12.3993, -30.7016, -6.73019, 2.49112, 2.22712, 4.66012e-310, 0, 0, 11.6968, -11.1491, -2.54366, -17.1699, 6.95902, 5.04695, 6.95902, 0, 0, -24.9133, 0, 73.6779, 0, 0, 36.7727, -5.9966e-05, 0, 0, 0, 0, 0, 0, 0
0.0136887, -0.0392704, 0.695581, 0.10031, -1.13568, 1.37653, -0.341153, 0.0999923, 0.229999, 0.999993, 0.229998, 0.999994, 0.0291447, 0.00640408, -0.000644557, 0.0448438, -0.0448438, 1.01161e-16, 1.91411e-17, -0.000448738, -8.71724e-05, -0.000378456, -0.00017285, -0.000264457, -0.123973, 11.7125, -11.153, -2.5416, -17.175, 13.9169, 10.0943, -0.268347, 95.8121, -23.3338, 12.5668, -31.0905, -6.82228, 2.46628, 2.26676, 4.66012e-310, 0, 0, 11.7125, -11.153, -2.5416, -17.175, 6.95846, 5.04716, 6.95846, 0, 0, -24.8964, 0, 73.7482, 0, 0, 36.8087, -5.91619e-05, 0, 0, 0, 0, 0, 0, 0
0.0138536, -0.0392693, 0.695581, 0.100318, -1.13569, 1.37653, -0.341153, 0.0999922, 0.229999, 0.999993, 0.229998, 0.999994, 0.0291241, 0.00647892, -0.000652138, 0.0453679, -0.0453679, 1.03104e-16, 2.41846e-17, -0.000437726, -8.67999e-05, -0.000369168, -0.000173491, -0.000253821, -0.125364, 11.7284, -11.1568, -2.53951, -17.1802, 13.9158, 10.0947, -0.26797, 96.7842, -23.5705, 12.7344, -31.4794, -6.91438, 2.44143, 2.30639, 4.66012e-310, 0, 0, 11.7284, -11.1568, -2.53951, -17.1802, 6.95789, 5.04736, 6.95789, 0, 0, -24.8794, 0, 73.8191, 0, 0, 36.8451, -5.8255e-05, 0, 0, 0, 0, 0, 0, 0
0.0140186, -0.0392682, 0.695581, 0.100325, -1.1357, 1.37653, -0.341153, 0.0999921, 0.229999, 0.999993, 0.229998, 0.999994, 0.0291033, 0.00655371, -0.000659716, 0.0458917, -0.0458917, 1.05058e-16, 3.09273e-17, -0.000426727, -8.64202e-05, -0.000359974, -0.000174125, -0.000243281, -0.12675, 11.7444, -11.1607, -2.5374, -17.1854, 13.9146, 10.0951, -0.267586, 97.7563, -23.8073, 12.902, -31.8682, -7.00647, 2.41659, 2.34603, 4.66012e-310, 0, 0, 11.7444, -11.1607, -2.5374, -17.1854, 6.95732, 5.04756, 6.95732, 0, 0, -24.8623, 0, 73.8906, 0, 0, 36.8819, -5.72457e-05, 0, 0, 0, 0, 0, 0, 0
0.0141835, -0.0392671, 0.695581, 0.100333, -1.13571, 1.37653, -0.341153, 0.099992, 0.229999, 0.999993, 0.229998, 0.999994, 0.0290823, 0.00662845, -0.00066729, 0.046415, -0.046415, 1.07135e-16, 3.7331e-17, -0.000415753, -8.60341e-05, -0.000350888, -0.000174751, -0.00023285, -0.12813, 11.7606, -11.1647, -2.53526, -17.1907, 13.9135, 10.0955, -0.267196, 98.7285, -24.044, 13.0696, -32.2571, -7.09856, 2.39174, 2.38566, 4.66012e-310, 0, 0, 11.7606, -11.1647, -2.53526, -17.1907, 6.95674, 5.04776, 6.95674, 0, 0, -24.8449, 0, 73.9628, 0, 0, 36.9192, -5.61344e-05, 0, 0, 0, 0, 0, 0, 0
0.0143484, -0.039266, 0.69558, 0.10034, -1.13571, 1.37653, -0.341153, 0.099992, 0.229999, 0.999993, 0.229998, 0.999994, 0.0290611, 0.00670314, -0.000674861, 0.0469381, -0.0469381, 1.09346e-16, 4.33738e-17, -0.000404819, -8.56426e-05, -0.000341926, -0.000175371, -0.000222544, -0.129504, 11.777, -11.1687, -2.53309, -17.196, 13.9123, 10.0959, -0.266799, 99.7006, -24.2808, 13.2371, -32.646, -7.19066, 2.3669, 2.4253, 4.66012e-310, 0, 0, 11.777, -11.1687, -2.53309, -17.196, 6.95615, 5.04795, 6.95615, 0, 0, -24.8275, 0, 74.0356, 0, 0, 36.9568, -5.49213e-05, 0, 0, 0, 0, 0, 0, 0
0.0145133, -0.0392649, 0.69558, 0.100348, -1.13572, 1.37653, -0.341153, 0.0999919, 0.229999, 0.999993, 0.229998, 0.999994, 0.0290396, 0.00677777, -0.000682429, 0.0474608, -0.0474608, 1.11701e-16, 4.90348e-17, -0.000393938, -8.52465e-05, -0.000333103, -0.000175985, -0.000212378, -0.130872, 11.7935, -11.1727, -2.53089, -17.2015, 13.9111, 10.0963, -0.266396, 100.673, -24.5175, 13.4047, -33.0349, -7.28275, 2.34205, 2.46493, 4.66012e-310, 0, 0, 11.7935, -11.1727, -2.53089, -17.2015, 6.95555, 5.04815, 6.95555, 0, 0, -24.8099, 0, 74.109, 0, 0, 36.9949, -5.36069e-05, 0, 0, 0, 0, 0, 0, 0
0.0146783, -0.0392638, 0.69558, 0.100356, -1.13573, 1.37653, -0.341153, 0.0999918, 0.229999, 0.999993, 0.229998, 0.999994, 0.0290179, 0.00685236, -0.000689993, 0.0479831, -0.0479831, 1.14212e-16, 5.42942e-17, -0.000383126, -8.48467e-05, -0.000324434, -0.000176595, -0.000202367, -0.132235, 11.8102, -11.1768, -2.52867, -17.2069, 13.9099, 10.0967, -0.265986, 101.645, -24.7543, 13.5723, -33.4238, -7.37485, 2.31721, 2.50457, 4.66012e-310, 0, 0, 11.8102, -11.1768, -2.52867, -17.2069, 6.95495, 5.04834, 6.95495, 0, 0, -24.7922, 0, 74.183, 0, 0, 37.0334, -5.21913e-05, 0, 0, 0, 0, 0, 0, 0
0.0148432, -0.0392627, 0.69558, 0.100364, -1.13574, 1.37653, -0.341153, 0.0999918, 0.229999, 0.999993, 0.229998, 0.999994, 0.028996, 0.0069269, -0.000697554, 0.0485051, -0.0485051, 1.16892e-16, 5.91336e-17, -0.000372396, -8.44442e-05, -0.000315933, -0.000177202, -0.000192525, -0.133591, 11.827, -11.1809, -2.52641, -17.2125, 13.9087, 10.0971, -0.26557, 102.617, -24.991, 13.7398, -33.8126, -7.46694, 2.29236, 2.54421, 4.66012e-310, 0, 0, 11.827, -11.1809, -2.52641, -17.2125, 6.95434, 5.04853, 6.95434, 0, 0, -24.7743, 0, 74.2576, 0, 0, 37.0724, -5.06751e-05, 0, 0, 0, 0, 0, 0, 0
0.0150081, -0.0392615, 0.69558, 0.100372, -1.13575, 1.37653, -0.341153, 0.0999917, 0.229999, 0.999993, 0.229998, 0.999994, 0.0289738, 0.00700138, -0.000705112, 0.0490267, -0.0490267, 1.19751e-16, 6.35353e-17, -0.000361763, -8.404e-05, -0.000307616, -0.000177806, -0.000182868, -0.134941, 11.844, -11.185, -2.52413, -17.2181, 13.9074, 10.0974, -0.265147, 103.589, -25.2278, 13.9074, -34.2015, -7.55903, 2.26752, 2.58384, 4.66012e-310, 0, 0, 11.844, -11.185, -2.52413, -17.2181, 6.95372, 5.04872, 6.95372, 0, 0, -24.7563, 0, 74.3329, 0, 0, 37.1118, -4.90585e-05, 0, 0, 0, 0, 0, 0, 0
0.015173, -0.0392604, 0.69558, 0.10038, -1.13575, 1.37653, -0.341153, 0.0999917, 0.229999, 0.999993, 0.229998, 0.999994, 0.0289515, 0.00707582, -0.000712667, 0.049548, -0.049548, 1.22803e-16, 6.74831e-17, -0.00035124, -8.36348e-05, -0.000299497, -0.000178408, -0.000173411, -0.136285, 11.8612, -11.1892, -2.52183, -17.2238, 13.9062, 10.0978, -0.264717, 104.561, -25.4645, 14.075, -34.5904, -7.65113, 2.24267, 2.62348, 4.66012e-310, 0, 0, 11.8612, -11.1892, -2.52183, -17.2238, 6.95309, 5.0489, 6.95309, 0, 0, -24.7382, 0, 74.4088, 0, 0, 37.1516, -4.73419e-05, 0, 0, 0, 0, 0, 0, 0
0.015338, -0.0392592, 0.69558, 0.100388, -1.13576, 1.37653, -0.341153, 0.0999916, 0.229999, 0.999993, 0.229998, 0.999994, 0.0289289, 0.00715021, -0.000720218, 0.0500689, -0.0500689, 1.2606e-16, 7.09616e-17, -0.000340842, -8.32296e-05, -0.000291592, -0.000179009, -0.000164169, -0.137622, 11.8785, -11.1934, -2.51949, -17.2295, 13.9049, 10.0982, -0.264282, 105.533, -25.7013, 14.2426, -34.9793, -7.74322, 2.21782, 2.66311, 4.66012e-310, 0, 0, 11.8785, -11.1934, -2.51949, -17.2295, 6.95246, 5.04909, 6.95246, 0, 0, -24.7199, 0, 74.4853, 0, 0, 37.1918, -4.55256e-05, 0, 0, 0, 0, 0, 0, 0
0.0155029, -0.039258, 0.69558, 0.100397, -1.13577, 1.37653, -0.341153, 0.0999915, 0.229999, 0.999993, 0.229998, 0.999994, 0.0289061, 0.00722455, -0.000727767, 0.0505895, -0.0505895, 1.29534e-16, 7.39569e-17, -0.000330583, -8.28254e-05, -0.000283915, -0.000179611, -0.000155156, -0.138952, 11.896, -11.1977, -2.51713, -17.2353, 13.9036, 10.0985, -0.263839, 106.505, -25.938, 14.4101, -35.3682, -7.83532, 2.19298, 2.70275, 4.66012e-310, 0, 0, 11.896, -11.1977, -2.51713, -17.2353, 6.95181, 5.04927, 6.95181, 0, 0, -24.7015, 0, 74.5625, 0, 0, 37.2325, -4.36101e-05, 0, 0, 0, 0, 0, 0, 0
0.0156678, -0.0392568, 0.69558, 0.100405, -1.13578, 1.37653, -0.341153, 0.0999915, 0.229999, 0.999992, 0.229998, 0.999994, 0.028883, 0.00729884, -0.000735312, 0.0511097, -0.0511097, 1.33241e-16, 7.64558e-17, -0.000320477, -8.24231e-05, -0.000276482, -0.000180214, -0.000146387, -0.140277, 11.9137, -11.202, -2.51474, -17.2412, 13.9023, 10.0989, -0.26339, 107.477, -26.1748, 14.5777, -35.757, -7.92741, 2.16813, 2.74238, 4.66012e-310, 0, 0, 11.9137, -11.202, -2.51474, -17.2412, 6.95116, 5.04945, 6.95116, 0, 0, -24.683, 0, 74.6403, 0, 0, 37.2736, -4.15956e-05, 0, 0, 0, 0, 0, 0, 0
0.0158327, -0.0392556, 0.695579, 0.100414, -1.13579, 1.37653, -0.341153, 0.0999914, 0.229999, 0.999992, 0.229998, 0.999993, 0.0288598, 0.00737308, -0.000742854, 0.0516296, -0.0516296, 1.37192e-16, 7.84464e-17, -0.000310539, -8.20235e-05, -0.000269307, -0.000180818, -0.000137878, -0.141594, 11.9315, -11.2063, -2.51232, -17.2471, 13.901, 10.0993, -0.262934, 108.45, -26.4116, 14.7453, -36.1459, -8.0195, 2.14329, 2.78202, 4.66012e-310, 0, 0, 11.9315, -11.2063, -2.51232, -17.2471, 6.95051, 5.04963, 6.95051, 0, 0, -24.6643, 0, 74.7187, 0, 0, 37.3151, -3.94825e-05, 0, 0, 0, 0, 0, 0, 0
0.0159977, -0.0392544, 0.695579, 0.100422, -1.1358, 1.37653, -0.341153, 0.0999914, 0.229999, 0.999992, 0.229998, 0.999993, 0.0288363, 0.00744727, -0.000750394, 0.0521492, -0.0521492, 1.41402e-16, 7.99181e-17, -0.000300782, -8.16276e-05, -0.000262406, -0.000181426, -0.000129644, -0.142904, 11.9494, -11.2107, -2.50988, -17.2531, 13.8997, 10.0996, -0.262472, 109.422, -26.6483, 14.9128, -36.5348, -8.1116, 2.11844, 2.82166, 4.66012e-310, 0, 0, 11.9494, -11.2107, -2.50988, -17.2531, 6.94984, 5.0498, 6.94984, 0, 0, -24.6455, 0, 74.7977, 0, 0, 37.3571, -3.72713e-05, 0, 0, 0, 0, 0, 0, 0
0.0161626, -0.0392531, 0.695579, 0.100431, -1.1358, 1.37653, -0.341153, 0.0999913, 0.229999, 0.999992, 0.229998, 0.999993, 0.0288127, 0.00752141, -0.00075793, 0.0526684, -0.0526684, 1.45885e-16, 8.08611e-17, -0.00029122, -8.12363e-05, -0.000255793, -0.000182037, -0.000121699, -0.144208, 11.9676, -11.2151, -2.5074, -17.2591, 13.8983, 10.1, -0.262004, 110.394, -26.8851, 15.0804, -36.9237, -8.20369, 2.0936, 2.86129, 4.66012e-310, 0, 0, 11.9676, -11.2151, -2.5074, -17.2591, 6.94917, 5.04998, 6.94917, 0, 0, -24.6265, 0, 74.8774, 0, 0, 37.3994, -3.49622e-05, 0, 0, 0, 0, 0, 0, 0
0.0163275, -0.0392519, 0.695579, 0.100439, -1.13581, 1.37653, -0.341153, 0.0999913, 0.229999, 0.999992, 0.229998, 0.999993, 0.0287888, 0.0075955, -0.000765463, 0.0531873, -0.0531873, 1.50656e-16, 8.1267e-17, -0.000281868, -8.08505e-05, -0.000249483, -0.000182653, -0.000114059, -0.145504, 11.9859, -11.2195, -2.5049, -17.2653, 13.897, 10.1003, -0.261529, 111.366, -27.1218, 15.248, -37.3126, -8.29579, 2.06875, 2.90093, 4.66012e-310, 0, 0, 11.9859, -11.2195, -2.5049, -17.2653, 6.94849, 5.05015, 6.94849, 0, 0, -24.6074, 0, 74.9577, 0, 0, 37.4422, -3.25557e-05, 0, 0, 0, 0, 0, 0, 0
0.0164924, -0.0392506, 0.695579, 0.100448, -1.13582, 1.37653, -0.341153, 0.0999913, 0.229999, 0.999992, 0.229998, 0.999993, 0.0287647, 0.00766954, -0.000772994, 0.0537058, -0.0537058, 1.55729e-16, 8.11283e-17, -0.00027274, -8.04712e-05, -0.000243492, -0.000183274, -0.000106738, -0.146793, 12.0043, -11.224, -2.50237, -17.2715, 13.8956, 10.1006, -0.261047, 112.338, -27.3586, 15.4156, -37.7014, -8.38788, 2.04391, 2.94056, 4.66012e-310, 0, 0, 12.0043, -11.224, -2.50237, -17.2715, 6.9478, 5.05032, 6.9478, 0, 0, -24.5882, 0, 75.0386, 0, 0, 37.4855, -3.00522e-05, 0, 0, 0, 0, 0, 0, 0
0.0164924, -0.0392506, 0.695579, 0.100448, -1.13582, 1.37653, -0.341153, 0.0999913, 0.229999, 0.999992, 0.229998, 0.999993, 0.0287647, 0.00766954, -0.000772994, 0.0537058, -0.0537058, 1.55729e-16, 8.11283e-17, -0.00027274, -8.04712e-05, -0.000243492, -0.000183274, -0.000106738, -0.146793, 12.0043, -11.224, -2.50237, -17.2715, 13.8956, 10.1006, -0.261047, 112.338, -27.3586, 15.4156, -37.7014, -8.38788, 2.04391, 2.94056, 4.66012e-310, 0, 0, 12.0043, -11.224, -2.50237, -17.2715, 6.9478, 5.05032, 6.9478, 0, 0, -24.5882, 0, 75.0386, 0, 0, 37.4855, -3.00522e-05, 0, 0, 0, 0, 0, 0, 0
0.0164924, -0.0392506, 0.695579, 0.100448, -1.13582, 1.37653, -0.341153, 0.0999912, 0.229999, 0.999992, 0.229998, 0.999993, 0.0287647, 0.00766954, -0.000772993, 0.0537058, -0.0537058, 7.902e-13, 6.07169e-13, -0.00027274, -8.04716e-05, -0.000243492, -0.000183274, -0.000106738, -0.146793, 12.0043, -11.224, -2.50237, -17.2715, 13.8956, 10.1006, -0.261047, 112.338, -27.3586, 15.4156, -37.7014, -8.38788, 2.04391, 2.94056, 4.66012e-310, 0, 0, 12.0043, -11.224, -2.50237, -17.2715, 6.9478, 5.05032, 6.9478, 0, 0, -24.5882, 0, 75.0386, 0, 0, 37.4855, -3.00519e-05, 0, 0, 0, 0, 0, 0, 0
0.0166574, -0.0392494, 0.695579, 0.100457, -1.13583, 1.37653, -0.341153, 0.0999912, 0.229999, 0.999992, 0.229998, 0.999993, 0.0287404, 0.00774354, -0.000780521, 0.054224, -0.054224, 7.90198e-13, 6.07167e-13, -0.000263856, -8.01e-05, -0.000237843, -0.000183902, -9.97607e-05, -0.148075, 12.0229, -11.2286, -2.49983, -17.2777, 13.8942, 10.101, -0.260562, 112.715, -27.5672, 15.4262, -37.825, -8.38625, 2.08367, 2.94326, 4.66012e-310, 0, 0, 12.0229, -11.2286, -2.49983, -17.2777, 6.94711, 5.05049, 6.94711, 0, 0, -24.5688, 0, 75.12, 0, 0, 37.529, -2.75237e-05, 0, 0, 0, 0, 0, 0, 0
0.0168223, -0.0392481, 0.695579, 0.100466, -1.13584, 1.37653, -0.341153, 0.0999912, 0.229999, 0.999992, 0.229998, 0.999993, 0.0287159, 0.00781748, -0.000788045, 0.0547419, -0.0547419, 7.90199e-13, 6.07165e-13, -0.000255199, -7.97356e-05, -0.000232509, -0.000184537, -9.31006e-05, -0.149349, 12.0415, -11.2331, -2.49728, -17.2839, 13.8928, 10.1013, -0.260076, 113.091, -27.7759, 15.4368, -37.9487, -8.38463, 2.12343, 2.94597, 4.66012e-310, 0, 0, 12.0415, -11.2331, -2.49728, -17.2839, 6.94642, 5.05066, 6.94642, 0, 0, -24.5494, 0, 75.2018, 0, 0, 37.5726, -2.50388e-05, 0, 0, 0, 0, 0, 0, 0
0.0169872, -0.0392468, 0.695579, 0.100475, -1.13585, 1.37653, -0.341153, 0.0999911, 0.229999, 0.999992, 0.229998, 0.999993, 0.0286911, 0.00789138, -0.000795567, 0.0552594, -0.0552594, 7.90199e-13, 6.07161e-13, -0.000246773, -7.93789e-05, -0.000227499, -0.000185178, -8.67643e-05, -0.150617, 12.0602, -11.2377, -2.49474, -17.2902, 13.8915, 10.1017, -0.25959, 113.468, -27.9846, 15.4474, -38.0723, -8.383, 2.16319, 2.94867, 4.66012e-310, 0, 0, 12.0602, -11.2377, -2.49474, -17.2902, 6.94573, 5.05084, 6.94573, 0, 0, -24.53, 0, 75.2839, 0, 0, 37.6164, -2.25983e-05, 0, 0, 0, 0, 0, 0, 0
0.0171521, -0.0392455, 0.695578, 0.100484, -1.13586, 1.37653, -0.341153, 0.0999911, 0.229999, 0.999992, 0.229998, 0.999993, 0.0286662, 0.00796523, -0.000803086, 0.0557766, -0.0557766, 7.90199e-13, 6.07156e-13, -0.000238576, -7.90301e-05, -0.000222807, -0.000185826, -8.07474e-05, -0.151877, 12.0789, -11.2424, -2.49219, -17.2965, 13.8901, 10.102, -0.259103, 113.845, -28.1933, 15.4581, -38.1959, -8.38138, 2.20295, 2.95137, 4.66012e-310, 0, 0, 12.0789, -11.2424, -2.49219, -17.2965, 6.94503, 5.05102, 6.94503, 0, 0, -24.5105, 0, 75.3664, 0, 0, 37.6604, -2.02023e-05, 0, 0, 0, 0, 0, 0, 0
0.0173171, -0.0392442, 0.695578, 0.100494, -1.13587, 1.37653, -0.341153, 0.099991, 0.229999, 0.999992, 0.229998, 0.999993, 0.028641, 0.00803903, -0.000810601, 0.0562934, -0.0562934, 7.902e-13, 6.07156e-13, -0.000230602, -7.86893e-05, -0.000218424, -0.000186482, -7.50416e-05, -0.153129, 12.0977, -11.247, -2.48964, -17.3028, 13.8887, 10.1024, -0.258616, 114.221, -28.4019, 15.4687, -38.3195, -8.37975, 2.24271, 2.95407, 4.66012e-310, 0, 0, 12.0977, -11.247, -2.48964, -17.3028, 6.94434, 5.0512, 6.94434, 0, 0, -24.491, 0, 75.4493, 0, 0, 37.7044, -1.78505e-05, 0, 0, 0, 0, 0, 0, 0
0.017482, -0.0392428, 0.695578, 0.100503, -1.13588, 1.37653, -0.341153, 0.099991, 0.229999, 0.999992, 0.229998, 0.999993, 0.0286157, 0.00811278, -0.000818114, 0.0568099, -0.0568099, 7.90202e-13, 6.07161e-13, -0.000222852, -7.83565e-05, -0.000214351, -0.000187144, -6.96468e-05, -0.154374, 12.1166, -11.2517, -2.48709, -17.3091, 13.8873, 10.1028, -0.258129, 114.598, -28.6106, 15.4793, -38.4431, -8.37813, 2.28247, 2.95677, 4.66012e-310, 0, 0, 12.1166, -11.2517, -2.48709, -17.3091, 6.94365, 5.05139, 6.94365, 0, 0, -24.4714, 0, 75.5325, 0, 0, 37.7487, -1.55429e-05, 0, 0, 0, 0, 0, 0, 0
0.0176469, -0.0392415, 0.695578, 0.100512, -1.13589, 1.37653, -0.341153, 0.099991, 0.229999, 0.999992, 0.229998, 0.999993, 0.0285901, 0.00818647, -0.000825624, 0.057326, -0.057326, 7.90204e-13, 6.07168e-13, -0.000215323, -7.80318e-05, -0.000210584, -0.000187813, -6.45592e-05, -0.155612, 12.1355, -11.2565, -2.48453, -17.3155, 13.8859, 10.1032, -0.257641, 114.974, -28.8193, 15.4899, -38.5667, -8.3765, 2.32223, 2.95948, 4.66012e-310, 0, 0, 12.1355, -11.2565, -2.48453, -17.3155, 6.94296, 5.05158, 6.94296, 0, 0, -24.4517, 0, 75.6162, 0, 0, 37.793, -1.32793e-05, 0, 0, 0, 0, 0, 0, 0
0.0178118, -0.0392401, 0.695578, 0.100522, -1.1359, 1.37653, -0.341153, 0.0999909, 0.229999, 0.999992, 0.229998, 0.999993, 0.0285644, 0.00826012, -0.000833131, 0.0578418, -0.0578418, 7.90206e-13, 6.07172e-13, -0.000208008, -7.77155e-05, -0.000207112, -0.000188491, -5.97672e-05, -0.156843, 12.1545, -11.2612, -2.48198, -17.3219, 13.8845, 10.1035, -0.257153, 115.351, -29.028, 15.5006, -38.6903, -8.37487, 2.36199, 2.96218, 4.66012e-310, 0, 0, 12.1545, -11.2612, -2.48198, -17.3219, 6.94227, 5.05177, 6.94227, 0, 0, -24.432, 0, 75.7001, 0, 0, 37.8375, -1.10596e-05, 0, 0, 0, 0, 0, 0, 0
0.0179768, -0.0392388, 0.695578, 0.100531, -1.1359, 1.37653, -0.341153, 0.0999909, 0.229999, 0.999992, 0.229998, 0.999993, 0.0285384, 0.00833372, -0.000840634, 0.0583572, -0.0583572, 7.90206e-13, 6.07173e-13, -0.000200905, -7.74076e-05, -0.000203932, -0.000189175, -5.52689e-05, -0.158066, 12.1736, -11.266, -2.47942, -17.3282, 13.8832, 10.1039, -0.256664, 115.728, -29.2367, 15.5112, -38.8139, -8.37325, 2.40175, 2.96488, 4.66012e-310, 0, 0, 12.1736, -11.266, -2.47942, -17.3282, 6.94158, 5.05197, 6.94158, 0, 0, -24.4123, 0, 75.7845, 0, 0, 37.8822, -8.88371e-06, 0, 0, 0, 0, 0, 0, 0
0.0181417, -0.0392374, 0.695578, 0.100541, -1.13591, 1.37653, -0.341153, 0.0999909, 0.229999, 0.999992, 0.229998, 0.999993, 0.0285122, 0.00840726, -0.000848135, 0.0588723, -0.0588723, 7.90206e-13, 6.07167e-13, -0.000194011, -7.71084e-05, -0.000201039, -0.000189867, -5.10593e-05, -0.159282, 12.1927, -11.2709, -2.47686, -17.3347, 13.8818, 10.1043, -0.256175, 116.104, -29.4453, 15.5218, -38.9375, -8.37162, 2.44151, 2.96758, 4.66012e-310, 0, 0, 12.1927, -11.2709, -2.47686, -17.3347, 6.94089, 5.05217, 6.94089, 0, 0, -24.3925, 0, 75.8692, 0, 0, 37.9269, -6.7515e-06, 0, 0, 0, 0, 0, 0, 0
0.0183066, -0.039236, 0.695577, 0.100551, -1.13592, 1.37653, -0.341153, 0.0999908, 0.229999, 0.999992, 0.229998, 0.999993, 0.0284859, 0.00848076, -0.000855633, 0.059387, -0.059387, 7.90205e-13, 6.07162e-13, -0.000187326, -7.68177e-05, -0.000198433, -0.000190567, -4.71373e-05, -0.160491, 12.2119, -11.2758, -2.4743, -17.3411, 13.8804, 10.1047, -0.255685, 116.481, -29.654, 15.5325, -39.0612, -8.37, 2.48127, 2.97028, 4.66012e-310, 0, 0, 12.2119, -11.2758, -2.4743, -17.3411, 6.9402, 5.05237, 6.9402, 0, 0, -24.3726, 0, 75.9543, 0, 0, 37.9718, -4.66285e-06, 0, 0, 0, 0, 0, 0, 0
0.0184715, -0.0392346, 0.695577, 0.100561, -1.13593, 1.37653, -0.341153, 0.0999908, 0.229999, 0.999992, 0.229998, 0.999993, 0.0284593, 0.0085542, -0.000863128, 0.0599013, -0.0599013, 7.90205e-13, 6.0716e-13, -0.000180847, -7.65357e-05, -0.000196109, -0.000191275, -4.34993e-05, -0.161692, 12.2311, -11.2807, -2.47174, -17.3475, 13.879, 10.1052, -0.255195, 116.858, -29.8627, 15.5431, -39.1848, -8.36837, 2.52103, 2.97299, 4.66012e-310, 0, 0, 12.2311, -11.2807, -2.47174, -17.3475, 6.93951, 5.05258, 6.93951, 0, 0, -24.3527, 0, 76.0398, 0, 0, 38.0169, -2.61762e-06, 0, 0, 0, 0, 0, 0, 0
0.0186365, -0.0392332, 0.695577, 0.100571, -1.13594, 1.37653, -0.341153, 0.0999908, 0.229999, 0.999992, 0.229998, 0.999993, 0.0284325, 0.00862759, -0.000870619, 0.0604153, -0.0604153, 7.90205e-13, 6.07159e-13, -0.000174571, -7.62626e-05, -0.000194063, -0.00019199, -4.01401e-05, -0.162886, 12.2504, -11.2856, -2.46917, -17.354, 13.8776, 10.1056, -0.254705, 117.234, -30.0714, 15.5537, -39.3084, -8.36674, 2.56079, 2.97569, 4.66012e-310, 0, 0, 12.2504, -11.2856, -2.46917, -17.354, 6.93882, 5.05279, 6.93882, 0, 0, -24.3327, 0, 76.1256, 0, 0, 38.0621, -6.15694e-07, 0, 0, 0, 0, 0, 0, 0
0.0188014, -0.0392317, 0.695577, 0.100581, -1.13595, 1.37653, -0.341153, 0.0999907, 0.229999, 0.999992, 0.229998, 0.999993, 0.0284056, 0.00870093, -0.000878108, 0.0609289, -0.0609289, 7.90205e-13, 6.07157e-13, -0.000168496, -7.59984e-05, -0.000192291, -0.000192714, -3.7056e-05, -0.164073, 12.2698, -11.2906, -2.46661, -17.3605, 13.8763, 10.106, -0.254214, 117.611, -30.28, 15.5643, -39.432, -8.36512, 2.60055, 2.97839, 4.66012e-310, 0, 0, 12.2698, -11.2906, -2.46661, -17.3605, 6.93813, 5.053, 6.93813, 0, 0, -24.3127, 0, 76.2118, 0, 0, 38.1074, 1.34305e-06, 0, 0, 0, 0, 0, 0, 0
0.0189663, -0.0392303, 0.695577, 0.100591, -1.13596, 1.37653, -0.341153, 0.0999907, 0.229999, 0.999992, 0.229997, 0.999993, 0.0283784, 0.00877422, -0.000885594, 0.0614422, -0.0614422, 7.90205e-13, 6.07157e-13, -0.000162619, -7.57431e-05, -0.000190788, -0.000193445, -3.42429e-05, -0.165252, 12.2892, -11.2956, -2.46404, -17.367, 13.8749, 10.1064, -0.253722, 117.987, -30.4887, 15.575, -39.5556, -8.36349, 2.64031, 2.98109, 4.66012e-310, 0, 0, 12.2892, -11.2956, -2.46404, -17.367, 6.93744, 5.05321, 6.93744, 0, 0, -24.2926, 0, 76.2984, 0, 0, 38.1529, 3.25874e-06, 0, 0, 0, 0, 0, 0, 0
0.0191312, -0.0392288, 0.695577, 0.100601, -1.13597, 1.37653, -0.341153, 0.0999907, 0.229999, 0.999992, 0.229997, 0.999993, 0.0283511, 0.00884745, -0.000893076, 0.0619551, -0.0619551, 7.90206e-13, 6.07158e-13, -0.000156937, -7.54971e-05, -0.000189552, -0.000194185, -3.16969e-05, -0.166424, 12.3087, -11.3006, -2.46147, -17.3736, 13.8735, 10.1069, -0.25323, 118.364, -30.6974, 15.5856, -39.6792, -8.36187, 2.68007, 2.98379, 4.66012e-310, 0, 0, 12.3087, -11.3006, -2.46147, -17.3736, 6.93675, 5.05343, 6.93675, 0, 0, -24.2725, 0, 76.3853, 0, 0, 38.1985, 5.1315e-06, 0, 0, 0, 0, 0, 0, 0
0.0192961, -0.0392274, 0.695577, 0.100611, -1.13598, 1.37653, -0.341153, 0.0999907, 0.229999, 0.999992, 0.229997, 0.999993, 0.0283235, 0.00892063, -0.000900555, 0.0624676, -0.0624676, 7.90207e-13, 6.07157e-13, -0.000151445, -7.52603e-05, -0.000188571, -0.000194933, -2.94082e-05, -0.167588, 12.3282, -11.3057, -2.4589, -17.3801, 13.8721, 10.1073, -0.252738, 118.741, -30.9061, 15.5962, -39.8028, -8.36024, 2.71983, 2.98649, 4.66012e-310, 0, 0, 12.3282, -11.3057, -2.4589, -17.3801, 6.93606, 5.05366, 6.93606, 0, 0, -24.2523, 0, 76.4726, 0, 0, 38.2443, 6.96145e-06, 0, 0, 0, 0, 0, 0, 0
0.0194611, -0.0392259, 0.695576, 0.100621, -1.13599, 1.37653, -0.341153, 0.0999906, 0.229999, 0.999992, 0.229997, 0.999993, 0.0282958, 0.00899376, -0.000908032, 0.0629797, -0.0629797, 7.90209e-13, 6.07156e-13, -0.000146141, -7.50331e-05, -0.000187842, -0.00019569, -2.7373e-05, -0.168745, 12.3479, -11.3108, -2.45633, -17.3867, 13.8707, 10.1078, -0.252245, 119.117, -31.1147, 15.6068, -39.9264, -8.35862, 2.75959, 2.9892, 4.66012e-310, 0, 0, 12.3479, -11.3108, -2.45633, -17.3867, 6.93537, 5.05388, 6.93537, 0, 0, -24.2321, 0, 76.5603, 0, 0, 38.2902, 8.74872e-06, 0, 0, 0, 0, 0, 0, 0
0.019626, -0.0392244, 0.695576, 0.100632, -1.13601, 1.37653, -0.341153, 0.0999906, 0.229999, 0.999992, 0.229997, 0.999993, 0.0282679, 0.00906683, -0.000915505, 0.0634915, -0.0634915, 7.90211e-13, 6.07153e-13, -0.000141021, -7.48154e-05, -0.000187363, -0.000196455, -2.55882e-05, -0.169895, 12.3675, -11.316, -2.45375, -17.3933, 13.8694, 10.1082, -0.251752, 119.494, -31.3234, 15.6175, -40.05, -8.35699, 2.79935, 2.9919, 4.66012e-310, 0, 0, 12.3675, -11.316, -2.45375, -17.3933, 6.93468, 5.05411, 6.93468, 0, 0, -24.2118, 0, 76.6483, 0, 0, 38.3362, 1.04934e-05, 0, 0, 0, 0, 0, 0, 0
0.0197909, -0.0392229, 0.695576, 0.100642, -1.13602, 1.37653, -0.341153, 0.0999906, 0.229999, 0.999992, 0.229997, 0.999993, 0.0282398, 0.00913985, -0.000922975, 0.0640029, -0.0640029, 7.90215e-13, 6.07151e-13, -0.000136083, -7.46074e-05, -0.000187128, -0.000197229, -2.40494e-05, -0.171038, 12.3873, -11.3212, -2.45117, -17.3999, 13.868, 10.1087, -0.251258, 119.87, -31.5321, 15.6281, -40.1736, -8.35536, 2.83911, 2.9946, 4.66012e-310, 0, 0, 12.3873, -11.3212, -2.45117, -17.3999, 6.93399, 5.05434, 6.93399, 0, 0, -24.1915, 0, 76.7367, 0, 0, 38.3824, 1.21957e-05, 0, 0, 0, 0, 0, 0, 0
0.0199558, -0.0392214, 0.695576, 0.100653, -1.13603, 1.37653, -0.341153, 0.0999906, 0.229999, 0.999992, 0.229997, 0.999993, 0.0282115, 0.00921281, -0.000930442, 0.0645139, -0.0645139, 7.90219e-13, 6.07148e-13, -0.000131325, -7.44092e-05, -0.000187133, -0.000198012, -2.27517e-05, -0.172173, 12.4071, -11.3264, -2.4486, -17.4065, 13.8666, 10.1092, -0.250764, 120.247, -31.7408, 15.6387, -40.2973, -8.35374, 2.87887, 2.9973, 4.66012e-310, 0, 0, 12.4071, -11.3264, -2.4486, -17.4065, 6.9333, 5.05458, 6.9333, 0, 0, -24.1711, 0, 76.8255, 0, 0, 38.4287, 1.38557e-05, 0, 0, 0, 0, 0, 0, 0
0.0201208, -0.0392199, 0.695576, 0.100664, -1.13604, 1.37653, -0.341153, 0.0999905, 0.229999, 0.999992, 0.229997, 0.999993, 0.028183, 0.00928572, -0.000937906, 0.0650245, -0.0650245, 7.90223e-13, 6.07148e-13, -0.000126742, -7.4221e-05, -0.000187371, -0.000198804, -2.16886e-05, -0.1733, 12.4269, -11.3316, -2.44602, -17.4132, 13.8652, 10.1096, -0.25027, 120.624, -31.9494, 15.6493, -40.4209, -8.35211, 2.91863, 3, 4.66012e-310, 0, 0, 12.4269, -11.3316, -2.44602, -17.4132, 6.93262, 5.05482, 6.93262, 0, 0, -24.1507, 0, 76.9146, 0, 0, 38.4752, 1.54735e-05, 0, 0, 0, 0, 0, 0, 0
0.0202857, -0.0392183, 0.695576, 0.100674, -1.13605, 1.37653, -0.341153, 0.0999905, 0.229999, 0.999991, 0.229997, 0.999993, 0.0281543, 0.00935858, -0.000945366, 0.0655348, -0.0655348, 7.90227e-13, 6.07149e-13, -0.000122331, -7.40428e-05, -0.000187838, -0.000199604, -2.08562e-05, -0.174421, 12.4469, -11.3369, -2.44343, -17.4199, 13.8639, 10.1101, -0.249775, 121, -32.1581, 15.66, -40.5445, -8.35049, 2.95839, 3.00271, 4.66012e-310, 0, 0, 12.4469, -11.3369, -2.44343, -17.4199, 6.93193, 5.05506, 6.93193, 0, 0, -24.1302, 0, 77.0042, 0, 0, 38.5218, 1.70493e-05, 0, 0, 0, 0, 0, 0, 0
0.0204506, -0.0392168, 0.695575, 0.100685, -1.13606, 1.37653, -0.341153, 0.0999905, 0.229998, 0.999991, 0.229997, 0.999993, 0.0281254, 0.00943138, -0.000952824, 0.0660447, -0.0660447, 7.90232e-13, 6.07152e-13, -0.00011809, -7.38748e-05, -0.00018853, -0.000200414, -2.02497e-05, -0.175534, 12.4668, -11.3422, -2.44085, -17.4266, 13.8625, 10.1106, -0.249279, 121.377, -32.3668, 15.6706, -40.6681, -8.34886, 2.99815, 3.00541, 4.66012e-310, 0, 0, 12.4668, -11.3422, -2.44085, -17.4266, 6.93124, 5.05531, 6.93124, 0, 0, -24.1096, 0, 77.094, 0, 0, 38.5685, 1.85832e-05, 0, 0, 0, 0, 0, 0, 0
0.0206155, -0.0392152, 0.695575, 0.100696, -1.13607, 1.37653, -0.341153, 0.0999905, 0.229998, 0.999991, 0.229997, 0.999993, 0.0280964, 0.00950413, -0.000960278, 0.0665541, -0.0665541, 7.90236e-13, 6.07157e-13, -0.000114016, -7.37172e-05, -0.000189442, -0.000201234, -1.98643e-05, -0.176639, 12.4869, -11.3476, -2.43826, -17.4333, 13.8611, 10.1111, -0.248783, 121.754, -32.5755, 15.6812, -40.7917, -8.34724, 3.03791, 3.00811, 4.66012e-310, 0, 0, 12.4869, -11.3476, -2.43826, -17.4333, 6.93055, 5.05556, 6.93055, 0, 0, -24.089, 0, 77.1843, 0, 0, 38.6154, 2.00753e-05, 0, 0, 0, 0, 0, 0, 0
0.0207805, -0.0392136, 0.695575, 0.100707, -1.13608, 1.37653, -0.341153, 0.0999905, 0.229998, 0.999991, 0.229997, 0.999993, 0.0280672, 0.00957682, -0.000967729, 0.0670632, -0.0670632, 7.90241e-13, 6.07162e-13, -0.000110105, -7.357e-05, -0.000190569, -0.000202063, -1.96948e-05, -0.177737, 12.507, -11.353, -2.43568, -17.44, 13.8597, 10.1116, -0.248287, 122.13, -32.7842, 15.6919, -40.9153, -8.34561, 3.07766, 3.01081, 4.66012e-310, 0, 0, 12.507, -11.353, -2.43568, -17.44, 6.92986, 5.05581, 6.92986, 0, 0, -24.0684, 0, 77.2749, 0, 0, 38.6624, 2.15257e-05, 0, 0, 0, 0, 0, 0, 0
0.0209454, -0.0392121, 0.695575, 0.100718, -1.13609, 1.37653, -0.341153, 0.0999905, 0.229998, 0.999991, 0.229997, 0.999993, 0.0280378, 0.00964945, -0.000975177, 0.067572, -0.067572, 7.90245e-13, 6.07168e-13, -0.000106354, -7.34335e-05, -0.000191905, -0.000202901, -1.97366e-05, -0.178828, 12.5272, -11.3584, -2.43309, -17.4468, 13.8583, 10.1121, -0.24779, 122.507, -32.9928, 15.7025, -41.0389, -8.34398, 3.11742, 3.01351, 4.66012e-310, 0, 0, 12.5272, -11.3584, -2.43309, -17.4468, 6.92917, 5.05606, 6.92917, 0, 0, -24.0477, 0, 77.3659, 0, 0, 38.7096, 2.29346e-05, 0, 0, 0, 0, 0, 0, 0
0.0211103, -0.0392105, 0.695575, 0.10073, -1.1361, 1.37653, -0.341153, 0.0999904, 0.229998, 0.999991, 0.229997, 0.999993, 0.0280082, 0.00972203, -0.000982622, 0.0680803, -0.0680803, 7.90249e-13, 6.07175e-13, -0.000102761, -7.33077e-05, -0.000193446, -0.00020375, -1.99848e-05, -0.179912, 12.5474, -11.3639, -2.4305, -17.4535, 13.857, 10.1126, -0.247293, 122.883, -33.2015, 15.7131, -41.1625, -8.34236, 3.15718, 3.01621, 4.66012e-310, 0, 0, 12.5474, -11.3639, -2.4305, -17.4535, 6.92849, 5.05632, 6.92849, 0, 0, -24.0269, 0, 77.4573, 0, 0, 38.7569, 2.43021e-05, 0, 0, 0, 0, 0, 0, 0
0.0212752, -0.0392089, 0.695575, 0.100741, -1.13611, 1.37653, -0.341153, 0.0999904, 0.229998, 0.999991, 0.229997, 0.999993, 0.0279784, 0.00979455, -0.000990063, 0.0685882, -0.0685882, 7.90253e-13, 6.07184e-13, -9.93222e-05, -7.31927e-05, -0.000195188, -0.000204608, -2.04345e-05, -0.180988, 12.5677, -11.3694, -2.42791, -17.4603, 13.8556, 10.1132, -0.246795, 123.26, -33.4102, 15.7237, -41.2861, -8.34073, 3.19694, 3.01892, 4.66012e-310, 0, 0, 12.5677, -11.3694, -2.42791, -17.4603, 6.9278, 5.05658, 6.9278, 0, 0, -24.0061, 0, 77.549, 0, 0, 38.8043, 2.56283e-05, 0, 0, 0, 0, 0, 0, 0
0.0214402, -0.0392072, 0.695575, 0.100752, -1.13613, 1.37653, -0.341153, 0.0999904, 0.229998, 0.999991, 0.229997, 0.999993, 0.0279485, 0.00986702, -0.000997501, 0.0690957, -0.0690957, 7.90255e-13, 6.07193e-13, -9.60344e-05, -7.30888e-05, -0.000197124, -0.000205476, -2.10808e-05, -0.182056, 12.5881, -11.3749, -2.42531, -17.4672, 13.8542, 10.1137, -0.246297, 123.637, -33.6189, 15.7344, -41.4097, -8.33911, 3.2367, 3.02162, 4.66012e-310, 0, 0, 12.5881, -11.3749, -2.42531, -17.4672, 6.92711, 5.05685, 6.92711, 0, 0, -23.9852, 0, 77.6411, 0, 0, 38.8519, 2.69134e-05, 0, 0, 0, 0, 0, 0, 0
0.0216051, -0.0392056, 0.695574, 0.100764, -1.13614, 1.37653, -0.341153, 0.0999904, 0.229998, 0.999991, 0.229997, 0.999993, 0.0279184, 0.00993942, -0.00100494, 0.0696028, -0.0696028, 7.90258e-13, 6.07203e-13, -9.28947e-05, -7.2996e-05, -0.000199251, -0.000206354, -2.19188e-05, -0.183118, 12.6085, -11.3805, -2.42272, -17.474, 13.8528, 10.1142, -0.245799, 124.013, -33.8275, 15.745, -41.5334, -8.33748, 3.27646, 3.02432, 4.66012e-310, 0, 0, 12.6085, -11.3805, -2.42272, -17.474, 6.92642, 5.05712, 6.92642, 0, 0, -23.9643, 0, 77.7335, 0, 0, 38.8996, 2.81575e-05, 0, 0, 0, 0, 0, 0, 0
0.02177, -0.039204, 0.695574, 0.100775, -1.13615, 1.37653, -0.341153, 0.0999904, 0.229998, 0.999991, 0.229997, 0.999993, 0.0278881, 0.0100118, -0.00101237, 0.0701096, -0.0701096, 7.9026e-13, 6.07214e-13, -8.99003e-05, -7.29144e-05, -0.000201564, -0.000207242, -2.29442e-05, -0.184172, 12.629, -11.386, -2.42012, -17.4809, 13.8515, 10.1148, -0.2453, 124.39, -34.0362, 15.7556, -41.657, -8.33585, 3.31622, 3.02702, 4.66012e-310, 0, 0, 12.629, -11.386, -2.42012, -17.4809, 6.92573, 5.05739, 6.92573, 0, 0, -23.9434, 0, 77.8264, 0, 0, 38.9475, 2.93607e-05, 0, 0, 0, 0, 0, 0, 0
0.0219349, -0.0392023, 0.695574, 0.100787, -1.13616, 1.37653, -0.341153, 0.0999904, 0.229998, 0.999991, 0.229997, 0.999993, 0.0278576, 0.0100841, -0.0010198, 0.0706159, -0.0706159, 7.90262e-13, 6.07225e-13, -8.70489e-05, -7.28443e-05, -0.000204059, -0.000208141, -2.41531e-05, -0.185218, 12.6495, -11.3917, -2.41752, -17.4877, 13.8501, 10.1153, -0.2448, 124.767, -34.2449, 15.7662, -41.7806, -8.33423, 3.35598, 3.02972, 4.66012e-310, 0, 0, 12.6495, -11.3917, -2.41752, -17.4877, 6.92505, 5.05767, 6.92505, 0, 0, -23.9223, 0, 77.9196, 0, 0, 38.9955, 3.05232e-05, 0, 0, 0, 0, 0, 0, 0
0.0220999, -0.0392006, 0.695574, 0.100798, -1.13617, 1.37653, -0.341153, 0.0999903, 0.229998, 0.999991, 0.229997, 0.999993, 0.027827, 0.0101563, -0.00102722, 0.0711218, -0.0711218, 7.90265e-13, 6.07236e-13, -8.43369e-05, -7.27857e-05, -0.000206731, -0.000209051, -2.55399e-05, -0.186257, 12.6701, -11.3973, -2.41492, -17.4946, 13.8487, 10.1159, -0.2443, 125.143, -34.4536, 15.7769, -41.9042, -8.3326, 3.39574, 3.03243, 4.66012e-310, 0, 0, 12.6701, -11.3973, -2.41492, -17.4946, 6.92436, 5.05794, 6.92436, 0, 0, -23.9013, 0, 78.0131, 0, 0, 39.0436, 3.16451e-05, 0, 0, 0, 0, 0, 0, 0
0.0222648, -0.0391989, 0.695574, 0.10081, -1.13618, 1.37653, -0.341153, 0.0999903, 0.229998, 0.999991, 0.229997, 0.999993, 0.0277962, 0.0102285, -0.00103464, 0.0716273, -0.0716273, 7.90268e-13, 6.07246e-13, -8.17614e-05, -7.27388e-05, -0.000209574, -0.000209971, -2.70999e-05, -0.187289, 12.6908, -11.403, -2.41231, -17.5016, 13.8473, 10.1165, -0.2438, 125.52, -34.6622, 15.7875, -42.0278, -8.33098, 3.4355, 3.03513, 4.66012e-310, 0, 0, 12.6908, -11.403, -2.41231, -17.5016, 6.92367, 5.05823, 6.92367, 0, 0, -23.8801, 0, 78.1071, 0, 0, 39.0919, 3.27266e-05, 0, 0, 0, 0, 0, 0, 0
0.0224297, -0.0391973, 0.695574, 0.100822, -1.1362, 1.37653, -0.341153, 0.0999903, 0.229998, 0.999991, 0.229997, 0.999993, 0.0277652, 0.0103006, -0.00104206, 0.0721324, -0.0721324, 7.90271e-13, 6.07257e-13, -7.93193e-05, -7.27037e-05, -0.000212584, -0.000210902, -2.88283e-05, -0.188313, 12.7115, -11.4088, -2.40971, -17.5085, 13.846, 10.117, -0.243299, 125.896, -34.8709, 15.7981, -42.1514, -8.32935, 3.47526, 3.03783, 4.66012e-310, 0, 0, 12.7115, -11.4088, -2.40971, -17.5085, 6.92299, 5.05851, 6.92299, 0, 0, -23.859, 0, 78.2014, 0, 0, 39.1403, 3.37677e-05, 0, 0, 0, 0, 0, 0, 0
0.0225946, -0.0391955, 0.695573, 0.100834, -1.13621, 1.37653, -0.341153, 0.0999903, 0.229998, 0.999991, 0.229997, 0.999993, 0.0277341, 0.0103727, -0.00104948, 0.0726371, -0.0726371, 7.90273e-13, 6.07267e-13, -7.70076e-05, -7.26805e-05, -0.000215757, -0.000211843, -3.07204e-05, -0.18933, 12.7323, -11.4145, -2.4071, -17.5155, 13.8446, 10.1176, -0.242798, 126.273, -35.0796, 15.8087, -42.275, -8.32773, 3.51502, 3.04053, 4.66012e-310, 0, 0, 12.7323, -11.4145, -2.4071, -17.5155, 6.9223, 5.0588, 6.9223, 0, 0, -23.8377, 0, 78.296, 0, 0, 39.1889, 3.47686e-05, 0, 0, 0, 0, 0, 0, 0
0.0227596, -0.0391938, 0.695573, 0.100846, -1.13622, 1.37653, -0.341153, 0.0999903, 0.229998, 0.999991, 0.229997, 0.999993, 0.0277028, 0.0104447, -0.00105689, 0.0731414, -0.0731414, 7.90276e-13, 6.07277e-13, -7.48234e-05, -7.26694e-05, -0.000219087, -0.000212796, -3.27715e-05, -0.190339, 12.7532, -11.4203, -2.4045, -17.5225, 13.8432, 10.1182, -0.242296, 126.65, -35.2883, 15.8194, -42.3986, -8.3261, 3.55478, 3.04323, 4.66012e-310, 0, 0, 12.7532, -11.4203, -2.4045, -17.5225, 6.92161, 5.05909, 6.92161, 0, 0, -23.8164, 0, 78.3911, 0, 0, 39.2376, 3.57294e-05, 0, 0, 0, 0, 0, 0, 0
0.0229245, -0.0391921, 0.695573, 0.100858, -1.13623, 1.37653, -0.341153, 0.0999903, 0.229998, 0.999991, 0.229997, 0.999993, 0.0276713, 0.0105166, -0.00106429, 0.0736453, -0.0736453, 7.90279e-13, 6.07287e-13, -7.27637e-05, -7.26704e-05, -0.00022257, -0.00021376, -3.49767e-05, -0.191341, 12.7741, -11.4262, -2.40189, -17.5295, 13.8419, 10.1188, -0.241794, 127.026, -35.4969, 15.83, -42.5222, -8.32447, 3.59454, 3.04594, 4.66012e-310, 0, 0, 12.7741, -11.4262, -2.40189, -17.5295, 6.92093, 5.05938, 6.92093, 0, 0, -23.7951, 0, 78.4865, 0, 0, 39.2864, 3.66503e-05, 0, 0, 0, 0, 0, 0, 0
0.0230894, -0.0391904, 0.695573, 0.10087, -1.13624, 1.37653, -0.341153, 0.0999903, 0.229998, 0.999991, 0.229997, 0.999993, 0.0276397, 0.0105885, -0.0010717, 0.0741487, -0.0741487, 7.90281e-13, 6.07296e-13, -7.08254e-05, -7.26839e-05, -0.0002262, -0.000214735, -3.73314e-05, -0.192336, 12.7951, -11.4321, -2.39927, -17.5365, 13.8405, 10.1194, -0.241292, 127.403, -35.7056, 15.8406, -42.6459, -8.32285, 3.6343, 3.04864, 4.66012e-310, 0, 0, 12.7951, -11.4321, -2.39927, -17.5365, 6.92024, 5.05968, 6.92024, 0, 0, -23.7737, 0, 78.5823, 0, 0, 39.3354, 3.75314e-05, 0, 0, 0, 0, 0, 0, 0
0.0232543, -0.0391886, 0.695573, 0.100883, -1.13626, 1.37653, -0.341153, 0.0999903, 0.229998, 0.999991, 0.229997, 0.999993, 0.0276078, 0.0106603, -0.0010791, 0.0746518, -0.0746518, 7.90284e-13, 6.07304e-13, -6.90057e-05, -7.27097e-05, -0.000229974, -0.000215722, -3.98307e-05, -0.193323, 12.8161, -11.438, -2.39666, -17.5435, 13.8391, 10.12, -0.240789, 127.779, -35.9143, 15.8513, -42.7695, -8.32122, 3.67406, 3.05134, 4.66012e-310, 0, 0, 12.8161, -11.438, -2.39666, -17.5435, 6.91955, 5.05998, 6.91955, 0, 0, -23.7523, 0, 78.6784, 0, 0, 39.3845, 3.83728e-05, 0, 0, 0, 0, 0, 0, 0
0.0234193, -0.0391868, 0.695572, 0.100895, -1.13627, 1.37653, -0.341153, 0.0999902, 0.229998, 0.999991, 0.229997, 0.999993, 0.0275759, 0.0107321, -0.0010865, 0.0751544, -0.0751544, 7.90287e-13, 6.07312e-13, -6.73016e-05, -7.27482e-05, -0.000233887, -0.00021672, -4.24702e-05, -0.194303, 12.8372, -11.4439, -2.39405, -17.5506, 13.8377, 10.1206, -0.240285, 128.156, -36.123, 15.8619, -42.8931, -8.3196, 3.71382, 3.05404, 4.66012e-310, 0, 0, 12.8372, -11.4439, -2.39405, -17.5506, 6.91887, 5.06029, 6.91887, 0, 0, -23.7308, 0, 78.7749, 0, 0, 39.4338, 3.91748e-05, 0, 0, 0, 0, 0, 0, 0
0.0235842, -0.0391851, 0.695572, 0.100907, -1.13628, 1.37653, -0.341153, 0.0999902, 0.229998, 0.999991, 0.229997, 0.999993, 0.0275438, 0.0108038, -0.00109389, 0.0756566, -0.0756566, 7.90289e-13, 6.07318e-13, -6.57105e-05, -7.27995e-05, -0.000237934, -0.00021773, -4.52456e-05, -0.195275, 12.8584, -11.4499, -2.39143, -17.5577, 13.8364, 10.1212, -0.239781, 128.533, -36.3317, 15.8725, -43.0167, -8.31797, 3.75358, 3.05674, 4.66012e-310, 0, 0, 12.8584, -11.4499, -2.39143, -17.5577, 6.91818, 5.0606, 6.91818, 0, 0, -23.7092, 0, 78.8718, 0, 0, 39.4832, 3.99373e-05, 0, 0, 0, 0, 0, 0, 0
0.0237491, -0.0391833, 0.695572, 0.10092, -1.13629, 1.37653, -0.341153, 0.0999902, 0.229998, 0.999991, 0.229996, 0.999993, 0.0275115, 0.0108754, -0.00110128, 0.0761583, -0.0761583, 7.9029e-13, 6.07324e-13, -6.42292e-05, -7.28637e-05, -0.00024211, -0.000218751, -4.81516e-05, -0.19624, 12.8796, -11.4559, -2.38881, -17.5648, 13.835, 10.1218, -0.239277, 128.909, -36.5403, 15.8831, -43.1403, -8.31634, 3.79334, 3.05944, 4.66012e-310, 0, 0, 12.8796, -11.4559, -2.38881, -17.5648, 6.9175, 5.06091, 6.9175, 0, 0, -23.6876, 0, 78.9691, 0, 0, 39.5327, 4.06606e-05, 0, 0, 0, 0, 0, 0, 0
0.023914, -0.0391815, 0.695572, 0.100933, -1.13631, 1.37653, -0.341153, 0.0999902, 0.229998, 0.999991, 0.229996, 0.999993, 0.027479, 0.010947, -0.00110867, 0.0766597, -0.0766597, 7.90292e-13, 6.07328e-13, -6.28545e-05, -7.2941e-05, -0.000246411, -0.000219785, -5.11836e-05, -0.197197, 12.9009, -11.4619, -2.38619, -17.5719, 13.8336, 10.1224, -0.238772, 129.286, -36.749, 15.8938, -43.2639, -8.31472, 3.8331, 3.06215, 4.66012e-310, 0, 0, 12.9009, -11.4619, -2.38619, -17.5719, 6.91681, 5.06122, 6.91681, 0, 0, -23.666, 0, 79.0667, 0, 0, 39.5824, 4.13447e-05, 0, 0, 0, 0, 0, 0, 0
0.024079, -0.0391797, 0.695572, 0.100945, -1.13632, 1.37653, -0.341153, 0.0999902, 0.229998, 0.999991, 0.229996, 0.999993, 0.0274464, 0.0110185, -0.00111606, 0.0771606, -0.0771606, 7.90293e-13, 6.0733e-13, -6.15837e-05, -7.30313e-05, -0.000250832, -0.000220831, -5.43369e-05, -0.198147, 12.9223, -11.468, -2.38357, -17.579, 13.8322, 10.1231, -0.238267, 129.663, -36.9577, 15.9044, -43.3875, -8.31309, 3.87286, 3.06485, 4.66012e-310, 0, 0, 12.9223, -11.468, -2.38357, -17.579, 6.91612, 5.06154, 6.91612, 0, 0, -23.6443, 0, 79.1647, 0, 0, 39.6322, 4.19899e-05, 0, 0, 0, 0, 0, 0, 0
0.0242439, -0.0391779, 0.695572, 0.100958, -1.13633, 1.37653, -0.341153, 0.0999902, 0.229998, 0.999991, 0.229996, 0.999993, 0.0274137, 0.0110899, -0.00112344, 0.0776611, -0.0776611, 7.90294e-13, 6.07332e-13, -6.04136e-05, -7.3135e-05, -0.000255367, -0.000221889, -5.76066e-05, -0.19909, 12.9437, -11.4741, -2.38094, -17.5862, 13.8309, 10.1237, -0.237761, 130.039, -37.1664, 15.915, -43.5111, -8.31147, 3.91262, 3.06755, 4.66012e-310, 0, 0, 12.9437, -11.4741, -2.38094, -17.5862, 6.91544, 5.06186, 6.91544, 0, 0, -23.6225, 0, 79.263, 0, 0, 39.6822, 4.25963e-05, 0, 0, 0, 0, 0, 0, 0
0.0244088, -0.039176, 0.695571, 0.100971, -1.13634, 1.37653, -0.341153, 0.0999902, 0.229998, 0.999991, 0.229996, 0.999993, 0.0273808, 0.0111613, -0.00113081, 0.0781611, -0.0781611, 7.90295e-13, 6.07331e-13, -5.93413e-05, -7.32522e-05, -0.000260013, -0.000222959, -6.09881e-05, -0.200025, 12.9652, -11.4803, -2.37832, -17.5934, 13.8295, 10.1244, -0.237255, 130.416, -37.375, 15.9256, -43.6347, -8.30984, 3.95238, 3.07025, 4.66012e-310, 0, 0, 12.9652, -11.4803, -2.37832, -17.5934, 6.91475, 5.06219, 6.91475, 0, 0, -23.6007, 0, 79.3618, 0, 0, 39.7323, 4.31639e-05, 0, 0, 0, 0, 0, 0, 0
0.0245737, -0.0391742, 0.695571, 0.100984, -1.13636, 1.37653, -0.341153, 0.0999902, 0.229998, 0.999991, 0.229996, 0.999993, 0.0273477, 0.0112327, -0.00113819, 0.0786608, -0.0786608, 7.90296e-13, 6.07329e-13, -5.83639e-05, -7.33828e-05, -0.000264764, -0.000224042, -6.44767e-05, -0.200952, 12.9867, -11.4864, -2.37569, -17.6006, 13.8281, 10.125, -0.236748, 130.792, -37.5837, 15.9363, -43.7583, -8.30822, 3.99214, 3.07295, 4.66012e-310, 0, 0, 12.9867, -11.4864, -2.37569, -17.6006, 6.91407, 5.06251, 6.91407, 0, 0, -23.5789, 0, 79.4609, 0, 0, 39.7825, 4.3693e-05, 0, 0, 0, 0, 0, 0, 0
0.0247387, -0.0391723, 0.695571, 0.100997, -1.13637, 1.37653, -0.341153, 0.0999902, 0.229998, 0.999991, 0.229996, 0.999993, 0.0273145, 0.0113039, -0.00114556, 0.0791599, -0.0791599, 7.90296e-13, 6.07325e-13, -5.74784e-05, -7.35272e-05, -0.000269616, -0.000225138, -6.80676e-05, -0.201873, 13.0083, -11.4927, -2.37306, -17.6078, 13.8268, 10.1257, -0.236241, 131.169, -37.7924, 15.9469, -43.882, -8.30659, 4.0319, 3.07566, 4.66012e-310, 0, 0, 13.0083, -11.4927, -2.37306, -17.6078, 6.91338, 5.06284, 6.91338, 0, 0, -23.5569, 0, 79.5603, 0, 0, 39.8329, 4.41837e-05, 0, 0, 0, 0, 0, 0, 0
0.0249036, -0.0391704, 0.695571, 0.10101, -1.13638, 1.37653, -0.341153, 0.0999902, 0.229998, 0.99999, 0.229996, 0.999993, 0.0272811, 0.0113751, -0.00115292, 0.0796587, -0.0796587, 7.90296e-13, 6.07319e-13, -5.66817e-05, -7.36855e-05, -0.000274564, -0.000226246, -7.1756e-05, -0.202785, 13.03, -11.4989, -2.37043, -17.6151, 13.8254, 10.1264, -0.235734, 131.546, -38.0011, 15.9575, -44.0056, -8.30496, 4.07166, 3.07836, 4.66012e-310, 0, 0, 13.03, -11.4989, -2.37043, -17.6151, 6.9127, 5.06318, 6.9127, 0, 0, -23.535, 0, 79.6602, 0, 0, 39.8834, 4.46361e-05, 0, 0, 0, 0, 0, 0, 0
0.0250685, -0.0391686, 0.695571, 0.101023, -1.1364, 1.37653, -0.341153, 0.0999901, 0.229998, 0.99999, 0.229996, 0.999993, 0.0272476, 0.0114463, -0.00116029, 0.080157, -0.080157, 7.90296e-13, 6.07314e-13, -5.59712e-05, -7.38578e-05, -0.000279604, -0.000227367, -7.55376e-05, -0.203691, 13.0517, -11.5052, -2.3678, -17.6223, 13.824, 10.127, -0.235226, 131.922, -38.2097, 15.9681, -44.1292, -8.30334, 4.11142, 3.08106, 4.66012e-310, 0, 0, 13.0517, -11.5052, -2.3678, -17.6223, 6.91201, 5.06352, 6.91201, 0, 0, -23.513, 0, 79.7604, 0, 0, 39.9341, 4.50503e-05, 0, 0, 0, 0, 0, 0, 0
0.0252334, -0.0391667, 0.69557, 0.101036, -1.13641, 1.37653, -0.341153, 0.0999901, 0.229998, 0.99999, 0.229996, 0.999993, 0.0272139, 0.0115174, -0.00116765, 0.0806548, -0.0806548, 7.90296e-13, 6.07312e-13, -5.53438e-05, -7.40442e-05, -0.000284731, -0.000228501, -7.94075e-05, -0.204588, 13.0735, -11.5115, -2.36516, -17.6296, 13.8227, 10.1277, -0.234718, 132.299, -38.4184, 15.9788, -44.2528, -8.30171, 4.15118, 3.08376, 4.66012e-310, 0, 0, 13.0735, -11.5115, -2.36516, -17.6296, 6.91133, 5.06386, 6.91133, 0, 0, -23.4909, 0, 79.8609, 0, 0, 39.9849, 4.54266e-05, 0, 0, 0, 0, 0, 0, 0
0.0253983, -0.0391648, 0.69557, 0.10105, -1.13642, 1.37653, -0.341153, 0.0999901, 0.229998, 0.99999, 0.229996, 0.999993, 0.0271801, 0.0115884, -0.001175, 0.0811523, -0.0811523, 7.90295e-13, 6.07309e-13, -5.47965e-05, -7.4245e-05, -0.000289939, -0.000229649, -8.3361e-05, -0.205479, 13.0953, -11.5179, -2.36253, -17.6369, 13.8213, 10.1284, -0.234209, 132.676, -38.6271, 15.9894, -44.3764, -8.30009, 4.19094, 3.08646, 4.66012e-310, 0, 0, 13.0953, -11.5179, -2.36253, -17.6369, 6.91064, 5.0642, 6.91064, 0, 0, -23.4688, 0, 79.9619, 0, 0, 40.0359, 4.57649e-05, 0, 0, 0, 0, 0, 0, 0
0.0255633, -0.0391628, 0.69557, 0.101063, -1.13644, 1.37653, -0.341153, 0.0999901, 0.229998, 0.99999, 0.229996, 0.999993, 0.0271461, 0.0116593, -0.00118235, 0.0816492, -0.0816492, 7.90295e-13, 6.07306e-13, -5.43264e-05, -7.44602e-05, -0.000295225, -0.000230809, -8.73933e-05, -0.206361, 13.1172, -11.5243, -2.35989, -17.6443, 13.8199, 10.1291, -0.2337, 133.052, -38.8358, 16, -44.5, -8.29846, 4.2307, 3.08917, 4.66012e-310, 0, 0, 13.1172, -11.5243, -2.35989, -17.6443, 6.90996, 5.06455, 6.90996, 0, 0, -23.4466, 0, 80.0632, 0, 0, 40.0869, 4.60656e-05, 0, 0, 0, 0, 0, 0, 0
0.0257282, -0.0391609, 0.69557, 0.101077, -1.13645, 1.37653, -0.341153, 0.0999901, 0.229998, 0.99999, 0.229996, 0.999993, 0.027112, 0.0117302, -0.0011897, 0.0821457, -0.0821457, 7.90293e-13, 6.07305e-13, -5.39305e-05, -7.469e-05, -0.000300584, -0.000231984, -9.14998e-05, -0.207237, 13.1392, -11.5307, -2.35725, -17.6516, 13.8186, 10.1298, -0.23319, 133.429, -39.0444, 16.0107, -44.6236, -8.29683, 4.27046, 3.09187, 4.66012e-310, 0, 0, 13.1392, -11.5307, -2.35725, -17.6516, 6.90928, 5.0649, 6.90928, 0, 0, -23.4243, 0, 80.1648, 0, 0, 40.1382, 4.63286e-05, 0, 0, 0, 0, 0, 0, 0
0.0258931, -0.039159, 0.69557, 0.10109, -1.13646, 1.37653, -0.341153, 0.0999901, 0.229998, 0.99999, 0.229996, 0.999993, 0.0270778, 0.011801, -0.00119705, 0.0826418, -0.0826418, 7.90292e-13, 6.07304e-13, -5.36058e-05, -7.49344e-05, -0.00030601, -0.000233172, -9.56758e-05, -0.208105, 13.1613, -11.5371, -2.35461, -17.659, 13.8172, 10.1305, -0.23268, 133.805, -39.2531, 16.0213, -44.7472, -8.29521, 4.31022, 3.09457, 4.66012e-310, 0, 0, 13.1613, -11.5371, -2.35461, -17.659, 6.90859, 5.06525, 6.90859, 0, 0, -23.4021, 0, 80.2669, 0, 0, 40.1895, 4.65542e-05, 0, 0, 0, 0, 0, 0, 0
0.026058, -0.039157, 0.695569, 0.101104, -1.13648, 1.37653, -0.341153, 0.0999901, 0.229998, 0.99999, 0.229996, 0.999993, 0.0270434, 0.0118718, -0.00120439, 0.0831374, -0.0831374, 7.9029e-13, 6.07305e-13, -5.33494e-05, -7.51938e-05, -0.0003115, -0.000234373, -9.99165e-05, -0.208965, 13.1834, -11.5436, -2.35197, -17.6664, 13.8158, 10.1312, -0.232169, 134.182, -39.4618, 16.0319, -44.8708, -8.29358, 4.34998, 3.09727, 4.66012e-310, 0, 0, 13.1834, -11.5436, -2.35197, -17.6664, 6.90791, 5.06561, 6.90791, 0, 0, -23.3797, 0, 80.3693, 0, 0, 40.241, 4.67425e-05, 0, 0, 0, 0, 0, 0, 0
0.026223, -0.0391551, 0.695569, 0.101118, -1.13649, 1.37653, -0.341153, 0.0999901, 0.229998, 0.99999, 0.229996, 0.999993, 0.0270089, 0.0119425, -0.00121173, 0.0836326, -0.0836326, 7.90288e-13, 6.07307e-13, -5.31584e-05, -7.54682e-05, -0.000317048, -0.000235589, -0.000104217, -0.209818, 13.2055, -11.5502, -2.34932, -17.6738, 13.8144, 10.1319, -0.231658, 134.559, -39.6705, 16.0425, -44.9944, -8.29196, 4.38974, 3.09997, 4.66012e-310, 0, 0, 13.2055, -11.5502, -2.34932, -17.6738, 6.90722, 5.06597, 6.90722, 0, 0, -23.3573, 0, 80.4721, 0, 0, 40.2927, 4.68936e-05, 0, 0, 0, 0, 0, 0, 0
0.0263879, -0.0391531, 0.695569, 0.101131, -1.1365, 1.37653, -0.341153, 0.0999901, 0.229998, 0.99999, 0.229996, 0.999993, 0.0269742, 0.0120131, -0.00121906, 0.0841273, -0.0841273, 7.90286e-13, 6.07312e-13, -5.30297e-05, -7.57577e-05, -0.00032265, -0.000236818, -0.000108573, -0.210663, 13.2277, -11.5567, -2.34667, -17.6812, 13.8131, 10.1327, -0.231147, 134.935, -39.8792, 16.0532, -45.1181, -8.29033, 4.4295, 3.10267, 4.66012e-310, 0, 0, 13.2277, -11.5567, -2.34667, -17.6812, 6.90654, 5.06633, 6.90654, 0, 0, -23.3349, 0, 80.5752, 0, 0, 40.3445, 4.70077e-05, 0, 0, 0, 0, 0, 0, 0
0.0265528, -0.0391511, 0.695569, 0.101145, -1.13652, 1.37653, -0.341153, 0.0999901, 0.229998, 0.99999, 0.229996, 0.999993, 0.0269394, 0.0120837, -0.00122639, 0.0846216, -0.0846216, 7.90283e-13, 6.07319e-13, -5.29606e-05, -7.60625e-05, -0.000328301, -0.000238062, -0.00011298, -0.211501, 13.25, -11.5633, -2.34403, -17.6887, 13.8117, 10.1334, -0.230635, 135.312, -40.0878, 16.0638, -45.2417, -8.28871, 4.46926, 3.10538, 4.66012e-310, 0, 0, 13.25, -11.5633, -2.34403, -17.6887, 6.90586, 5.0667, 6.90586, 0, 0, -23.3124, 0, 80.6787, 0, 0, 40.3964, 4.70849e-05, 0, 0, 0, 0, 0, 0, 0
0.0267177, -0.0391491, 0.695569, 0.101159, -1.13653, 1.37653, -0.341153, 0.0999901, 0.229998, 0.99999, 0.229996, 0.999993, 0.0269044, 0.0121542, -0.00123372, 0.0851153, -0.0851153, 7.9028e-13, 6.07329e-13, -5.29479e-05, -7.63828e-05, -0.000333996, -0.00023932, -0.000117433, -0.212332, 13.2724, -11.5699, -2.34138, -17.6961, 13.8103, 10.1341, -0.230122, 135.688, -40.2965, 16.0744, -45.3653, -8.28708, 4.50902, 3.10808, 4.66012e-310, 0, 0, 13.2724, -11.5699, -2.34138, -17.6961, 6.90517, 5.06707, 6.90517, 0, 0, -23.2899, 0, 80.7826, 0, 0, 40.4484, 4.71254e-05, 0, 0, 0, 0, 0, 0, 0
0.0268827, -0.0391471, 0.695568, 0.101173, -1.13655, 1.37653, -0.341153, 0.09999, 0.229998, 0.99999, 0.229996, 0.999993, 0.0268693, 0.0122246, -0.00124104, 0.0856087, -0.0856087, 7.90277e-13, 6.07342e-13, -5.29888e-05, -7.67186e-05, -0.000339731, -0.000240593, -0.000121927, -0.213155, 13.2948, -11.5766, -2.33872, -17.7036, 13.809, 10.1349, -0.229609, 136.065, -40.5052, 16.085, -45.4889, -8.28545, 4.54878, 3.11078, 4.66012e-310, 0, 0, 13.2948, -11.5766, -2.33872, -17.7036, 6.90449, 5.06744, 6.90449, 0, 0, -23.2673, 0, 80.8869, 0, 0, 40.5006, 4.71293e-05, 0, 0, 0, 0, 0, 0, 0
0.0270476, -0.0391451, 0.695568, 0.101188, -1.13656, 1.37653, -0.341153, 0.09999, 0.229998, 0.99999, 0.229996, 0.999993, 0.0268341, 0.0122949, -0.00124836, 0.0861015, -0.0861015, 7.90274e-13, 6.07347e-13, -5.30801e-05, -7.70702e-05, -0.000345501, -0.00024188, -0.000126457, -0.21397, 13.3173, -11.5833, -2.33607, -17.7112, 13.8076, 10.1356, -0.229096, 136.442, -40.7139, 16.0957, -45.6125, -8.28383, 4.58854, 3.11348, 4.66012e-310, 0, 0, 13.3173, -11.5833, -2.33607, -17.7112, 6.90381, 5.06782, 6.90381, 0, 0, -23.2446, 0, 80.9915, 0, 0, 40.553, 4.70967e-05, 0, 0, 0, 0, 0, 0, 0
0.0272125, -0.039143, 0.695568, 0.101202, -1.13657, 1.37653, -0.341153, 0.09999, 0.229998, 0.99999, 0.229996, 0.999993, 0.0267988, 0.0123652, -0.00125567, 0.0865939, -0.0865939, 7.90271e-13, 6.07352e-13, -5.3219e-05, -7.74376e-05, -0.000351301, -0.000243182, -0.000131019, -0.214778, 13.3398, -11.59, -2.33341, -17.7187, 13.8062, 10.1364, -0.228582, 136.818, -40.9225, 16.1063, -45.7361, -8.2822, 4.6283, 3.11618, 4.66012e-310, 0, 0, 13.3398, -11.59, -2.33341, -17.7187, 6.90312, 5.0682, 6.90312, 0, 0, -23.2219, 0, 81.0965, 0, 0, 40.6055, 4.70277e-05, 0, 0, 0, 0, 0, 0, 0
0.0273774, -0.039141, 0.695568, 0.101216, -1.13659, 1.37653, -0.341153, 0.09999, 0.229998, 0.99999, 0.229996, 0.999993, 0.0267633, 0.0124355, -0.00126298, 0.0870859, -0.0870859, 7.90268e-13, 6.07357e-13, -5.34026e-05, -7.78211e-05, -0.000357126, -0.000244498, -0.000135608, -0.215579, 13.3624, -11.5968, -2.33076, -17.7262, 13.8049, 10.1372, -0.228068, 137.195, -41.1312, 16.1169, -45.8597, -8.28058, 4.66806, 3.11889, 4.66012e-310, 0, 0, 13.3624, -11.5968, -2.33076, -17.7262, 6.90244, 5.06858, 6.90244, 0, 0, -23.1991, 0, 81.2019, 0, 0, 40.6581, 4.69227e-05, 0, 0, 0, 0, 0, 0, 0
0.0275424, -0.0391389, 0.695568, 0.101231, -1.1366, 1.37653, -0.341153, 0.09999, 0.229998, 0.99999, 0.229996, 0.999993, 0.0267277, 0.0125056, -0.00127029, 0.0875773, -0.0875773, 7.90265e-13, 6.07362e-13, -5.36278e-05, -7.82207e-05, -0.000362972, -0.00024583, -0.00014022, -0.216371, 13.385, -11.6036, -2.3281, -17.7338, 13.8035, 10.1379, -0.227554, 137.572, -41.3399, 16.1276, -45.9833, -8.27895, 4.70782, 3.12159, 4.66012e-310, 0, 0, 13.385, -11.6036, -2.3281, -17.7338, 6.90176, 5.06897, 6.90176, 0, 0, -23.1763, 0, 81.3076, 0, 0, 40.7109, 4.67815e-05, 0, 0, 0, 0, 0, 0, 0
0.0277073, -0.0391369, 0.695567, 0.101245, -1.13662, 1.37653, -0.341153, 0.09999, 0.229998, 0.99999, 0.229996, 0.999993, 0.0266919, 0.0125757, -0.0012776, 0.0880683, -0.0880683, 7.90262e-13, 6.07368e-13, -5.38918e-05, -7.86366e-05, -0.000368835, -0.000247177, -0.000144849, -0.217157, 13.4078, -11.6104, -2.32544, -17.7414, 13.8022, 10.1387, -0.227039, 137.948, -41.5486, 16.1382, -46.1069, -8.27733, 4.74758, 3.12429, 4.66012e-310, 0, 0, 13.4078, -11.6104, -2.32544, -17.7414, 6.90108, 5.06936, 6.90108, 0, 0, -23.1535, 0, 81.4137, 0, 0, 40.7638, 4.66045e-05, 0, 0, 0, 0, 0, 0, 0
