flxalr/sts-optimization-reemc/input/457_104/pos.csv
time;base_link_tx;base_link_ty;base_link_tz;base_link_rz;base_link_ry;base_link_rx;leg_left_1_joint;leg_left_2_joint;leg_left_3_joint;leg_left_4_joint;leg_left_5_joint;leg_left_6_joint;leg_right_1_joint;leg_right_2_joint;leg_right_3_joint;leg_right_4_joint;leg_right_5_joint;leg_right_6_joint;torso_1_joint;torso_2_joint;arm_left_1_joint;arm_left_2_joint;arm_left_3_joint;arm_left_4_joint;arm_left_5_joint;arm_left_6_joint;arm_left_7_joint;arm_right_1_joint;arm_right_2_joint;arm_right_3_joint;arm_right_4_joint;arm_right_5_joint;arm_right_6_joint;arm_right_7_joint;head_1_joint;head_2_joint
0.0;-0.12705238285753873;-0.06656422497565258;0.7025430899804699;0.004224104937562106;0.12266161988166976;-0.012714202832651386;-0.001496628447582991;9.497982731764693e-06;-1.135361037540112;1.3765251472044555;-0.3411563527522992;9.527892906483729e-06;-0.0014985630915726525;9.507952790004623e-06;-1.1353678196467216;1.3765280105056297;-0.3411591275044415;-9.517922848244122e-06;5.369003973063058e-05;0.10010124407492063;0.2300388102287196;0.13012441823006948;-0.00012454248416138292;0.9999760787862984;9.130919118318449e-06;-2.2827297795796123e-05;4.108913603243303e-05;0.2299314301492583;0.13009373820736625;4.4197640706178376e-05;1.0000076025096258;9.130919118318449e-06;1.8261838236636895e-05;-2.739275735495535e-05;-0.005313147336269974;0.03910272165488005
0.020108461380004883;-0.12703692762610028;-0.06664139451128777;0.7025385689573249;0.004085467026545023;0.12269780333469511;-0.012575010744048725;-0.001496628447582991;9.497982731764693e-06;-1.135361037540112;1.3765251472044555;-0.3411563527522992;9.527892906483729e-06;-0.0014985630915726525;9.507952790004623e-06;-1.1353678196467216;1.3765280105056297;-0.3411591275044415;-9.517922848244122e-06;5.369003973063058e-05;0.10010124407492063;0.2300388102287196;0.13012441823006948;-0.00012454248416138292;0.9999760787862984;9.130919118318449e-06;-2.2827297795796123e-05;4.108913603243303e-05;0.2299314301492583;0.13009373820736625;4.4197640706178376e-05;1.0000076025096258;9.130919118318449e-06;1.8261838236636895e-05;-2.739275735495535e-05;-0.005313147336269974;0.03910272165488005
0.0401608943939209;-0.12700862083586267;-0.0665685276910641;0.7025505950962608;0.004211707999475813;0.12272515152890608;-0.012705304997887178;-0.001496628447582991;9.497982731764693e-06;-1.135361037540112;1.3765251472044555;-0.3411563527522992;9.527892906483729e-06;-0.0014985630915726525;9.507952790004623e-06;-1.1353678196467216;1.3765280105056297;-0.3411591275044415;-9.517922848244122e-06;5.369003973063058e-05;0.10010124407492063;0.2300388102287196;0.13012441823006948;-0.00012454248416138292;0.9999760787862984;9.130919118318449e-06;-2.2827297795796123e-05;4.108913603243303e-05;0.2299314301492583;0.13009373820736625;4.4197640706178376e-05;1.0000076025096258;9.130919118318449e-06;1.8261838236636895e-05;-2.739275735495535e-05;-0.005313147336269974;0.03910272165488005
0.06038713455200195;-0.12692719323865895;-0.06659329391082053;0.7025629638248501;0.004283382574588326;0.12283443514020843;-0.012681846451355856;-0.001496628447582991;9.497982731764693e-06;-1.135361037540112;1.3765251472044555;-0.3411563527522992;9.527892906483729e-06;-0.0014985630915726525;9.507952790004623e-06;-1.1353678196467216;1.3765280105056297;-0.3411591275044415;-9.517922848244122e-06;5.369003973063058e-05;0.10010124407492063;0.2300388102287196;0.13012441823006948;-0.00012454248416138292;0.9999760787862984;9.130919118318449e-06;-2.2827297795796123e-05;4.108913603243303e-05;0.2299314301492583;0.13009373820736625;4.4197640706178376e-05;1.0000076025096258;9.130919118318449e-06;1.8261838236636895e-05;-2.739275735495535e-05;-0.005313147336269974;0.03910272165488005
0.0802152156829834;-0.12700468303359647;-0.06663551514449308;0.7025449565149962;0.0042619818582877115;0.12272664849851823;-0.012616400858906007;-0.001496628447582991;9.497982731764693e-06;-1.135361037540112;1.3765251472044555;-0.3411563527522992;9.527892906483729e-06;-0.0014985630915726525;9.507952790004623e-06;-1.1353678196467216;1.3765280105056297;-0.3411591275044415;-9.517922848244122e-06;5.369003973063058e-05;0.10010124407492063;0.2300388102287196;0.13012441823006948;-0.00012454248416138292;0.9999760787862984;9.130919118318449e-06;-2.2827297795796123e-05;4.108913603243303e-05;0.2299314301492583;0.13009373820736625;4.4197640706178376e-05;1.0000076025096258;9.130919118318449e-06;1.8261838236636895e-05;-2.739275735495535e-05;-0.005313147336269974;0.03910272165488005
0.10019540786743164;-0.12709455638779815;-0.06673765141350693;0.702519008238277;0.004191800403323793;0.12260658631256695;-0.012454018459168567;-0.001496628447582991;9.497982731764693e-06;-1.135361037540112;1.3765251472044555;-0.3411563527522992;9.527892906483729e-06;-0.0014985630915726525;9.507952790004623e-06;-1.1353678196467216;1.3765280105056297;-0.3411591275044415;-9.517922848244122e-06;5.369003973063058e-05;0.10010124407492063;0.2300388102287196;0.13012441823006948;-0.00012454248416138292;0.99999141879765;0.0;-2.2827297795796123e-05;4.108913603243303e-05;0.2299314301492583;0.13009373820736625;4.4197640706178376e-05;1.0000076025096258;9.130919118318449e-06;1.8261838236636895e-05;-2.739275735495535e-05;-0.005313147336269974;0.03910272165488005
0.12003922462463379;-0.12707224417420876;-0.0667197851292077;0.7025247414493931;0.004020534924059278;0.12265465913696688;-0.012448095884796794;-0.001496628447582991;9.497982731764693e-06;-1.135361037540112;1.3765251472044555;-0.3411563527522992;9.527892906483729e-06;-0.0014985630915726525;9.507952790004623e-06;-1.1353678196467216;1.3765280105056297;-0.3411591275044415;-9.517922848244122e-06;5.369003973063058e-05;0.10010124407492063;0.2300388102287196;0.13012441823006948;-0.00012454248416138292;0.99999141879765;9.130919118318449e-06;-2.2827297795796123e-05;4.108913603243303e-05;0.2299314301492583;0.13009373820736625;4.4197640706178376e-05;1.0000076025096258;9.130919118318449e-06;1.8261838236636895e-05;-2.739275735495535e-05;-0.005313147336269974;0.03910272165488005
0.14015865325927734;-0.12716414081523977;-0.06674173025566248;0.7025060284786858;0.0038123336597728785;0.12254416958297197;-0.012377525392541082;-0.001496628447582991;9.497982731764693e-06;-1.135361037540112;1.3765251472044555;-0.3411563527522992;9.527892906483729e-06;-0.0014985630915726525;9.507952790004623e-06;-1.1353678196467216;1.3765280105056297;-0.3411591275044415;-9.517922848244122e-06;5.369003973063058e-05;0.10010124407492063;0.2300388102287196;0.13012441823006948;-0.00012454248416138292;0.99999141879765;9.130919118318449e-06;-2.2827297795796123e-05;4.108913603243303e-05;0.2299314301492583;0.13009373820736625;4.4197640706178376e-05;1.0000076025096258;9.130919118318449e-06;1.8261838236636895e-05;-2.739275735495535e-05;-0.005313147336269974;0.04063861139663505
0.16006898880004883;-0.1272137261352965;-0.06672736789656894;0.7024984153519945;0.003785284201624039;0.1224760271271583;-0.012393814077340089;-0.001496628447582991;9.497982731764693e-06;-1.135361037540112;1.3765251472044555;-0.3411563527522992;9.527892906483729e-06;-0.0014985630915726525;9.507952790004623e-06;-1.1353678196467216;1.3765280105056297;-0.3411591275044415;-9.517922848244122e-06;5.369003973063058e-05;0.10010124407492063;0.2300388102287196;0.13012441823006948;-0.00012454248416138292;0.99999141879765;9.130919118318449e-06;-2.2827297795796123e-05;4.108913603243303e-05;0.2299314301492583;0.13009373820736625;4.4197640706178376e-05;1.0000076025096258;9.130919118318449e-06;1.8261838236636895e-05;-2.739275735495535e-05;-0.005313147336269974;0.03910272165488005
0.1800987720489502;-0.12712931559610732;-0.06670810446508046;0.7025155252593605;0.0038115515459262667;0.12259343319736857;-0.012426513079794914;-0.001496628447582991;9.497982731764693e-06;-1.135361037540112;1.3765251472044555;-0.3411563527522992;9.527892906483729e-06;-0.0014985630915726525;9.507952790004623e-06;-1.1353678196467216;1.3765280105056297;-0.3411591275044415;-9.517922848244122e-06;5.369003973063058e-05;0.10010124407492063;0.2300388102287196;0.13012441823006948;-0.00012454248416138292;0.99999141879765;9.130919118318449e-06;-2.2827297795796123e-05;4.108913603243303e-05;0.2299314301492583;0.13009373820736625;4.4197640706178376e-05;1.0000076025096258;9.130919118318449e-06;1.8261838236636895e-05;-2.739275735495535e-05;-0.005313147336269974;0.03910272165488005
0.2000279426574707;-0.12702257197147837;-0.06670341385448572;0.7025352789046267;0.003806532051015517;0.12274581172645753;-0.012431860066057917;-0.001496628447582991;9.497982731764693e-06;-1.135361037540112;1.3765251472044555;-0.3411563527522992;9.527892906483729e-06;-0.0014985630915726525;9.507952790004623e-06;-1.1353678196467216;1.3765280105056297;-0.3411591275044415;-9.517922848244122e-06;5.369003973063058e-05;0.10010124407492063;0.2300388102287196;0.13012441823006948;-0.00012454248416138292;0.99999141879765;9.130919118318449e-06;-2.2827297795796123e-05;4.108913603243303e-05;0.2299314301492583;0.13009373820736625;4.4197640706178376e-05;1.0000076025096258;9.130919118318449e-06;1.8261838236636895e-05;-2.739275735495535e-05;-0.005313147336269974;0.03910272165488005
0.21999573707580566;-0.12704645305579954;-0.06664522489174379;0.7025364830959053;0.0037726654400244823;0.12271441085032586;-0.012511030902137798;-0.001496628447582991;9.497982731764693e-06;-1.135361037540112;1.3765251472044555;-0.3411563527522992;9.527892906483729e-06;-0.0014985630915726525;9.507952790004623e-06;-1.1353678196467216;1.3765280105056297;-0.3411591275044415;-9.517922848244122e-06;5.369003973063058e-05;0.10010124407492063;0.2300388102287196;0.13012441823006948;-0.00010920247280976624;0.99999141879765;9.130919118318449e-06;-2.2827297795796123e-05;4.108913603243303e-05;0.2299314301492583;0.13009373820736625;4.4197640706178376e-05;1.0000076025096258;9.130919118318449e-06;1.8261838236636895e-05;-2.739275735495535e-05;-0.005313147336269974;0.03910272165488005
0.24002957344055176;-0.12700946457289394;-0.06665692122129722;0.7025420614297042;0.0036047840125290665;0.12278337565539559;-0.012462327771000467;-0.001496628447582991;9.497982731764693e-06;-1.135361037540112;1.3765251472044555;-0.3411563527522992;9.527892906483729e-06;-0.0014985630915726525;9.507952790004623e-06;-1.1353678196467216;1.3765280105056297;-0.3411591275044415;-9.517922848244122e-06;5.369003973063058e-05;0.10010124407492063;0.2300388102287196;0.13012441823006948;-9.386246145814958e-05;0.99999141879765;9.130919118318449e-06;-2.2827297795796123e-05;4.108913603243303e-05;0.2299314301492583;0.13009373820736625;4.4197640706178376e-05;1.0000076025096258;9.130919118318449e-06;1.8261838236636895e-05;-2.739275735495535e-05;-0.005313147336269974;0.03910272165488005
0.2600092887878418;-0.12699180478629365;-0.0665988328358913;0.7025507627906403;0.003623770737802376;0.12280600006045696;-0.012550992315415233;-0.001496628447582991;9.497982731764693e-06;-1.135361037540112;1.3765251472044555;-0.3411563527522992;9.527892906483729e-06;-0.0014985630915726525;9.507952790004623e-06;-1.1353678196467216;1.3765280105056297;-0.3411591275044415;-9.517922848244122e-06;5.369003973063058e-05;0.10010124407492063;0.2300388102287196;0.13012441823006948;-7.852245010653293e-05;0.99999141879765;9.130919118318449e-06;-2.2827297795796123e-05;4.108913603243303e-05;0.2299314301492583;0.13009373820736625;2.8857629354561712e-05;1.0000076025096258;9.130919118318449e-06;1.8261838236636895e-05;-2.739275735495535e-05;-0.005313147336269974;0.03910272165488005
0.2801389694213867;-0.12698619499272124;-0.06660076975162976;0.7025515931698217;0.003544647896515877;0.12282162775795101;-0.01253335401324927;-0.001496628447582991;9.497982731764693e-06;-1.135361037540112;1.3765251472044555;-0.3411563527522992;9.527892906483729e-06;-0.0014985630915726525;9.507952790004623e-06;-1.1353678196467216;1.3765280105056297;-0.3411591275044415;-9.517922848244122e-06;5.369003973063058e-05;0.10010124407492063;0.2300388102287196;0.13012441823006948;-4.784242740352162e-05;0.99999141879765;9.130919118318449e-06;-2.2827297795796123e-05;4.108913603243303e-05;0.2299314301492583;0.13009373820736625;2.8857629354561712e-05;1.0000076025096258;9.130919118318449e-06;1.8261838236636895e-05;-2.739275735495535e-05;-0.005313147336269974;0.03910272165488005
0.30000829696655273;-0.12703373136713397;-0.0665018649442888;0.7025523684178769;0.0034150147620438265;0.1227652577221315;-0.012654489119136152;-0.001496628447582991;9.497982731764693e-06;-1.135361037540112;1.3765251472044555;-0.3411563527522992;9.527892906483729e-06;-0.0014985630915726525;9.507952790004623e-06;-1.1353678196467216;1.3765280105056297;-0.3411591275044415;-9.517922848244122e-06;4.6020034054822245e-05;0.1000935740692448;0.2300388102287196;0.13012441823006948;-3.2502416051904966e-05;0.99999141879765;9.130919118318449e-06;-1.8261838236636895e-05;3.6523676473273796e-05;0.2299314301492583;0.13009373820736625;2.8857629354561712e-05;1.0000076025096258;9.130919118318449e-06;1.8261838236636895e-05;-2.739275735495535e-05;-0.005313147336269974;0.03910272165488005
0.3199930191040039;-0.12710444468110588;-0.06653216922082368;0.702536709301922;0.003320043411098354;0.1226741060098949;-0.012592648998501196;-0.001496628447582991;9.497982731764693e-06;-1.135361037540112;1.3765251472044555;-0.3411563527522992;9.527892906483729e-06;-0.0014985630915726525;9.507952790004623e-06;-1.1353678196467216;1.3765280105056297;-0.3411591275044415;-9.517922848244122e-06;4.6020034054822245e-05;0.1000935740692448;0.2300388102287196;0.13012441823006948;-1.7162404700288292e-05;1.0000067588090016;9.130919118318449e-06;-2.2827297795796123e-05;4.108913603243303e-05;0.2299314301492583;0.13009373820736625;2.8857629354561712e-05;1.0000076025096258;9.130919118318449e-06;1.8261838236636895e-05;-2.739275735495535e-05;-0.005313147336269974;0.03910272165488005
0.3400273323059082;-0.1270359230403011;-0.06649916200254448;0.7025522279702426;0.0032023137537262776;0.12278256843448304;-0.01261875839666309;-0.001496628447582991;9.497982731764693e-06;-1.135361037540112;1.3765251472044555;-0.3411563527522992;9.527892906483729e-06;-0.0014985630915726525;9.507952790004623e-06;-1.1353678196467216;1.3765280105056297;-0.3411591275044415;-9.517922848244122e-06;3.0680022703219456e-05;0.1000782340578932;0.2300388102287196;0.13012441823006948;-1.7162404700288292e-05;1.0000067588090016;9.130919118318449e-06;-2.2827297795796123e-05;4.108913603243303e-05;0.2299314301492583;0.13009373820736625;2.8857629354561712e-05;1.0000076025096258;9.130919118318449e-06;1.8261838236636895e-05;-2.739275735495535e-05;-0.005313147336269974;0.03910272165488005
0.3601694107055664;-0.12699718284409592;-0.06654314968519251;0.7025550669487275;0.003152690682400555;0.12284303400191524;-0.012544787833436944;-0.001496628447582991;9.497982731764693e-06;-1.135361037540112;1.3765251472044555;-0.3411563527522992;9.527892906483729e-06;-0.0014985630915726525;9.507952790004623e-06;-1.1353678196467216;1.3765280105056297;-0.3411591275044415;-9.517922848244122e-06;0.0;0.10004755403519;0.2300388102287196;0.13012441823006948;-1.7162404700288292e-05;1.0000834588657597;9.130919118318449e-06;-2.2827297795796123e-05;4.108913603243303e-05;0.2299314301492583;0.13009373820736625;2.8857629354561712e-05;1.0000076025096258;9.130919118318449e-06;1.8261838236636895e-05;-2.739275735495535e-05;-0.005313147336269974;0.04063861139663505
0.38022375106811523;-0.12692873527617493;-0.0665020076647171;0.702571331932528;0.003082011863517416;0.12294675337035212;-0.01259164334426973;-0.001496628447582991;9.497982731764693e-06;-1.135361037540112;1.3765251472044555;-0.3411563527522992;9.527892906483729e-06;-0.0014985630915726525;9.507952790004623e-06;-1.1353678196467216;1.3765280105056297;-0.3411591275044415;-9.517922848244122e-06;-7.670005675801395e-06;0.1000398840295142;0.2300388102287196;0.13012441823006948;-1.8223933486716248e-06;1.000114138888463;9.130919118318449e-06;-2.2827297795796123e-05;4.108913603243303e-05;0.2299314301492583;0.13009373820736625;2.8857629354561712e-05;1.0000076025096258;9.130919118318449e-06;1.8261838236636895e-05;-2.739275735495535e-05;-0.005313147336269974;0.03910272165488005
0.4000968933105469;-0.12695682912431927;-0.06652546605429428;0.7025640349609784;0.003129093412231524;0.12290252588715905;-0.012566140506465408;-0.001496628447582991;9.497982731764693e-06;-1.135361037540112;1.3765251472044555;-0.3411563527522992;9.527892906483729e-06;-0.0014985630915726525;9.507952790004623e-06;-1.1353678196467216;1.3765280105056297;-0.3411591275044415;-9.517922848244122e-06;-1.5340011351609728e-05;0.10003221402383837;0.2300388102287196;0.13012441823006948;-1.8223933486716248e-06;1.0001294788998143;9.130919118318449e-06;-2.2827297795796123e-05;4.108913603243303e-05;0.2299314301492583;0.13009373820736625;2.8857629354561712e-05;1.0000076025096258;9.130919118318449e-06;1.8261838236636895e-05;-2.739275735495535e-05;-0.005313147336269974;0.03910272165488005
0.4200477600097656;-0.12697543390174923;-0.06653195566552864;0.7025600581989245;0.0029946902920148294;0.12288906745329022;-0.012531630520986228;-0.001496628447582991;9.497982731764693e-06;-1.135361037540112;1.3765251472044555;-0.3411563527522992;9.527892906483729e-06;-0.0014985630915726525;9.507952790004623e-06;-1.1353678196467216;1.3765280105056297;-0.3411591275044415;-9.517922848244122e-06;-2.3010017027411123e-05;0.10002454401816258;0.2300388102287196;0.13012441823006948;-1.8223933486716248e-06;1.0001294788998143;9.130919118318449e-06;-2.2827297795796123e-05;4.108913603243303e-05;0.2299314301492583;0.13009373820736625;2.8857629354561712e-05;1.0000076025096258;9.130919118318449e-06;1.8261838236636895e-05;-2.739275735495535e-05;-0.005313147336269974;0.03910272165488005
0.44009923934936523;-0.12700791772041292;-0.06660812950654839;0.7025469687043404;0.0029214612096875;0.12285085627957953;-0.012406362501801457;-0.001496628447582991;9.497982731764693e-06;-1.135361037540112;1.3765251472044555;-0.3411563527522992;9.527892906483729e-06;-0.0014985630915726525;9.507952790004623e-06;-1.1353678196467216;1.3765280105056297;-0.3411591275044415;-9.517922848244122e-06;-3.0680022703219456e-05;0.10001687401248677;0.2300388102287196;0.13012441823006948;1.3517618002945042e-05;1.0001294788998143;9.130919118318449e-06;-2.2827297795796123e-05;4.108913603243303e-05;0.2299314301492583;0.13009373820736625;1.3517618002945042e-05;1.0000076025096258;9.130919118318449e-06;1.8261838236636895e-05;-2.739275735495535e-05;-0.005313147336269974;0.03910272165488005
0.4602375030517578;-0.12703085168538025;-0.0666643145152566;0.70253749309627;0.002827047044376249;0.1228280436033756;-0.012306416484564263;-0.001496628447582991;9.497982731764693e-06;-1.135361037540112;1.3765251472044555;-0.3411563527522992;9.527892906483729e-06;-0.0014985630915726525;9.507952790004623e-06;-1.1353678196467216;1.3765280105056297;-0.3411591275044415;-9.517922848244122e-06;-3.835002837902085e-05;0.10000920400681096;0.2300388102287196;0.13012441823006948;1.3517618002945042e-05;1.0001294788998143;9.130919118318449e-06;-2.2827297795796123e-05;4.108913603243303e-05;0.2299314301492583;0.13009373820736625;1.3517618002945042e-05;1.0000076025096258;9.130919118318449e-06;1.8261838236636895e-05;-2.739275735495535e-05;-0.005313147336269974;0.03910272165488005
0.4799950122833252;-0.12704255815553175;-0.06667944257853317;0.7025339405825234;0.0028340971574619045;0.12281089494973954;-0.012285587955386515;-0.001496628447582991;9.497982731764693e-06;-1.135361037540112;1.3765251472044555;-0.3411563527522992;9.527892906483729e-06;-0.0014985630915726525;9.507952790004623e-06;-1.1353678196467216;1.3765280105056297;-0.3411591275044415;-9.517922848244122e-06;-6.903005108224031e-05;0.09997852398410777;0.2300388102287196;0.13012441823006948;9.021767476102838e-05;1.0001294788998143;9.130919118318449e-06;-1.8261838236636895e-05;3.6523676473273796e-05;0.2299314301492583;0.13009373820736625;1.3517618002945042e-05;1.0000076025096258;9.130919118318449e-06;1.8261838236636895e-05;-2.739275735495535e-05;-0.005313147336269974;0.03910272165488005
0.5000193119049072;-0.12701942400989144;-0.06672818223496832;0.7025334959526883;0.0026445275700071437;0.1228627775620601;-0.012178614743248838;-0.001496628447582991;9.497982731764693e-06;-1.135361037540112;1.3765251472044555;-0.3411563527522992;9.527892906483729e-06;-0.0014985630915726525;9.507952790004623e-06;-1.1353678196467216;1.3765280105056297;-0.3411591275044415;-9.517922848244122e-06;-7.67000567580417e-05;0.09997085397843193;0.2300388102287196;0.13012441823006948;0.00010555768611264504;1.0001294788998143;9.130919118318449e-06;-2.2827297795796123e-05;4.108913603243303e-05;0.2299314301492583;0.13009373820736625;1.3517618002945042e-05;1.0000076025096258;9.130919118318449e-06;1.8261838236636895e-05;-2.739275735495535e-05;-0.005313147336269974;0.04063861139663505
0.5200240612030029;-0.12704834373743185;-0.06678704582676066;0.7025226730711283;0.002608385237700216;0.12282588698647247;-0.01208562655675792;-0.001496628447582991;9.497982731764693e-06;-1.135361037540112;1.3765251472044555;-0.3411563527522992;9.527892906483729e-06;-0.0014985630915726525;9.507952790004623e-06;-1.1353678196467216;1.3765280105056297;-0.3411591275044415;-9.517922848244122e-06;-7.67000567580417e-05;0.09997085397843193;0.2300388102287196;0.13012441823006948;0.00010555768611264504;1.0001294788998143;9.130919118318449e-06;-2.2827297795796123e-05;4.108913603243303e-05;0.2299314301492583;0.13009373820736625;1.3517618002945042e-05;1.0000229425209777;9.130919118318449e-06;1.8261838236636895e-05;-2.739275735495535e-05;-0.005313147336269974;0.03910272165488005
0.5400097370147705;-0.1269843649150469;-0.0668226109528878;0.7025308584313252;0.0023826948340093823;0.12293928593224417;-0.011991106608419254;-0.001496628447582991;9.497982731764693e-06;-1.135361037540112;1.3765251472044555;-0.3411563527522992;9.527892906483729e-06;-0.0014985630915726525;9.507952790004623e-06;-1.1353678196467216;1.3765280105056297;-0.3411591275044415;-9.517922848244122e-06;-7.67000567580417e-05;0.09997085397843193;0.2300388102287196;0.13012441823006948;0.00010555768611264504;1.0001294788998143;9.130919118318449e-06;-2.2827297795796123e-05;4.108913603243303e-05;0.2299314301492583;0.13009373820736625;-4.784242740352162e-05;1.0000229425209777;9.130919118318449e-06;1.8261838236636895e-05;-2.739275735495535e-05;-0.005313147336269974;0.03910272165488005
0.5601065158843994;-0.12707457466245975;-0.06673948542984585;0.7025224486623953;0.002260026362431389;0.12282160985114159;-0.012090474601112091;-0.001496628447582991;9.497982731764693e-06;-1.135361037540112;1.3765251472044555;-0.3411563527522992;9.527892906483729e-06;-0.0014985630915726525;9.507952790004623e-06;-1.1353678196467216;1.3765280105056297;-0.3411591275044415;-9.517922848244122e-06;-8.43700624338431e-05;0.09996318397275614;0.2300388102287196;0.13012441823006948;0.00010555768611264504;1.0001294788998143;9.130919118318449e-06;-2.2827297795796123e-05;4.108913603243303e-05;0.2299314301492583;0.13009373820736625;-6.318243875513829e-05;1.0000229425209777;9.130919118318449e-06;1.8261838236636895e-05;-2.739275735495535e-05;-0.005313147336269974;0.03910272165488005
0.5800137519836426;-0.12701425050345735;-0.06671245367011949;0.7025359250672174;0.002231037005097491;0.1229099101362707;-0.012124523075956206;-0.001496628447582991;9.497982731764693e-06;-1.135361037540112;1.3765251472044555;-0.3411563527522992;9.527892906483729e-06;-0.0014985630915726525;9.507952790004623e-06;-1.1353678196467216;1.3765280105056297;-0.3411591275044415;-9.517922848244122e-06;-8.43700624338431e-05;0.09996318397275614;0.2300388102287196;0.13012441823006948;0.00010555768611264504;1.0001294788998143;9.130919118318449e-06;-2.2827297795796123e-05;4.108913603243303e-05;0.2299314301492583;0.13009373820736625;-6.318243875513829e-05;1.0000229425209777;9.130919118318449e-06;1.8261838236636895e-05;-2.739275735495535e-05;-0.0068490370780249785;0.03910272165488005
0.5999972820281982;-0.12696546764977154;-0.06667565196826335;0.7025482366177965;0.0022699446506573365;0.12297507961750215;-0.012185608177141214;-0.001496628447582991;9.497982731764693e-06;-1.135361037540112;1.3765251472044555;-0.3411563527522992;9.527892906483729e-06;-0.0014985630915726525;9.507952790004623e-06;-1.1353678196467216;1.3765280105056297;-0.3411591275044415;-9.517922848244122e-06;-8.43700624338431e-05;0.09996318397275614;0.2300388102287196;0.13012441823006948;0.00010555768611264504;1.0001294788998143;0.0;-2.2827297795796123e-05;4.108913603243303e-05;0.2299314301492583;0.13009373820736625;-6.318243875513829e-05;1.0000229425209777;9.130919118318449e-06;1.8261838236636895e-05;-2.739275735495535e-05;-0.005313147336269974;0.03910272165488005
0.6202225685119629;-0.12703014785409206;-0.06672555339308778;0.7025318066651839;0.002275251743681759;0.12288318512152828;-0.012113606865780458;-0.001496628447582991;9.497982731764693e-06;-1.135361037540112;1.3765251472044555;-0.3411563527522992;9.527892906483729e-06;-0.0014985630915726525;9.507952790004623e-06;-1.1353678196467216;1.3765280105056297;-0.3411591275044415;-9.517922848244122e-06;-8.43700624338431e-05;0.09996318397275614;0.2300388102287196;0.13012441823006948;0.00010555768611264504;1.0001294788998143;9.130919118318449e-06;-1.8261838236636895e-05;3.6523676473273796e-05;0.2299314301492583;0.13009373820736625;-6.318243875513829e-05;1.0000229425209777;9.130919118318449e-06;1.8261838236636895e-05;-2.739275735495535e-05;-0.005313147336269974;0.03910272165488005
0.6401724815368652;-0.1270254853057892;-0.06674004403669213;0.7025312732686728;0.0021999645875778835;0.12289730622060971;-0.012078286633283928;-0.001496628447582991;9.497982731764693e-06;-1.135361037540112;1.3765251472044555;-0.3411563527522992;9.527892906483729e-06;-0.0014985630915726525;9.507952790004623e-06;-1.1353678196467216;1.3765280105056297;-0.3411591275044415;-9.517922848244122e-06;-8.43700624338431e-05;0.09996318397275614;0.2300388102287196;0.13010907821871787;0.00010555768611264504;1.0001294788998143;9.130919118318449e-06;-2.2827297795796123e-05;4.108913603243303e-05;0.2299314301492583;0.13009373820736625;-6.318243875513829e-05;1.0000229425209777;9.130919118318449e-06;1.8261838236636895e-05;-2.739275735495535e-05;-0.005313147336269974;0.03910272165488005
0.6600408554077148;-0.1271159220064692;-0.06670431124815011;0.7025183090489875;0.002148802233823099;0.12277302496516283;-0.012121448015281875;-0.001496628447582991;9.497982731764693e-06;-1.135361037540112;1.3765251472044555;-0.3411563527522992;9.527892906483729e-06;-0.0014985630915726525;9.507952790004623e-06;-1.1353678196467216;1.3765280105056297;-0.3411591275044415;-9.517922848244122e-06;-8.43700624338431e-05;0.09996318397275614;0.2300388102287196;0.13009373820736625;0.00010555768611264504;1.0001294788998143;9.130919118318449e-06;-2.2827297795796123e-05;4.108913603243303e-05;0.2299314301492583;0.13009373820736625;-6.318243875513829e-05;1.0000229425209777;9.130919118318449e-06;1.8261838236636895e-05;-2.739275735495535e-05;-0.005313147336269974;0.03910272165488005
0.6800718307495117;-0.12704384501926586;-0.06672232652549451;0.702529636315394;0.0021512790920590395;0.12287563604478395;-0.012095253885495852;-0.001496628447582991;9.497982731764693e-06;-1.135361037540112;1.3765251472044555;-0.3411563527522992;9.527892906483729e-06;-0.0014985630915726525;9.507952790004623e-06;-1.1353678196467216;1.3765280105056297;-0.3411591275044415;-9.517922848244122e-06;-8.43700624338431e-05;0.09996318397275614;0.2300388102287196;0.13009373820736625;0.00010555768611264504;1.0001294788998143;9.130919118318449e-06;-2.2827297795796123e-05;4.108913603243303e-05;0.2299314301492583;0.13009373820736625;-6.318243875513829e-05;1.0000229425209777;9.130919118318449e-06;1.8261838236636895e-05;-2.739275735495535e-05;-0.005313147336269974;0.04063861139663505
0.7000079154968262;-0.12703177616825898;-0.06674673773470363;0.7025294998510779;0.0021890573440856054;0.12288949991094945;-0.012066451976796205;-0.001496628447582991;9.497982731764693e-06;-1.135361037540112;1.3765251472044555;-0.3411563527522992;9.527892906483729e-06;-0.0014985630915726525;9.507952790004623e-06;-1.1353678196467216;1.3765280105056297;-0.3411591275044415;-9.517922848244122e-06;-8.43700624338431e-05;0.09996318397275614;0.2300388102287196;0.13007839819601466;0.00010555768611264504;1.0001294788998143;9.130919118318449e-06;-2.2827297795796123e-05;4.108913603243303e-05;0.2299314301492583;0.13009373820736625;-6.318243875513829e-05;1.0000229425209777;9.130919118318449e-06;1.8261838236636895e-05;-2.739275735495535e-05;-0.005313147336269974;0.03910272165488005
0.7199759483337402;-0.12705280697180146;-0.06674637136014178;0.7025257315333966;0.002200242705789783;0.12285847572729415;-0.012069144266650093;-0.001496628447582991;9.497982731764693e-06;-1.135361037540112;1.3765251472044555;-0.3411563527522992;9.527892906483729e-06;-0.0014985630915726525;9.507952790004623e-06;-1.1353678196467216;1.3765280105056297;-0.3411591275044415;-9.517922848244122e-06;-8.43700624338431e-05;0.09996318397275614;0.2300388102287196;0.13006305818466302;0.00010555768611264504;1.0001294788998143;9.130919118318449e-06;-2.2827297795796123e-05;4.108913603243303e-05;0.22997745018331314;0.13007839819601466;-6.318243875513829e-05;1.0000229425209777;9.130919118318449e-06;1.8261838236636895e-05;-2.739275735495535e-05;-0.005313147336269974;0.04063861139663505
0.7400422096252441;-0.1269382315128472;-0.06674077484958092;0.7025469747060065;0.001972938122552912;0.12304349008012902;-0.012034608740246106;-0.001496628447582991;9.497982731764693e-06;-1.135361037540112;1.3765251472044555;-0.3411563527522992;9.527892906483729e-06;-0.0014985630915726525;9.507952790004623e-06;-1.1353678196467216;1.3765280105056297;-0.3411591275044415;-9.517922848244122e-06;-8.43700624338431e-05;0.09996318397275614;0.2300388102287196;0.1300477181733114;0.00010555768611264504;1.0001294788998143;9.130919118318449e-06;-2.2827297795796123e-05;4.108913603243303e-05;0.230023470217368;0.13007839819601466;-6.318243875513829e-05;1.0000229425209777;9.130919118318449e-06;1.8261838236636895e-05;-2.739275735495535e-05;-0.005313147336269974;0.03910272165488005
0.7600927352905273;-0.12690052145044461;-0.06674035766329803;0.7025538268561875;0.0019413789368800019;0.1231002164645907;-0.012029230230017292;-0.001496628447582991;9.497982731764693e-06;-1.135361037540112;1.3765251472044555;-0.3411563527522992;9.527892906483729e-06;-0.0014985630915726525;9.507952790004623e-06;-1.1353678196467216;1.3765280105056297;-0.3411591275044415;-9.517922848244122e-06;-8.43700624338431e-05;0.09996318397275614;0.2300388102287196;0.1300323781619599;0.00010555768611264504;1.0001294788998143;9.130919118318449e-06;-2.2827297795796123e-05;4.108913603243303e-05;0.230023470217368;0.13007839819601466;-6.318243875513829e-05;1.0000229425209777;9.130919118318449e-06;1.8261838236636895e-05;-2.739275735495535e-05;-0.005313147336269974;0.03910272165488005
0.7800302505493164;-0.12688422396263094;-0.06673856969088067;0.7025569402836398;0.0017696226372325317;0.12314001912592397;-0.011999803976901155;-0.001496628447582991;9.497982731764693e-06;-1.135361037540112;1.3765251472044555;-0.3411563527522992;9.527892906483729e-06;-0.0014985630915726525;9.507952790004623e-06;-1.1353678196467216;1.3765280105056297;-0.3411591275044415;-9.517922848244122e-06;-8.43700624338431e-05;0.09996318397275614;0.2300388102287196;0.13001703815060828;0.00010555768611264504;1.0001294788998143;9.130919118318449e-06;-2.2827297795796123e-05;4.108913603243303e-05;0.230023470217368;0.13007839819601466;-6.318243875513829e-05;1.0000229425209777;9.130919118318449e-06;1.8261838236636895e-05;-2.739275735495535e-05;-0.005313147336269974;0.03910272165488005
0.8000204563140869;-0.12678830886627626;-0.06665081267931477;0.7025825867609516;0.0015643440443632924;0.12329512278465066;-0.01209008241819205;-0.001496628447582991;9.497982731764693e-06;-1.135361037540112;1.3765251472044555;-0.3411563527522992;9.527892906483729e-06;-0.0014985630915726525;9.507952790004623e-06;-1.1353678196467216;1.3765280105056297;-0.3411591275044415;-9.517922848244122e-06;-8.43700624338431e-05;0.09996318397275614;0.2300388102287196;0.13001703815060828;0.00010555768611264504;1.0001294788998143;9.130919118318449e-06;-2.2827297795796123e-05;4.108913603243303e-05;0.230023470217368;0.13006305818466302;-6.318243875513829e-05;1.0000229425209777;9.130919118318449e-06;1.8261838236636895e-05;-2.739275735495535e-05;-0.005313147336269974;0.03910272165488005
0.8200547695159912;-0.12676800169187807;-0.06661962735468369;0.7025892087940612;0.0015802706271920554;0.1233220239861382;-0.012138750213357667;-0.001496628447582991;9.497982731764693e-06;-1.135361037540112;1.3765251472044555;-0.3411563527522992;9.527892906483729e-06;-0.0014985630915726525;9.507952790004623e-06;-1.1353678196467216;1.3765280105056297;-0.3411591275044415;-9.517922848244122e-06;-8.43700624338431e-05;0.09996318397275614;0.230023470217368;0.12998635812790504;0.00010555768611264504;1.0001294788998143;9.130919118318449e-06;-2.2827297795796123e-05;4.108913603243303e-05;0.230023470217368;0.13006305818466302;-6.318243875513829e-05;1.0000229425209777;9.130919118318449e-06;1.8261838236636895e-05;-2.739275735495535e-05;-0.005313147336269974;0.03910272165488005
0.8400087356567383;-0.12684535916425074;-0.0665988621496075;0.7025772154963208;0.001484241171818829;0.12322089437071392;-0.012151508645002623;-0.001496628447582991;9.497982731764693e-06;-1.135361037540112;1.3765251472044555;-0.3411563527522992;9.527892906483729e-06;-0.0014985630915726525;9.507952790004623e-06;-1.1353678196467216;1.3765280105056297;-0.3411591275044415;-9.517922848244122e-06;-8.43700624338431e-05;0.09996318397275614;0.230023470217368;0.12997101811655346;0.00010555768611264504;1.0001294788998143;9.130919118318449e-06;-2.2827297795796123e-05;4.108913603243303e-05;0.230023470217368;0.13006305818466302;-6.318243875513829e-05;1.0000229425209777;9.130919118318449e-06;1.8261838236636895e-05;-2.739275735495535e-05;-0.005313147336269974;0.03910272165488005
0.8600335121154785;-0.1268802908296659;-0.0664976431426407;0.7025804954388837;0.0015030570532275622;0.12316784824921584;-0.012303580192703513;-0.001496628447582991;9.497982731764693e-06;-1.135361037540112;1.3765251472044555;-0.3411563527522992;9.527892906483729e-06;-0.0014985630915726525;9.507952790004623e-06;-1.1353678196467216;1.3765280105056297;-0.3411591275044415;-9.517922848244122e-06;-8.43700624338431e-05;0.09996318397275614;0.230023470217368;0.1299556781052018;0.00010555768611264504;1.0001294788998143;9.130919118318449e-06;-2.2827297795796123e-05;4.108913603243303e-05;0.230023470217368;0.13001703815060828;-6.318243875513829e-05;1.0000229425209777;9.130919118318449e-06;1.8261838236636895e-05;-2.739275735495535e-05;-0.005313147336269974;0.03910272165488005
0.8799982070922852;-0.12685905323915492;-0.06647449827456252;0.7025865206550039;0.001544101078565656;0.12319377179969683;-0.01234513157659438;-0.001496628447582991;9.497982731764693e-06;-1.135361037540112;1.3765251472044555;-0.3411563527522992;9.527892906483729e-06;-0.0014985630915726525;9.507952790004623e-06;-1.1353678196467216;1.3765280105056297;-0.3411591275044415;-9.517922848244122e-06;-8.43700624338431e-05;0.09996318397275614;0.230023470217368;0.12989431805979534;0.00010555768611264504;1.0001294788998143;9.130919118318449e-06;-2.2827297795796123e-05;4.108913603243303e-05;0.230023470217368;0.1299403380938502;-6.318243875513829e-05;1.0000229425209777;9.130919118318449e-06;1.8261838236636895e-05;-2.739275735495535e-05;-0.005313147336269974;0.03910272165488005
0.8999745845794678;-0.12689119319765918;-0.06649531477318368;0.702578746844639;0.0014573723251074338;0.12315670600964604;-0.012298509132661355;-0.001496628447582991;9.497982731764693e-06;-1.135361037540112;1.3765251472044555;-0.3411563527522992;9.527892906483729e-06;-0.0014985630915726525;9.507952790004623e-06;-1.1353678196467216;1.3765280105056297;-0.3411591275044415;-9.517922848244122e-06;-8.43700624338431e-05;0.09996318397275614;0.23000813020601635;0.12989431805979534;0.00010555768611264504;1.0001294788998143;9.130919118318449e-06;-2.2827297795796123e-05;4.108913603243303e-05;0.230023470217368;0.12992499808249858;-6.318243875513829e-05;1.0000229425209777;9.130919118318449e-06;1.8261838236636895e-05;-2.739275735495535e-05;-0.005313147336269974;0.03910272165488005
0.920189619064331;-0.1267842014162532;-0.06651365853420717;0.7025963256488975;0.0014224125932603994;0.1233126412427948;-0.012264862622503469;-0.001496628447582991;9.497982731764693e-06;-1.135361037540112;1.3765251472044555;-0.3411563527522992;9.527892906483729e-06;-0.0014985630915726525;9.507952790004623e-06;-1.1353678196467216;1.3765280105056297;-0.3411591275044415;-9.517922848244122e-06;-8.43700624338431e-05;0.09996318397275614;0.23000813020601635;0.12989431805979534;0.00010555768611264504;1.0001294788998143;9.130919118318449e-06;-2.2827297795796123e-05;4.108913603243303e-05;0.230023470217368;0.12990965807114696;-6.318243875513829e-05;1.0000229425209777;9.130919118318449e-06;1.8261838236636895e-05;-2.739275735495535e-05;-0.005313147336269974;0.03910272165488005
0.9401471614837646;-0.12679855414527683;-0.06654517416374264;0.7025907512755049;0.0014390193437562248;0.12329108137465088;-0.01222174998112142;-0.001496628447582991;9.497982731764693e-06;-1.135361037540112;1.3765251472044555;-0.3411563527522992;9.527892906483729e-06;-0.0014985630915726525;9.507952790004623e-06;-1.1353678196467216;1.3765280105056297;-0.3411591275044415;-9.517922848244122e-06;-8.43700624338431e-05;0.09996318397275614;0.23000813020601635;0.12989431805979534;0.00010555768611264504;1.0001294788998143;9.130919118318449e-06;-2.2827297795796123e-05;4.108913603243303e-05;0.230023470217368;0.12990965807114696;-6.318243875513829e-05;1.0000229425209777;9.130919118318449e-06;1.8261838236636895e-05;-2.739275735495535e-05;-0.005313147336269974;0.03910272165488005
0.9600863456726074;-0.12688672575599572;-0.0665748180455596;0.702572024595925;0.0013598690970172177;0.12317367835381535;-0.0121637034308816;-0.001496628447582991;9.497982731764693e-06;-1.135361037540112;1.3765251472044555;-0.3411563527522992;9.527892906483729e-06;-0.0014985630915726525;9.507952790004623e-06;-1.1353678196467216;1.3765280105056297;-0.3411591275044415;-9.517922848244122e-06;-8.43700624338431e-05;0.09996318397275614;0.23000813020601635;0.12989431805979534;0.00010555768611264504;1.0001294788998143;9.130919118318449e-06;-2.2827297795796123e-05;4.108913603243303e-05;0.230023470217368;0.12990965807114696;-6.318243875513829e-05;1.0000229425209777;9.130919118318449e-06;1.8261838236636895e-05;-2.739275735495535e-05;-0.005313147336269974;0.03910272165488005
0.9800848960876465;-0.1268116668204034;-0.0665922972443068;0.7025839198427835;0.0014351133769031318;0.12327350204659347;-0.012151919626006272;-0.001496628447582991;9.497982731764693e-06;-1.135361037540112;1.3765251472044555;-0.3411563527522992;9.527892906483729e-06;-0.0014985630915726525;9.507952790004623e-06;-1.1353678196467216;1.3765280105056297;-0.3411591275044415;-9.517922848244122e-06;-8.43700624338431e-05;0.09996318397275614;0.22999279019466476;0.12989431805979534;0.00010555768611264504;1.0001294788998143;9.130919118318449e-06;-2.2827297795796123e-05;4.108913603243303e-05;0.230023470217368;0.12990965807114696;-6.318243875513829e-05;1.0000229425209777;9.130919118318449e-06;1.8261838236636895e-05;-2.739275735495535e-05;-0.005313147336269974;0.03910272165488005
1.0000560283660889;-0.1269061817299269;-0.06654186071062103;0.7025716327376115;0.0013592488910164136;0.1231455479100489;-0.012211976000937614;-0.001496628447582991;9.497982731764693e-06;-1.135361037540112;1.3765251472044555;-0.3411563527522992;9.527892906483729e-06;-0.0014985630915726525;9.507952790004623e-06;-1.1353678196467216;1.3765280105056297;-0.3411591275044415;-9.517922848244122e-06;-8.43700624338431e-05;0.09996318397275614;0.22999279019466476;0.12989431805979534;0.00010555768611264504;1.0001294788998143;9.130919118318449e-06;-2.2827297795796123e-05;4.108913603243303e-05;0.230023470217368;0.12990965807114696;-6.318243875513829e-05;1.0000229425209777;9.130919118318449e-06;1.8261838236636895e-05;-2.739275735495535e-05;-0.005313147336269974;0.03910272165488005
1.0200188159942627;-0.12687760882665805;-0.0664210205915111;0.7025882277107306;0.001157302193190232;0.1232038769596592;-0.012351579794894846;-0.001496628447582991;9.497982731764693e-06;-1.135361037540112;1.3765251472044555;-0.3411563527522992;9.527892906483729e-06;-0.0014985630915726525;9.507952790004623e-06;-1.1353678196467216;1.3765280105056297;-0.3411591275044415;-9.517922848244122e-06;-8.43700624338431e-05;0.09996318397275614;0.22999279019466476;0.12989431805979534;0.00010555768611264504;1.0001294788998143;9.130919118318449e-06;-2.2827297795796123e-05;4.108913603243303e-05;0.230023470217368;0.12990965807114696;-6.318243875513829e-05;1.0000229425209777;9.130919118318449e-06;1.8261838236636895e-05;-2.739275735495535e-05;-0.005313147336269974;0.03910272165488005
1.0399928092956543;-0.12686236474833576;-0.06640831657056187;0.7025921812946812;0.0009921572638130008;0.12324131293513091;-0.012339438735527472;-0.001496628447582991;9.497982731764693e-06;-1.135361037540112;1.3765251472044555;-0.3411563527522992;9.527892906483729e-06;-0.0014985630915726525;9.507952790004623e-06;-1.1353678196467216;1.3765280105056297;-0.3411591275044415;-9.517922848244122e-06;-8.43700624338431e-05;0.09996318397275614;0.22999279019466476;0.12989431805979534;0.00010555768611264504;1.0001294788998143;9.130919118318449e-06;-2.2827297795796123e-05;4.108913603243303e-05;0.230023470217368;0.12990965807114696;-6.318243875513829e-05;1.0000229425209777;9.130919118318449e-06;1.8261838236636895e-05;-2.739275735495535e-05;-0.005313147336269974;0.03910272165488005
1.0600154399871826;-0.1269394402848364;-0.06641162454330024;0.7025779472353129;0.0008587942029711061;0.12314453238485087;-0.0123098510395111;-0.001496628447582991;9.497982731764693e-06;-1.135361037540112;1.3765251472044555;-0.3411563527522992;9.527892906483729e-06;-0.0014985630915726525;9.507952790004623e-06;-1.1353678196467216;1.3765280105056297;-0.3411591275044415;-9.517922848244122e-06;-8.43700624338431e-05;0.09996318397275614;0.22999279019466476;0.12989431805979534;0.00010555768611264504;1.0001294788998143;9.130919118318449e-06;-2.2827297795796123e-05;4.108913603243303e-05;0.230023470217368;0.12990965807114696;-6.318243875513829e-05;1.0000229425209777;9.130919118318449e-06;1.8261838236636895e-05;-2.739275735495535e-05;-0.005313147336269974;0.03910272165488005
1.0799946784973145;-0.12694942515382482;-0.06645468190792098;0.7025720717629789;0.0007638401109194417;0.12314017298622297;-0.012229006298099023;-0.001496628447582991;9.497982731764693e-06;-1.135361037540112;1.3765251472044555;-0.3411563527522992;9.527892906483729e-06;-0.0014985630915726525;9.507952790004623e-06;-1.1353678196467216;1.3765280105056297;-0.3411591275044415;-9.517922848244122e-06;-8.43700624338431e-05;0.09996318397275614;0.22999279019466476;0.12989431805979534;0.00010555768611264504;1.0001294788998143;9.130919118318449e-06;-2.2827297795796123e-05;4.108913603243303e-05;0.230023470217368;0.12990965807114696;-6.318243875513829e-05;1.0000229425209777;9.130919118318449e-06;1.8261838236636895e-05;-2.739275735495535e-05;-0.005313147336269974;0.03910272165488005
1.1000268459320068;-0.12697374934315364;-0.06637901730329883;0.7025748290077608;0.0006200191502504249;0.12311822724698109;-0.012313235166119998;-0.001496628447582991;9.497982731764693e-06;-1.135361037540112;1.3765251472044555;-0.3411563527522992;9.527892906483729e-06;-0.0014985630915726525;9.507952790004623e-06;-1.1353678196467216;1.3765280105056297;-0.3411591275044415;-9.517922848244122e-06;-8.43700624338431e-05;0.09996318397275614;0.22999279019466476;0.12989431805979534;0.00010555768611264504;1.0001294788998143;0.0;-2.2827297795796123e-05;4.108913603243303e-05;0.230023470217368;0.12990965807114696;-6.318243875513829e-05;1.0000229425209777;9.130919118318449e-06;1.8261838236636895e-05;-2.739275735495535e-05;-0.005313147336269974;0.03910272165488005
1.1200048923492432;-0.12698005031761367;-0.06637957402034972;0.7025736376280475;0.0006370097170798499;0.12310762770766774;-0.012315590247808568;-0.001496628447582991;9.497982731764693e-06;-1.135361037540112;1.3765251472044555;-0.3411563527522992;9.527892906483729e-06;-0.0014985630915726525;9.507952790004623e-06;-1.1353678196467216;1.3765280105056297;-0.3411591275044415;-9.517922848244122e-06;-8.43700624338431e-05;0.09996318397275614;0.22999279019466476;0.12989431805979534;0.00010555768611264504;1.0001294788998143;9.130919118318449e-06;-2.2827297795796123e-05;4.108913603243303e-05;0.230023470217368;0.12990965807114696;-6.318243875513829e-05;1.0000229425209777;9.130919118318449e-06;1.8261838236636895e-05;-2.739275735495535e-05;-0.005313147336269974;0.04063861139663505
1.1400363445281982;-0.12694143414092873;-0.06639587186360077;0.7025790758437163;0.0007172573538014504;0.12315510700128145;-0.01230659441483604;-0.001496628447582991;9.497982731764693e-06;-1.135361037540112;1.3765251472044555;-0.3411563527522992;9.527892906483729e-06;-0.0014985630915726525;9.507952790004623e-06;-1.1353678196467216;1.3765280105056297;-0.3411591275044415;-9.517922848244122e-06;-8.43700624338431e-05;0.09996318397275614;0.22999279019466476;0.12989431805979534;0.00010555768611264504;1.0001294788998143;9.130919118318449e-06;-2.2827297795796123e-05;4.108913603243303e-05;0.230023470217368;0.12990965807114696;-6.318243875513829e-05;1.0000229425209777;9.130919118318449e-06;1.8261838236636895e-05;-2.739275735495535e-05;-0.005313147336269974;0.03910272165488005
1.1600027084350586;-0.12697045027709813;-0.06642160239983402;0.7025714005044348;0.0006242996372418068;0.12312319619353668;-0.012251556777082577;-0.001496628447582991;9.497982731764693e-06;-1.135361037540112;1.3765251472044555;-0.3411563527522992;9.527892906483729e-06;-0.0014985630915726525;9.507952790004623e-06;-1.1353678196467216;1.3765280105056297;-0.3411591275044415;-9.517922848244122e-06;-8.43700624338431e-05;0.09996318397275614;0.22999279019466476;0.12989431805979534;0.00010555768611264504;1.0001294788998143;9.130919118318449e-06;-2.2827297795796123e-05;4.108913603243303e-05;0.230023470217368;0.12990965807114696;-6.318243875513829e-05;1.0000229425209777;9.130919118318449e-06;1.8261838236636895e-05;-2.739275735495535e-05;-0.005313147336269974;0.03910272165488005
1.1799888610839844;-0.12700315820877958;-0.06642128490782014;0.7025655186755778;0.0005254949587052489;0.12308618026863069;-0.012233638050200564;-0.001496628447582991;9.497982731764693e-06;-1.135361037540112;1.3765251472044555;-0.3411563527522992;9.527892906483729e-06;-0.0014985630915726525;9.507952790004623e-06;-1.1353678196467216;1.3765280105056297;-0.3411591275044415;-9.517922848244122e-06;-8.43700624338431e-05;0.09996318397275614;0.22999279019466476;0.12989431805979534;0.00010555768611264504;1.0001294788998143;9.130919118318449e-06;-2.2827297795796123e-05;4.108913603243303e-05;0.230023470217368;0.12990965807114696;-6.318243875513829e-05;1.0000229425209777;9.130919118318449e-06;1.8261838236636895e-05;-2.739275735495535e-05;-0.005313147336269974;0.03910272165488005
1.199993371963501;-0.12703495735393588;-0.06642228065820284;0.7025596754425494;0.00045635370591867855;0.12304761464459796;-0.012219313084826305;-0.001496628447582991;9.497982731764693e-06;-1.135361037540112;1.3765251472044555;-0.3411563527522992;9.527892906483729e-06;-0.0014985630915726525;9.507952790004623e-06;-1.1353678196467216;1.3765280105056297;-0.3411591275044415;-9.517922848244122e-06;-8.43700624338431e-05;0.09996318397275614;0.22997745018331314;0.12989431805979534;0.00010555768611264504;1.0001294788998143;9.130919118318449e-06;-2.2827297795796123e-05;4.108913603243303e-05;0.230023470217368;0.12990965807114696;-6.318243875513829e-05;1.0000229425209777;9.130919118318449e-06;1.8261838236636895e-05;-2.739275735495535e-05;-0.005313147336269974;0.03910272165488005
1.220015287399292;-0.12704647646204184;-0.06649733652233723;0.7025504923987378;0.00046133719817812574;0.12303196496317588;-0.012110140520444014;-0.001496628447582991;9.497982731764693e-06;-1.135361037540112;1.3765251472044555;-0.3411563527522992;9.527892906483729e-06;-0.0014985630915726525;9.507952790004623e-06;-1.1353678196467216;1.3765280105056297;-0.3411591275044415;-9.517922848244122e-06;-8.43700624338431e-05;0.09996318397275614;0.22997745018331314;0.12989431805979534;0.00010555768611264504;1.0001294788998143;9.130919118318449e-06;-2.2827297795796123e-05;4.108913603243303e-05;0.230023470217368;0.12990965807114696;-6.318243875513829e-05;1.0000229425209777;9.130919118318449e-06;1.8261838236636895e-05;-2.739275735495535e-05;-0.005313147336269974;0.03910272165488005
1.240013837814331;-0.12718368415398637;-0.06653508407902248;0.7025220924549707;0.0003655538085342001;0.12284654979133748;-0.01203698050248528;-0.001496628447582991;9.497982731764693e-06;-1.135361037540112;1.3765251472044555;-0.3411563527522992;9.527892906483729e-06;-0.0014985630915726525;9.507952790004623e-06;-1.1353678196467216;1.3765280105056297;-0.3411591275044415;-9.517922848244122e-06;-8.43700624338431e-05;0.09996318397275614;0.22997745018331314;0.12989431805979534;0.00010555768611264504;1.0001294788998143;9.130919118318449e-06;-2.2827297795796123e-05;4.108913603243303e-05;0.230023470217368;0.12990965807114696;-6.318243875513829e-05;1.0000229425209777;9.130919118318449e-06;1.8261838236636895e-05;-2.739275735495535e-05;-0.005313147336269974;0.04063861139663505
1.260019063949585;-0.12714316026935313;-0.06652818055380973;0.7025300814232907;0.0003320174538148887;0.1229073655542928;-0.012040830063237225;-0.001496628447582991;9.497982731764693e-06;-1.135361037540112;1.3765251472044555;-0.3411563527522992;9.527892906483729e-06;-0.0014985630915726525;9.507952790004623e-06;-1.1353678196467216;1.3765280105056297;-0.3411591275044415;-9.517922848244122e-06;-8.43700624338431e-05;0.09996318397275614;0.22997745018331314;0.12989431805979534;0.00010555768611264504;1.0001294788998143;9.130919118318449e-06;-2.2827297795796123e-05;4.108913603243303e-05;0.230023470217368;0.12990965807114696;-6.318243875513829e-05;1.0000229425209777;9.130919118318449e-06;1.8261838236636895e-05;-2.739275735495535e-05;-0.005313147336269974;0.03910272165488005
1.2799932956695557;-0.12705060732893372;-0.06647824085795567;0.7025515525464837;0.00027495360951082217;0.1230437997635497;-0.012103411002284849;-0.001496628447582991;9.497982731764693e-06;-1.135361037540112;1.3765251472044555;-0.3411563527522992;9.527892906483729e-06;-0.0014985630915726525;9.507952790004623e-06;-1.1353678196467216;1.3765280105056297;-0.3411591275044415;-9.517922848244122e-06;-8.43700624338431e-05;0.09996318397275614;0.22997745018331314;0.12989431805979534;0.00010555768611264504;1.000114138888463;9.130919118318449e-06;-2.2827297795796123e-05;4.108913603243303e-05;0.230023470217368;0.12990965807114696;-6.318243875513829e-05;1.0000229425209777;9.130919118318449e-06;1.8261838236636895e-05;-2.739275735495535e-05;-0.005313147336269974;0.04063861139663505
1.2999992370605469;-0.12701698299156364;-0.06651419056647992;0.7025542297934735;0.0004134132259004001;0.123078858754109;-0.012076462809342494;-0.001496628447582991;9.497982731764693e-06;-1.135361037540112;1.3765251472044555;-0.3411563527522992;9.527892906483729e-06;-0.0014985630915726525;9.507952790004623e-06;-1.1353678196467216;1.3765280105056297;-0.3411591275044415;-9.517922848244122e-06;-8.43700624338431e-05;0.09996318397275614;0.22997745018331314;0.12989431805979534;0.00010555768611264504;1.000114138888463;9.130919118318449e-06;-2.2827297795796123e-05;4.108913603243303e-05;0.230023470217368;0.12990965807114696;-6.318243875513829e-05;1.0000229425209777;9.130919118318449e-06;1.8261838236636895e-05;-2.739275735495535e-05;-0.005313147336269974;0.03910272165488005
1.3200058937072754;-0.1269741051195503;-0.06652486767095536;0.7025609695436724;0.0003383828105272302;0.12314732779640637;-0.012046793809683503;-0.001496628447582991;9.497982731764693e-06;-1.135361037540112;1.3765251472044555;-0.3411563527522992;9.527892906483729e-06;-0.0014985630915726525;9.507952790004623e-06;-1.1353678196467216;1.3765280105056297;-0.3411591275044415;-9.517922848244122e-06;-8.43700624338431e-05;0.09996318397275614;0.22997745018331314;0.12989431805979534;0.00010555768611264504;1.000114138888463;9.130919118318449e-06;-2.2827297795796123e-05;4.108913603243303e-05;0.230023470217368;0.12990965807114696;-6.318243875513829e-05;1.0000229425209777;9.130919118318449e-06;1.8261838236636895e-05;-2.739275735495535e-05;-0.005313147336269974;0.03910272165488005
1.3400139808654785;-0.12697877607551167;-0.06657094541297846;0.7025557607541774;0.00032774325512722525;0.12314247365823361;-0.011977215280584557;-0.001496628447582991;9.497982731764693e-06;-1.135361037540112;1.3765251472044555;-0.3411563527522992;9.527892906483729e-06;-0.0014985630915726525;9.507952790004623e-06;-1.1353678196467216;1.3765280105056297;-0.3411591275044415;-9.517922848244122e-06;-8.43700624338431e-05;0.09996318397275614;0.22997745018331314;0.12989431805979534;0.00010555768611264504;1.000114138888463;9.130919118318449e-06;-1.8261838236636895e-05;3.6523676473273796e-05;0.230023470217368;0.12990965807114696;-6.318243875513829e-05;1.0000229425209777;9.130919118318449e-06;1.8261838236636895e-05;-2.739275735495535e-05;-0.005313147336269974;0.03910272165488005
1.3600177764892578;-0.1270169467827907;-0.06661548469316393;0.7025446389694868;0.00023928706707617166;0.12309745589053502;-0.011895406083150612;-0.001496628447582991;9.497982731764693e-06;-1.135361037540112;1.3765251472044555;-0.3411563527522992;9.527892906483729e-06;-0.0014985630915726525;9.507952790004623e-06;-1.1353678196467216;1.3765280105056297;-0.3411591275044415;-9.517922848244122e-06;-8.43700624338431e-05;0.09996318397275614;0.22997745018331314;0.12989431805979534;0.00010555768611264504;1.000114138888463;9.130919118318449e-06;-2.2827297795796123e-05;4.108913603243303e-05;0.230023470217368;0.12990965807114696;-6.318243875513829e-05;1.0000229425209777;9.130919118318449e-06;1.8261838236636895e-05;-2.739275735495535e-05;-0.005313147336269974;0.03910272165488005
1.380018949508667;-0.12699128072202553;-0.06661317569369181;0.7025494977297151;0.00025309008973855126;0.12313261214958747;-0.011901356442008109;-0.001496628447582991;9.497982731764693e-06;-1.135361037540112;1.3765251472044555;-0.3411563527522992;9.527892906483729e-06;-0.0014985630915726525;9.507952790004623e-06;-1.1353678196467216;1.3765280105056297;-0.3411591275044415;-9.517922848244122e-06;-8.43700624338431e-05;0.09996318397275614;0.22997745018331314;0.12989431805979534;0.00010555768611264504;1.000114138888463;9.130919118318449e-06;-2.2827297795796123e-05;4.108913603243303e-05;0.230023470217368;0.12990965807114696;-6.318243875513829e-05;1.0000229425209777;9.130919118318449e-06;1.8261838236636895e-05;-2.739275735495535e-05;-0.005313147336269974;0.03910272165488005
1.4000191688537598;-0.12702156576473794;-0.06656935447184227;0.7025481764203578;6.43777572500981e-05;0.12310705740479089;-0.01193048705417251;-0.001496628447582991;9.497982731764693e-06;-1.135361037540112;1.3765251472044555;-0.3411563527522992;9.527892906483729e-06;-0.0014985630915726525;9.507952790004623e-06;-1.1353678196467216;1.3765280105056297;-0.3411591275044415;-9.517922848244122e-06;-8.43700624338431e-05;0.09996318397275614;0.22997745018331314;0.12989431805979534;0.00010555768611264504;1.0000987988771108;9.130919118318449e-06;-2.2827297795796123e-05;4.108913603243303e-05;0.230023470217368;0.12990965807114696;-6.318243875513829e-05;1.0000229425209777;9.130919118318449e-06;1.8261838236636895e-05;-2.739275735495535e-05;-0.005313147336269974;0.04063861139663505
1.4200177192687988;-0.12694916737238718;-0.06657712999277651;0.7025605254930543;2.687803012260186e-05;0.12321387441505162;-0.011912088784428966;-0.001496628447582991;9.497982731764693e-06;-1.135361037540112;1.3765251472044555;-0.3411563527522992;9.527892906483729e-06;-0.0014985630915726525;9.507952790004623e-06;-1.1353678196467216;1.3765280105056297;-0.3411591275044415;-9.517922848244122e-06;-8.43700624338431e-05;0.09996318397275614;0.22997745018331314;0.12989431805979534;0.00010555768611264504;1.0000987988771108;9.130919118318449e-06;-2.2827297795796123e-05;4.108913603243303e-05;0.230023470217368;0.12990965807114696;-6.318243875513829e-05;1.0000229425209777;9.130919118318449e-06;1.8261838236636895e-05;-2.739275735495535e-05;-0.005313147336269974;0.03910272165488005
1.44000244140625;-0.12691033005055047;-0.06652354971349143;0.7025726174394153;1.9609248673742925e-05;0.12326894439156952;-0.011989339510199594;-0.001496628447582991;9.497982731764693e-06;-1.135361037540112;1.3765251472044555;-0.3411563527522992;9.527892906483729e-06;-0.0014985630915726525;9.507952790004623e-06;-1.1353678196467216;1.3765280105056297;-0.3411591275044415;-9.517922848244122e-06;-8.43700624338431e-05;0.09996318397275614;0.22997745018331314;0.12989431805979534;-1.8223933486716248e-06;1.0000987988771108;9.130919118318449e-06;-2.2827297795796123e-05;4.108913603243303e-05;0.230023470217368;0.12990965807114696;-6.318243875513829e-05;1.0000229425209777;9.130919118318449e-06;1.8261838236636895e-05;-2.739275735495535e-05;-0.005313147336269974;0.03910272165488005
1.4600131511688232;-0.12694783175217786;-0.06647000116873379;0.7025709104949786;-0.00017992670361210257;0.12323396723146127;-0.012030739312825656;-0.001496628447582991;9.497982731764693e-06;-1.135361037540112;1.3765251472044555;-0.3411563527522992;9.527892906483729e-06;-0.0014985630915726525;9.507952790004623e-06;-1.1353678196467216;1.3765280105056297;-0.3411591275044415;-9.517922848244122e-06;-8.43700624338431e-05;0.09996318397275614;0.22997745018331314;0.12989431805979534;-0.00010920247280976624;1.0000834588657597;9.130919118318449e-06;-2.2827297795796123e-05;4.108913603243303e-05;0.230023470217368;0.12990965807114696;-6.318243875513829e-05;1.0000229425209777;9.130919118318449e-06;1.8261838236636895e-05;-2.739275735495535e-05;-0.005313147336269974;0.04063861139663505
1.4800069332122803;-0.12688140155821082;-0.0663759092808232;0.7025918060449196;-0.0002851454418663639;0.12333706165908193;-0.012149210567721929;-0.001496628447582991;9.497982731764693e-06;-1.135361037540112;1.3765251472044555;-0.3411563527522992;9.527892906483729e-06;-0.0014985630915726525;9.507952790004623e-06;-1.1353678196467216;1.3765280105056297;-0.3411591275044415;-9.517922848244122e-06;-8.43700624338431e-05;0.09996318397275614;0.22997745018331314;0.12989431805979534;-0.00010920247280976624;1.0000834588657597;9.130919118318449e-06;-2.2827297795796123e-05;4.108913603243303e-05;0.230023470217368;0.12990965807114696;-6.318243875513829e-05;1.0000229425209777;9.130919118318449e-06;1.8261838236636895e-05;-2.739275735495535e-05;-0.005313147336269974;0.03910272165488005
1.499983310699463;-0.12693591469545504;-0.06645198360949119;0.7025747680855653;-0.00046141930276834297;0.12327786785782412;-0.012004763943894974;-0.001496628447582991;9.497982731764693e-06;-1.135361037540112;1.3765251472044555;-0.3411563527522992;9.527892906483729e-06;-0.0014985630915726525;9.507952790004623e-06;-1.1353678196467216;1.3765280105056297;-0.3411591275044415;-9.517922848244122e-06;-8.43700624338431e-05;0.09996318397275614;0.22997745018331314;0.12989431805979534;-0.00012454248416138292;0.9999760787862984;9.130919118318449e-06;-2.2827297795796123e-05;4.108913603243303e-05;0.230023470217368;0.12990965807114696;-6.318243875513829e-05;1.0000229425209777;9.130919118318449e-06;1.8261838236636895e-05;-2.739275735495535e-05;-0.005313147336269974;0.03910272165488005
1.520035743713379;-0.12698327375385332;-0.06647631607961975;0.7025639080560075;-0.0005961811872043277;0.12322394751475735;-0.011943936616446911;-0.001496628447582991;9.497982731764693e-06;-1.135361037540112;1.3765251472044555;-0.3411563527522992;9.527892906483729e-06;-0.0014985630915726525;9.507952790004623e-06;-1.1353678196467216;1.3765280105056297;-0.3411591275044415;-9.517922848244122e-06;-8.43700624338431e-05;0.09996318397275614;0.22997745018331314;0.12989431805979534;-0.00012454248416138292;0.9999760787862984;9.130919118318449e-06;-1.8261838236636895e-05;3.6523676473273796e-05;0.230023470217368;0.12990965807114696;-6.318243875513829e-05;1.0000229425209777;9.130919118318449e-06;1.8261838236636895e-05;-2.739275735495535e-05;-0.005313147336269974;0.03910272165488005
1.5402092933654785;-0.12692170901185734;-0.0665157331935543;0.7025713019579773;-0.0005549176858634231;0.12330828181945293;-0.011893843981541832;-0.001496628447582991;9.497982731764693e-06;-1.135361037540112;1.3765251472044555;-0.3411563527522992;9.527892906483729e-06;-0.0014985630915726525;9.507952790004623e-06;-1.1353678196467216;1.3765280105056297;-0.3411591275044415;-9.517922848244122e-06;-8.43700624338431e-05;0.09996318397275614;0.22997745018331314;0.12989431805979534;-0.00012454248416138292;0.9999607387749468;9.130919118318449e-06;-2.2827297795796123e-05;4.108913603243303e-05;0.230023470217368;0.12990965807114696;-6.318243875513829e-05;1.0000229425209777;9.130919118318449e-06;1.8261838236636895e-05;-2.739275735495535e-05;-0.005313147336269974;0.04063861139663505
1.5601422786712646;-0.1268992761932874;-0.06649337770547867;0.7025774702754355;-0.0006228650971469458;0.12334639642667876;-0.011914013420782877;-0.001496628447582991;9.497982731764693e-06;-1.135361037540112;1.3765251472044555;-0.3411563527522992;9.527892906483729e-06;-0.0014985630915726525;9.507952790004623e-06;-1.1353678196467216;1.3765280105056297;-0.3411591275044415;-9.517922848244122e-06;-8.43700624338431e-05;0.09996318397275614;0.22996211017196155;0.12989431805979534;-0.00012454248416138292;0.9999607387749468;9.130919118318449e-06;-2.2827297795796123e-05;4.108913603243303e-05;0.230023470217368;0.12990965807114696;-6.318243875513829e-05;1.0000229425209777;9.130919118318449e-06;1.8261838236636895e-05;-2.739275735495535e-05;-0.005313147336269974;0.03910272165488005
1.5799870491027832;-0.12691228655410688;-0.06650847174192492;0.7025736915255623;-0.0007133236144655845;0.12333692042789729;-0.011875021016479281;-0.001496628447582991;9.497982731764693e-06;-1.135361037540112;1.3765251472044555;-0.3411563527522992;9.527892906483729e-06;-0.0014985630915726525;9.507952790004623e-06;-1.1353678196467216;1.3765280105056297;-0.3411591275044415;-9.517922848244122e-06;-8.43700624338431e-05;0.09996318397275614;0.22996211017196155;0.12989431805979534;-0.00012454248416138292;0.9999607387749468;9.130919118318449e-06;-2.2827297795796123e-05;4.108913603243303e-05;0.230023470217368;0.12990965807114696;-6.318243875513829e-05;1.0000229425209777;9.130919118318449e-06;1.8261838236636895e-05;-2.739275735495535e-05;-0.005313147336269974;0.03910272165488005
1.5999810695648193;-0.12689188562590265;-0.06649951604562097;0.7025782241456784;-0.0007265417534466474;0.12336707669123924;-0.011885721264074426;-0.001496628447582991;9.497982731764693e-06;-1.135361037540112;1.3765251472044555;-0.3411563527522992;9.527892906483729e-06;-0.0014985630915726525;9.507952790004623e-06;-1.1353678196467216;1.3765280105056297;-0.3411591275044415;-9.517922848244122e-06;-8.43700624338431e-05;0.09996318397275614;0.22996211017196155;0.12989431805979534;-0.00012454248416138292;0.9999607387749468;0.0;-2.2827297795796123e-05;4.108913603243303e-05;0.230023470217368;0.12990965807114696;-6.318243875513829e-05;1.0000229425209777;9.130919118318449e-06;1.8261838236636895e-05;-2.739275735495535e-05;-0.005313147336269974;0.03910272165488005
1.6200933456420898;-0.12695417506480863;-0.06653086881893254;0.7025640029516927;-0.000819864041785934;0.12328804008695184;-0.011822283607949947;-0.001496628447582991;9.497982731764693e-06;-1.135361037540112;1.3765251472044555;-0.3411563527522992;9.527892906483729e-06;-0.0014985630915726525;9.507952790004623e-06;-1.1353678196467216;1.3765280105056297;-0.3411591275044415;-9.517922848244122e-06;-8.43700624338431e-05;0.09996318397275614;0.22996211017196155;0.12989431805979534;-0.00012454248416138292;0.9999607387749468;9.130919118318449e-06;-2.2827297795796123e-05;4.108913603243303e-05;0.230023470217368;0.12990965807114696;-6.318243875513829e-05;1.0000229425209777;9.130919118318449e-06;1.8261838236636895e-05;-2.739275735495535e-05;-0.005313147336269974;0.03910272165488005
1.640176773071289;-0.12696828139325547;-0.06652376320448966;0.7025621266228705;-0.0009167103831779843;0.12327722765308813;-0.011814659526251303;-0.001496628447582991;9.497982731764693e-06;-1.135361037540112;1.3765251472044555;-0.3411563527522992;9.527892906483729e-06;-0.0014985630915726525;9.507952790004623e-06;-1.1353678196467216;1.3765280105056297;-0.3411591275044415;-9.517922848244122e-06;-8.43700624338431e-05;0.09996318397275614;0.22996211017196155;0.12989431805979534;-0.00012454248416138292;0.9999607387749468;9.130919118318449e-06;-2.2827297795796123e-05;4.108913603243303e-05;0.230023470217368;0.12990965807114696;-6.318243875513829e-05;1.0000229425209777;9.130919118318449e-06;1.8261838236636895e-05;-2.739275735495535e-05;-0.005313147336269974;0.03910272165488005
1.6600356101989746;-0.12694791186472107;-0.06652628473865653;0.7025655687747248;-0.0008709977299734254;0.12330183169012655;-0.011819497293935105;-0.001496628447582991;9.497982731764693e-06;-1.135361037540112;1.3765251472044555;-0.3411563527522992;9.527892906483729e-06;-0.0014985630915726525;9.507952790004623e-06;-1.1353678196467216;1.3765280105056297;-0.3411591275044415;-9.517922848244122e-06;-8.43700624338431e-05;0.09996318397275614;0.22996211017196155;0.12989431805979534;-0.00012454248416138292;0.9999453987635952;9.130919118318449e-06;-2.2827297795796123e-05;4.108913603243303e-05;0.230023470217368;0.12990965807114696;-6.318243875513829e-05;1.0000229425209777;9.130919118318449e-06;1.8261838236636895e-05;-2.739275735495535e-05;-0.005313147336269974;0.03910272165488005
1.6802349090576172;-0.1269862651729634;-0.06646079426158928;0.7025648358687153;-0.0008418521820553995;0.12324321588731729;-0.01192095495104688;-0.001496628447582991;9.497982731764693e-06;-1.135361037540112;1.3765251472044555;-0.3411563527522992;9.527892906483729e-06;-0.0014985630915726525;9.507952790004623e-06;-1.1353678196467216;1.3765280105056297;-0.3411591275044415;-9.517922848244122e-06;-8.43700624338431e-05;0.09996318397275614;0.22996211017196155;0.12989431805979534;-0.00012454248416138292;0.9999453987635952;9.130919118318449e-06;-2.2827297795796123e-05;4.108913603243303e-05;0.230023470217368;0.12990965807114696;-6.318243875513829e-05;1.0000229425209777;9.130919118318449e-06;1.8261838236636895e-05;-2.739275735495535e-05;-0.005313147336269974;0.03910272165488005
1.7001709938049316;-0.12706396476358953;-0.06644234428223275;0.7025525325984763;-0.0009693278382753112;0.1231446376653779;-0.011924174686251902;-0.001496628447582991;9.497982731764693e-06;-1.135361037540112;1.3765251472044555;-0.3411563527522992;9.527892906483729e-06;-0.0014985630915726525;9.507952790004623e-06;-1.1353678196467216;1.3765280105056297;-0.3411591275044415;-9.517922848244122e-06;-8.43700624338431e-05;0.09996318397275614;0.22996211017196155;0.12989431805979534;-0.00012454248416138292;0.9999453987635952;9.130919118318449e-06;-2.2827297795796123e-05;4.108913603243303e-05;0.230023470217368;0.12990965807114696;-6.318243875513829e-05;1.0000229425209777;9.130919118318449e-06;1.8261838236636895e-05;-2.739275735495535e-05;-0.005313147336269974;0.03910272165488005
1.7200524806976318;-0.1270669987262119;-0.06645636656779061;0.7025506575991618;-0.001126601645904032;0.1231558259755471;-0.011874296416161306;-0.001496628447582991;9.497982731764693e-06;-1.135361037540112;1.3765251472044555;-0.3411563527522992;9.527892906483729e-06;-0.0014985630915726525;9.507952790004623e-06;-1.1353678196467216;1.3765280105056297;-0.3411591275044415;-9.517922848244122e-06;-7.67000567580417e-05;0.09997085397843193;0.22996211017196155;0.12989431805979534;-0.00012454248416138292;0.9999453987635952;9.130919118318449e-06;-2.2827297795796123e-05;4.108913603243303e-05;0.230023470217368;0.12990965807114696;-6.318243875513829e-05;1.0000229425209777;9.130919118318449e-06;1.8261838236636895e-05;-2.739275735495535e-05;-0.005313147336269974;0.03910272165488005
1.7401726245880127;-0.12713322865209595;-0.06655793389652098;0.7025290605545185;-0.0011504750016844922;0.12306577255501809;-0.011720729116206528;-0.001496628447582991;9.497982731764693e-06;-1.135361037540112;1.3765251472044555;-0.3411563527522992;9.527892906483729e-06;-0.0014985630915726525;9.507952790004623e-06;-1.1353678196467216;1.3765280105056297;-0.3411591275044415;-9.517922848244122e-06;-7.67000567580417e-05;0.09997085397843193;0.22996211017196155;0.12990965807114696;-0.00012454248416138292;0.9999453987635952;9.130919118318449e-06;-2.2827297795796123e-05;4.108913603243303e-05;0.230023470217368;0.12990965807114696;-6.318243875513829e-05;1.0000229425209777;9.130919118318449e-06;1.8261838236636895e-05;-2.739275735495535e-05;-0.005313147336269974;0.03910272165488005
1.7602534294128418;-0.12708192134252855;-0.06656823947789332;0.7025373670321027;-0.001110383655895471;0.123135102383039;-0.01171316670357939;-0.001496628447582991;9.497982731764693e-06;-1.135361037540112;1.3765251472044555;-0.3411563527522992;9.527892906483729e-06;-0.0014985630915726525;9.507952790004623e-06;-1.1353678196467216;1.3765280105056297;-0.3411591275044415;-9.517922848244122e-06;-7.67000567580417e-05;0.09997085397843193;0.22996211017196155;0.12990965807114696;-0.00012454248416138292;0.9999453987635952;9.130919118318449e-06;-2.2827297795796123e-05;4.108913603243303e-05;0.230023470217368;0.12992499808249858;-6.318243875513829e-05;1.0000229425209777;9.130919118318449e-06;1.8261838236636895e-05;-2.739275735495535e-05;-0.005313147336269974;0.03910272165488005
1.7799811363220215;-0.127041399882972;-0.06659084450573603;0.7025425534866068;-0.001050484278197836;0.12318738323599572;-0.011691226790742417;-0.001496628447582991;9.497982731764693e-06;-1.135361037540112;1.3765251472044555;-0.3411563527522992;9.527892906483729e-06;-0.0014985630915726525;9.507952790004623e-06;-1.1353678196467216;1.3765280105056297;-0.3411591275044415;-9.517922848244122e-06;-7.67000567580417e-05;0.09997085397843193;0.22996211017196155;0.12990965807114696;-0.00012454248416138292;0.9999453987635952;9.130919118318449e-06;-2.2827297795796123e-05;4.108913603243303e-05;0.230023470217368;0.12992499808249858;-6.318243875513829e-05;1.0000229425209777;9.130919118318449e-06;1.8261838236636895e-05;-2.739275735495535e-05;-0.005313147336269974;0.03910272165488005
1.8001720905303955;-0.12709920716056367;-0.06667713963502332;0.7025239126926158;-0.0010987756902807345;0.12311140517290971;-0.011555533632387085;-0.001496628447582991;9.497982731764693e-06;-1.135361037540112;1.3765251472044555;-0.3411563527522992;9.527892906483729e-06;-0.0014985630915726525;9.507952790004623e-06;-1.1353678196467216;1.3765280105056297;-0.3411591275044415;-9.517922848244122e-06;-7.67000567580417e-05;0.09997085397843193;0.22996211017196155;0.12992499808249858;-0.00012454248416138292;0.9999453987635952;9.130919118318449e-06;-2.2827297795796123e-05;4.108913603243303e-05;0.230023470217368;0.12992499808249858;-6.318243875513829e-05;1.0000229425209777;9.130919118318449e-06;1.8261838236636895e-05;-2.739275735495535e-05;-0.005313147336269974;0.03910272165488005
1.8200628757476807;-0.12700376868037805;-0.0666635118384553;0.7025424657955129;-0.0010924553643264416;0.12324638269360569;-0.011576858035613322;-0.001496628447582991;9.497982731764693e-06;-1.135361037540112;1.3765251472044555;-0.3411563527522992;9.527892906483729e-06;-0.0014985630915726525;9.507952790004623e-06;-1.1353678196467216;1.3765280105056297;-0.3411591275044415;-9.517922848244122e-06;-7.67000567580417e-05;0.09997085397843193;0.22996211017196155;0.1299556781052018;-0.00012454248416138292;0.9999453987635952;9.130919118318449e-06;-2.2827297795796123e-05;4.108913603243303e-05;0.230023470217368;0.1299403380938502;-6.318243875513829e-05;1.0000229425209777;9.130919118318449e-06;1.8261838236636895e-05;-2.739275735495535e-05;-0.005313147336269974;0.03910272165488005
1.8401978015899658;-0.12703228088237012;-0.06673225962383905;0.7025307839910031;-0.0011260889099303885;0.12321035977513041;-0.011469686188970757;-0.001496628447582991;9.497982731764693e-06;-1.135361037540112;1.3765251472044555;-0.3411563527522992;9.527892906483729e-06;-0.0014985630915726525;9.507952790004623e-06;-1.1353678196467216;1.3765280105056297;-0.3411591275044415;-9.517922848244122e-06;-7.67000567580417e-05;0.09997085397843193;0.22996211017196155;0.12998635812790504;-0.00012454248416138292;0.9999453987635952;9.130919118318449e-06;-2.2827297795796123e-05;4.108913603243303e-05;0.230023470217368;0.1299403380938502;-6.318243875513829e-05;1.0000229425209777;9.130919118318449e-06;1.8261838236636895e-05;-2.739275735495535e-05;-0.005313147336269974;0.03910272165488005
1.8600358963012695;-0.1270654441099837;-0.06674124628011437;0.702523932883289;-0.0011708725910923713;0.12316768491434812;-0.011448103169481177;-0.001496628447582991;9.497982731764693e-06;-1.135361037540112;1.3765251472044555;-0.3411563527522992;9.527892906483729e-06;-0.0014985630915726525;9.507952790004623e-06;-1.1353678196467216;1.3765280105056297;-0.3411591275044415;-9.517922848244122e-06;-7.67000567580417e-05;0.09997085397843193;0.22996211017196155;0.13001703815060828;-0.00012454248416138292;0.9999453987635952;9.130919118318449e-06;-2.2827297795796123e-05;4.108913603243303e-05;0.230023470217368;0.1299556781052018;-6.318243875513829e-05;1.0000229425209777;9.130919118318449e-06;1.8261838236636895e-05;-2.739275735495535e-05;-0.005313147336269974;0.03910272165488005
1.8800153732299805;-0.12710330773170483;-0.06670359305222046;0.7025206595917854;-0.0012556985060091703;0.12312133789063473;-0.01148747231128812;-0.001496628447582991;9.497982731764693e-06;-1.135361037540112;1.3765251472044555;-0.3411563527522992;9.527892906483729e-06;-0.0014985630915726525;9.507952790004623e-06;-1.1353678196467216;1.3765280105056297;-0.3411591275044415;-9.517922848244122e-06;-6.903005108224031e-05;0.09997852398410777;0.22996211017196155;0.1300323781619599;-0.00012454248416138292;0.9999453987635952;9.130919118318449e-06;-2.2827297795796123e-05;4.108913603243303e-05;0.230023470217368;0.1299556781052018;-6.318243875513829e-05;1.0000229425209777;9.130919118318449e-06;1.8261838236636895e-05;-2.739275735495535e-05;-0.005313147336269974;0.03910272165488005
1.9000182151794434;-0.12704546750412543;-0.06676236430242498;0.7025255391906422;-0.0011473237711533742;0.12319422350053247;-0.011421541145188547;-0.001496628447582991;9.497982731764693e-06;-1.135361037540112;1.3765251472044555;-0.3411563527522992;9.527892906483729e-06;-0.0014985630915726525;9.507952790004623e-06;-1.1353678196467216;1.3765280105056297;-0.3411591275044415;-9.517922848244122e-06;-6.903005108224031e-05;0.09997852398410777;0.22996211017196155;0.13010907821871787;-0.00012454248416138292;0.9999453987635952;9.130919118318449e-06;-2.2827297795796123e-05;4.108913603243303e-05;0.230023470217368;0.1299556781052018;-6.318243875513829e-05;1.0000229425209777;9.130919118318449e-06;1.8261838236636895e-05;-2.739275735495535e-05;-0.005313147336269974;0.04063861139663505
1.9200317859649658;-0.12698436114622322;-0.0667526097628648;0.7025375138950419;-0.0012718163616460712;0.12329314651981124;-0.011412776593157052;-0.001496628447582991;9.497982731764693e-06;-1.135361037540112;1.3765251472044555;-0.3411563527522992;9.527892906483729e-06;-0.0014985630915726525;9.507952790004623e-06;-1.1353678196467216;1.3765280105056297;-0.3411591275044415;-9.517922848244122e-06;-6.903005108224031e-05;0.09997852398410777;0.22996211017196155;0.13010907821871787;-0.00012454248416138292;0.9999453987635952;9.130919118318449e-06;-2.2827297795796123e-05;4.108913603243303e-05;0.230023470217368;0.12997101811655346;-6.318243875513829e-05;1.0000229425209777;9.130919118318449e-06;1.8261838236636895e-05;-2.739275735495535e-05;-0.005313147336269974;0.03910272165488005
1.940157413482666;-0.12694714389973022;-0.06666327768069434;0.7025527221356855;-0.001314057330892709;0.12334853436880681;-0.011536045831471638;-0.001496628447582991;9.497982731764693e-06;-1.135361037540112;1.3765251472044555;-0.3411563527522992;9.527892906483729e-06;-0.0014985630915726525;9.507952790004623e-06;-1.1353678196467216;1.3765280105056297;-0.3411591275044415;-9.517922848244122e-06;-6.903005108224031e-05;0.09997852398410777;0.22996211017196155;0.13010907821871787;-0.00012454248416138292;0.9999453987635952;9.130919118318449e-06;-2.2827297795796123e-05;4.108913603243303e-05;0.230023470217368;0.12997101811655346;-6.318243875513829e-05;1.0000229425209777;9.130919118318449e-06;1.8261838236636895e-05;-2.739275735495535e-05;-0.005313147336269974;0.03910272165488005
1.9599764347076416;-0.12702120349390847;-0.06666825819595319;0.7025388633575871;-0.001552835153829042;0.12326645603257862;-0.01148413184481201;-0.001496628447582991;9.497982731764693e-06;-1.135361037540112;1.3765251472044555;-0.3411563527522992;9.527892906483729e-06;-0.0014985630915726525;9.507952790004623e-06;-1.1353678196467216;1.3765280105056297;-0.3411591275044415;-9.517922848244122e-06;-1.5340011351609728e-05;0.10003221402383837;0.22996211017196155;0.13010907821871787;-0.00012454248416138292;0.9999453987635952;9.130919118318449e-06;-2.2827297795796123e-05;4.108913603243303e-05;0.230023470217368;0.12997101811655346;-6.318243875513829e-05;1.0000229425209777;9.130919118318449e-06;1.8261838236636895e-05;-2.739275735495535e-05;-0.005313147336269974;0.03910272165488005
1.9799976348876953;-0.12702969984932733;-0.06666190002433046;0.7025379304756646;-0.0016305889073802708;0.1232618089034889;-0.011478961968815524;-0.001496628447582991;9.497982731764693e-06;-1.135361037540112;1.3765251472044555;-0.3411563527522992;9.527892906483729e-06;-0.0014985630915726525;9.507952790004623e-06;-1.1353678196467216;1.3765280105056297;-0.3411591275044415;-9.517922848244122e-06;0.0;0.10004755403519;0.22996211017196155;0.13010907821871787;-0.00010920247280976624;0.9999453987635952;9.130919118318449e-06;-2.2827297795796123e-05;4.108913603243303e-05;0.230023470217368;0.12997101811655346;-6.318243875513829e-05;1.0000229425209777;9.130919118318449e-06;1.8261838236636895e-05;-2.739275735495535e-05;-0.005313147336269974;0.04063861139663505
2.000013589859009;-0.1270820729790677;-0.06657623576461827;0.7025365818763111;-0.0018466429407757571;0.12320660631500156;-0.01156427112614263;-0.001496628447582991;9.497982731764693e-06;-1.135361037540112;1.3765251472044555;-0.3411563527522992;9.527892906483729e-06;-0.0014985630915726525;9.507952790004623e-06;-1.1353678196467216;1.3765280105056297;-0.3411591275044415;-9.517922848244122e-06;0.0;0.10004755403519;0.22996211017196155;0.13010907821871787;-0.00010920247280976624;0.9999453987635952;9.130919118318449e-06;-2.2827297795796123e-05;4.108913603243303e-05;0.230023470217368;0.12997101811655346;-6.318243875513829e-05;1.0000229425209777;9.130919118318449e-06;1.8261838236636895e-05;-2.739275735495535e-05;-0.005313147336269974;0.04063861139663505
2.020035743713379;-0.1270340928213498;-0.06667044832549725;0.7025363249660671;-0.0018026624485439108;0.12327248083081208;-0.011434368547744569;-0.001496628447582991;9.497982731764693e-06;-1.135361037540112;1.3765251472044555;-0.3411563527522992;9.527892906483729e-06;-0.0014985630915726525;9.507952790004623e-06;-1.1353678196467216;1.3765280105056297;-0.3411591275044415;-9.517922848244122e-06;4.6020034054822245e-05;0.1000935740692448;0.22996211017196155;0.13010907821871787;-6.318243875513829e-05;0.9999453987635952;9.130919118318449e-06;-2.2827297795796123e-05;4.108913603243303e-05;0.230023470217368;0.12997101811655346;-6.318243875513829e-05;1.0000229425209777;9.130919118318449e-06;1.8261838236636895e-05;-2.739275735495535e-05;-0.005313147336269974;0.03910272165488005
2.040163040161133;-0.12702690722590887;-0.06664939045249506;0.7025396223051231;-0.0018202835652664383;0.12328400878747567;-0.011462001392724802;-0.001496628447582991;9.497982731764693e-06;-1.135361037540112;1.3765251472044555;-0.3411563527522992;9.527892906483729e-06;-0.0014985630915726525;9.507952790004623e-06;-1.1353678196467216;1.3765280105056297;-0.3411591275044415;-9.517922848244122e-06;5.369003973063058e-05;0.10010124407492063;0.22996211017196155;0.13010907821871787;-3.2502416051904966e-05;0.9999453987635952;9.130919118318449e-06;-2.2827297795796123e-05;4.108913603243303e-05;0.230023470217368;0.12998635812790504;-6.318243875513829e-05;1.0000229425209777;9.130919118318449e-06;1.8261838236636895e-05;-2.739275735495535e-05;-0.005313147336269974;0.03910272165488005
2.0601871013641357;-0.12695443405996343;-0.0665871805555424;0.7025586213077679;-0.001984160241459686;0.1234018794332332;-0.01152297177844895;-0.001496628447582991;9.497982731764693e-06;-1.135361037540112;1.3765251472044555;-0.3411563527522992;9.527892906483729e-06;-0.0014985630915726525;9.507952790004623e-06;-1.1353678196467216;1.3765280105056297;-0.3411591275044415;-9.517922848244122e-06;5.369003973063058e-05;0.10010124407492063;0.22996211017196155;0.13010907821871787;-3.2502416051904966e-05;0.9999453987635952;9.130919118318449e-06;-2.2827297795796123e-05;4.108913603243303e-05;0.230023470217368;0.12998635812790504;-6.318243875513829e-05;1.0000229425209777;9.130919118318449e-06;1.8261838236636895e-05;-2.739275735495535e-05;-0.005313147336269974;0.03910272165488005
2.0802154541015625;-0.12698586012604776;-0.06660497881001752;0.702551254672183;-0.002057887919234688;0.12336468282270172;-0.011483046855596035;-0.001496628447582991;9.497982731764693e-06;-1.135361037540112;1.3765251472044555;-0.3411563527522992;9.527892906483729e-06;-0.0014985630915726525;9.507952790004623e-06;-1.1353678196467216;1.3765280105056297;-0.3411591275044415;-9.517922848244122e-06;5.369003973063058e-05;0.10010124407492063;0.22996211017196155;0.13010907821871787;-1.7162404700288292e-05;0.9999453987635952;9.130919118318449e-06;-2.2827297795796123e-05;4.108913603243303e-05;0.230023470217368;0.12998635812790504;-6.318243875513829e-05;1.0000229425209777;9.130919118318449e-06;1.8261838236636895e-05;-2.739275735495535e-05;-0.005313147336269974;0.03910272165488005
2.0999817848205566;-0.12704321450324488;-0.06656770127410247;0.702544418603876;-0.0021338557939674157;0.12328969038997034;-0.0115234204872593;-0.001496628447582991;9.497982731764693e-06;-1.135361037540112;1.3765251472044555;-0.3411563527522992;9.527892906483729e-06;-0.0014985630915726525;9.507952790004623e-06;-1.1353678196467216;1.3765280105056297;-0.3411591275044415;-9.517922848244122e-06;5.369003973063058e-05;0.10010124407492063;0.22996211017196155;0.13010907821871787;-1.7162404700288292e-05;0.9999453987635952;0.0;-2.2827297795796123e-05;4.108913603243303e-05;0.230023470217368;0.12998635812790504;-6.318243875513829e-05;1.0000229425209777;9.130919118318449e-06;1.8261838236636895e-05;-2.739275735495535e-05;-0.005313147336269974;0.03910272165488005
2.1200387477874756;-0.12706402518685567;-0.06652482705722233;0.7025447161597719;-0.002234401699802491;0.1232689829085338;-0.01156753472662977;-0.001496628447582991;9.497982731764693e-06;-1.135361037540112;1.3765251472044555;-0.3411563527522992;9.527892906483729e-06;-0.0014985630915726525;9.507952790004623e-06;-1.1353678196467216;1.3765280105056297;-0.3411591275044415;-9.517922848244122e-06;5.369003973063058e-05;0.10010124407492063;0.22996211017196155;0.13010907821871787;-1.7162404700288292e-05;0.9999453987635952;9.130919118318449e-06;-2.2827297795796123e-05;4.108913603243303e-05;0.230023470217368;0.12998635812790504;-6.318243875513829e-05;1.0000229425209777;9.130919118318449e-06;1.8261838236636895e-05;-2.739275735495535e-05;-0.005313147336269974;0.03910272165488005
2.1402227878570557;-0.12711459228385996;-0.06650186912591487;0.7025377421512395;-0.002159636476281906;0.12318927133269388;-0.011614977806374237;-0.001496628447582991;9.497982731764693e-06;-1.135361037540112;1.3765251472044555;-0.3411563527522992;9.527892906483729e-06;-0.0014985630915726525;9.507952790004623e-06;-1.1353678196467216;1.3765280105056297;-0.3411591275044415;-9.517922848244122e-06;5.369003973063058e-05;0.10010124407492063;0.22996211017196155;0.13010907821871787;-1.8223933486716248e-06;0.9999453987635952;9.130919118318449e-06;-2.2827297795796123e-05;4.108913603243303e-05;0.230023470217368;0.12998635812790504;-6.318243875513829e-05;1.0000229425209777;9.130919118318449e-06;1.8261838236636895e-05;-2.739275735495535e-05;-0.005313147336269974;0.03910272165488005
2.1601243019104004;-0.1271543018152286;-0.066512990492699;0.702529503253275;-0.002293382101706012;0.12314598180918276;-0.011573614619962794;-0.001496628447582991;9.497982731764693e-06;-1.135361037540112;1.3765251472044555;-0.3411563527522992;9.527892906483729e-06;-0.0014985630915726525;9.507952790004623e-06;-1.1353678196467216;1.3765280105056297;-0.3411591275044415;-9.517922848244122e-06;5.369003973063058e-05;0.10010124407492063;0.22996211017196155;0.13010907821871787;-1.8223933486716248e-06;0.9999453987635952;9.130919118318449e-06;-2.2827297795796123e-05;4.108913603243303e-05;0.230023470217368;0.12998635812790504;-6.318243875513829e-05;1.0000229425209777;9.130919118318449e-06;1.8261838236636895e-05;-2.739275735495535e-05;-0.005313147336269974;0.03910272165488005
2.180111885070801;-0.12715440170629919;-0.06654106375965693;0.7025268267305811;-0.002368127720081947;0.12315368638976834;-0.01151850071463009;-0.001496628447582991;9.497982731764693e-06;-1.135361037540112;1.3765251472044555;-0.3411563527522992;9.527892906483729e-06;-0.0014985630915726525;9.507952790004623e-06;-1.1353678196467216;1.3765280105056297;-0.3411591275044415;-9.517922848244122e-06;5.369003973063058e-05;0.10010124407492063;0.22996211017196155;0.13010907821871787;-1.8223933486716248e-06;0.9999453987635952;9.130919118318449e-06;-2.2827297795796123e-05;4.108913603243303e-05;0.230023470217368;0.12998635812790504;-6.318243875513829e-05;1.0000229425209777;9.130919118318449e-06;1.8261838236636895e-05;-2.739275735495535e-05;-0.005313147336269974;0.03910272165488005
2.200127363204956;-0.1271721892494413;-0.06647914967807146;0.7025294686027616;-0.002495672504324079;0.1231395010507278;-0.011585507448776589;-0.001496628447582991;9.497982731764693e-06;-1.135361037540112;1.3765251472044555;-0.3411563527522992;9.527892906483729e-06;-0.0014985630915726525;9.507952790004623e-06;-1.1353678196467216;1.3765280105056297;-0.3411591275044415;-9.517922848244122e-06;5.369003973063058e-05;0.10010124407492063;0.22996211017196155;0.13010907821871787;-1.8223933486716248e-06;0.9999453987635952;9.130919118318449e-06;-2.2827297795796123e-05;4.108913603243303e-05;0.230023470217368;0.12998635812790504;-6.318243875513829e-05;1.0000229425209777;9.130919118318449e-06;1.8261838236636895e-05;-2.739275735495535e-05;-0.005313147336269974;0.03910272165488005
2.21999192237854;-0.1270969572775673;-0.0664776230079593;0.7025432274285259;-0.0026441916888525797;0.12326099797675077;-0.011560366232129528;-0.001496628447582991;9.497982731764693e-06;-1.135361037540112;1.3765251472044555;-0.3411563527522992;9.527892906483729e-06;-0.0014985630915726525;9.507952790004623e-06;-1.1353678196467216;1.3765280105056297;-0.3411591275044415;-9.517922848244122e-06;5.369003973063058e-05;0.10010124407492063;0.22996211017196155;0.13010907821871787;-1.8223933486716248e-06;0.9999453987635952;9.130919118318449e-06;-2.2827297795796123e-05;4.108913603243303e-05;0.230023470217368;0.12998635812790504;-6.318243875513829e-05;1.0000229425209777;9.130919118318449e-06;1.8261838236636895e-05;-2.739275735495535e-05;-0.005313147336269974;0.03910272165488005
2.2400214672088623;-0.12709117952011256;-0.06649379750858157;0.7025427419714532;-0.002772930631772428;0.12328208838316528;-0.011512688432322553;-0.001496628447582991;9.497982731764693e-06;-1.135361037540112;1.3765251472044555;-0.3411563527522992;9.527892906483729e-06;-0.0014985630915726525;9.507952790004623e-06;-1.1353678196467216;1.3765280105056297;-0.3411591275044415;-9.517922848244122e-06;5.369003973063058e-05;0.10010124407492063;0.22996211017196155;0.13010907821871787;1.3517618002945042e-05;0.9999453987635952;9.130919118318449e-06;-1.8261838236636895e-05;3.6523676473273796e-05;0.23000813020601635;0.12998635812790504;-6.318243875513829e-05;1.0000229425209777;9.130919118318449e-06;1.8261838236636895e-05;-2.739275735495535e-05;-0.005313147336269974;0.03910272165488005
2.260145902633667;-0.12708938232636327;-0.06646816351195006;0.7025454928009615;-0.002930880091411751;0.12329947439803973;-0.011520897295811856;-0.001496628447582991;9.497982731764693e-06;-1.135361037540112;1.3765251472044555;-0.3411563527522992;9.527892906483729e-06;-0.0014985630915726525;9.507952790004623e-06;-1.1353678196467216;1.3765280105056297;-0.3411591275044415;-9.517922848244122e-06;5.369003973063058e-05;0.10010124407492063;0.22996211017196155;0.13010907821871787;1.3517618002945042e-05;0.9999453987635952;9.130919118318449e-06;-2.2827297795796123e-05;4.108913603243303e-05;0.23000813020601635;0.12998635812790504;-6.318243875513829e-05;1.0000229425209777;9.130919118318449e-06;1.8261838236636895e-05;-2.739275735495535e-05;-0.005313147336269974;0.03910272165488005
2.280142307281494;-0.12714321391112085;-0.06650667426450048;0.7025321079853364;-0.0030919598618080247;0.12323936261440019;-0.011434166113760488;-0.001496628447582991;9.497982731764693e-06;-1.135361037540112;1.3765251472044555;-0.3411563527522992;9.527892906483729e-06;-0.0014985630915726525;9.507952790004623e-06;-1.1353678196467216;1.3765280105056297;-0.3411591275044415;-9.517922848244122e-06;5.369003973063058e-05;0.10010124407492063;0.22996211017196155;0.13010907821871787;1.3517618002945042e-05;0.9999453987635952;9.130919118318449e-06;-2.2827297795796123e-05;4.108913603243303e-05;0.23000813020601635;0.12998635812790504;-6.318243875513829e-05;1.0000229425209777;9.130919118318449e-06;1.8261838236636895e-05;-2.739275735495535e-05;-0.005313147336269974;0.03910272165488005
2.3000216484069824;-0.127132068422975;-0.06646929599586891;0.7025376624665778;-0.003194276147596016;0.12326438189304674;-0.011470002785094548;-0.001496628447582991;9.497982731764693e-06;-1.135361037540112;1.3765251472044555;-0.3411563527522992;9.527892906483729e-06;-0.0014985630915726525;9.507952790004623e-06;-1.1353678196467216;1.3765280105056297;-0.3411591275044415;-9.517922848244122e-06;5.369003973063058e-05;0.10010124407492063;0.22996211017196155;0.13010907821871787;1.3517618002945042e-05;0.9999453987635952;9.130919118318449e-06;-2.2827297795796123e-05;4.108913603243303e-05;0.2299467701606099;0.12998635812790504;-6.318243875513829e-05;1.0000229425209777;9.130919118318449e-06;1.8261838236636895e-05;-2.739275735495535e-05;-0.005313147336269974;0.03910272165488005
2.3203165531158447;-0.12713878628065017;-0.0664230528646285;0.7025408204417161;-0.0032750107416142224;0.12326167232864167;-0.01152278173152355;-0.001496628447582991;9.497982731764693e-06;-1.135361037540112;1.3765251472044555;-0.3411563527522992;9.527892906483729e-06;-0.0014985630915726525;9.507952790004623e-06;-1.1353678196467216;1.3765280105056297;-0.3411591275044415;-9.517922848244122e-06;5.369003973063058e-05;0.10010124407492063;0.22996211017196155;0.13010907821871787;1.3517618002945042e-05;0.9999453987635952;9.130919118318449e-06;-2.2827297795796123e-05;4.108913603243303e-05;0.2299314301492583;0.12998635812790504;-6.318243875513829e-05;1.0000229425209777;9.130919118318449e-06;1.8261838236636895e-05;-2.739275735495535e-05;-0.005313147336269974;0.03910272165488005
2.3401689529418945;-0.1271475134231877;-0.06631916128203749;0.7025490559333498;-0.003356893967014607;0.12325494177447703;-0.011659911790601376;-0.001496628447582991;9.497982731764693e-06;-1.135361037540112;1.3765251472044555;-0.3411563527522992;9.527892906483729e-06;-0.0014985630915726525;9.507952790004623e-06;-1.1353678196467216;1.3765280105056297;-0.3411591275044415;-9.517922848244122e-06;5.369003973063058e-05;0.10010124407492063;0.22996211017196155;0.13010907821871787;2.8857629354561712e-05;0.9999453987635952;9.130919118318449e-06;-2.2827297795796123e-05;4.108913603243303e-05;0.2299160901379067;0.12998635812790504;-6.318243875513829e-05;1.0000229425209777;9.130919118318449e-06;1.8261838236636895e-05;-2.739275735495535e-05;-0.005313147336269974;0.03910272165488005
2.3599812984466553;-0.1271914866540489;-0.06627630782662743;0.702545140228937;-0.003454556218336361;0.12320090046702585;-0.011704373619920164;-0.001496628447582991;9.497982731764693e-06;-1.135361037540112;1.3765251472044555;-0.3411563527522992;9.527892906483729e-06;-0.0014985630915726525;9.507952790004623e-06;-1.1353678196467216;1.3765280105056297;-0.3411591275044415;-9.517922848244122e-06;5.369003973063058e-05;0.10010124407492063;0.22996211017196155;0.13010907821871787;2.8857629354561712e-05;0.9999453987635952;9.130919118318449e-06;-2.2827297795796123e-05;4.108913603243303e-05;0.2299160901379067;0.12998635812790504;-6.318243875513829e-05;1.0000229425209777;9.130919118318449e-06;1.8261838236636895e-05;-2.739275735495535e-05;-0.005313147336269974;0.03910272165488005
2.3800253868103027;-0.12721913964955275;-0.06625296029745557;0.7025423354320685;-0.003463360189639001;0.12316188158838026;-0.011736846092637011;-0.001496628447582991;9.497982731764693e-06;-1.135361037540112;1.3765251472044555;-0.3411563527522992;9.527892906483729e-06;-0.0014985630915726525;9.507952790004623e-06;-1.1353678196467216;1.3765280105056297;-0.3411591275044415;-9.517922848244122e-06;5.369003973063058e-05;0.10010124407492063;0.22996211017196155;0.13010907821871787;2.8857629354561712e-05;0.9999453987635952;9.130919118318449e-06;-2.2827297795796123e-05;4.108913603243303e-05;0.2299160901379067;0.12998635812790504;-3.2502416051904966e-05;1.0000229425209777;9.130919118318449e-06;1.8261838236636895e-05;-2.739275735495535e-05;-0.005313147336269974;0.03910272165488005
2.400175094604492;-0.12725418406421307;-0.06626147184572055;0.7025351858111337;-0.0034218295605687333;0.12310815582035257;-0.011731920433493973;-0.001496628447582991;9.497982731764693e-06;-1.135361037540112;1.3765251472044555;-0.3411563527522992;9.527892906483729e-06;-0.0014985630915726525;9.507952790004623e-06;-1.1353678196467216;1.3765280105056297;-0.3411591275044415;-9.517922848244122e-06;5.369003973063058e-05;0.10010124407492063;0.22996211017196155;0.13010907821871787;2.8857629354561712e-05;0.9999453987635952;9.130919118318449e-06;-2.2827297795796123e-05;4.108913603243303e-05;0.2299160901379067;0.13000169813925666;2.8857629354561712e-05;1.0000229425209777;9.130919118318449e-06;1.8261838236636895e-05;-2.739275735495535e-05;-0.005313147336269974;0.03910272165488005
2.4199981689453125;-0.12724277401913942;-0.06611667737850682;0.7025508940625116;-0.0035287596981257666;0.12313157924286022;-0.01192447648238165;-0.001496628447582991;9.497982731764693e-06;-1.135361037540112;1.3765251472044555;-0.3411563527522992;9.527892906483729e-06;-0.0014985630915726525;9.507952790004623e-06;-1.1353678196467216;1.3765280105056297;-0.3411591275044415;-9.517922848244122e-06;5.369003973063058e-05;0.10010124407492063;0.22996211017196155;0.13010907821871787;0.00010555768611264504;0.9999453987635952;9.130919118318449e-06;-1.8261838236636895e-05;3.6523676473273796e-05;0.2299160901379067;0.13000169813925666;4.4197640706178376e-05;1.0000229425209777;9.130919118318449e-06;1.8261838236636895e-05;-2.739275735495535e-05;-0.005313147336269974;0.03910272165488005
2.440159797668457;-0.12725077884888225;-0.06612672071753425;0.7025484989701365;-0.003500259398076346;0.12311764524525613;-0.011915011723816952;-0.001496628447582991;9.497982731764693e-06;-1.135361037540112;1.3765251472044555;-0.3411563527522992;9.527892906483729e-06;-0.0014985630915726525;9.507952790004623e-06;-1.1353678196467216;1.3765280105056297;-0.3411591275044415;-9.517922848244122e-06;5.369003973063058e-05;0.10010124407492063;0.22996211017196155;0.13010907821871787;0.00012089769746426172;0.9999453987635952;9.130919118318449e-06;-2.2827297795796123e-05;4.108913603243303e-05;0.2299160901379067;0.13000169813925666;4.4197640706178376e-05;1.0000229425209777;9.130919118318449e-06;1.8261838236636895e-05;-2.739275735495535e-05;-0.005313147336269974;0.03910272165488005
2.4599924087524414;-0.1273345916540024;-0.06606368715551804;0.7025392432621969;-0.003629352764715003;0.12300946514527773;-0.011982984060626808;-0.001496628447582991;9.497982731764693e-06;-1.135361037540112;1.3765251472044555;-0.3411563527522992;9.527892906483729e-06;-0.0014985630915726525;9.507952790004623e-06;-1.1353678196467216;1.3765280105056297;-0.3411591275044415;-9.517922848244122e-06;5.369003973063058e-05;0.10010124407492063;0.22996211017196155;0.13010907821871787;0.00012089769746426172;0.9999453987635952;9.130919118318449e-06;-2.2827297795796123e-05;4.108913603243303e-05;0.2299160901379067;0.13000169813925666;4.4197640706178376e-05;1.0000229425209777;9.130919118318449e-06;1.8261838236636895e-05;-2.739275735495535e-05;-0.005313147336269974;0.03910272165488005
2.4799890518188477;-0.12733699906415347;-0.06600364730417799;0.7025444502147713;-0.0036895856338325693;0.12301053465915782;-0.012059821578927658;-0.001496628447582991;9.497982731764693e-06;-1.135361037540112;1.3765251472044555;-0.3411563527522992;9.527892906483729e-06;-0.0014985630915726525;9.507952790004623e-06;-1.1353678196467216;1.3765280105056297;-0.3411591275044415;-9.517922848244122e-06;5.369003973063058e-05;0.10010124407492063;0.22996211017196155;0.13010907821871787;0.00012089769746426172;0.9999453987635952;9.130919118318449e-06;-2.2827297795796123e-05;4.108913603243303e-05;0.2299160901379067;0.13000169813925666;4.4197640706178376e-05;1.0000229425209777;9.130919118318449e-06;1.8261838236636895e-05;-2.739275735495535e-05;-0.005313147336269974;0.03910272165488005
2.5000407695770264;-0.12730601819622556;-0.06598202898499311;0.7025520955044826;-0.0037562909129915667;0.12306060265630231;-0.012079270111447207;-0.001496628447582991;9.497982731764693e-06;-1.135361037540112;1.3765251472044555;-0.3411563527522992;9.527892906483729e-06;-0.0014985630915726525;9.507952790004623e-06;-1.1353678196467216;1.3765280105056297;-0.3411591275044415;-9.517922848244122e-06;5.369003973063058e-05;0.10010124407492063;0.22996211017196155;0.13010907821871787;0.00012089769746426172;0.9999453987635952;9.130919118318449e-06;-2.2827297795796123e-05;4.108913603243303e-05;0.2299160901379067;0.13000169813925666;4.4197640706178376e-05;1.0000229425209777;9.130919118318449e-06;1.8261838236636895e-05;-2.739275735495535e-05;-0.005313147336269974;0.04063861139663505
2.5201332569122314;-0.12726259065566037;-0.06605845209874148;0.7025527818190045;-0.0038517866065009925;0.12313337678817118;-0.011949599627572603;-0.001496628447582991;9.497982731764693e-06;-1.135361037540112;1.3765251472044555;-0.3411563527522992;9.527892906483729e-06;-0.0014985630915726525;9.507952790004623e-06;-1.1353678196467216;1.3765280105056297;-0.3411591275044415;-9.517922848244122e-06;5.369003973063058e-05;0.10010124407492063;0.22996211017196155;0.13010907821871787;0.00012089769746426172;0.9999453987635952;9.130919118318449e-06;-2.2827297795796123e-05;4.108913603243303e-05;0.2299160901379067;0.13000169813925666;4.4197640706178376e-05;1.0000229425209777;9.130919118318449e-06;1.8261838236636895e-05;-2.739275735495535e-05;-0.005313147336269974;0.03910272165488005
2.5399692058563232;-0.1273263486239502;-0.06599558483894788;0.7025471379512916;-0.003976822874796963;0.12305331763103758;-0.01201815996051862;-0.001496628447582991;9.497982731764693e-06;-1.135361037540112;1.3765251472044555;-0.3411563527522992;9.527892906483729e-06;-0.0014985630915726525;9.507952790004623e-06;-1.1353678196467216;1.3765280105056297;-0.3411591275044415;-9.517922848244122e-06;5.369003973063058e-05;0.10010124407492063;0.22996211017196155;0.13010907821871787;0.00012089769746426172;0.9999453987635952;9.130919118318449e-06;-2.2827297795796123e-05;4.108913603243303e-05;0.2299160901379067;0.13000169813925666;4.4197640706178376e-05;1.0000229425209777;9.130919118318449e-06;1.8261838236636895e-05;-2.739275735495535e-05;-0.005313147336269974;0.03910272165488005
