flxalr/sts-optimization-reemc/input/457_104/trq.csv
time;base_link_tx;base_link_ty;base_link_tz;base_link_rz;base_link_ry;base_link_rx;leg_left_1_joint;leg_left_2_joint;leg_left_3_joint;leg_left_4_joint;leg_left_5_joint;leg_left_6_joint;leg_right_1_joint;leg_right_2_joint;leg_right_3_joint;leg_right_4_joint;leg_right_5_joint;leg_right_6_joint;torso_1_joint;torso_2_joint;arm_left_1_joint;arm_left_2_joint;arm_left_3_joint;arm_left_4_joint;arm_left_5_joint;arm_left_6_joint;arm_left_7_joint;arm_right_1_joint;arm_right_2_joint;arm_right_3_joint;arm_right_4_joint;arm_right_5_joint;arm_right_6_joint;arm_right_7_joint;head_1_joint;head_2_joint
0.0;19.975273905185247;45.444733883894564;464.06149288685833;9.887949084849375;-16.819304257380224;55.92760764739093;3.58787004323526;9.514948708644573;-10.425304379826805;8.463048771071097;1.8916521308532621;2.0334721717910162;7.298203257602942;12.498306913155908;28.21836689776633;-18.57309450219022;15.23231542718142;0.1815191838077593;-0.2562957598136842;-28.512258733501696;6.139625869556737;3.5894997406292846;0.8253402663869032;5.422358681954748;-0.018605805259098315;0.12048147835461152;0.05982154269322022;6.202212003017921;4.031836547918343;0.9910931248064263;5.410007507076883;-0.0198306118384855;0.1518971071211675;0.06060499801319298;-0.006185596100815263;-0.5101432736379352
0.020108461380004883;19.988791253843566;45.326155443151265;464.0557620196637;9.866224601383262;-16.842221234455458;55.790892067423925;3.592797561875729;9.524140718368498;-10.395941183553369;8.4402434390442;1.890958922040086;2.034914376542943;7.258779114596955;12.417017925846826;28.17379280991944;-18.567233424231855;15.221454681422914;0.17034129112722157;-0.25320384972768034;-28.51390388330777;6.1395059017735365;3.5921406313256337;0.826301439373642;5.422140788235398;-0.01861218311639959;0.12064896423552535;0.05982549585895824;6.2011955818101425;4.029296821973878;0.9901556145229599;5.409915434870992;-0.01982417258651569;0.1517318970092;0.06059868610497193;-0.006005596023017611;-0.5101885853699851
0.0401608943939209;20.188518170445896;45.362110953049594;464.0680400049486;9.874365208655782;-16.99142809566115;55.833960296770854;3.589232538391674;9.517786919568548;-10.451844267847306;8.401494879777534;1.8790049895880316;2.0340188837167625;7.275828897516197;12.450593073261352;28.10933803472792;-18.611090296280903;15.207711758658935;0.17850118701213186;-0.25712582418458374;-28.514775427383093;6.1390200397551915;3.589875994681901;0.8253814285393453;5.422149597242243;-0.01861777459910445;0.12044564462316787;0.05980952142906796;6.20083582061673;4.03161038574152;0.9910856766441485;5.409630214627291;-0.01981959169422079;0.151935552148356;0.06061142496457479;-0.006149558067674426;-0.5102111782124787
0.06038713455200195;20.01534135138582;45.38905613091348;464.06858547847855;9.85875457886681;-16.878610773605153;55.863729391566835;3.5885175952031743;9.514647614900769;-10.473064755166718;8.428176771902812;1.8806845728357136;2.0331935817766826;7.278493541182128;12.457223895597949;28.228378679694625;-18.5659934859554;15.234235512637175;0.18102849483682712;-0.25722838687534444;-28.518612563320758;6.137793246910106;3.5906203801320933;0.8255733878290759;5.421716760604123;-0.01862574862222624;0.12044409999829742;0.059801125401943225;6.19892474250499;4.031091362556351;0.9909428111076299;5.40911656863516;-0.019813603199674117;0.15194020437247446;0.06061035085226978;-0.006088286902374359;-0.5103146362481807
0.0802152156829834;20.132522428606137;45.41147285626574;463.87201156237495;9.867594087992309;-16.877672418854786;55.8599661956805;3.59024892222937;9.51782317486188;-10.478886554376842;8.424730711075192;1.8800573302469288;2.0336736552237205;7.274469731789328;12.44760196190316;28.2361675541084;-18.600680874912985;15.237362262121104;0.17918233359606733;-0.2557626923536379;-28.51129136418605;6.140430607395255;3.592090211869141;0.8260917311859546;5.422270884862227;-0.018629025364503546;0.1205147590503897;0.0598105409280072;6.200860196794079;4.029345829130405;0.9903507983406854;5.4097694022404585;-0.01981894808387453;0.15186076324747905;0.060604009691201;-0.0059610161859692985;-0.5101080056111968
0.10019540786743164;19.950911558460895;45.419613320856435;463.8682822488243;9.853070712143928;-16.681545100121298;55.842462479951;3.6147702533122152;9.576011523306562;-10.446013341991055;8.494343062216275;1.902373972421354;2.0459968615023914;7.2293493592908025;12.365882101630385;28.35268506910361;-18.562579976197124;15.256150350264326;0.16158637620453026;-0.25150182103162505;-28.502885730580502;6.143630515222878;3.5953592623562205;0.8273273905255355;5.422888242781132;-0.01862995001411938;0.12073977259379982;0.05983201038073193;6.203027901364569;4.025756914153282;0.9890408442314431;5.410622759659321;-0.019828873870752266;0.15163639950780955;0.06058661380767891;-0.005710690601379397;-0.5098703626374098
0.12003922462463379;19.89077703465697;45.404945042789436;463.8611697568624;9.848182641230235;-16.610416365019496;55.81665971296507;3.616479052952383;9.579961315045253;-10.4418096085461;8.49581822364027;1.902870477683305;2.046713288099694;7.228070412320283;12.343029792614349;28.406721474583474;-18.52211905687478;15.274861868622223;0.1537204181925033;-0.25078337326473826;-28.502338470438595;6.143434513804373;3.5958440915366516;0.8275062058462594;5.422708598677797;-0.018622778108607498;0.12075733931082225;0.05983950362615879;6.202845427739273;4.025314916151856;0.9888652937031052;5.410578830681591;-0.019842568904901464;0.151607641648569;0.06057131853263583;-0.005661454352914286;-0.5098552042926756
0.14015865325927734;20.10874364431797;45.47392419932753;463.45106224197;9.869049698377491;-16.66117549224039;55.81872443913788;3.5996322278214916;9.537039215260965;-10.402889940196655;8.434593387412328;1.890217069661373;2.036875539304357;7.253892275667248;12.41645875243946;28.33743290247214;-18.57012204878896;15.267915154928598;0.16780971060368124;-0.24901802027355205;-28.49702770977791;6.145864889425009;3.597016342430173;0.8279729139079344;5.423257631397436;-0.01862524739454001;0.12085074763547246;0.05984827650156579;6.204976201641894;4.023864747893448;0.9883293306848829;5.411241286343726;-0.01984842570729082;0.15150783684382155;0.06056566505542177;-0.005603934812829272;-0.5114836209613745
0.16006898880004883;20.01366513244682;45.35550244376592;463.05082224068985;9.836989000093467;-16.508892555864904;55.77120285018005;3.600217191443312;9.539095502515716;-10.37045628161708;8.419490153744977;1.8987447311147496;2.0373736181209794;7.224554923426067;12.373774600344813;28.439210091967535;-18.54099064842611;15.283088074862096;0.1656913909907735;-0.25023360572945663;-28.491488695241145;6.147138612317735;3.596259147203619;0.82768628648534;5.423683051694105;-0.018637181252317128;0.12079912007901236;0.059837268060795146;6.206160201332735;4.024471057442846;0.988582968253747;5.411473665605188;-0.019840958831852926;0.15155834007645422;0.06057815007279604;-0.005644088039160526;-0.5095694032358051
0.1800987720489502;20.00245674330929;45.22938594195019;463.65499031467107;9.82210085864248;-16.629597133753947;55.74573289973152;3.597088817832312;9.531842784217988;-10.443720207518798;8.49453336315975;1.9027748147615327;2.0358784429244214;7.204375925637657;12.31783996410944;28.39693139440291;-18.57310063118131;15.26567647646179;0.14541347883283218;-0.2526418057268966;-28.498167766995028;6.144978976084312;3.595043466702898;0.8271833138842473;5.423254475966632;-0.01865732726700381;0.12070195126601678;0.059807411948044314;6.203823483236906;4.025996268103248;0.9891695492698322;5.410654716651809;-0.019818128517381885;0.15166716387245863;0.06059935902795604;-0.005767124756889775;-0.5097626922448
0.2000279426574707;19.991702058414518;45.386806025209765;463.84769105869196;9.840520777485885;-16.726050786761043;55.83156475485605;3.597477764042685;9.533383351679445;-10.418025577957863;8.465382203238718;1.892793926024385;2.036297654340551;7.242065164367599;12.411687829677364;28.294686706285106;-18.563079232956824;15.248936167073351;0.15847585610606196;-0.2547908170852445;-28.507505135398958;6.142086308025618;3.5940950299346595;0.8267764208828564;5.422648409605292;-0.01868344199274228;0.12062722319419812;0.05977104189384527;6.200606969076316;4.0273583883186355;0.9896875293727925;5.4095986889031025;-0.01978655558536359;0.15175680804140396;0.06062580849172184;-0.005887937775115081;-0.5100283731801365
0.21999573707580566;19.966835421577706;45.3329975627299;463.44154030483264;9.848046861792008;-16.66056257919672;55.8876368755281;3.6168242757845923;9.585229221224727;-10.418685177320022;8.465905719908923;1.8929119264902987;2.0482510606520696;7.235287645291886;12.365984801517559;28.367072020137424;-18.594354931889143;15.258281365601523;0.14700216469894;-0.2588094541032819;-28.50843252807018;6.141954262332035;3.591534740836113;0.8257658268273395;5.422952061730202;-0.018710735309209435;0.12045165637946315;0.05973435955207433;6.200620738202831;4.030012372666246;0.9907068465781045;5.409336966857287;-0.019756935754008123;0.15193701394693349;0.06066398393481339;-0.006125289236436348;-0.5100587851628101
0.24002957344055176;20.041745590112367;45.24871607701025;464.03026574403395;9.843590559204237;-16.820347173878687;55.844399755849516;3.6185070912114514;9.588657953992191;-10.429243844578153;8.502601638481371;1.9048702327945124;2.04873262812215;7.218695946300576;12.335483215547724;28.2329637727941;-18.60925142280268;15.234531998079127;0.13819766978416181;-0.2595721951625852;-28.513747869184183;6.140477666661841;3.591325710916425;0.8256402614602593;5.4227153150801435;-0.018739962999558817;0.1204482439676826;0.059701599760724734;6.198808912342079;4.030523143784317;0.9908853361265506;5.408715089435092;-0.019724522251311577;0.15194676230854554;0.06069140810210923;-0.0062135391196540025;-0.5102084242287299
0.2600092887878418;20.135586741141353;45.00240244460453;463.6314886998231;9.810036653342475;-16.86710626805089;55.72827438799691;3.596224870720052;9.535599356024633;-10.441783114310834;8.406163488175231;1.8808267297506895;2.0373643833807913;7.206124217802765;12.30665345934618;28.226368009638488;-18.613328868263633;15.232955741037236;0.13899232617046603;-0.26363036170595;-28.516411502800203;6.13947674663707;3.5885384328172742;0.8245511752388686;5.422773205528119;-0.01876670809739471;0.12026415074211338;0.05966220723610256;6.198177564176191;4.033362570174535;0.9919848028068494;5.408218317407655;-0.01969660563302006;0.15213012044164015;0.06072703462794484;-0.006472054086142659;-0.5102823101924413
0.2801389694213867;19.924914888253785;44.72950085037764;463.8169285606066;9.754817355850035;-16.773872233674062;55.582158419266825;3.5965608571973253;9.536953198218015;-10.383460070359405;8.44648003495916;1.893030405411131;2.0376370407408784;7.136723022251797;12.196700884370973;28.233514955919382;-18.572952212600068;15.22529996318876;0.12175592977627066;-0.2647657303838401;-28.51804196442527;6.138940343414413;3.587838406824882;0.82422406855697;5.422804483279495;-0.018792838106835165;0.12022824959788445;0.05963262293815419;6.197645107593159;4.034273257855276;0.9923042552043083;5.407904105642783;-0.019671380392586917;0.15216048326871012;0.06075246116170874;-0.006594020899453426;-0.5103262790880836
0.30000829696655273;20.094282523214165;44.96434074722555;464.20956910542776;9.798526421610852;-16.929712099851137;55.75231923720111;3.594987646494548;9.536945278955345;-10.44070638629715;8.406445452239357;1.8811059897993228;2.0381092651953114;7.206510441602724;12.333726829061433;28.143362478741714;-18.551978877481552;15.218850712249262;0.1338546718193438;-0.2686365919928784;-28.51535449821552;6.13938861974302;3.5846596928216075;0.8230264565699223;5.4232237948474245;-0.0188122902229717;0.12003493691402102;0.059607180314338336;6.19897144464518;4.037345201860637;0.9934336044192347;5.407961002948329;-0.019660270498036106;0.15234240654549844;0.06077784923168849;-0.006859325846433929;-0.5102497087194442
0.3199930191040039;19.984036644715815;44.916386164358144;463.99885368399947;9.80052786099699;-16.805137199682186;55.74977737472186;3.596527338270074;9.540454085299727;-10.388778399617287;8.443495216928389;1.8925893321183758;2.038707787889434;7.197510694887774;12.315475173036765;28.195530932015664;-18.558987331742134;15.223324297259708;0.12906110605668114;-0.2675364324870572;-28.51160126536064;6.14078602035749;3.585099330459313;0.8232107414710794;5.423680028290944;-0.01881959392471117;0.1200906165977685;0.05960143768987266;6.200347355790795;4.036739439198588;0.9931764144341355;5.408341387713727;-0.019652773551010777;0.15226735202518576;0.06078577476319155;-0.006864550416336053;-0.5101436050035411
0.3400273323059082;20.090531944699293;44.78288756399613;463.99349006083844;9.775956543901543;-16.900294950656402;55.68535358502102;3.5973801138507357;9.542940300657358;-10.437158203955622;8.407784147878724;1.881677178202836;2.039256166790018;7.1709263056496395;12.260147887028495;28.177964102621896;-18.569272142951917;15.226716824826669;0.12227574857093328;-0.26787812048729326;-28.516785078547223;6.138694175246285;3.5844359306585414;0.8229745572048505;5.423142920851393;-0.01881717490263833;0.12005903846124727;0.05959556627000646;6.198814464085403;4.037562470536864;0.99342726996985;5.407852899013687;-0.019655153063596234;0.15228927235377893;0.06078221650451145;-0.006924041801104428;-0.5102900754124049
0.3601694107055664;19.8891817062692;44.87344185139004;463.98383373674017;9.794761566209177;-16.782532113851026;55.766756812456734;3.598638183032471;9.544017200053405;-10.403815969246127;8.47330606626383;1.895238547293796;2.039158365506967;7.195351892580273;12.307775743561645;28.246010380814273;-18.56487799318201;15.234362900173071;0.14052998957138735;-0.2654494341718301;-28.52147254839082;6.138194927889995;3.5857959943208915;0.8235610067736828;5.423130564473024;-0.018811259117268116;0.12016966583307795;0.059607886830349205;6.198038788750393;4.036189943518934;0.9928672989576597;5.407777759098557;-0.01966225748489968;0.1521693405394684;0.060767889597256756;-0.006852743770062239;-0.5121865387615718
0.38022375106811523;20.209026540709445;44.78573542247012;463.5974251535856;9.782475677588257;-16.953556480140882;55.73112918825084;3.598957124400308;9.545052827911336;-10.45377410345434;8.436713446654723;1.8840267539990248;2.0394352343294138;7.164458993574333;12.257413209923374;28.187602959145803;-18.680429758177404;15.231583332650661;0.12742838398249617;-0.2652267782442207;-28.524587910201063;6.136215445173702;3.5855824507489515;0.8234666068457216;5.422620175076135;-0.018793521514729704;0.12014468564301732;0.059619198187516494;6.196598871233395;4.0366309637450035;0.9929828941626467;5.407397981689562;-0.019681002980077432;0.15218201227328917;0.06074786948954137;-0.006820953357779899;-0.5105048730436043
0.4000968933105469;20.191567035309234;44.92650259572406;464.1983855954762;9.79866882724477;-17.03319538424018;55.73158081819133;3.599312605256052;9.544839675069392;-10.45591425295795;8.435512346075106;1.8837661898343714;2.039279491096346;7.183736692614194;12.29886932394428;28.090406061814747;-18.630682237178377;15.207777225713796;0.13013574563925107;-0.2627930765844677;-28.5215475147997;6.13701919169084;3.5868077998771497;0.8239547578735279;5.422664509079426;-0.01877123787704641;0.12022450509016795;0.0596477377925491;6.19766789670893;4.035190329673359;0.9924163121227486;5.4078727273841105;-0.019708828325864403;0.1520783366866301;0.06071880216870892;-0.006689367299728218;-0.5104173013870094
0.4200477600097656;20.124592256461533;44.758444053973996;463.5925435149025;9.769944143168463;-16.86568840483521;55.59319687561487;3.602387441576898;9.551031324370552;-10.372813790716528;8.451473705302195;1.8948117134584943;2.0403749847014185;7.1242637061348235;12.18525152184753;28.16861483226478;-18.656155046538775;15.226587525305256;0.11079454048004066;-0.2591213296333833;-28.518780387435278;6.137416422232198;3.588705974420251;0.8246951444027522;5.422433971946759;-0.01873512038533022;0.1203505476194896;0.059690479474746844;6.198554867636733;4.033118227629608;0.9915897689942301;5.40837002956104;-0.01975156378516838;0.15192505909943546;0.06067266157216844;-0.006490209255887641;-0.5103342944991163
0.44009923934936523;19.843231992284522;45.01038092862174;463.7904717705188;9.771059915705926;-16.691473379338213;55.665065504496184;3.6274672275942916;9.610573150121391;-10.374950789655742;8.45022754536717;1.8946058416593143;2.053071953727793;7.131707081218359;12.210961421321432;28.2908604045124;-18.53654657864909;15.236185665885467;0.11669460601943217;-0.2525876656016107;-28.51428158628792;6.138569537675396;3.59269222533933;0.8261900418957508;5.422244974498591;-0.018692278525807335;0.12061428991817058;0.05974959539335927;6.199827432796867;4.0288919403162415;0.9899882370523589;5.409143391261984;-0.01980223099330227;0.15163039793836827;0.060612058075184876;-0.006137486235742387;-0.5102012687659758
0.4602375030517578;20.074207533752723;44.970597594839404;463.7933697348342;9.772736911651437;-16.791443832005733;55.57588969881555;3.6090419254685484;9.560415948637864;-10.458280806708547;8.43283261323877;1.8836733545260353;2.0413259740425302;7.1309823097102525;12.18628084292496;28.296847188469016;-18.567426523065837;15.254480083650114;0.11015483271686285;-0.2462765159826931;-28.510258400556243;6.139425652362853;3.596328328257272;0.8275928095350926;5.4219626124903675;-0.01864278272318396;0.12085843389530024;0.05981318385049321;6.201002756722072;4.025030238896845;0.9884789524201221;5.409894693335102;-0.01985902111090706;0.15135376051426233;0.06054653838607565;-0.005790068157949972;-0.5100815198589721
0.4799950122833252;20.001682751515215;44.95109398428628;463.60165033307953;9.783122598464505;-16.689571748227742;55.46553738318489;3.590004499758068;9.509921209875593;-10.367504503730112;8.457426288370083;1.904149770879217;2.0297743419371246;7.139288607191027;12.17416944391351;28.2903519212529;-18.574049234548802;15.24522717038221;0.09984781056110124;-0.24184533052238885;-28.505670683893765;6.140316120624333;3.5989636742014532;0.8284305729962922;5.421844923950494;-0.018595391652762645;0.120999697870329;0.059873944919039565;6.2026088584186;4.0226321698124465;0.9875241126720052;5.410662119990359;-0.019917342631024626;0.15118195768356385;0.060486435073301995;-0.005540969258881571;-0.5099493186463502
0.5000193119049072;20.124464329361594;45.19158312142004;464.00024892134036;9.788868797972214;-16.825991247118743;55.538809043968094;3.6153358828132336;9.570520899033069;-10.45464568580528;8.433920560013402;1.8842062412390803;2.042727120541034;7.130949632692495;12.190511827242931;28.252609510156432;-18.559609442979546;15.243699348405322;0.1015881129142279;-0.23514684457963173;-28.50736774310494;6.139822977708474;3.602875769290887;0.8299047024645525;5.421200469541702;-0.01853780135641106;0.12125887288209232;0.05993786288051107;6.202525907661935;4.01874531645598;0.9859799760469574;5.411072179044543;-0.019973509815793718;0.15088968184911966;0.0604179668059784;-0.005207593285891635;-0.5117636032123498
0.5200240612030029;20.245523800386735;45.15325375208473;464.01064424872965;9.788551790998604;-16.883550745914803;55.434562220964196;3.6185060203061843;9.57534798121022;-10.458058982067007;8.431991499311088;1.883630541173689;2.0433462769845505;7.102265752477585;12.121088965010017;28.20496446316446;-18.593719988421675;15.233949687159395;0.08631939858146084;-0.22921661019327938;-28.502046533741723;6.140611161535263;3.606132317031428;0.8311743597995976;5.420975371029858;-0.018491233586609555;0.12148592053972941;0.059997137885357536;6.203771493096915;4.015229488675725;0.984612284975249;5.411856565660577;-0.02002282253083336;0.15063145514420204;0.06036154260175678;-0.004866059153223893;-0.5098434030153967
0.5400097370147705;20.194903030301774;45.0612068137129;463.6026033024848;9.775481487434035;-16.79169525983056;55.30992171092314;3.602467261321963;9.530869293936309;-10.35687499652579;8.461567424115922;1.9056993210043847;2.032719036893101;7.081487710348738;12.082372937383521;28.203342688693287;-18.638865578501825;15.226155858824974;0.07495708965404742;-0.22382314513250703;-28.505523690697498;6.138916843585647;3.6091754797654554;0.8323436689335239;5.420109710205761;-0.018452479869335063;0.1216977381431487;0.06004148805235844;6.2023928168044185;4.011857594449601;0.983416474007509;5.411739736817738;-0.020059281154797805;0.1503968828563651;0.060311360015049616;-0.004587358014860885;-0.5099343511977449
0.5601065158843994;20.08241209864379;45.26975010121318;463.7973788597693;9.793804194151885;-16.70150419324697;55.463344197373615;3.6222829945690336;9.58394004850633;-10.398082136131293;8.473349322502731;1.8964358788752436;2.0449555427221338;7.103080205552388;12.134246088281902;28.293907003420188;-18.574925831378607;15.245314212012715;0.08394358367525802;-0.22440916789159146;-28.49810090556815;6.14073695616091;3.6079093875664006;0.8319033367702833;5.420571518298814;-0.018426421843885363;0.12161013595481353;0.06006608014433761;6.2052053611146665;4.012555336774146;0.9837087190077075;5.412489512455448;-0.020084973269925463;0.15045394381127827;0.06029760658606596;-0.00460816470848773;-0.5097228734532829
0.5800137519836426;20.100401952312076;45.18147784863881;463.9980093516018;9.765087801061727;-16.761221616643766;55.37826984973013;3.622294109667207;9.584068876209695;-10.448572099921735;8.436811655283517;1.8852692973316034;2.0450194840070184;7.080693632991291;12.079486300099184;28.28998202054669;-18.538177559162214;15.24288546213036;0.0709543075857724;-0.22481835372822848;-28.50101295765986;6.139303918454724;3.607681210027327;0.8317831109126552;5.420102527798939;-0.018416463585110128;0.12156747237037988;0.06007056266513218;6.204030802849475;4.012806847052353;0.9838052567553519;5.4121368895139765;-0.02008890834149031;0.15048023462376167;0.06029185383573722;-0.004968154322016654;-0.5097744574866196
0.5999972820281982;20.12200035960318;45.00319319996847;463.8005435258383;9.747406890207229;-16.76041389753145;55.285651123252165;3.620676878021523;9.580885865135986;-10.38888940122842;8.478721343301096;1.8976928699757205;2.044506307444427;7.037005252453936;11.998894775844654;28.24167969970999;-18.61452255616071;15.225747448812344;0.060772389415256894;-0.22627080582965614;-28.502950149739814;6.138291352696328;3.6067499098105027;0.8313703319497552;5.41982913091255;-0.018416250730881094;0.12146957915074487;0.060064549318142244;6.203084602138947;4.013725066911736;0.9841910227829541;5.411779686427958;-0.02008261711125498;0.15057340485207407;0.06029917718670885;-0.004612087436908883;-0.5098487580679949
0.6202225685119629;20.42670346516898;45.221717897984185;463.40806080012453;9.792793611406442;-16.885322796874497;55.38914885736335;3.622805717467726;9.585008269344488;-10.42430548301953;8.411546268617576;1.883818859043597;2.045182976265508;7.0842294481671075;12.079317485886278;28.189994441895887;-18.690303835061954;15.216279151939649;0.06370277242637179;-0.22517579583333164;-28.497796710219756;6.140311484110681;3.607998771552759;0.8317851259853557;5.420270891248147;-0.018429743904224874;0.12151091305939811;0.060065840835295856;6.204338911044032;4.012152549060121;0.9836785476644699;5.412215180668441;-0.0200691567863288;0.1505072101271854;0.06030965046912963;-0.004499959741234806;-0.509706011528712
0.6401724815368652;20.32787059506191;45.21249293551014;463.6048091115871;9.793982700771508;-16.82867234436533;55.3606693716533;3.6240298929885455;9.587363930543765;-10.366678893353832;8.452520867096057;1.896133062597106;2.0455843516472023;7.077175144541075;12.072447263238407;28.171786997238165;-18.65889579542987;15.226735635339587;0.06925401660042546;-0.22512872766497205;-28.497964765315988;6.140440470810648;3.6083559040976514;0.8318550338854088;5.4202585866349615;-0.018433681300836287;0.1214907715749594;0.06005882392510153;6.203835023335054;4.011450105988554;0.983477727734703;5.412096472403699;-0.020053218834521824;0.15049568886077344;0.060321123033415004;-0.00444229798997834;-0.5097146634813917
0.6600408554077148;20.302185185937155;45.1081751815819;463.5992710450597;9.771684200867512;-16.783445520726957;55.35831904234034;3.6242738935569703;9.595958060615438;-10.399311331553545;8.472674868177961;1.8965536581136244;2.0554471915407175;7.050505948210595;12.04128085373273;28.233142860063833;-18.658675299810064;15.233295330725753;0.07692061908397574;-0.22726163409317274;-28.492863236514122;6.142467010142645;3.607055532939465;0.8313196073272882;5.420932616283161;-0.01844423896329648;0.1213658426087563;0.06004876407526891;6.205544112907045;4.01216003826133;0.983832085784741;5.412504310370152;-0.020036191536150806;0.1505916757223691;0.06034513248706683;-0.004502017294923906;-0.5095853024886814
0.6800718307495117;19.987508494854186;45.20402515802672;463.79263362563006;9.754504733568861;-16.655109204883793;55.36478713348758;3.6238591740126886;9.58762681580964;-10.367207033477115;8.451933958195145;1.896053066318795;2.04564107818471;7.067145039636689;12.087599774363508;28.302672851512142;-18.53016938147224;15.245568613781293;0.08752905048087058;-0.22786276155997323;-28.501684591633722;6.140648859207137;3.607493197449612;0.8314021208712228;5.42047170704402;-0.018457397459252393;0.12135333392676013;0.06003291269511634;6.202983616470248;4.011986583092989;0.9838205442289;5.411812627934112;-0.02001104504842332;0.15061270674540378;0.060361999984312624;-0.004505524762746628;-0.511621158170781
0.7000079154968262;19.859155624098427;45.10501333363985;463.5893211946892;9.743609719231241;-16.565146523816537;55.330679091363805;3.5811306281193764;9.4788695589911;-10.3938631127838;8.474686678571723;1.8968721061431504;2.021301446477294;7.097894594187863;12.132785896142925;28.417209447637042;-18.530853040959883;15.264307757029156;0.0904696150324288;-0.2284060823749562;-28.50432467967252;6.139982284699666;3.607582911715057;0.8313793339874171;5.420395048707884;-0.018470049521881318;0.12133069106153362;0.06001935759039698;6.201596800426822;4.0117781507504136;0.9837974416986618;5.41148022054093;-0.019985505803945446;0.15062824044332118;0.06038226966336408;-0.0044711038903969815;-0.5099526522728655
0.7199759483337402;20.09996005259494;45.29895649238749;463.59210033095013;9.793458157673413;-16.775270299525147;55.43020182213813;3.6238986594546185;9.587437572013313;-10.368195432861949;8.451203373757558;1.895783720731294;2.0456077356050852;7.097402311676618;12.124531902589634;28.23071558898412;-18.620615829181446;15.231203093576736;0.08104260880257634;-0.22949421456827082;-28.510674272303625;6.139606563327913;3.60701583323438;0.8311470488318435;5.420486581723728;-0.018478827396117288;0.1212855446104103;0.060007904202597995;6.201557338706844;4.0119342755414955;0.9838954417038197;5.411519375361322;-0.019963089138955024;0.15065509571353014;0.06040443190894359;-0.004537904880472293;-0.511906848620748
0.7400422096252441;20.171948869596218;45.04081947752634;463.3811720433013;9.754629052757245;-16.88163010937246;55.28826079752361;3.626835609230622;9.59359809641121;-10.354953189398026;8.458100962805066;1.8975725791621598;2.0466723141325103;7.028732335698211;11.997804719384453;28.164948970552167;-18.708704064980886;15.217118819194594;0.05736064827156849;-0.22918054807876725;-28.52450167821752;6.135386593091615;3.6073110731924913;0.8312507723612791;5.419479957480694;-0.018481855958314794;0.1213197843805148;0.0599952459754533;6.197777985534376;4.012042075731038;0.9838991679214563;5.410546295951689;-0.01994276256505933;0.15063888413767368;0.06041416713667793;-0.004516673437388986;-0.5105281161024592
0.7600927352905273;20.010241120762885;45.10397315051858;463.3736191689207;9.756453727659565;-16.839504504400047;55.396019024223094;3.6265516492326526;9.592835206503327;-10.377161175822435;8.483881403822146;1.8991459474904375;2.046483523822453;7.0486322643363115;12.057726521514859;28.234174239265304;-18.701726598151765;15.22484856606533;0.07809952105253586;-0.22977971560418087;-28.53385632372018;6.133098559108613;3.606758463064515;0.8310680081278423;5.419098287873034;-0.018488886001032656;0.12131331963460787;0.05998071115799744;6.195401696667441;4.012755628432645;0.9841322112979933;5.4099051563371585;-0.01992158056356781;0.15065988501718236;0.060430684385802874;-0.0045857525136128304;-0.510808460856133
0.7800302505493164;19.752083025998658;44.928123365897505;463.5526759911794;9.716126168155077;-16.761778980951902;55.26264445952813;3.6290460794560215;9.59902228994098;-10.346170749210804;8.462138464553385;1.898675490254657;2.047711933673665;7.011740769836949;11.974577414555808;28.265720266717373;-18.602593688718976;15.228583506403373;0.05733794250489835;-0.22997585575127955;-28.54202964802198;6.131177697149411;3.6063845900115004;0.8309733121684922;5.4188171935430205;-0.01850146696178185;0.1213365344263668;0.059962648398115194;6.193369030480499;4.0132697382423;0.9842772164100131;5.4093428881388235;-0.01989815139739299;0.15065388878748173;0.06044922720326278;-0.0046577015822738665;-0.5110493429454156
0.8000204563140869;19.818684734070658;44.94008217398298;463.34162746648906;9.735636257770375;-16.842322632347546;55.32959162067353;3.628893023339896;9.6009753419894;-10.334371783269022;8.468818514797956;1.9003637135536813;2.0483763330268103;7.032151015329861;11.995365838463647;28.21869454317208;-18.672973180742243;15.225853656961787;0.04230717394699045;-0.2334520922096517;-28.554560594096245;6.127240558587654;3.603948847189131;0.8300840483255463;5.418121006200291;-0.01851991589250896;0.12121154405308113;0.05992535598282161;6.189850203094484;4.016084386162653;0.9852768320384354;5.40813513032244;-0.01987110690775855;0.15080332622681267;0.06047586698812519;-0.004904338154667652;-0.5114034582193172
0.8200547695159912;19.774737930306202;44.98267691457095;463.53471566623847;9.744871323424368;-16.887553134823207;55.404704724536096;3.627210109255484;9.598699382669103;-10.332318924336814;8.470072000973289;1.900612337262808;2.0481435849999414;7.056363478424224;12.056226115905877;28.176142686184345;-18.663270088380962;15.215455788990326;0.05580734469999811;-0.2369285699686748;-28.559335080374197;6.125742584294956;3.601331059957514;0.8291124515371504;5.41808594123837;-0.018553350171617418;0.12106443324586535;0.05987925339218416;6.188515179598279;4.018517282400446;0.9861858495611052;5.4075075560091665;-0.019836849678740665;0.15095009403055612;0.06051377157088152;-0.005133430467413451;-0.5115414230037895
0.8400087356567383;19.937746495870314;44.90578795258703;463.5278252331691;9.749866408642912;-16.992798504572946;55.428774487045175;3.626664005618493;9.599415248099248;-10.419342972158605;8.451671586870734;1.8892746389360329;2.04846156122671;7.06064020465434;12.036490650611025;28.175450514833585;-18.70757279828387;15.208221618203616;0.04217646137208343;-0.2399882812282768;-28.55665654903514;6.127125587013056;3.599373059276049;0.8283924662110681;5.418788398143226;-0.018598204256310556;0.12096273384306469;0.059832535951401;6.189494848559685;4.020266257711425;0.9868771450623217;5.407525861497298;-0.019800934389352293;0.15106668037229298;0.06055674659475516;-0.0053362957671516005;-0.5114596159233996
0.8600335121154785;19.916874673748417;44.75033215230398;463.3219626252925;9.725650655763463;-16.959782592384443;55.40830669632883;3.6232406800740984;9.595695341681921;-10.395539835066971;8.427144642776945;1.887929461890491;2.048334753999336;7.042436254871159;12.01662527706793;28.180700859120137;-18.70668502907469;15.201322213030489;0.044829211105991126;-0.24664340548788888;-28.555195892712412;6.127649128405609;3.5949376707745446;0.8267087810059838;5.419396356199427;-0.01864483452798968;0.12066757855504057;0.05977175872729675;6.190116573658445;4.023793076165029;0.9882586807008928;5.40726480352377;-0.019765432814089212;0.1513244851411377;0.06060511085544991;-0.0057043618363986515;-0.511405229923622
0.8799982070922852;19.805379147841666;44.707236607231806;463.5179278060891;9.718980907292543;-16.91091082700661;55.42454606480192;3.621269673753369;9.592488089466531;-10.338111633397784;8.467780172706938;1.9000519953604906;2.0478698955671417;7.038226033975079;12.03666203486276;28.15778831515096;-18.677111491189905;15.211078086918302;0.057433540737511446;-0.2504960991998823;-28.557106111424773;6.127290485147397;3.592017141492687;0.8255701515982589;5.419605536332373;-0.01868945620486117;0.12046323778209224;0.05971620336418213;6.189248779003892;4.024685048110463;0.9886498629140075;5.4067870114512075;-0.019730801983535044;0.15140469128285639;0.06063837992041158;-0.005908026566101688;-0.5114400425272594
0.8999745845794678;19.807350619140152;44.557644497499076;463.1103496942242;9.708817871996944;-16.853317410382303;55.3455352419258;3.623256575697163;9.59705253705497;-10.30306521349235;8.453007115265873;1.9088285179719076;2.048672786667426;7.018475893068672;11.965822666613628;28.185157072761164;-18.704768513267183;15.202007612527188;0.040803972182974727;-0.2516362627122196;-28.55558504927726;6.127995703105311;3.592060465349326;0.8255572603417486;5.41991063608197;-0.01873057443024914;0.12046888056307269;0.059678895739974036;6.1893452227920305;4.024677882501693;0.9887062576942501;5.406714721129213;-0.019708475712754407;0.15142903084782328;0.06065943216261124;-0.005966366331568053;-0.5113896224245191
0.920189619064331;19.524537049976807;44.62647104239632;463.30641419117865;9.688851206896471;-16.718100612410886;55.39130327157343;3.624200652302368;9.598453912314536;-10.295117406670453;8.457537252720876;1.9097351524951294;2.0488095018071335;7.032762083402017;12.00874616187413;28.28710237987987;-18.589823086264044;15.229980115394039;0.049979815875980216;-0.25261221894341374;-28.56275395921233;6.125809392499314;3.592328905591462;0.8256016948164596;5.419360852914878;-0.018763267456218133;0.12047553549028754;0.05964265640529614;6.186428326823597;4.024860525102454;0.9888047655425283;5.405806476184772;-0.019692654896287853;0.15146123089949876;0.06066698725815178;-0.006001797771854142;-0.5115715127218585
0.9401471614837646;19.833065098860963;44.81246539190356;463.30719372537294;9.722759330734279;-16.930655517626803;55.542328728112324;3.6241739646771323;9.598349890162588;-10.388375311638784;8.4306660363663;1.8888562047032766;2.048766851814273;7.072330514221947;12.103674663167055;28.206185454218417;-18.68990209220729;15.206179046576182;0.06409019758425356;-0.25309510926878986;-28.560673915114574;6.1267594334498;3.5926935920083105;0.8257140132038359;5.41964216603716;-0.018792617044064465;0.12049820668219464;0.05961842976210987;6.186700973933265;4.024765823599224;0.9888189680065633;5.4058137902756735;-0.019684924440337898;0.15148171923563009;0.06067442112472988;-0.006014328772445422;-0.5114962924906749
0.9600863456726074;19.84945635398528;44.679822957713675;462.904046754501;9.720239198297783;-16.810807199853272;55.457513217661784;3.62613900616149;9.602697127383705;-10.301709732142575;8.453177981596594;1.9090630340845696;2.04949264005937;7.043732183373157;12.033597973872393;28.228934541476796;-18.71167278035655;15.220253670173248;0.0478741082426713;-0.25286724424908064;-28.55310505668328;6.129459870948266;3.5932251350241717;0.8259230152874006;5.420368350011229;-0.018818279791084018;0.1205482333856965;0.05960315402134426;6.1888524032479335;4.024213358985746;0.9886546507515558;5.406365202503212;-0.01968276028261636;0.15146191049168972;0.06067969951402252;-0.006008477014476868;-0.5112680216007032
0.9800848960876465;19.988306208542053;44.67044405523378;463.1129145670608;9.728666054060557;-16.946239802050776;55.48969769896807;3.6248705487280475;9.599530289018949;-10.334150661858775;8.46931042933089;1.9005641995916922;2.048852888777816;7.04831919383134;12.051740282933707;28.144586388076632;-18.77040571645042;15.202310319455542;0.060849545415998046;-0.25353956036255826;-28.554575469718646;6.128276321772377;3.5930353717067347;0.8258428015137947;5.4200392376682185;-0.01883893321388093;0.120545203045257;0.059579344859124264;6.187745058442439;4.024766219259729;0.9888559501922848;5.405900958594242;-0.019680547652278786;0.15149500195301605;0.06068035761749628;-0.006060498592835878;-0.5112965732905649
1.0000560283660889;19.902834007527638;44.52514645672794;463.10549242414004;9.695426233803545;-16.821097313589526;55.44515689893258;3.6238493941505223;9.599656810897171;-10.340201153264935;8.46604677310681;1.899982096942015;2.049173048011536;7.018655067754394;12.00726546402995;28.236897324430355;-18.70579413719039;15.222173560399405;0.057357273658069946;-0.2554480339450302;-28.545185498892078;6.130841418310338;3.5911880506447273;0.8252184397865792;5.420856669455513;-0.01885264182162811;0.12046460236630807;0.05956590052463186;6.190886010764266;4.026383973902285;0.9894494093988573;5.406532452323103;-0.019687483452841603;0.15158645220383118;0.060687628289119805;-0.006217957408044669;-0.5110193207372954
1.0200188159942627;19.737380314591093;44.45678889308791;463.4923391998955;9.670413453409683;-16.748526803614944;55.42589390036147;3.6227076226843598;9.600458917069508;-10.334235684584307;8.469761740584357;1.901046401011038;2.0497674002400603;7.013152104398271;11.997614231369436;28.264098557635727;-18.608228911110544;15.224635893854801;0.051114898266660935;-0.2584737107767596;-28.543961523373028;6.130036107104773;3.5881520108949423;0.8241582360021031;5.420788523255239;-0.018852605849031562;0.12031158474972273;0.059551894205268956;6.19141405419819;4.0295104744406025;0.9905421412204446;5.406326773947694;-0.019702693978961724;0.15174945947434162;0.060685651563813434;-0.006456684085423016;-0.5109698280579242
1.0399928092956543;19.992979634790224;44.40676470910014;463.29148722086376;9.680398556072255;-16.86902545335853;55.41347295392234;3.624365515769887;9.604727110095514;-10.330681942654461;8.47154996009244;1.9016646500818886;2.050593131470659;7.001015961621515;11.968360161676339;28.169646024400777;-18.71848102198056;15.197220055974324;0.0344508462221198;-0.25733089855409524;-28.541460840052597;6.1299911519705566;3.5880377089668727;0.8242093246561062;5.420705151323362;-0.018848911891952154;0.12036805274144577;0.05955506340471117;6.192092474621294;4.029623022915468;0.9904888071724234;5.406405181025156;-0.019720294127344287;0.15169397117847533;0.06067013485795559;-0.006487283197520732;-0.5108876009423206
1.0600154399871826;20.120767655464146;44.37074989849605;463.68944714990204;9.679465243765126;-16.929822166846762;55.381031102955774;3.625646173052864;9.608113507925516;-10.417879712549212;8.453016941804478;1.890392768279967;2.0512272827184734;6.999288916787121;11.934841318948253;28.18064295450836;-18.666792782790964;15.214042296344251;0.017401378250931257;-0.25550476312114695;-28.53232117298858;6.132312212159505;3.5883050797155462;0.8244147120249893;5.421225482541948;-0.01884163509824561;0.12044826055340832;0.059569481803362405;6.195043505132742;4.029002174334708;0.9901841721010125;5.407186831365905;-0.01974271111637832;0.15160005697491294;0.060653463411117284;-0.006472886683209549;-0.5106240272239438
1.0799946784973145;20.175119216395892;44.24846832165349;463.6859122342926;9.663514095052193;-16.900987169596725;55.32409919571845;3.6277101053561096;9.611256996240034;-10.433708726158311;8.486445295566677;1.9016036120541109;2.0514920692615055;6.968673857191616;11.8698412694505;28.21809242422647;-18.681174000750175;15.223179648061844;0.009899282592293251;-0.25249973127005826;-28.527382412701705;6.133317921983814;3.5897085187606548;0.8250103056639444;5.421286666014256;-0.018834845612289215;0.1205868204439836;0.05958428097312394;6.196286828233952;4.02740775404666;0.9895169668445714;5.407570880560699;-0.019761408345006025;0.15144499152333704;0.060632129123318154;-0.006376467338502029;-0.5104805466185238
1.1000268459320068;20.123974297949225;44.32381109688573;463.2809008753993;9.678583541736582;-16.782997468259303;55.36681754659202;3.628071218693115;9.614842524291543;-10.334424287917589;8.46908531074848;1.9016256738685149;2.0526177794443736;6.986898866037752;11.91759496245717;28.216863787745226;-18.685066317573515;15.21461862865499;0.017812805737108486;-0.2536909809539291;-28.521775442796823;6.134217629950012;3.588146453498551;0.8244660317327595;5.42151677472121;-0.01882574966632275;0.12050739379108037;0.05958963713634819;6.198063212233538;4.028690957154986;0.9899595614280835;5.4078947004968745;-0.01978103585477877;0.15151024632909937;0.060622732202158726;-0.006470545494674783;-0.5103234766747552
1.1200048923492432;20.0617189223057;44.33413002942661;463.4833367770778;9.656815943216177;-16.727182292483384;55.39327925152617;3.627596297913838;9.613658304571898;-10.41825910394284;8.452585296011877;1.8906434861905628;2.05235951690307;6.989299815565359;11.928623472755813;28.331385537591096;-18.603762789535732;15.23931166750451;0.028284777358176763;-0.25339282287669707;-28.518909713722095;6.135216068853305;3.5881667303203972;0.8244698733413418;5.421668340050426;-0.018822570066569663;0.12049020984971141;0.059594625238098775;6.199204273410351;4.028411293397338;0.9898515967343431;5.408167897981916;-0.0197921862294421;0.15149046763847396;0.06061393510710291;-0.006478788732127906;-0.5120175305661171
1.1400363445281982;20.309892819182465;44.370610010709825;463.49654347544123;9.666331945200273;-16.879077691208536;55.3671770945093;3.627810857888709;9.613416616300988;-10.3902706743079;8.429752598309266;1.8897029905141856;2.0522582931661084;6.983566553911298;11.93854268672924;28.17784850647228;-18.66888880303415;15.213628260200576;0.031785274572961736;-0.2528326111787918;-28.515284241910525;6.135338304569603;3.5886452140137264;0.8246066612309784;5.421533370298375;-0.01881928866772744;0.12048949999016476;0.05959956275837008;6.199214624913358;4.027789887631396;0.9896316500330685;5.408170393172402;-0.01980169332193331;0.1514625415672139;0.06060259885517878;-0.006390292405646992;-0.510154096146831
1.1600027084350586;20.250974447890076;44.28294697443734;463.49458168745366;9.656954743826033;-16.800330542517187;55.2594857006377;3.6297409843791844;9.616924379429655;-10.335437037456785;8.468528062450073;1.9016006128339167;2.0527594497130286;6.951689410599592;11.856507502460923;28.177011967381983;-18.6736894151411;15.205468877763504;0.004891896139447738;-0.2508898604663458;-28.509773714284417;6.136901527892587;3.5900816700393525;0.8251121390955155;5.421717796097969;-0.018813011789698485;0.12055510498065859;0.059615020388054954;6.2004567437888936;4.026025932524668;0.9889933527262423;5.408623468909117;-0.019815177012407217;0.15136137233030758;0.06058648038231519;-0.006251342456504765;-0.5100049406798052
1.1799888610839844;20.287960433363473;44.40308834979111;463.49586814567925;9.667408696279617;-16.767832448789093;55.305490249053975;3.6312731642323435;9.62019977444223;-10.337038452491367;8.467580170674186;1.9015262896636793;2.053333291519286;6.966239381348202;11.895866988866796;28.198470933400436;-18.655994472593136;15.217889392048367;0.012299260470740467;-0.24969657887470265;-28.504024617922653;6.1384708478734265;3.590987766927416;0.8254098179286644;5.421927933057186;-0.01880334100334123;0.12057513148174222;0.05963156620226635;6.201849194099519;4.024766372103245;0.9885521445762553;5.409095255027385;-0.019831792133821642;0.15130271349004948;0.0605698710317324;-0.006138782667360603;-0.50984806900403
1.199993371963501;20.412229417742935;44.43527332972485;463.900304033447;9.660774719671124;-16.851368534957636;55.31433868531898;3.631774797730872;9.620426549465533;-10.4376913755356;8.484312939099095;1.9016253622083041;2.0531573019632092;6.961593060326957;11.885631225670593;28.20937448518422;-18.648712890398848;15.220228006484021;0.009100207356078;-0.24864660488447485;-28.498337727031405;6.139796788763045;3.591934391640881;0.8257038023890826;5.422067825108789;-0.018793395736867342;0.12058511900976575;0.05964780874207327;6.203138181696495;4.023471149608742;0.9881119881566875;5.409557181395578;-0.019847719214368863;0.15125240594175818;0.06055366527606553;-0.0060171420150236295;-0.509701011201516
1.220015287399292;20.44972084747625;44.48201459526246;463.7043002631103;9.685691579203661;-16.821865924477436;55.26540501720025;3.6344960384674008;9.624633918163351;-10.366640982611326;8.488886737874298;1.9022320217478463;2.0537290243453166;6.965112144192915;11.870784371232872;28.166671271334994;-18.67658776750423;15.219242066214852;0.006561229211674166;-0.24552698841126563;-28.49468622058746;6.141155817116583;3.594669503785788;0.8266492994018286;5.422111960774468;-0.018787991766601626;0.12070875265813927;0.05966686860247176;6.203602174112557;4.020471348658251;0.9870433682153147;5.409931894996769;-0.01985748477306501;0.15109143774442232;0.060534639437837726;-0.005774513492624955;-0.509607316304876
1.240013837814331;20.158245802249;44.504403688794966;463.09553847107804;9.659386124801218;-16.488392899737967;55.263363978601724;3.6374636763865373;9.63094542795849;-10.35024733707284;8.459332921847025;1.899950276488759;2.054853709675658;6.957534483178713;11.860129294904858;28.429069984628782;-18.5803425251819;15.254370981523554;0.011443838789681443;-0.2435714798938782;-28.486387020539716;6.1449637734181515;3.5964884268346524;0.8272698599928758;5.422942936588324;-0.018785159004242664;0.12077516426584348;0.05968651450331126;6.206639530991532;4.018059662051121;0.9862270337874136;5.411001648103683;-0.01986477497739572;0.15098329826789678;0.06052727122944955;-0.0056185314299902435;-0.5111623356333668
1.260019063949585;20.3519959605367;44.535879950196296;463.5030704299048;9.664320438408808;-16.69252279472849;55.22054587589424;3.638065817998118;9.631818522650093;-10.346426014963134;8.461444267255182;1.9004632446488297;2.054967165801679;6.944904732983047;11.856699930790619;28.24809621353082;-18.623177547737093;15.229066414519691;0.010160404161257894;-0.24386313105972268;-28.487960671164792;6.144104384232026;3.596996011061906;0.8273475832559581;5.422626610765416;-0.01878365605240804;0.12073169467981569;0.05968716980228758;6.205258620819566;4.017567185828922;0.9861083068168436;5.410718667945164;-0.019861784398824647;0.15100235587600996;0.06052534727219273;-0.005517717860507842;-0.5094580579127177
1.2799932956695557;20.143521586515266;44.45275983895466;463.4982011791863;9.632068170111667;-16.6115673233978;55.154265754700745;3.6377545141919856;9.631470041415183;-10.337636135649442;8.466415743502559;1.9016390163588044;2.0549843721135796;6.922852626586381;11.803698728137643;28.31518602169204;-18.578589235037704;15.234652337539007;-0.0031708504567342644;-0.24598814710796787;-28.498586970705766;6.14139482570652;3.5963901662811857;0.8269745593787259;5.421881047211748;-0.0187837203594797;0.12060227251064347;0.059676489452604994;6.20229097480951;4.018435832594409;0.9864990539066892;5.409917266868054;-0.01985155008350646;0.15111666548458105;0.06053142868975518;-0.005556666959692395;-0.5115490672404365
1.2999992370605469;20.31496564757567;44.604767144027804;463.30937974757717;9.666487327686635;-16.740680360413982;55.233388433266846;3.6372593232128962;9.628891607290079;-10.33715988816312;8.466716154775108;1.9015272265172483;2.0543378478588687;6.950496214285454;11.863562067942286;28.22813015321864;-18.678451297899464;15.217519139069243;0.004535991641039211;-0.24623030866608986;-28.502088760063874;6.140474810899044;3.5972274357635445;0.8271623428190225;5.421622222422556;-0.01879016642060599;0.12057802508131946;0.0596708437070906;6.20050129550107;4.017691209289594;0.9863075729038946;5.409580533987415;-0.019834725434255164;0.15112741301871904;0.06054077659122587;-0.005447804053888763;-0.5099011237704518
1.3200058937072754;20.2800733511732;44.714725892490236;463.50665562153165;9.67539329683292;-16.770448228310286;55.29340725589327;3.6383331400260186;9.630307664033618;-10.358733221039145;8.49278080767141;1.903230821979551;2.0544423158579153;6.964585961449098;11.903833289493075;28.231774383120968;-18.670146092558333;15.233610861487843;0.012393740351142518;-0.24600457099767453;-28.5092145408999;6.138854876846784;3.5981855147477937;0.8274199082249313;5.421163908319224;-0.018791099807462443;0.12057876313514178;0.05966919176709166;6.198215084112795;4.016923055402634;0.9860759317524446;5.409119363137843;-0.01982216741415526;0.15111857683226557;0.06054450700768112;-0.0053601352435708035;-0.5101167673392217
1.3400139808654785;20.344467977282974;44.63182162291621;463.5068239244979;9.664339637343344;-16.868288159926188;55.16616904129236;3.6407766914731865;9.634599470677085;-10.388755355299388;8.428849224296073;1.8900508478978228;2.0551195274817258;6.945621381562636;11.827058564544561;28.186191680459984;-18.666829819865985;15.214680705330649;-0.012040581517053145;-0.2445824959087035;-28.51288939158358;6.138479627510931;3.599753947954692;0.8279429724353035;5.421014315233771;-0.01879559374521237;0.12064720665849381;0.059674701947490146;6.19715705311089;4.015407405867601;0.9855513097499129;5.409053598280925;-0.019812037102871036;0.15104561447133566;0.06054616642714151;-0.005234877698242466;-0.5102328731921547
1.3600177764892578;20.20333706968198;44.622582042766886;463.49701659905315;9.65785906263963;-16.787522755673194;55.175522088041035;3.6425294199050975;9.637285514265908;-10.360325743110106;8.491101670943786;1.9029597619464722;2.05538527833333;6.926717251602863;11.817758044588855;28.226432669892713;-18.682241635039283;15.216699084893241;-0.00670882521488507;-0.24263628026775733;-28.51465748670426;6.138691687226172;3.6013530115351595;0.8285259842493545;5.421034913112399;-0.01878910090952706;0.12074120999945637;0.059683281564301124;6.196872938610843;4.013776431899961;0.9849577743178967;5.4092001953088875;-0.01980391809438984;0.15094407082474212;0.0605472811368693;-0.005116531649692212;-0.5102951219709657
1.380018949508667;20.175582693903877;44.41834862495086;463.2965707835714;9.622910594611836;-16.786739572257332;55.04085052852406;3.6428229078269356;9.63795175127832;-10.332124186559753;8.468217884724595;1.901995700143512;2.0555541985789647;6.876653991519859;11.723946427624856;28.21589396773019;-18.689655276694626;15.214418284206461;-0.01964555066071698;-0.24275714948897834;-28.52029054111564;6.137210524362809;3.6012153109222624;0.8284771064115757;5.420723937153772;-0.018784766753591836;0.12073697120795036;0.05968316893051142;6.195524898301766;4.01407605872363;0.9850525204493077;5.408886041443206;-0.01979578111557382;0.15095369962711574;0.06055276804017921;-0.0051336976005802275;-0.5104659089739897
1.4000191688537598;20.213335648608314;44.367389262656154;463.884859005761;9.609389242631696;-16.93601161219984;55.01190721746855;3.6435964343473195;9.641120596552552;-10.413284231741109;8.45298446237718;1.8914788475112705;2.056309694866271;6.865690084001178;11.702687723743244;28.15393805120254;-18.656162707708592;15.198268100225759;-0.02720091289416683;-0.24321165219283628;-28.52518279684426;6.1363971733737;3.600403080173085;0.8282216966217351;5.420619876519574;-0.018777203642921486;0.12072215763242947;0.05968501035405315;6.19533422729626;4.014957611163044;0.9853353692462125;5.408841279825341;-0.01979010589390548;0.15097861947509508;0.060560964257480344;-0.00523629056071956;-0.512391306548967
1.4200177192687988;19.785686306850735;44.62262287232664;463.67548611092815;9.63521396316741;-16.663000900006942;55.22476277141793;3.6652443384825553;9.695271470958607;-10.350065238870064;8.496977546824915;1.9044179400616867;2.068304155579431;6.9125874496687;11.799856363299867;28.331072385083207;-18.569360922369896;15.236683474532482;-0.006171399899399174;-0.2425003171916926;-28.53283535054915;6.1334975859894385;3.6004129189691665;0.8282953827132196;5.419949428816292;-0.018770594721928775;0.12078045209010539;0.05968425133916582;6.192853142563167;4.015337592068775;0.9853927704543918;5.408178627259136;-0.01977962687935767;0.15094679740006922;0.06056540639204719;-0.005250631749123422;-0.5108532500484051
1.44000244140625;20.160198809653743;44.5898391243105;463.07301416336657;9.664649806072937;-16.879372470351775;55.25740350211697;3.6431891562546506;9.641380761813974;-10.37591527278667;8.43528672259417;1.8917525445679326;2.056570716145639;6.948817797341674;11.856868541265074;28.222644418724997;-18.725322693845932;15.215284035000465;-0.0023160887326008767;-0.24403673599617123;-28.53958814068398;6.131181597955952;3.5978351033613145;0.8277024693753436;5.419517135098991;-0.018759080802876707;0.12073112369673018;0.05968188909410509;6.191603276642761;4.017496935904399;0.9861067285382547;5.407710420303138;-0.019773897453113157;0.15102835311631851;0.060575351278961104;-0.005423723803718451;-0.5110535645298968
1.4600131511688232;20.108187124824433;44.414214153311114;463.65870801976166;9.644743949579052;-16.94565777085871;55.152069427921006;3.6433177616433317;9.643495524293447;-10.401527046753255;8.459401968436602;1.8931254623795626;2.0571582372269037;6.915172517582038;11.771517383886962;28.171573109240924;-18.681263736142988;15.20920921256088;-0.03233408942975918;-0.2442100363907829;-28.543264652470608;6.130423862849;3.595888695647341;0.8273922744287473;5.419412853526883;-0.018741598110731596;0.12075664009287986;0.059691583334188815;6.192049255315491;4.018859754594014;0.986502747987203;5.407768786108307;-0.019775541808913513;0.151038994345187;0.06057953849124132;-0.00558104547122215;-0.5129356247326224
1.4800069332122803;20.005000221888857;44.46312892709989;463.04911526341465;9.652167830949779;-16.829580389930953;55.26800151004615;3.6421213197248985;9.643047849172211;-10.311019812428334;8.479881737265975;1.9051150087647124;2.057419066453358;6.929629331161866;11.842198431176328;28.209083300841186;-18.735973077968453;15.210949670356865;-0.011365831229763146;-0.2456095744522206;-28.54890773317264;6.127431449399297;3.5936293860330837;0.826706698946382;5.41883229454275;-0.01871437980321497;0.12070995507095479;0.05970153832730702;6.190607808535115;4.021539810941367;0.9873674535561412;5.40720570206848;-0.019785730718666572;0.1511350969283595;0.06057562242978606;-0.005749303999531288;-0.5113264171724942
1.499983310699463;19.974585414548216;44.312372303506336;463.6354328406452;9.63174033479623;-16.898356556443048;55.11158101121177;3.646553142318889;9.65148870775342;-10.312876305203993;8.478006102162752;1.9049027419857116;2.058724832371905;6.887381969846446;11.753594580303107;28.127643232404992;-18.675177248951172;15.198035991036493;-0.024464533187322293;-0.24035999412107323;-28.547598770235645;6.127553334049212;3.5962443302830507;0.8278277043627608;5.418394377579231;-0.018689327507842024;0.12100837733574767;0.059733806636082486;6.1914319032998275;4.018998870460127;0.9862923917944592;5.407676264470304;-0.019798306958368782;0.15087630778653335;0.060555344701479545;-0.0055976749167619385;-0.51129917624299
1.520035743713379;19.859515755342024;44.277169060075444;463.62913026246014;9.620093217085945;-16.800227942152176;55.11353200499869;3.6484943163059183;9.655364960575696;-10.34091277182254;8.500523625089379;1.9058821324011797;2.0593246405495336;6.875283782332454;11.728921647993946;28.235485529113397;-18.639148670852205;15.222095343188444;-0.03147466355049798;-0.23715609904421014;-28.54640446613458;6.128063623704891;3.5975532495203235;0.8284834279969012;5.418501131292306;-0.0186678740714249;0.12120432270669926;0.059766348546283835;6.192406570757865;4.01779931725903;0.9857426963621108;5.40808826781856;-0.01981488222919916;0.1507285799837638;0.06053703106577753;-0.005525848765737773;-0.5112564569634236
1.5402092933654785;19.87954185413523;44.276952342427705;463.02389014206466;9.622028596138003;-16.758856791380452;55.13665262891426;3.6497747510170147;9.656888904910025;-10.309950119482101;8.478510976423415;1.9052516744989685;2.0594586659531195;6.876213699149898;11.739462208297605;28.274890308594333;-18.69367445189766;15.224986620267064;-0.020443295454676075;-0.23472334627285973;-28.553042959585635;6.126387992772541;3.598802685755191;0.8290504422777629;5.417949807326517;-0.018643132397352193;0.12135920900179274;0.059785862749052;6.191016754868864;4.016960040251614;0.9853418147879924;5.407796764510083;-0.019825001936326567;0.15062012930599583;0.06052003122809475;-0.00548760611227805;-0.5131993708027197
1.5601422786712646;19.985813935610807;44.260890626963125;462.8285058201727;9.628077303304279;-16.806242029753633;55.11019844884346;3.650623638847794;9.659002724440413;-10.271078357055675;8.466693723055364;1.9145193368469604;2.0598539412394663;6.871794711036853;11.724695855125294;28.209523035325468;-18.739730739054274;15.210648598233442;-0.03272484327223624;-0.2342180097334142;-28.55300344378358;6.125316793478626;3.5986768295682836;0.829096008649025;5.417697354868657;-0.018626919056873435;0.12141105742455484;0.059798438304252806;6.190619682614591;4.017356441167301;0.985429026713585;5.407667497786335;-0.019835331261158426;0.15061107567640017;0.0605103273724484;-0.005486526628098081;-0.5114204300360649
1.5799870491027832;19.98978067486958;44.3404531443225;463.021318575962;9.637268748845548;-16.831840706430604;55.16336147932064;3.6516436592682124;9.661258369623377;-10.306917605104141;8.480341297035599;1.9057866210575223;2.060271600242334;6.883192709090591;11.752160936888622;28.213272117177688;-18.738178515138323;15.211207893329044;-0.03533789257127978;-0.23262622439410144;-28.551785121826978;6.125687271615514;3.599522858316251;0.8294945830938948;5.417760018691855;-0.018618990631278795;0.12152214889503173;0.059810693546958796;6.190996313906919;4.016642269442534;0.9851219658589361;5.4078064462817315;-0.01984245848715621;0.15053570242505493;0.0605014384369264;-0.005444543849490168;-0.5113624153217587
1.5999810695648193;19.90369667448195;44.23504492394272;463.42267256177416;9.614805697649604;-16.823047396150642;55.06428578299068;3.6515570686718624;9.661225331294546;-10.305367851676106;8.481445443175813;1.9059897906427896;2.0602843392198973;6.8603666772242;11.695462283646446;28.19855504466416;-18.666473994499956;15.213536761848184;-0.04826475613039709;-0.23255951338163547;-28.551197117623122;6.125572905663882;3.599469834818547;0.8295221581721468;5.417719522135849;-0.018616460401862094;0.12156056577608293;0.05981324071882449;6.190962133730375;4.016861685976615;0.9851825211855881;5.407726901796608;-0.019848161179596806;0.15053762071935725;0.06049644705348973;-0.005462137881814803;-0.511314998461611
1.6200933456420898;20.130623154542086;44.11906339407318;463.2244412507035;9.615561842813769;-16.909090539839113;54.99773916156165;3.6535345070990157;9.665408638204072;-10.30928998828578;8.478945236477527;1.9055662929725155;2.060980148035178;6.831889879313622;11.633946268849371;28.134157303247097;-18.755696947841802;15.19326362137265;-0.05494570117230542;-0.23098520844797377;-28.54451086492393;6.12770842612047;3.600602066185404;0.8299922333869265;5.418199703853725;-0.01862167538585323;0.12165765615684619;0.05981792481917429;6.192702574222204;4.0156184026570845;0.9847231694952426;5.4082226432106;-0.01985147719339244;0.15045030898577616;0.06049281957437518;-0.005395466302623092;-0.5110946156914036
1.640176773071289;20.170912310639125;44.10127616326715;463.0213407305205;9.611288432901624;-16.86460455905648;55.001327452798066;3.654492114307945;9.668010696732516;-10.309015790683816;8.479033568585564;1.9057298410335524;2.0614926585813667;6.8258260491751415;11.62198967735625;28.1743366549209;-18.7676616652089;15.20275165754388;-0.0590415856645712;-0.23110983054497436;-28.54025137267273;6.128766472438302;3.6007274344882942;0.830046662318415;5.418429409294086;-0.018631875908551067;0.12167350854580695;0.05981129489154713;6.193478849305569;4.015487188822966;0.9846934532730245;5.408340026862727;-0.019852004660218005;0.15045043346284653;0.060493605753489554;-0.005397927067703524;-0.5109392894814471
1.6600356101989746;20.008112273589155;44.10707365760101;463.22189964701715;9.579035867092967;-16.768758051656043;54.99440742311522;3.6541719249669145;9.66735457523161;-10.364835365224192;8.439643357345439;1.8937944627104852;2.0613833556452437;6.827328513558501;11.625187594332507;28.289700402445536;-18.64900203314298;15.218414481507645;-0.05751265735014287;-0.23203692440847276;-28.537126758230244;6.129309417060745;3.600597402498105;0.829952364958906;5.418472765783919;-0.018649214346044343;0.12164709641924012;0.05979472455525474;6.193638322741883;4.015667252489204;0.9848044360527591;5.408240024986288;-0.0198468206815035;0.15048773610247818;0.060499473034382675;-0.005419005927673437;-0.5108172989693568
1.6802349090576172;20.145879788461123;44.019653770529054;463.0266847823991;9.592521614879029;-16.76727403873054;54.96629922382298;3.651420329774542;9.663171199347179;-10.31189185799265;8.478143483229541;1.9054838842797728;2.0608685620485407;6.816722125646266;11.59094333950965;28.238388020395284;-18.721641904284375;15.216519249349753;-0.06579154301851609;-0.23533836609381406;-28.5296833923016;6.131173946616189;3.598686318500946;0.8291967526350897;5.419033182744112;-0.018665749990527704;0.1214884700505223;0.0597758074524293;6.195455186641111;4.017394894396601;0.9855230876133583;5.408482569507327;-0.019845992290958618;0.1506485006245107;0.06051175947703905;-0.005548324229971166;-0.5105734694720806
1.7001709938049316;20.175693702349832;44.01722053055989;463.0266408954559;9.587997173604988;-16.7317810454429;54.9406531614282;3.65245242012202;9.666464960075281;-10.316567674582043;8.475493043930213;1.9050474560980717;2.0615785157717363;6.808471177549418;11.56645714392173;28.25641201130558;-18.712412929209776;15.212286843356873;-0.08077235534034857;-0.23579392849791853;-28.520535648521452;6.133916179132402;3.5988081665707083;0.829208689623541;5.419675336856948;-0.018677834689255227;0.12146901478724095;0.059771545069760235;6.197727501101681;4.017005284792588;0.9854470224319818;5.409045790992328;-0.019850480073206708;0.15066467692121738;0.06051213247824372;-0.005524296464328994;-0.5102855276940936
1.7200524806976318;20.310453223031402;44.126313571328296;463.22653069237174;9.601984288208426;-16.81734447210374;54.95528888856616;3.655179362814227;9.671983094115234;-10.314537959941546;8.476330787773021;1.9054671376722883;2.062489868110727;6.816042636042547;11.593367113434187;28.173690197316894;-18.7295674209019;15.20104457157738;-0.07667920852058387;-0.2345467831645991;-28.517527286017913;6.134761790595437;3.60041096547136;0.8297410056085094;5.419671140418606;-0.01868300399273351;0.12153005613883304;0.05977455769052419;6.197772168560866;4.015413027066048;0.9849120905818274;5.409130039603401;-0.019858323673270707;0.15060359632554393;0.06049894143511712;-0.0053849532717645384;-0.5101718095571516
1.7401726245880127;20.338919426448612;44.17085331654638;462.8294131241024;9.586188758705212;-16.731552231161764;54.95511534665628;3.6590085843169162;9.678024840774203;-10.377293535510665;8.432502155021261;1.892580381450748;2.063242581624691;6.807095814845228;11.581265606985767;28.3171772044567;-18.711429152135693;15.226639847918772;-0.07058792137314572;-0.23097272948030545;-28.510726726187997;6.137554771293126;3.604273938796335;0.8310985902616852;5.420074658698907;-0.018691283515489973;0.1217275703301871;0.05978879257991372;6.198993998369249;4.011632174490018;0.9836031371595166;5.4097549762675845;-0.01986268581871381;0.15041933961407628;0.060484141692023964;-0.005093505825060898;-0.5099598311057221
1.7602534294128418;20.345680996083455;44.23725797820099;463.4376441829518;9.577978558802041;-16.84134387780221;54.929735690962325;3.6588600823674757;9.67636907734204;-10.399159731728984;8.45864115432266;1.8942839809878167;2.0627565593582626;6.798266549521433;11.585606597437902;28.22410238759239;-18.69710117449332;15.204703636604563;-0.0688295161935068;-0.23119879099137242;-28.51263619284387;6.137140892748961;3.6054766810626724;0.8313997163606084;5.4197776424673405;-0.0186938019514929;0.12170588884724799;0.05978915978898848;6.197517058511673;4.010862660087106;0.9834313050613634;5.4094455441289995;-0.019865706259561737;0.15045921723187972;0.060475426390728074;-0.004959191666792229;-0.5099955029951022
1.7799811363220215;20.36131187629833;44.4061053929216;463.04397551274866;9.617727159770796;-16.795771298427844;54.98719859046372;3.659461789654655;9.67628645909761;-10.315157319169423;8.475296710076398;1.9052178786983698;2.06258566139927;6.832364217668571;11.643698219564698;28.20071848167412;-18.749712952464023;15.208666043537333;-0.05523017025838868;-0.23116898802738528;-28.514875554569954;6.136854759903766;3.60694190721505;0.8317883491117403;5.419518686478726;-0.018695587649554243;0.12169404931035611;0.05979163952801054;6.196020714209511;4.009528997095577;0.9830595495032703;5.409192329699986;-0.01986502785124407;0.1504668604464523;0.06046808112713789;-0.004802850823589613;-0.5100467602860306
1.8001720905303955;20.343818728406365;44.45823618579103;463.2436556454955;9.625142046759763;-16.804896901396276;54.92324678683497;3.663013141015895;9.681789777876473;-10.319594886066001;8.472180349195735;1.9045977865269166;2.063250713651393;6.830170969803726;11.617061700098686;28.18531364761582;-18.722595860967807;15.20446154358398;-0.060722827316164324;-0.22832597992382364;-28.51200885494622;6.138806535394283;3.610624959966223;0.833029776043319;5.419753853833133;-0.01869836277115161;0.12184457249677137;0.05980817933686985;6.1962318123271665;4.0059647862735;0.9818638051526396;5.409606185954546;-0.01986252010643729;0.15032210730614642;0.06045848222938722;-0.004507942400027802;-0.5099636953745861
1.8200628757476807;20.35243368291676;44.516281444422916;463.0494414879487;9.615732439094602;-16.820579725592275;54.93500760158586;3.663170248320651;9.681223955491284;-10.311816877466287;8.47646164410898;1.9055708478889848;2.063062812496075;6.8220161363951375;11.623720172316734;28.185710320815552;-18.760911868330393;15.205323721663738;-0.0595122810772412;-0.22921083372952472;-28.51938394578099;6.1367009859492025;3.6118389100896406;0.833318373937779;5.419046402188567;-0.018693540849449214;0.12181392296519668;0.059811378086602036;6.193238370840079;4.005820066486771;0.9819147863388499;5.408882721416445;-0.019861278807055828;0.15040112447534665;0.06045235836520702;-0.004405485029341264;-0.5101704759245086
1.8401978015899658;20.316608167152843;44.55874839869782;463.8516180441132;9.61296963684297;-16.921055296721853;54.86253092353594;3.6655330613992754;9.684297788271497;-10.339876548473114;8.498333106983704;1.9064133132516456;2.0632918502512725;6.811320630041125;11.601683877561692;28.096346764791573;-18.70273269174869;15.190948058269305;-0.06382067921077875;-0.22706925881757875;-28.51918913276263;6.1376448654189675;3.6150191527445505;0.8343843365842245;5.419070561899743;-0.018692108051380933;0.12194039104713504;0.05982752818704306;6.192767809212142;4.003031083434898;0.9809821398530914;5.409048534405225;-0.019855547988512752;0.15029054737984748;0.06044684899965357;-0.004170744907936711;-0.5101736416806052
1.8600358963012695;20.209167446515032;44.48704456990299;463.2469611432556;9.59046196138415;-16.751460572188023;54.769362236088995;3.667581668394549;9.688424207245264;-10.279505581972172;8.460003080579048;1.9139616307651426;2.0639911941727322;6.7867594796466575;11.540536829877325;28.20159000585616;-18.669630651846393;15.214427299889572;-0.07800906116405676;-0.22708025688360275;-28.518780690673495;6.138367417439108;3.616376522795759;0.8347864825092378;5.419173592080398;-0.01868782200534911;0.12195340649832735;0.059838730700940236;6.192659754779206;4.002261220574949;0.9807907480507563;5.409157015400002;-0.01985051442246178;0.15030688513993856;0.06044937501278008;-0.004067095564464742;-0.5101769185380138
1.8800153732299805;20.06401680164486;44.49727170960229;463.84210661005744;9.581104279994255;-16.731737858372746;54.81485251153684;3.6663337255866395;9.686195838826073;-10.36005684706183;8.530557811598738;1.9171418232612236;2.063582935053723;6.785833816793413;11.544766941573721;28.271844165972333;-18.620215453358583;15.229178067367037;-0.07086415354745555;-0.22863680844900286;-28.51921490216274;6.138668506478068;3.616121613573152;0.834600632550986;5.419290942200556;-0.0186807563203372;0.12186635249675559;0.059845165944499776;6.192570989294607;4.002542306820344;0.98097638037646;5.40918084579854;-0.019842991447781767;0.15038187611244863;0.06045818665041775;-0.0040635164238822866;-0.5102103951881216
1.9000182151794434;20.14697106368055;44.3310915663081;463.84800066617237;9.550652749363648;-16.8712780402647;54.647152384927885;3.646284949763907;9.633582808193596;-10.397506051815114;8.457660870947832;1.8940949240234366;2.0517044069214014;6.765735256501696;11.494811369259674;28.203793683430128;-18.63146095482964;15.205855091258531;-0.07976100697681889;-0.2277232135111018;-28.527483576247796;6.137191630486585;3.618734009882494;0.8354868946221514;5.418784842516594;-0.018679227833238485;0.12198685531489369;0.05985334691888496;6.190264924766449;4.00128904257458;0.9805553130287977;5.408702856969978;-0.0198271741267564;0.1503309678274835;0.060462850873259824;-0.003978295250910455;-0.5122411966897793
1.9200317859649658;20.03476724002356;44.50867235714486;463.44125821949496;9.575690229026662;-16.75928275541245;54.76461976785436;3.6494590802631386;9.646825164276267;-10.297873599147119;8.487303804794418;1.9160022207805583;2.0621846589192443;6.797805215024178;11.57652316946565;28.226676129968872;-18.6517990679885;15.218943593259421;-0.07129358031658511;-0.22797747705455343;-28.533654009119065;6.13492587658421;3.618796530935611;0.8354562420047833;5.418211603218703;-0.018667960086096738;0.12195534523213664;0.059858480942521615;6.187807327363608;4.001542680490649;0.9806550493339333;5.408077346813754;-0.019816057415303935;0.15035570073233115;0.06046827573746949;-0.003937610697405808;-0.5106789152713892
1.940157413482666;20.107945596670394;44.59625185602973;463.43935452345175;9.596882946997777;-16.84719504340938;54.86658222561019;3.6667327836332135;9.687340490557386;-10.329099224780096;8.50469702448862;1.9078708633503207;2.0639640277640567;6.802634366558193;11.580126880330784;28.193277187426727;-18.714627099453793;15.212287818992014;-0.08017917816265649;-0.23117108286503016;-28.539111840361286;6.133042309704673;3.6162590126531065;0.8344873137012411;5.417923838444738;-0.018651908428413883;0.12176473837695961;0.05985904187991214;6.186639763961552;4.003996807637058;0.9815604060644204;5.407624450190168;-0.019810790103432258;0.15051722138928988;0.0604798538773809;-0.004101010612943063;-0.5108647275421017
1.9599764347076416;19.98208908302788;44.541604428934704;463.42676298065476;9.564618823197922;-16.75003895225857;54.84324918217483;3.6701305846520214;9.695525598200048;-10.386923057855391;8.463353263254838;1.8957605051765898;2.0655176377177034;6.785544634273965;11.552390049919659;28.32955902045972;-18.61973405732194;15.240981527941948;-0.08159523217607813;-0.22962902316211595;-28.53984150684728;6.133121112147578;3.616914793971456;0.8347649345410408;5.417950340540134;-0.018638457521655577;0.12182608292651541;0.059875207339239914;6.186800084834293;4.003084224967208;0.981179079831739;5.4077825153920065;-0.019807733308739375;0.15042444500036906;0.06047959794324172;-0.004052029093012355;-0.510920062733236
1.9799976348876953;19.979942801398415;44.412185113586375;462.9177453507888;9.540118135244757;-16.65581547480707;54.83895697011444;3.6705263542738464;9.6962746712417;-10.40285512229854;8.497466690590088;1.9070644699128205;2.0655526693654735;6.750580898126317;11.492828264603947;28.45523966601663;-18.672440834588688;15.26765109657885;-0.09609331434649429;-0.22930129248296555;-28.543920817282782;6.132510578678326;3.6167612250277275;0.8346963575865431;5.417856847450145;-0.018624960055691163;0.12182294100548281;0.0598860179072206;6.186539297519868;4.003173349873678;0.981168061117025;5.407746465986811;-0.01980615710697247;0.15039965860440316;0.06048068415330993;-0.004090676128155642;-0.5128409902721612
2.000013589859009;20.152055061445978;44.36390900380512;463.0104625130841;9.550018599535449;-16.811338374504842;54.80747957944313;3.6710138782064434;9.70046000776251;-10.386419852493873;8.463699008260027;1.896204482186138;2.066828412442935;6.744464193979753;11.487773956451816;28.30217422912061;-18.724052445127395;15.228758982845324;-0.09310832810295565;-0.23115102157288653;-28.54321788722705;6.132750936818626;3.614782585037783;0.8339900328490935;5.41811892614269;-0.01861060209944928;0.12170249044687535;0.05989303292926953;6.187603829212726;4.0048669970842035;0.9817706355155185;5.4079696315938;-0.019808430980959114;0.15049225318881918;0.06048795068503687;-0.00421932388884816;-0.5128622608020863
2.020035743713379;19.968145351270195;44.254985630488655;462.3071193297221;9.533822092210913;-16.606067513257386;54.71387315563536;3.6740250343398593;9.704373102373513;-10.264785107936166;8.466792264326555;1.9161263750193127;2.0670764100077643;6.71672643744253;11.422550290456586;28.388208207392783;-18.72445114840483;15.245028502088957;-0.10604446463845686;-0.22805448865417693;-28.54856350622824;6.130910797186688;3.617296025824046;0.8348062943717265;5.417550113164402;-0.01860844144596442;0.1218539659906146;0.05989951488738464;6.185255900484065;4.00280249722143;0.9809582210768091;5.407517963337335;-0.01979797768869148;0.15032522890520011;0.06048365822324667;-0.004051949718153081;-0.5112762749189372
2.040163040161133;20.131860720834652;44.241128277598904;463.21256730410306;9.534853587598484;-16.872860809879874;54.718385685759316;3.6530572404423047;9.65860924775478;-10.383300638791534;8.464880867931665;1.8964740166657155;2.0648839131377876;6.7377914167590705;11.476167312503648;28.25394503776833;-18.715668719511797;15.225279631401488;-0.09448474067497337;-0.22897860721482308;-28.551397350897034;6.130179339360118;3.6166318806663975;0.8344790106010188;5.417501980855915;-0.01860543985680107;0.12179397237569305;0.059897493816637455;6.184820729790969;4.0038906862510055;0.9813477899240822;5.407371580702286;-0.019792617352396263;0.15038670783818167;0.06049199890323743;-0.004114259752215627;-0.5113803738978934
2.0601871013641357;19.841254177155704;44.29198261245231;462.99584795922067;9.529145284626079;-16.68391225017887;54.74820301062677;3.673413270236594;9.705098548264374;-10.290846836488853;8.486423354388526;1.9087792009700657;2.0675789811277774;6.728375431631542;11.452948106877688;28.32764613622224;-18.6673883907999;15.23201607925146;-0.11041418398664524;-0.23054031880029568;-28.558055107603057;6.127818295065288;3.6152282821081303;0.8339478721481479;5.417004136386685;-0.018601863810044923;0.1217002699812652;0.05988930930061928;6.183027919440252;4.00546001144579;0.9818919401826242;5.406781973960945;-0.019788778009117172;0.15046840792810545;0.06049687739122994;-0.004220048205950368;-0.5115799540549453
2.0802154541015625;20.039126175217355;44.26329627385171;463.19931362859523;9.552945125003369;-16.82481680384928;54.75521146669959;3.6756677471156305;9.716615639198498;-10.319057260022195;8.509297775274351;1.9098152068830037;2.077843805940277;6.73169755293165;11.43829976051028;28.23460684396877;-18.730877756158794;15.21996422479387;-0.11456465959858204;-0.22975191722173705;-28.556347123312783;6.128531598204527;3.615582797401296;0.8340627470600034;5.417233858682244;-0.018605938321257544;0.12173286501181117;0.059888683191943466;6.183783199315599;4.005033477305451;0.9817106095495359;5.407020297914338;-0.0197845207037673;0.15041811812067352;0.06050116718782961;-0.004211996808923748;-0.5115391050832379
2.0999817848205566;20.13551947892019;44.23476448597909;463.39496809552725;9.558817480843453;-16.904281964216324;54.743034449173024;3.675325577411936;9.717361447590601;-10.322001301026386;8.507485749799118;1.9095337725025896;2.078117766697461;6.729896610058225;11.434248919242794;28.15432437292733;-18.751780684982503;15.19374699025971;-0.11664307169543593;-0.2308549653788817;-28.551680069256783;6.129874509999647;3.6143611826343176;0.833632077172279;5.417701229990392;-0.01861028678798972;0.1216752039161149;0.05988400588932803;6.185575741419359;4.005981043398634;0.982052297971812;5.407415204785956;-0.019784925581317635;0.15046697612097923;0.060509049108922436;-0.004301979035150423;-0.5114081144385728
2.1200387477874756;20.051857291533018;44.20093940449249;463.38830821931714;9.53585019270732;-16.8289975611712;54.7064649242335;3.6741445056067943;9.709656557644081;-10.295701283185931;8.48370643178908;1.9084414878916232;2.0687516239080295;6.716049665940199;11.427692039389143;28.18168636295299;-18.693484297721795;15.19819059702926;-0.1196723014418613;-0.23188981231603303;-28.548812299859627;6.130422667119506;3.6131938248658337;0.833220148422804;5.417920026493172;-0.01861338448872718;0.12160296205722795;0.0598774409133851;6.18662086038165;4.00699825484273;0.9824090954276338;5.4075805980425;-0.01978760562344578;0.15051654482492757;0.060512942472904334;-0.004389815592944652;-0.5113214827736576
2.1402227878570557;19.96290767813997;44.20300739632584;463.3894013586265;9.532397708965709;-16.73994106424135;54.73912413154382;3.672311975482632;9.706561010931418;-10.301349310926293;8.480964574549033;1.9077045018696177;2.068342340668177;6.725883327136856;11.45247822099996;28.24747908719459;-18.649330223148503;15.204886711411662;-0.10546303458820816;-0.232759194486042;-28.543070901587903;6.131951100856437;3.6121697805008743;0.8328365579956936;5.418402522962757;-0.01861469813515878;0.12154702214077263;0.05987597298136376;6.188677851655666;4.0078752160831055;0.9827214747825856;5.408046698493195;-0.019794799127262265;0.15056152010989518;0.060514750755023605;-0.0044678287021538655;-0.5111524461079283
2.1601243019104004;20.37671154696931;44.18100412469336;463.39259455921604;9.546987642760142;-16.990275960387073;54.71589103925899;3.6746469017335284;9.711835629421241;-10.358445556970098;8.44044213244872;1.895740305100838;2.0693064187673103;6.7159189092225215;11.432479680686567;28.102292741821753;-18.750364551132552;15.181688439476007;-0.11162973911333372;-0.23067564851879574;-28.539428222178884;6.132905771547471;3.612967367387587;0.8332033356708035;5.418572383583927;-0.018607367640114038;0.12164255268172501;0.05988887687178719;6.1899936066898515;4.006964520684334;0.9823249452013575;5.40847458867911;-0.019809663187955115;0.15046310935630108;0.06050025437669231;-0.004411131792658462;-0.5110412224156234
2.180111885070801;20.196116687353218;44.16466164729878;463.1868665902188;9.553280523683092;-16.817993597567373;54.706906159978644;3.676307606995825;9.714607223824382;-10.30124069344688;8.480406412574716;1.9078616381837217;2.069652576304984;6.717381850515558;11.414366073235106;28.193321924736864;-18.726003902143976;15.202076780470463;-0.11654359680304487;-0.22766392997787177;-28.53889222478521;6.132804563356512;3.614251066761965;0.8337717087700578;5.418416824827255;-0.018592008466564405;0.12178443215697751;0.05990864190089848;6.190393445285197;4.005734922587483;0.9817775120776883;5.408704468453166;-0.019830260817625595;0.15032758893034215;0.06047656180302295;-0.004320151063220205;-0.5110171959029911
2.200127363204956;20.287572001106014;44.04689779151571;463.58142597054336;9.522922860012248;-16.94313844295033;54.61134438208769;3.67661586425643;9.716871275236317;-10.356399256885592;8.441346601935031;1.896134816116622;2.070288409099489;6.682512703526053;11.354585343914307;28.125793649387585;-18.695901578193205;15.18501945502302;-0.13198633363386242;-0.22705536481401434;-28.538133422079426;6.1324656953356556;3.6134010574817994;0.8335716805267162;5.418349898978434;-0.018566104805168918;0.12179466444545592;0.059929513933562654;6.191400884196462;4.006628279140204;0.9820065850292506;5.408976104336505;-0.019859849062265893;0.15032876809927473;0.06045413753029835;-0.00437044140087906;-0.510988745840838
2.21999192237854;20.21183631403931;43.91776867383506;463.3798516105618;9.51223291409793;-16.872455262727662;54.53051717443577;3.6588514296407872;9.676480520505608;-10.282235277451282;8.494939872498664;1.9192865465283926;2.0687238895458435;6.669024844872193;11.323170034004395;28.12969432466868;-18.732287900401726;15.18626404659314;-0.14899398207792386;-0.2238437993375796;-28.5441550374674;6.1299512549011785;3.6144446915405037;0.8340835913865857;5.4175494881135995;-0.01853687760727854;0.12194375835413368;0.05995529307955021;6.18993527680948;4.005966226664889;0.9816117183545529;5.408691958600702;-0.019889162039402178;0.15020217849571194;0.06041920138163395;-0.004299281859624117;-0.511149475113556
2.2400214672088623;20.22179606203836;44.09333981040756;463.0709121312261;9.519960898416912;-16.85232389027221;54.65782137531775;3.659873104756391;9.671830954231526;-10.34623859775027;8.445964323544057;1.897488909122131;2.059718938734849;6.700548712670161;11.409833702259808;28.223166078345706;-18.731045860818114;15.195826473903104;-0.13117193514639958;-0.21997508131193239;-28.545141320752776;6.129143746064247;3.6158797471505335;0.8347297410372331;5.417210370834369;-0.018512826350901644;0.12212933930505168;0.059986662191587325;6.189917877697629;4.004805578237352;0.9810332383387366;5.4088454767412975;-0.019919810048611236;0.1500388197985767;0.06038488351886787;-0.0042081001085239635;-0.5111774983529809
2.260145902633667;20.131309979307584;43.95600111252721;463.1602462212795;9.49547740821367;-16.784511071201408;54.575176417293854;3.661373505824635;9.675788551518833;-10.342499594662009;8.447801473066193;1.8982220351280896;2.060568038417993;6.670490995856761;11.345687670148022;28.2722543915269;-18.673349486689936;15.21728737935288;-0.14018610785783323;-0.21763311241296396;-28.54544809299279;6.128375198146874;3.616032312477527;0.8349407408857669;5.416943946701038;-0.018481521983852132;0.12223119860370088;0.06001096252178832;6.190487819847647;4.004773984182513;0.9808812513175696;5.409050037036753;-0.019949878397106963;0.14995266037484506;0.06035696099729762;-0.004202282118212856;-0.5111778779516195
2.280142307281494;20.252534211872664;43.9085326538261;462.65539319426784;9.503881967938723;-16.73502806554845;54.55970959400301;3.6857322959024286;9.735694574513975;-10.251708006648247;8.472612905335826;1.9189782277758225;2.0734596001620713;6.626653705918926;11.274588892994048;28.246548593275403;-18.74817077872489;15.225246868375432;-0.15010443948422802;-0.2136611289902286;-28.541464970539156;6.129317727000237;3.6175171002206237;0.8356512966805515;5.417069074832332;-0.01846821866063944;0.1224322180228637;0.060032577727103235;6.192187833233846;4.0032201023230325;0.9801804742923242;5.409635976998447;-0.01996941068109602;0.14976516485255537;0.060336069487148654;-0.004119399214565144;-0.5110583210518256
2.3000216484069824;20.071134281311345;43.8545238768518;462.7460792169153;9.492727278354675;-16.62631614852741;54.54300045433537;3.685662939923601;9.736793451609355;-10.249315292531438;8.474054699185803;1.9193830529538165;2.0738114778398504;6.629842502398732;11.253819406297374;28.320449487364726;-18.68103971818962;15.227987297427612;-0.16425607295263128;-0.21357887184326715;-28.539787668828964;6.128730367122422;3.616420732377174;0.8353553225403961;5.416959047418753;-0.018465856207037237;0.12243825191977602;0.06002925793553817;6.19179061927208;4.00437738017618;0.9805039586625418;5.409368747474178;-0.01997690988851898;0.14976966824863042;0.060331390911724535;-0.004231286954453094;-0.5110281094852156
2.3203165531158447;20.087156364327946;43.78911054687529;462.93977660142764;9.473529016055487;-16.648525237341232;54.57079467320165;3.6635993643150537;9.683452085267263;-10.341544021078983;8.448220647250796;1.898596641705836;2.062220803437483;6.648784984935541;11.303398887911618;28.37987139988889;-18.63927640956389;15.240385364126535;-0.15476326011821195;-0.21505838515929684;-28.536889582951726;6.128770858892246;3.614471294638586;0.834717572818594;5.417103421899627;-0.018480325630155565;0.12237766630303595;0.060008074771523645;6.192584999564195;4.006279699690767;0.9811447113864106;5.409314144995781;-0.01996992589454835;0.14983810109744256;0.06034647797955845;-0.004421795129495106;-0.5109425388074607
2.3401689529418945;19.91227614803727;43.711677400990276;462.92686457972195;9.467364905982588;-16.494122299856343;54.59273097512039;3.682034986656382;9.73459399083098;-10.283142390668406;8.490234482420489;1.9112728483197898;2.074288728779499;6.629605005424666;11.246890901351176;28.437727677665407;-18.599092930946377;15.251977895962066;-0.17758135110972;-0.21946042765392912;-28.533106296321336;6.128891057882734;3.6107400809124734;0.8333431391989854;5.417415468244667;-0.018505801414807614;0.12217056580741818;0.05996906309062114;6.193614568866279;4.00999398132092;0.9824954881140373;5.409136938994413;-0.01995364075295831;0.15004620611344968;0.06037804670829182;-0.004751090044610157;-0.5108312741573239
2.3599812984466553;20.23851168554019;43.73155539671846;462.8255162168456;9.498983638440436;-16.653469389355273;54.70885968539052;3.6821607888744143;9.74376394281225;-10.311631068346635;8.512702773462589;1.9123195118339908;2.0842944699270043;6.647827903545762;11.288282496829279;28.335650136999305;-18.73230392159247;15.227634243397588;-0.1777797132730731;-0.22236815775502333;-28.52684822388073;6.130250343251241;3.608340220229496;0.8324826961008032;5.417969781487293;-0.01854421034855299;0.12205048605343673;0.059926516036057274;6.195405137258237;4.012134800382923;0.9832885108763377;5.409254367975175;-0.01992733686985735;0.15015888242989908;0.06041510861813787;-0.004989332994376629;-0.5106439743307317
2.3800253868103027;20.271231285555036;43.762875038157354;462.6208921346234;9.516345553903511;-16.618118453280267;54.78068984858304;3.679683215616201;9.733608439370341;-10.287667639249154;8.487710838900208;1.910851589948668;2.0744875970625554;6.681647601245411;11.353224136310903;28.337709490662377;-18.733857742199632;15.220260628491578;-0.1557693856517478;-0.22562996849704095;-28.521004168700443;6.131568318345487;3.606066423370641;0.8316312342562973;5.418506557585016;-0.018591142079397563;0.12191727710051356;0.059876059842788515;6.1968061203884774;4.0143462794907245;0.9840582525774049;5.409269464395779;-0.0198939267722548;0.15027762211703916;0.06045765136119903;-0.0052211965070254164;-0.5104680902473643
2.400175094604492;20.19934222391274;43.602748855378096;462.61953052720503;9.481692775398729;-16.52512869930333;54.74013023446507;3.6785547950797444;9.732261097332326;-10.2916426432386;8.485757454209272;1.9103631845813134;2.074347777950748;6.653650644689765;11.313807043520939;28.40734760386714;-18.684503811972736;15.235545945283485;-0.15583633740983763;-0.22845258919330624;-28.514629300107536;6.133275308636347;3.604394267064651;0.830982766570961;5.4191208396147506;-0.018644153023013296;0.12181230584917727;0.059823156291338976;6.1982130694845905;4.0163702602462585;0.9846994315928352;5.4093354356094885;-0.01985621766977208;0.1503789907714757;0.0605031184781374;-0.005412775177499114;-0.5102798718776761
2.4199981689453125;20.209657943560714;43.52774067569395;463.30908356441785;9.474032557114715;-16.61547782533453;54.72666091377707;3.6749731354231523;9.728946675540001;-10.288226046981466;8.488161428396324;1.911068508633669;2.074345228840171;6.658115497316589;11.323475706062354;28.2915228118987;-18.624057497568824;15.217721569024098;-0.15664058827523614;-0.23565588199825932;-28.512195269824502;6.1331165098327505;3.599851292897304;0.8290499214213283;5.419485724018588;-0.018692091564000125;0.12146319814279179;0.05976168982231878;6.198718413516739;4.021337332118439;0.9865455045727158;5.408890929558328;-0.019825951144934434;0.150704957145125;0.060551406983154456;-0.005825330332207598;-0.5102030952589026
2.440159797668457;20.453347956476485;43.38337806859576;462.6155631499952;9.475252587023096;-16.65172892723737;54.696378753275994;3.6746979052316298;9.728830679074074;-10.253750511819227;8.47412715686875;1.9198491548614764;2.074265729129713;6.6394207343043385;11.275800666636824;28.257305471093147;-18.751832963722336;15.201566254035288;-0.16686371803504013;-0.23789785694604706;-28.508524101295563;6.134063330923315;3.5987298818624693;0.8285486154727201;5.4198621439207395;-0.018732955444812883;0.12136807359871862;0.05971549992143882;6.199250285134701;4.0223041260068895;0.9869347990778768;5.408764101336361;-0.019794041853815038;0.15076462041584968;0.06058625796473644;-0.005968411689766053;-0.5100954128691634
2.4599924087524414;20.426276261579666;43.531519082814334;463.7056413957507;9.494240837527066;-16.73240072427221;54.830740584979004;3.6728597956198716;9.727261378711823;-10.337134867214678;8.542872968443458;1.9227063205430341;2.074241569492941;6.67644392383915;11.363994589989758;28.215246128117034;-18.678901070883043;15.201195953984296;-0.15709514129011645;-0.24127025913184;-28.501215782733166;6.136199213520728;3.5964274209176827;0.8276600631287253;5.4206248185369645;-0.018764228520876045;0.12120149420480392;0.05968201136996483;6.20145851191364;4.024168867278084;0.9876659948278366;5.409099307906618;-0.019776276611440657;0.15089427662182062;0.06061586211781178;-0.0061598169760863145;-0.5098914465226488
2.4799890518188477;20.243519286081217;43.40375844091852;463.2951523584378;9.461912605227969;-16.552225304333533;54.797917489715104;3.673420612854925;9.737415277682736;-10.319348982853548;8.509959338126801;1.9120228190369568;2.084679363419922;6.657657677354718;11.322109349423977;28.35460785808126;-18.623377205808403;15.2238287773499;-0.16019479116266694;-0.24420478695625703;-28.500216193056612;6.136292906498147;3.5945595053308126;0.8269117548841225;5.4207851770441895;-0.018782230330700506;0.12104794421289353;0.05965741325800814;6.201652785534494;4.025893958180004;0.9883321038535168;5.408957689542183;-0.019766724097203883;0.15101939534021827;0.060632019821471386;-0.006302980418461249;-0.5098680978606963
2.5000407695770264;20.453476456536222;43.405527137859025;462.99936155005105;9.48654672829549;-16.66717341762822;54.81423748061419;3.6737923438100513;9.738501087510343;-10.315752349852811;8.512118103863576;1.912584523736957;2.0849092928374566;6.6656252196456975;11.318262465637895;28.278938335608473;-18.73773368363926;15.205027925484297;-0.16255107022050103;-0.24498162850502922;-28.50477486754521;6.135485224831103;3.594391356226242;0.8267881584274206;5.4205724970728815;-0.01878613167717983;0.12099815273883967;0.05965061060497687;6.2006505558505935;4.026108268398246;0.9884272053177218;5.408687848476513;-0.019766566609168326;0.15104916989308778;0.06063056660575859;-0.0063333421581732805;-0.5117745211657602
2.5201332569122314;20.561068987457688;43.42337439868102;462.80230847520284;9.480039409978726;-16.722136967132542;54.783437102717365;3.6777500888131884;9.744714676279166;-10.311209049123683;8.514043136155287;1.9131451481913084;2.0856999146888895;6.641079843887061;11.292027432996667;28.250506408560497;-18.79520740236923;15.207767960905677;-0.16891476700185198;-0.24143150970636446;-28.507754324600704;6.134554163269134;3.5975077427602757;0.8278874970578401;5.420088977652547;-0.018780548206946746;0.12116540626216672;0.05966556857687727;6.198753595436575;4.023164675474392;0.9873377218038255;5.408481457227043;-0.01977248422020405;0.15086902919381173;0.06060903408483233;-0.00606317837486905;-0.5100998391495062
2.5399692058563232;20.42834401740756;43.453779023090014;462.79523683333343;9.470503198023358;-16.630673633949137;54.74585678693453;3.676780131671473;9.737328291423141;-10.287354288495717;8.488732442250292;1.9117074328555457;2.0764024836182666;6.639719894489314;11.294562225991005;28.29449317000584;-18.725256877937234;15.21580111496162;-0.162867351660057;-0.24229310556829514;-28.50607845279344;6.135558132553701;3.5972588883216865;0.8277331326162134;5.4203653811249435;-0.018761462143583048;0.12108883341103467;0.059685240842586626;6.199703246664485;4.02327608377121;0.9874361442793973;5.408896378987217;-0.019791776261995353;0.1509300985078241;0.060594650134678206;-0.006019508314077937;-0.5100607917762136
2.5600147247314453;20.301752445471543;43.545223779079706;463.40402926586455;9.453968123369982;-16.66464335998333;54.750544078442275;3.676976473245045;9.734842702280375;-10.383153433897618;8.508247179669572;1.9121799785734712;2.0755037001210264;6.6432036440600895;11.301678621833899;28.3468035717624;-18.647619242314452;15.226035062118918;-0.15925023264929816;-0.24041217549171515;-28.51262872124042;6.1341501801778255;3.599514936026055;0.8284671231727129;5.419793083127368;-0.01873908846878715;0.12115682084419753;0.059711385891691594;6.197478619712637;4.021296834166693;0.9867525545482638;5.408628287466934;-0.019808869218748207;0.15085939872918866;0.06056606637829128;-0.005795874767299387;-0.5102462291414176
2.5799643993377686;20.198035871606898;43.52349999630066;463.0090337834475;9.448965392034161;-16.58572149751192;54.6261266890815;3.6830028768346637;9.750527389910197;-10.309405196934847;8.514123124249624;1.9131570778021962;2.086050513694761;6.608770912188811;11.215317246147562;28.361035737588544;-18.68065050786058;15.22259628823696;-0.1844737589947099;-0.23445161879669005;-28.517461292329088;6.133826554232882;3.604752861704298;0.8303343116345008;5.419313962191491;-0.01871374237255334;0.12143760081434393;0.059755189916034526;6.195621265493911;4.016280196395352;0.9849294298520835;5.408722737645413;-0.019827655768639048;0.15057854283667865;0.0605251823518465;-0.005360617628543925;-0.5103814429918468
2.5999882221221924;20.377363881152643;43.79610228021817;462.615052223362;9.494301436976622;-16.66341444780665;54.74361884718979;3.6822386098082234;9.741984295218932;-10.281904087588412;8.490881249020106;1.9120778777351992;2.0763755008394975;6.653196436339209;11.325885302355587;28.296016800750284;-18.76269890201854;15.217554517919654;-0.16111773716712247;-0.23380970929765915;-28.52059677736822;6.133382690025348;3.6057212709461686;0.8306227800087909;5.419086010538926;-0.01867714324672031;0.12143984641456074;0.059793096118516534;6.1949687423067425;4.015433912206111;0.9846659509190809;5.408846494374015;-0.019857076910772757;0.15058562048876406;0.0604935574323648;-0.005207916115551009;-0.5104660699358187
2.6200122833251953;20.350907244837703;43.76631665827872;462.8184144437589;9.484160302335962;-16.676471830828575;54.62118040507207;3.6852197417668613;9.745722822903547;-10.283639826016955;8.48931541052757;1.9117391459437005;2.0766715784357306;6.624634112224642;11.256272988922289;28.284900423874237;-18.725942754441753;15.230121232303736;-0.17584001248048806;-0.22943695995009022;-28.522276940723877;6.1337912128581555;3.6093066841247947;0.831921197997641;5.418925358412868;-0.0186438496283736;0.12162515631369586;0.05983958241538092;6.194542107031987;4.01191280735326;0.9833829207615918;5.409218152755032;-0.019881882582587912;0.15039147369916167;0.060456358686684974;-0.004887710572082846;-0.5105092393249796
2.64026141166687;20.213061412996034;43.794768535791476;463.11252047724145;9.473585079501973;-16.6344656581255;54.59722336978983;3.6893535428960313;9.760550640209612;-10.310796357391615;8.51239765133755;1.912971309775245;2.0874469983111323;6.611579422298619;11.2295009899164;28.332772554809676;-18.675134982690686;15.235557516800952;-0.18350128581103942;-0.22652973511246477;-28.52308321368153;6.134256252740677;3.611483695220626;0.8327258565529305;5.418897898024742;-0.018609383085115054;0.12174577700230893;0.05988249063443124;6.1946988982059175;4.0097395785118986;0.9825840429389775;5.409633861154835;-0.019906644919979642;0.15027248997467227;0.06042574303151125;-0.00467506462981301;-0.5105283997425928
2.6600148677825928;20.086116875350267;43.716999042131455;463.10869918351773;9.452872037153874;-16.587015559055416;54.52202966539352;3.689760210505864;9.761513407134112;-10.308042960970251;8.513808508198936;1.9133557599697997;2.0876513182626293;6.588109430493626;11.17166000324799;28.37212067715121;-18.650491185073378;15.235724125079788;-0.19762301731037235;-0.22618660811857172;-28.527637844115652;6.133157511696713;3.6117426162413273;0.8328122055051032;5.418605768025226;-0.018580150407591575;0.12174272558051226;0.05990870048125088;6.193759981351967;4.009633738514153;0.9825442762271129;5.409551157519702;-0.019922789049067344;0.1502825294465123;0.060408154961087514;-0.0046162496090625706;-0.5106530249679335
2.6800200939178467;20.043763799400068;43.727974079030005;463.10612228122454;9.45473461956755;-16.590067614342857;54.54143909776691;3.6878716387731285;9.759232259274157;-10.30616101029874;8.515255446282065;1.9136927007150681;2.087546690553655;6.59407385322699;11.183225529503654;28.37185152602301;-18.650263694484373;15.235171420117483;-0.19688803290355972;-0.22859935729988382;-28.53186194764727;6.1319751661616735;3.6098864533905997;0.8321152824589056;5.418474310044033;-0.018554545498513285;0.12160240066744539;0.059922947561868216;6.193238012866782;4.011598148746881;0.9832822915975011;5.409408000106062;-0.019933181588271988;0.15043108938242344;0.060405047048377715;-0.004715561128545286;-0.5107707549237359
2.700042724609375;20.016055367753253;43.73306929098537;463.00495442687213;9.454397594081517;-16.612814391123145;54.542999504107435;3.688479859855109;9.759867966700185;-10.30130280782129;8.51780729540257;1.914266744971993;2.08759020191303;6.5920328997116355;11.18071319206292;28.364464420138916;-18.676603086292424;15.229939575764787;-0.19767827736285726;-0.22799606005886808;-28.53973984624347;6.129881282485331;3.6103593653972297;0.8322896211655927;5.41795228239817;-0.018535936392537464;0.12163061110734968;0.05993738036282521;6.19115159943641;4.011407575671951;0.9831938943680651;5.408973410275332;-0.019933978953568576;0.15041652158671925;0.06039835405125933;-0.004672753994629613;-0.5109917352080655
2.7200567722320557;20.10102596381087;43.80152369683473;462.89903313282497;9.466626556505565;-16.708282592447077;54.57996014947227;3.6918309989096514;9.76605577526886;-10.292271074580443;8.522170698170072;1.9154553934014735;2.088534827949965;6.5965028293875605;11.204283008693228;28.300553864444577;-18.741093099014662;15.220049297134379;-0.19453027590461366;-0.22596267365997003;-28.549464955276644;6.127186295420475;3.611854960771847;0.8328538534349114;5.417195415140471;-0.018521956873584343;0.1217396767596549;0.05994987996087397;6.188220119630034;4.010283121079578;0.982736347219559;5.40834215691144;-0.019929730446894688;0.15032280811164908;0.06039035125704841;-0.004573146633039001;-0.5112638207880449
2.7400805950164795;20.178820076019242;43.49032503231279;462.70069439488583;9.422514650786793;-16.763342277197488;54.373220892529304;3.6682479966067154;9.701863338680841;-10.3227144371579;8.458262899474875;1.9020694736259014;2.0666955491842445;6.559315821043797;11.107323947049672;28.29914582681267;-18.742089545565413;15.21953125928651;-0.21656410145313348;-0.22799667683946898;-28.552236617108548;6.126433823070366;3.610307167279812;0.8322828048233213;5.41718382705676;-0.018515867008634494;0.12163901489904423;0.05994792059254045;6.187821133624843;4.011862072409179;0.9833283071167815;5.4081523695689535;-0.01992212730140642;0.15042919933561555;0.060402697578434285;-0.00468556633997781;-0.5113407557358229
2.7602157592773438;20.163956596665848;43.74963938592539;462.89331556026644;9.470170203533932;-16.808221707112992;54.56949903582414;3.6883035611931665;9.754739758025837;-10.260570504414604;8.501744589916303;1.915037293603967;2.078758389814262;6.600130041577793;11.213302423236136;28.194248927523486;-18.776560149559142;15.195341265188704;-0.19505870713368506;-0.23079189571664527;-28.556039121059047;6.124985520366589;3.6082504376104283;0.8315117607467539;5.4169870392366555;-0.018516832109741956;0.12150293083503523;0.05993522453898604;6.186786336674289;4.014006375494098;0.9841265756206145;5.407674784677052;-0.019910197593134366;0.1505687665234615;0.060419391480524054;-0.00484385171688206;-0.5114420899470068
2.7800509929656982;20.151785659374383;43.71623025950769;462.88774222937013;9.46833314653892;-16.771650678188735;54.58368541775776;3.687056233265862;9.753960602838864;-10.265078086091666;8.49947861612647;1.9145598401429726;2.0788700159959013;6.602160134531631;11.21598071643998;28.22026030367256;-18.758688529750167;15.200845803390166;-0.19541498492029202;-0.23337243077964756;-28.550908939961793;6.126578794039176;3.606338259585927;0.8308060658237721;5.417598697020704;-0.018526812028856386;0.12137935755027784;0.05992254936297892;6.188567327596158;4.01560572402844;0.9847569694030327;5.407972002913949;-0.01989631336977378;0.15068429124603186;0.060443313931330934;-0.0049891029850936755;-0.5112923946978463
