flxalr/sts-optimization-reemc/input/457_104/vel.csv
time;base_link_tx;base_link_ty;base_link_tz;base_link_rz;base_link_ry;base_link_rx;leg_left_1_joint;leg_left_2_joint;leg_left_3_joint;leg_left_4_joint;leg_left_5_joint;leg_left_6_joint;leg_right_1_joint;leg_right_2_joint;leg_right_3_joint;leg_right_4_joint;leg_right_5_joint;leg_right_6_joint;torso_1_joint;torso_2_joint;arm_left_1_joint;arm_left_2_joint;arm_left_3_joint;arm_left_4_joint;arm_left_5_joint;arm_left_6_joint;arm_left_7_joint;arm_right_1_joint;arm_right_2_joint;arm_right_3_joint;arm_right_4_joint;arm_right_5_joint;arm_right_6_joint;arm_right_7_joint;head_1_joint;head_2_joint
0.0;-5.661779563757057e-05;-4.104089218551532e-05;-1.4145800880179482e-05;-0.002928198882349318;0.00020174962150139864;0.0006066504789740993;2.220446049250313e-16;2.220446049250313e-16;2.220446049250313e-16;2.220446049250313e-16;2.220446049250313e-16;2.220446049250313e-16;2.220446049250313e-16;2.220446049250313e-16;2.220446049250313e-16;2.220446049250313e-16;2.220446049250313e-16;2.220446049250313e-16;-0.00025304289913195735;0.0002598068139784562;2.633849328375218e-06;0.0001383489374741366;-8.31601611905802e-05;2.5807134000457174e-06;2.9779717010788463e-06;-3.965413873141437e-06;3.965413872919391e-06;-0.00012956124620533066;0.00030251697355200953;2.220446049250313e-16;1.8351550491260785e-05;2.220446049250313e-16;-0.0;2.220446049250313e-16;9.698584116564276e-05;-0.0011713763982031144
0.020108461380004883;-5.671313278494385e-05;-3.956841401422986e-05;-1.4023333186825189e-05;-0.002930733868500423;0.00020184238079304595;0.000604962659140855;2.220446049250313e-16;2.220446049250313e-16;2.220446049250313e-16;2.220446049250313e-16;2.220446049250313e-16;2.220446049250313e-16;2.220446049250313e-16;2.220446049250313e-16;2.220446049250313e-16;2.220446049250313e-16;2.220446049250313e-16;2.220446049250313e-16;-0.00020610502286109872;0.00021161427377803987;2.1452867395199168e-06;0.00011268607425354346;-6.773447104073498e-05;2.102007193795986e-06;2.425576562851852e-06;-4.824713916181388e-06;4.824713915959343e-06;-0.00010552844479203058;0.00024640196568919635;2.220446049250313e-16;1.4947452572322476e-05;2.220446049250313e-16;-0.0;2.220446049250313e-16;7.899557379092329e-05;-0.001999753409220113
0.0401608943939209;-5.676259551065968e-05;-3.52228443088287e-05;-1.3619848802347676e-05;-0.002942418601170748;0.00020285130221564784;0.0006007674638434456;2.220446049250313e-16;2.220446049250313e-16;2.220446049250313e-16;2.220446049250313e-16;2.220446049250313e-16;2.220446049250313e-16;2.220446049250313e-16;2.220446049250313e-16;2.220446049250313e-16;2.220446049250313e-16;2.220446049250313e-16;2.220446049250313e-16;-0.00016787382927675777;0.00017236114858142456;1.747349457381094e-06;9.17835117674752e-05;-5.5170150003122644e-05;1.7120979968917919e-06;1.9756472702963505e-06;-3.92975963921231e-06;3.929759638990267e-06;-8.595357783588886e-05;0.00020069594106613602;2.220446049250313e-16;1.2174793541735227e-05;2.220446049250313e-16;-0.0;2.220446049250313e-16;6.434238857504321e-05;-0.0016288116502685892
0.06038713455200195;-5.569159538775886e-05;-2.6550793128115276e-05;-1.2602996024914177e-05;-0.00296806633149016;0.0002067544125034425;0.0005928372369129103;2.220446049250313e-16;2.220446049250313e-16;2.220446049250313e-16;2.220446049250313e-16;2.220446049250313e-16;2.220446049250313e-16;2.220446049250313e-16;2.220446049250313e-16;2.220446049250313e-16;2.220446049250313e-16;2.220446049250313e-16;2.220446049250313e-16;-0.00013673428315735215;0.0001403892327767489;1.4232270539710095e-06;7.475824398155709e-05;-4.4936431990980895e-05;1.3945145190808448e-06;1.6091770494518161e-06;-3.200813787156765e-06;3.2008137869347205e-06;-7.000972635719294e-05;0.00016346809834799937;2.220446049250313e-16;9.916445432202976e-06;2.220446049250313e-16;-0.0;2.220446049250313e-16;5.240727763430128e-05;-0.0013266772692165794
0.0802152156829834;-5.0330988057024505e-05;-1.1573241713782708e-05;-1.0212041837864243e-05;-0.0030049955866646326;0.00021778393225963894;0.0005777870195468271;2.220446049250313e-16;2.220446049250313e-16;2.220446049250313e-16;2.220446049250313e-16;2.220446049250313e-16;2.220446049250313e-16;2.220446049250313e-16;2.220446049250313e-16;2.220446049250313e-16;2.220446049250313e-16;2.220446049250313e-16;2.220446049250313e-16;-0.000111370928220933;0.0001143479075293668;1.1592273306284744e-06;6.0891056962003125e-05;-3.660100470935388e-05;1.135840791507092e-06;1.3106847641350632e-06;-2.6070828347459487e-06;2.607082834523904e-06;-5.7023359678723375e-05;0.00013314578778006014;2.220446049250313e-16;8.077006782313274e-06;2.220446049250313e-16;-0.0;2.220446049250313e-16;4.2686055178623604e-05;-0.0010805869275098364
0.10019540786743164;-3.721300684204826e-05;1.1029800005200595e-05;-5.69464598488548e-06;-0.003048898997899801;0.00024044814224343108;0.0005528965175813363;2.220446049250313e-16;2.220446049250313e-16;2.220446049250313e-16;2.220446049250313e-16;2.220446049250313e-16;2.220446049250313e-16;2.220446049250313e-16;2.220446049250313e-16;2.220446049250313e-16;2.220446049250313e-16;2.220446049250313e-16;2.220446049250313e-16;-9.071231710425131e-05;9.313708535709132e-05;9.441979059677086e-07;4.9596146464657565e-05;-2.9811747092048168e-05;0.00014597963925603303;-8.67094989180557e-05;-2.1234852631888863e-06;2.1234852629668417e-06;-4.644588285431818e-05;0.00010844807630803258;2.220446049250313e-16;6.57877250548655e-06;2.220446049250313e-16;-0.0;2.220446049250313e-16;3.4768058730833785e-05;-0.0008801448061250588
0.12003922462463379;-1.6404308778183697e-05;3.914023907006898e-05;7.362892185862939e-07;-0.003093573767946764;0.00027407881515787704;0.0005201134191240059;2.220446049250313e-16;2.220446049250313e-16;2.220446049250313e-16;2.220446049250313e-16;2.220446049250313e-16;2.220446049250313e-16;2.220446049250313e-16;2.220446049250313e-16;2.220446049250313e-16;2.220446049250313e-16;2.220446049250313e-16;2.220446049250313e-16;-7.388574923339457e-05;7.586073813013432e-05;7.690550956476107e-07;4.039637127137898e-05;-2.428185432989256e-05;0.00011890132854678423;9.969096795220411e-06;-1.7295920186708363e-06;1.729592018448792e-06;-3.7830461871609984e-05;8.833163595336942e-05;2.220446049250313e-16;5.358451323046954e-06;2.220446049250313e-16;-0.0;2.220446049250313e-16;2.831880113663117e-05;-0.0007168834454938986
0.14015865325927734;1.1404336609305026e-05;6.985926056630366e-05;8.680925444345453e-06;-0.003136639310027346;0.0003174967122217933;0.00048324030728348264;2.220446049250313e-16;2.220446049250313e-16;2.220446049250313e-16;2.220446049250313e-16;2.220446049250313e-16;2.220446049250313e-16;2.220446049250313e-16;2.220446049250313e-16;2.220446049250313e-16;2.220446049250313e-16;2.220446049250313e-16;2.220446049250313e-16;-6.018040453653258e-05;6.178904533660772e-05;6.264001819993267e-07;3.290309687785862e-05;-1.9777722113287044e-05;9.684587523465916e-05;8.119891646561992e-06;-1.408763509178107e-06;1.4087635089560625e-06;-3.0813147634813017e-05;7.194666955674408e-05;2.220446049250313e-16;4.364492092942511e-06;2.220446049250313e-16;-0.0;2.220446049250313e-16;2.3065840518293187e-05;0.014236249091098071
0.16006898880004883;4.3040397944849105e-05;9.887368129915265e-05;1.7156211592627266e-05;-0.003178808176723957;0.0003663032964240144;0.00044871940476882115;2.220446049250313e-16;2.220446049250313e-16;2.220446049250313e-16;2.220446049250313e-16;2.220446049250313e-16;2.220446049250313e-16;2.220446049250313e-16;2.220446049250313e-16;2.220446049250313e-16;2.220446049250313e-16;2.220446049250313e-16;2.220446049250313e-16;-4.901731562253413e-05;5.032756360820033e-05;5.10206863239589e-07;2.679977805137133e-05;-1.61090782720355e-05;7.88815706653501e-05;6.6137024954475325e-06;-4.800749069629562e-06;4.800749069407517e-06;-2.5097501330727922e-05;5.8601012020652774e-05;2.220446049250313e-16;3.554906087777256e-06;2.220446049250313e-16;-0.0;2.220446049250313e-16;1.8787271263653038e-05;-0.0021123411493953878
0.1800987720489502;7.360705894218282e-05;0.00012283135884421623;2.4958094298561195e-05;-0.0032247444044437613;0.00041401708101329723;0.00042231150842509253;2.220446049250313e-16;2.220446049250313e-16;2.220446049250313e-16;2.220446049250313e-16;2.220446049250313e-16;2.220446049250313e-16;2.220446049250313e-16;2.220446049250313e-16;2.220446049250313e-16;2.220446049250313e-16;2.220446049250313e-16;2.220446049250313e-16;-3.9924909932776675e-05;4.099211510615171e-05;4.1556667890154055e-07;2.1828586721454764e-05;-1.3120944934312112e-05;6.424953231674431e-05;5.3869020181826105e-06;-3.910240121915557e-06;3.910240121693511e-06;-2.0442071693261206e-05;4.77308905471468e-05;2.220446049250313e-16;2.895493226657623e-06;2.220446049250313e-16;-0.0;2.220446049250313e-16;1.5302349864690797e-05;-0.0017205150683147266
0.2000279426574707;9.808700066507667e-05;0.00013824933020593967;3.0848463910826475e-05;-0.0032753865316634016;0.0004536264759939217;0.00040927327332637736;2.220446049250313e-16;2.220446049250313e-16;2.220446049250313e-16;2.220446049250313e-16;2.220446049250313e-16;2.220446049250313e-16;2.220446049250313e-16;2.220446049250313e-16;2.220446049250313e-16;2.220446049250313e-16;2.220446049250313e-16;2.220446049250313e-16;-3.2519088670933685e-05;3.338833395467998e-05;3.3848165725704784e-07;1.777952031329191e-05;-1.0687091654903052e-05;5.233164563156521e-05;4.38766536194735e-06;-7.662926208620014e-06;7.662926208397971e-06;-1.665019515710933e-05;3.887710866871698e-05;2.220446049250313e-16;2.3583973299453003e-06;2.220446049250313e-16;-0.0;2.220446049250313e-16;1.2463859604477306e-05;-0.003002581414163598
0.21999573707580566;0.00011569264654455581;0.00014242371171123904;3.442850338424178e-05;-0.0033295466228682523;0.0004839280525714282;0.00041334474509268867;2.220446049250313e-16;2.220446049250313e-16;2.220446049250313e-16;2.220446049250313e-16;2.220446049250313e-16;2.220446049250313e-16;2.220446049250313e-16;2.220446049250313e-16;2.220446049250313e-16;2.220446049250313e-16;2.220446049250313e-16;2.220446049250313e-16;-2.648700096677968e-05;2.7195006683174054e-05;2.756954253462233e-07;1.4481530417178216e-05;0.00013336435991631408;4.262445243969505e-05;3.573780860214628e-06;-6.2415012902303986e-06;6.241501290008353e-06;-1.3561688019185279e-05;3.166564799259915e-05;2.220446049250313e-16;1.9209293652237592e-06;2.220446049250313e-16;-0.0;2.220446049250313e-16;1.0151891546969293e-05;-0.0024456213279700893
0.24002957344055176;0.0001269711854104392;0.00013354878161578158;3.562612720872424e-05;-0.0033839768776082104;0.0005054093958386781;0.0004365713229246713;2.220446049250313e-16;2.220446049250313e-16;2.220446049250313e-16;2.220446049250313e-16;2.220446049250313e-16;2.220446049250313e-16;2.220446049250313e-16;2.220446049250313e-16;2.220446049250313e-16;2.220446049250313e-16;2.220446049250313e-16;2.220446049250313e-16;-2.1573827831198087e-05;2.2150502912237038e-05;2.2455564704090728e-07;1.1795297034356766e-05;0.00026034829849767827;3.471788291495935e-05;5.267205697381282e-06;-5.083741810296317e-06;5.083741810074272e-06;-1.1046079652176528e-05;2.579186820027196e-05;2.220446049250313e-16;1.5646089737832838e-06;2.220446049250313e-16;-0.0;2.220446049250313e-16;8.268779114328655e-06;-0.001991973856764937
0.2600092887878418;0.00013259346057155122;0.00011075697404661135;3.448064903386896e-05;-0.003436371608532116;0.0005188134284674991;0.00047979880827864175;2.220446049250313e-16;2.220446049250313e-16;2.220446049250313e-16;2.220446049250313e-16;2.220446049250313e-16;2.220446049250313e-16;2.220446049250313e-16;2.220446049250313e-16;2.220446049250313e-16;2.220446049250313e-16;2.220446049250313e-16;2.220446049250313e-16;-1.7572017604934783e-05;1.8041723062660265e-05;1.8290197798761297e-07;9.607343155090048e-06;0.00034060794423958565;2.8277932621002605e-05;4.290171960552661e-06;-4.140739477893257e-06;4.140739477671213e-06;-8.997100914695607e-06;2.1007637848297767e-05;-0.00015687797266762348;1.2743837879525707e-06;2.220446049250313e-16;-0.0;2.220446049250313e-16;6.734972268490153e-06;-0.0016224751561716455
0.2801389694213867;0.0001343249999308978;7.361864681618611e-05;3.127081806218676e-05;-0.0034855135452746835;0.0005265422399100358;0.0005434393798502886;2.220446049250313e-16;2.220446049250313e-16;2.220446049250313e-16;2.220446049250313e-16;2.220446049250313e-16;2.220446049250313e-16;2.220446049250313e-16;2.220446049250313e-16;2.220446049250313e-16;2.220446049250313e-16;2.220446049250313e-16;2.220446049250313e-16;-1.431251816432941e-05;1.4695096195305926e-05;1.4897480420827315e-07;7.825241045715562e-06;0.0005428580950065203;2.3032552856885495e-05;3.494371875444896e-06;-3.372658184386388e-06;3.3726581841643437e-06;-7.328194926900287e-06;1.711085232517508e-05;-0.00012777808922510847;1.0379935601860434e-06;2.220446049250313e-16;-0.0;2.220446049250313e-16;5.4856770062619065e-06;-0.0013215161551715315
0.30000829696655273;0.000134222254752513;2.3925639966411196e-05;2.6538667209096236e-05;-0.0035272140114339925;0.0005310964363144022;0.0006240938235667854;2.220446049250313e-16;2.220446049250313e-16;2.220446049250313e-16;2.220446049250313e-16;2.220446049250313e-16;2.220446049250313e-16;2.220446049250313e-16;2.220446049250313e-16;2.220446049250313e-16;2.220446049250313e-16;2.220446049250313e-16;2.220446049250313e-16;-8.772381754791054e-05;-6.409693435439784e-05;1.2134090912016474e-07;6.37370773949186e-06;0.0005929784198320295;1.8760158255388588e-05;2.8461877323740882e-06;4.2530239700986545e-05;-4.253023970120859e-05;-5.9688605691785776e-06;1.3936896161682131e-05;-0.0001040760522869085;8.454522422312833e-07;2.220446049250313e-16;-0.0;2.220446049250313e-16;4.468118207081611e-06;-0.001076383167863182
0.3199930191040039;0.00013345276838284698;-3.632943931150481e-05;2.0684319904812043e-05;-0.003560452934700593;0.0005340169725721692;0.000718654260523169;2.220446049250313e-16;2.220446049250313e-16;2.220446049250313e-16;2.220446049250313e-16;2.220446049250313e-16;2.220446049250313e-16;2.220446049250313e-16;2.220446049250313e-16;2.220446049250313e-16;2.220446049250313e-16;2.220446049250313e-16;2.220446049250313e-16;-7.145159766663281e-05;-5.220735363749674e-05;9.883292885905617e-08;5.191424789489491e-06;0.0006267264710026658;0.0001590221080853974;2.318237696692022e-06;-3.574902649136736e-06;3.574902648914692e-06;-4.8616742389745075e-06;1.1351689029291106e-05;-8.477059506301376e-05;6.88626135373894e-07;2.220446049250313e-16;-0.0;2.220446049250313e-16;3.639310205406765e-06;-0.002389075270032213
0.3400273323059082;0.00013070642096746056;-0.00010293789574324387;1.3869919524955658e-05;-0.0035847979723301914;0.0005333454534657336;0.0008208597117112601;2.220446049250313e-16;2.220446049250313e-16;2.220446049250313e-16;2.220446049250313e-16;2.220446049250313e-16;2.220446049250313e-16;2.220446049250313e-16;2.220446049250313e-16;2.220446049250313e-16;2.220446049250313e-16;2.220446049250313e-16;2.220446049250313e-16;-0.00019929227680490726;-0.00018361771976665067;8.05000382615066e-08;4.228447937444124e-06;0.000510472627672115;0.0001295245009237317;1.888219092941256e-06;-2.9182475906477874e-06;2.9182475904257432e-06;-3.9598640531087285e-06;9.246021662414036e-06;-6.904617949504382e-05;5.608902911753827e-07;2.220446049250313e-16;-0.0;2.220446049250313e-16;2.9642409079925936e-06;-0.0019459167391616746
0.3601694107055664;0.00012448823887138024;-0.0001718967502856968;6.204658244164437e-06;-0.0036014058682819683;0.000527015395821239;0.0009250464666477942;2.220446049250313e-16;2.220446049250313e-16;2.220446049250313e-16;2.220446049250313e-16;2.220446049250313e-16;2.220446049250313e-16;2.220446049250313e-16;2.220446049250313e-16;2.220446049250313e-16;2.220446049250313e-16;2.220446049250313e-16;2.220446049250313e-16;-0.0004557680845656838;-0.0004430010598920424;6.556778428923625e-08;3.444097272847847e-06;0.00041578314569286047;0.0008421847248980057;3.213231987773462e-06;-2.376930901650658e-06;2.3769309014286133e-06;-3.2253340204073907e-06;7.530942431671621e-06;-5.623854473733503e-05;4.568486477266689e-07;2.220446049250313e-16;-0.0;2.220446049250313e-16;2.414392746065642e-06;0.013207993136126788
0.38022375106811523;0.00011542836022615092;-0.00023843724972373305;-1.7452917605285484e-06;-0.0036117507831161058;0.0005160047829912413;0.0010244974270812851;2.220446049250313e-16;2.220446049250313e-16;2.220446049250313e-16;2.220446049250313e-16;2.220446049250313e-16;2.220446049250313e-16;2.220446049250313e-16;2.220446049250313e-16;2.220446049250313e-16;2.220446049250313e-16;2.220446049250313e-16;2.220446049250313e-16;-0.000439303600864009;-0.0004289047794734239;5.3405370102234726e-08;2.8052387543425257e-06;0.000481954530497333;0.0009599678565129393;2.617197536741408e-06;-4.061392193453151e-06;4.061392193231107e-06;-2.6270547179594467e-06;6.133999678986732e-06;-4.580664617946399e-05;3.7210607887742007e-07;2.220446049250313e-16;-0.0;2.220446049250313e-16;1.9665379816251287e-06;-0.002874299473996549
0.4000968933105469;0.00010619336663482759;-0.00029817199406674777;-9.081845143725145e-06;-0.0036170531224596755;0.0005041701627099644;0.0011130166532045949;2.220446049250313e-16;2.220446049250313e-16;2.220446049250313e-16;2.220446049250313e-16;2.220446049250313e-16;2.220446049250313e-16;2.220446049250313e-16;2.220446049250313e-16;2.220446049250313e-16;2.220446049250313e-16;2.220446049250313e-16;2.220446049250313e-16;-0.00043102739091670087;-0.0004225574859014356;4.3499007731833313e-08;2.2848844981542013e-06;0.0003925549773058933;0.0009283235436598123;2.1317237511604807e-06;-3.3080293252893938e-06;3.3080293250673488e-06;-2.1397524868699563e-06;4.996181076032686e-06;-3.7309799604712044e-05;3.030827269086516e-07;2.220446049250313e-16;-0.0;2.220446049250313e-16;1.6017574768960518e-06;-0.002341134885941902
0.4200477600097656;9.995689302238269e-05;-0.0003472451935344925;-1.4865788746627498e-05;-0.0036161958916838778;0.0004958716147642813;0.0011847529902032044;2.220446049250313e-16;2.220446049250313e-16;2.220446049250313e-16;2.220446049250313e-16;2.220446049250313e-16;2.220446049250313e-16;2.220446049250313e-16;2.220446049250313e-16;2.220446049250313e-16;2.220446049250313e-16;2.220446049250313e-16;2.220446049250313e-16;-0.000415153737447887;-0.0004082549468760471;3.543021366637655e-08;1.8610527042747104e-06;0.00031973848248425824;0.0007561253283330648;1.7363023185936561e-06;-2.694410560652088e-06;2.694410560430043e-06;-1.7428417740086215e-06;4.069420712560347e-06;-3.0389064964285487e-05;2.4686277533413987e-07;2.220446049250313e-16;-0.0;2.220446049250313e-16;1.3046414759160644e-06;-0.001906868996692716
0.44009923934936523;9.905273370651324e-05;-0.00038121420073884455;-1.8253895869383512e-05;-0.0036067364036480305;0.0004941372971501111;0.0012327435364214566;2.220446049250313e-16;2.220446049250313e-16;2.220446049250313e-16;2.220446049250313e-16;2.220446049250313e-16;2.220446049250313e-16;2.220446049250313e-16;2.220446049250313e-16;2.220446049250313e-16;2.220446049250313e-16;2.220446049250313e-16;2.220446049250313e-16;-0.0004023874062042501;-0.0003967682981660454;2.8858130470099108e-08;1.5158390592111531e-06;0.0004061232885313005;0.0006158688057105832;1.414229090384024e-06;-2.1946142417377234e-06;2.1946142415156783e-06;-1.4195555176911097e-06;3.3145686042598566e-06;-0.00015323626802924074;2.0107127340200268e-07;2.220446049250313e-16;-0.0;2.220446049250313e-16;1.0626386361428584e-06;-0.001553156715737446
0.4602375030517578;0.00010477207722532522;-0.0003968326261699027;-1.87046808509633e-05;-0.003587441203227806;0.0005006421957236923;0.0012520012113928667;2.220446049250313e-16;2.220446049250313e-16;2.220446049250313e-16;2.220446049250313e-16;2.220446049250313e-16;2.220446049250313e-16;2.220446049250313e-16;2.220446049250313e-16;2.220446049250313e-16;2.220446049250313e-16;2.220446049250313e-16;2.220446049250313e-16;-0.00039471175963397504;-0.00039013496101743207;2.3505127631211158e-08;1.234660387721604e-06;0.0003307899567792975;0.0005016289914313057;1.1518984330496023e-06;-1.78752701625498e-06;1.7875270160329354e-06;-1.1562368413813943e-06;2.699736844223429e-06;-0.00012481189803649175;1.6377380888138994e-07;2.220446049250313e-16;-0.0;2.220446049250313e-16;8.655258106298339e-07;-0.001265055852197623
0.4799950122833252;0.0001168650966528562;-0.0003934941107186477;-1.6205406866501632e-05;-0.0035583274647791228;0.0005150214825471082;0.0012416405167653274;2.220446049250313e-16;2.220446049250313e-16;2.220446049250313e-16;2.220446049250313e-16;2.220446049250313e-16;2.220446049250313e-16;2.220446049250313e-16;2.220446049250313e-16;2.220446049250313e-16;2.220446049250313e-16;2.220446049250313e-16;2.220446049250313e-16;-0.0006199923684498225;-0.000616264537371657;1.9145073362669174e-08;1.0056386024266694e-06;0.000977166033559793;0.0004085799487019949;-4.4409459852459536e-07;4.437587534083208e-05;-4.437587534105413e-05;-9.417621337854044e-07;2.1989525329752587e-06;-0.00010166007102508524;1.3339479092019758e-07;2.220446049250313e-16;-0.0;2.220446049250313e-16;7.049761822943161e-07;-0.00103039589821404
0.5000193119049072;0.00013492606843905336;-0.00037169699127819004;-1.0876528456601353e-05;-0.0035167658556704805;0.0005364481343084731;0.0012018975496557488;2.220446049250313e-16;2.220446049250313e-16;2.220446049250313e-16;2.220446049250313e-16;2.220446049250313e-16;2.220446049250313e-16;2.220446049250313e-16;2.220446049250313e-16;2.220446049250313e-16;2.220446049250313e-16;2.220446049250313e-16;2.220446049250313e-16;-0.0005767260279105818;-0.0005736896861984718;1.559378191060256e-08;8.190989269177871e-07;0.0009522692526291061;0.00033279092184245417;-3.617178260895236e-07;-1.0714069743348286e-06;1.071406974112784e-06;-7.670711439815477e-07;1.7910605815616791e-06;-8.280276322537583e-05;1.0865089092194417e-07;2.220446049250313e-16;-0.0;2.220446049250313e-16;5.742075065798598e-07;0.013526074207997498
0.5200240612030029;0.0001581972506376458;-0.00033281179477930733;-2.984796758021531e-06;-0.003462190862762943;0.0005638039671750792;0.0011346754259386525;2.220446049250313e-16;2.220446049250313e-16;2.220446049250313e-16;2.220446049250313e-16;2.220446049250313e-16;2.220446049250313e-16;2.220446049250313e-16;2.220446049250313e-16;2.220446049250313e-16;2.220446049250313e-16;2.220446049250313e-16;2.220446049250313e-16;-0.00046974695427084333;-0.00046727383496919387;1.270123282732272e-08;6.67161195342831e-07;0.0007756292579492358;0.0002710602857839404;-2.9462143008633e-07;-9.426432028398788e-07;9.426432026178343e-07;-6.247842409676204e-07;1.4588300378106219e-06;-6.744336816433875e-05;0.00012559794145254737;2.220446049250313e-16;-0.0;2.220446049250313e-16;4.6769560290621177e-07;-0.0030984490172734553
0.5400097370147705;0.0001858329169693594;-0.0002801234261991215;7.005206300782382e-06;-0.003395376141763619;0.0005960007807998224;0.0010449344422906529;2.220446049250313e-16;2.220446049250313e-16;2.220446049250313e-16;2.220446049250313e-16;2.220446049250313e-16;2.220446049250313e-16;2.220446049250313e-16;2.220446049250313e-16;2.220446049250313e-16;2.220446049250313e-16;2.220446049250313e-16;2.220446049250313e-16;-0.000382611830172066;-0.0003805974590438769;1.0345233520559524e-08;5.434069633642065e-07;0.0006317548782825144;0.0002207802968978055;-2.399709961892537e-07;-7.677887802536929e-07;7.677887800316482e-07;-5.088906691696327e-07;1.1882261834844877e-06;-0.0006115895595380282;0.00010230030830023387;2.220446049250313e-16;-0.0;2.220446049250313e-16;3.8094099166462775e-07;-0.002523706089875587
0.5601065158843994;0.00021777864872939018;-0.00021808289524798225;1.866095803128053e-05;-0.0033190142762237074;0.000633278950987669;0.0009397060439504206;2.220446049250313e-16;2.220446049250313e-16;2.220446049250313e-16;2.220446049250313e-16;2.220446049250313e-16;2.220446049250313e-16;2.220446049250313e-16;2.220446049250313e-16;2.220446049250313e-16;2.220446049250313e-16;2.220446049250313e-16;2.220446049250313e-16;-0.00038618323230200203;-0.00038454251442827253;8.426257360205236e-09;4.4260836795366717e-07;0.0005145682968290973;0.00017982693170011816;-1.9545787621487328e-07;-5.21468010118805e-06;5.214680100966005e-06;-4.144946306053481e-07;9.67817652861762e-07;-0.0006293227468697348;8.332424048746737e-05;2.220446049250313e-16;-0.0;2.220446049250313e-16;3.10278818592037e-07;-0.0020555743833667265
0.5800137519836426;0.000252610422437431;-0.00015132761399099472;3.128489400467437e-05;-0.0032416252642742055;0.0006744956351482381;0.0008273798018739976;2.220446049250313e-16;2.220446049250313e-16;2.220446049250313e-16;2.220446049250313e-16;2.220446049250313e-16;2.220446049250313e-16;2.220446049250313e-16;2.220446049250313e-16;2.220446049250313e-16;2.220446049250313e-16;2.220446049250313e-16;2.220446049250313e-16;-0.00031454865635518244;-0.000313212281392543;6.863239283995664e-09;3.6050728200056156e-07;0.0004191190938191549;0.0001464701597880693;-1.592016617887406e-07;-4.2473895341888914e-06;4.247389533966848e-06;-3.376084672194973e-07;7.882935271162353e-07;-0.0005125873105925668;6.786811465354521e-05;2.220446049250313e-16;-0.0;2.220446049250313e-16;-0.015741664428125746;-0.0016742781825920946
0.5999972820281982;0.0002890691351477022;-8.034366723838794e-05;4.4603330724692295e-05;-0.003169949810568936;0.0007185155480931686;0.0007099216983810985;2.220446049250313e-16;2.220446049250313e-16;2.220446049250313e-16;2.220446049250313e-16;2.220446049250313e-16;2.220446049250313e-16;2.220446049250313e-16;2.220446049250313e-16;2.220446049250313e-16;2.220446049250313e-16;2.220446049250313e-16;2.220446049250313e-16;-0.0002562018465303983;-0.00025511336077098503;5.590151292059993e-09;2.936354343599698e-07;0.00034137512141003805;0.00011930086058588112;-9.089950756137991e-05;-4.664555479749975e-06;4.6645554795279295e-06;-2.749842066032006e-07;6.42070004670718e-07;-0.00041750556814833673;5.527900356102915e-05;2.220446049250313e-16;-0.0;2.220446049250313e-16;0.0007519330276898508;-0.0013637100439599019
0.6202225685119629;0.0003277655177633011;-4.392921755415669e-06;5.8796931685166e-05;-0.00310862623480481;0.0007666448595626645;0.0005871163139081933;2.220446049250313e-16;2.220446049250313e-16;2.220446049250313e-16;2.220446049250313e-16;2.220446049250313e-16;2.220446049250313e-16;2.220446049250313e-16;2.220446049250313e-16;2.220446049250313e-16;2.220446049250313e-16;2.220446049250313e-16;2.220446049250313e-16;-0.00020867800526055025;-0.00020779142680647206;4.553213165828438e-09;2.391678965076601e-07;0.0002780521699829848;9.717129657757882e-05;1.7418772616746414e-06;4.090799192937282e-05;-4.090799192959487e-05;-2.2397635492959815e-07;5.229700317418288e-07;-0.0003400608946666212;4.5025093894230495e-05;2.220446049250313e-16;-0.0;2.220446049250313e-16;0.0006124541506348065;-0.0011107503539931147
0.6401724815368652;0.0003674268960495739;7.442826340935177e-05;7.343721988286466e-05;-0.0030607901630430737;0.0008174023751876553;0.0004626225315300138;2.220446049250313e-16;2.220446049250313e-16;2.220446049250313e-16;2.220446049250313e-16;2.220446049250313e-16;2.220446049250313e-16;2.220446049250313e-16;2.220446049250313e-16;2.220446049250313e-16;2.220446049250313e-16;2.220446049250313e-16;2.220446049250313e-16;-0.00016996953952225094;-0.00016924741583028899;3.708620581149549e-09;-0.0001477098133432136;0.0002264752302772034;7.914662838304157e-05;1.4187699163668809e-06;-4.022647705864408e-06;4.0226477056423635e-06;-1.82430140942376e-07;4.259623594164179e-07;-0.00027698172408655453;3.6673220383687576e-05;2.220446049250313e-16;-0.0;2.220446049250313e-16;0.0004988477335304913;-0.0009047131055171043
0.6600408554077148;0.0004066842715972163;0.00015537815407747012;8.820650286511477e-05;-0.003026145983197385;0.0008688208380999984;0.00033746925095432456;2.220446049250313e-16;2.220446049250313e-16;2.220446049250313e-16;2.220446049250313e-16;2.220446049250313e-16;2.220446049250313e-16;2.220446049250313e-16;2.220446049250313e-16;2.220446049250313e-16;2.220446049250313e-16;2.220446049250313e-16;2.220446049250313e-16;-0.00013844125225049542;-0.00013785307799011928;3.020694642224939e-09;-0.00027189763766050567;0.00018446549053097142;6.446542348441473e-05;1.1555969641928014e-06;-3.276471697995315e-06;3.276471697773271e-06;-1.485904899859461e-07;3.4694900400941875e-07;-0.00022560334540427417;2.9870567210140924e-05;2.220446049250313e-16;-0.0;2.220446049250313e-16;0.0004063145967589197;-0.0007368944789005907
0.6800718307495117;0.00044229117406440675;0.00023840983461970096;0.00010251348199117606;-0.0030049506931088535;0.0009163043948208538;0.00021176353519774787;2.220446049250313e-16;2.220446049250313e-16;2.220446049250313e-16;2.220446049250313e-16;2.220446049250313e-16;2.220446049250313e-16;2.220446049250313e-16;2.220446049250313e-16;2.220446049250313e-16;2.220446049250313e-16;2.220446049250313e-16;2.220446049250313e-16;-0.00011276126521585503;-0.00011228219360468955;2.4603746654337266e-09;-0.00022146232523471724;0.000150248294946792;5.250749033695256e-05;9.41240949816063e-07;-2.6687066759858897e-06;2.6687066757638456e-06;-1.2102788278411546e-07;2.8259213219694664e-07;-0.00018375533485269003;2.432976368370484e-05;2.220446049250313e-16;-0.0;2.220446049250313e-16;0.00033094577852636975;0.014697437438407847
0.7000079154968262;0.00046940058206623324;0.0003216412547619404;0.0001153036627953628;-0.002996724803300633;0.0009529334697969406;8.816392821173812e-05;2.220446049250313e-16;2.220446049250313e-16;2.220446049250313e-16;2.220446049250313e-16;2.220446049250313e-16;2.220446049250313e-16;2.220446049250313e-16;2.220446049250313e-16;2.220446049250313e-16;2.220446049250313e-16;2.220446049250313e-16;2.220446049250313e-16;-9.184475527622153e-05;-9.145454845472964e-05;2.0039905423374285e-09;-0.00031096513753094384;0.00012237817528600546;4.276767905126246e-05;7.666466363811196e-07;-4.966064610280111e-06;4.966064610058067e-06;-9.857796695192943e-08;2.3017305787523922e-07;-0.00014966986870835883;1.981674458140061e-05;2.220446049250313e-16;-0.0;2.220446049250313e-16;0.00026955740502084387;-0.0019506653970590812
0.7199759483337402;0.00048514698080241747;0.0004037479434840774;0.0001259336526833873;-0.002997362989776963;0.0009742512188332244;-3.215986425395951e-05;2.220446049250313e-16;2.220446049250313e-16;2.220446049250313e-16;2.220446049250313e-16;2.220446049250313e-16;2.220446049250313e-16;2.220446049250313e-16;2.220446049250313e-16;2.220446049250313e-16;2.220446049250313e-16;2.220446049250313e-16;2.220446049250313e-16;-7.480812720220289e-05;-7.449030130730514e-05;1.632262821674725e-09;-0.00038156491702698997;9.967778863404698e-05;3.483454188524734e-05;6.244384768738991e-07;-4.044890662997559e-06;4.044890662775513e-06;0.0003955516310644083;-0.00012809439158170568;-0.00012190704349963767;1.6140862316204432e-05;2.220446049250313e-16;-0.0;2.220446049250313e-16;0.0002195561911232587;0.012335110961638909
0.7400422096252441;0.000485820074071182;0.0004823907039776704;0.00013351109172232288;-0.0029995737315760256;0.0009743045283683625;-0.0001471459118864896;2.220446049250313e-16;2.220446049250313e-16;2.220446049250313e-16;2.220446049250313e-16;2.220446049250313e-16;2.220446049250313e-16;2.220446049250313e-16;2.220446049250313e-16;2.220446049250313e-16;2.220446049250313e-16;2.220446049250313e-16;2.220446049250313e-16;-6.093168715698926e-05;-6.067281597918321e-05;1.3294882698966987e-09;-0.00045761885561219646;8.118818182861023e-05;2.8372952081420727e-05;6.923086065683471e-06;-5.724857785621601e-06;5.724857785399556e-06;0.0007381775939458832;-0.00010433368253324664;-9.929404884947675e-05;1.3146833236937981e-05;2.220446049250313e-16;-0.0;2.220446049250313e-16;0.00017882988989608868;-0.0038366577038633116
0.7600927352905273;0.0004691539618753986;0.0005542998752823202;0.0001373165356608644;-0.0029978971254425108;0.0009493874131593446;-0.0002530207349178225;2.220446049250313e-16;2.220446049250313e-16;2.220446049250313e-16;2.220446049250313e-16;2.220446049250313e-16;2.220446049250313e-16;2.220446049250313e-16;2.220446049250313e-16;2.220446049250313e-16;2.220446049250313e-16;2.220446049250313e-16;2.220446049250313e-16;-4.962924001241248e-05;-4.941838782014458e-05;1.0828765051325478e-09;-0.0005086589190002488;6.612828152553945e-05;2.3109946801267692e-05;5.638896869787097e-06;-4.662932446770547e-06;4.662932446548501e-06;0.000601250263878884;-8.49804365088452e-05;-8.087562337570407e-05;1.0708177839193714e-05;2.220446049250313e-16;-0.0;2.220446049250313e-16;0.00014565806300717606;-0.003124981678907316
0.7800302505493164;0.0004358626978472531;0.0006161541205804632;0.00013716427703359548;-0.002989696890670857;0.000900310464116445;-0.00034539943330152474;2.220446049250313e-16;2.220446049250313e-16;2.220446049250313e-16;2.220446049250313e-16;2.220446049250313e-16;2.220446049250313e-16;2.220446049250313e-16;2.220446049250313e-16;2.220446049250313e-16;2.220446049250313e-16;2.220446049250313e-16;2.220446049250313e-16;-4.0423326172860025e-05;-4.025158574443163e-05;8.820096814086173e-10;-0.0005687315540218446;5.386189860431141e-05;1.882319610680004e-05;4.592916743547026e-06;-6.05500842080276e-06;6.055008420580716e-06;0.0004897220977435002;-6.921709666418258e-05;-6.587370071215705e-05;8.721877776134772e-06;2.220446049250313e-16;-0.0;2.220446049250313e-16;0.00011863940268223867;-0.002545317108605501
0.8000204563140869;0.00038691474332234555;0.0006650673847742397;0.00013295579324766152;-0.00297389080352663;0.0008283910774245809;-0.0004202457066693012;2.220446049250313e-16;2.220446049250313e-16;2.220446049250313e-16;2.220446049250313e-16;2.220446049250313e-16;2.220446049250313e-16;2.220446049250313e-16;2.220446049250313e-16;2.220446049250313e-16;2.220446049250313e-16;2.220446049250313e-16;2.220446049250313e-16;-3.2925051813583074e-05;-3.278516816125046e-05;7.184023980678272e-10;-0.00046323540532300497;4.3870853050077914e-05;1.53316108739643e-05;3.740959393348698e-06;-4.931842202567071e-06;4.9318422023450265e-06;0.0003988817093751917;-0.0001954859636522607;-5.365454094068137e-05;7.104023960397873e-06;2.220446049250313e-16;-0.0;2.220446049250313e-16;9.663253498095012e-05;-0.002073176693191109
0.8200547695159912;0.00032527574883963183;0.0006987630791720139;0.00012501112218150614;-0.002954503468109438;0.0007382749900153926;-0.00047346123743267253;2.220446049250313e-16;2.220446049250313e-16;2.220446049250313e-16;2.220446049250313e-16;2.220446049250313e-16;2.220446049250313e-16;2.220446049250313e-16;2.220446049250313e-16;2.220446049250313e-16;2.220446049250313e-16;2.220446049250313e-16;2.220446049250313e-16;-2.681766048373724e-05;-2.67037243746395e-05;-0.0001467703635569171;-0.0006698502066142145;3.5733084002120016e-05;1.2487692879411882e-05;3.047034806878722e-06;-4.017016298025239e-06;4.017016297803194e-06;0.00032489164529677717;-0.00015922453918203915;-4.370195893706585e-05;5.786271915893817e-06;2.220446049250313e-16;-0.0;2.220446049250313e-16;7.87078036953275e-05;-0.0016886153739584903
0.8400087356567383;0.00025638695201273687;0.0007167473122205317;0.000114266485149346;-0.002937096340697013;0.0006382546051743548;-0.0005032711782373152;2.220446049250313e-16;2.220446049250313e-16;2.220446049250313e-16;2.220446049250313e-16;2.220446049250313e-16;2.220446049250313e-16;2.220446049250313e-16;2.220446049250313e-16;2.220446049250313e-16;2.220446049250313e-16;2.220446049250313e-16;2.220446049250313e-16;-2.1843152074382e-05;-2.1750350401421214e-05;-0.00011954537843188124;-0.0006844270068781988;2.910482025150176e-05;1.0171303898361474e-05;2.4818288941702618e-06;-3.2718848811140124e-06;3.271884880891969e-06;0.00026462627566700806;-0.00012968938231714073;-3.559551869148349e-05;4.712954639694988e-06;2.220446049250313e-16;-0.0;2.220446049250313e-16;6.410799803361734e-05;-0.0013753877759352775
0.8600335121154785;0.00018340058496782072;0.0007193180155821298;0.00010131978925672443;-0.0029262481311407387;0.0005332573135346963;-0.0005092514979396757;2.220446049250313e-16;2.220446049250313e-16;2.220446049250313e-16;2.220446049250313e-16;2.220446049250313e-16;2.220446049250313e-16;2.220446049250313e-16;2.220446049250313e-16;2.220446049250313e-16;2.220446049250313e-16;2.220446049250313e-16;2.220446049250313e-16;-1.7791383884284603e-05;-1.771579634164758e-05;-9.737045789138243e-05;-0.0006868816484467455;2.370605799997475e-05;8.284590595864781e-06;7.364213943218258e-06;-2.6649706849684643e-06;2.66497068474642e-06;0.00021553975544500096;-0.0005365145070110417;-2.899277244620512e-05;3.8387310099980635e-06;2.220446049250313e-16;-0.0;2.220446049250313e-16;5.221636507336901e-05;-0.001120261939672883
0.8799982070922852;0.00010801934357138313;0.0007084389572797144;8.666522066782891e-05;-0.002925923419526503;0.00042606340661384217;-0.0004935398165084147;2.220446049250313e-16;2.220446049250313e-16;2.220446049250313e-16;2.220446049250313e-16;2.220446049250313e-16;2.220446049250313e-16;2.220446049250313e-16;2.220446049250313e-16;2.220446049250313e-16;2.220446049250313e-16;2.220446049250313e-16;2.220446049250313e-16;-1.4491193369899082e-05;-1.4429626843999088e-05;-7.930884651789279e-05;-0.0011386907050939274;1.930873240384193e-05;6.747850819023087e-06;5.998198283088416e-06;-4.833232708956671e-06;4.833232708734626e-06;0.00017555847793342474;-0.001154128082260126;-2.361479436226185e-05;3.1266703997122365e-06;2.220446049250313e-16;-0.0;2.220446049250313e-16;4.253055570454075e-05;-0.0009124603515006856
0.8999745845794678;3.079734948218721e-05;0.0006880076698113292;7.077253377206571e-05;-0.002936482638225026;0.0003174410134453758;-0.0004617851658645256;2.220446049250313e-16;2.220446049250313e-16;2.220446049250313e-16;2.220446049250313e-16;2.220446049250313e-16;2.220446049250313e-16;2.220446049250313e-16;2.220446049250313e-16;2.220446049250313e-16;2.220446049250313e-16;2.220446049250313e-16;2.220446049250313e-16;-1.180316756974136e-05;-1.1753021249605027e-05;-0.0002098723966985526;-0.0009274706961159104;1.5727083222506767e-05;5.496166666161921e-06;4.885569990314784e-06;-3.9366982491702314e-06;3.936698248948188e-06;0.00014299347751726152;-0.0010804268465304527;-1.923439760052704e-05;2.546692582255613e-06;2.220446049250313e-16;-0.0;2.220446049250313e-16;3.464140343732159e-05;-0.0007432046591745053
0.920189619064331;-4.865309067899467e-05;0.0006610539015739483;5.3859047519388524e-05;-0.002957222746267226;0.00020672742450070843;-0.0004185640180418861;2.220446049250313e-16;2.220446049250313e-16;2.220446049250313e-16;2.220446049250313e-16;2.220446049250313e-16;2.220446049250313e-16;2.220446049250313e-16;2.220446049250313e-16;2.220446049250313e-16;2.220446049250313e-16;2.220446049250313e-16;2.220446049250313e-16;-9.613753755351649e-06;-9.572909264186104e-06;-0.0001709423788134504;-0.0007554306786782597;1.2809807579001904e-05;4.4766621006305474e-06;3.9793272919238285e-06;-6.6546571383655e-06;6.6546571381434545e-06;0.00011646908114704397;-0.0010333784001290963;-1.5666537060614272e-05;2.0742970250758356e-06;2.220446049250313e-16;-0.0;2.220446049250313e-16;2.821563960846991e-05;-0.0006053448399267543
0.9401471614837646;-0.00012641426862873204;0.0006302997367509901;3.68908015952349e-05;-0.0029866842320442183;9.932035842049535e-05;-0.00036813328089543737;2.220446049250313e-16;2.220446049250313e-16;2.220446049250313e-16;2.220446049250313e-16;2.220446049250313e-16;2.220446049250313e-16;2.220446049250313e-16;2.220446049250313e-16;2.220446049250313e-16;2.220446049250313e-16;2.220446049250313e-16;2.220446049250313e-16;-7.830462519694886e-06;-7.797194426362483e-06;-0.00013923363593342292;-0.0006153030092251843;1.043366833439442e-05;3.6462692601017083e-06;3.2411869500675325e-06;-5.420259830826408e-06;5.420259830604363e-06;9.486479452602446e-05;-0.0008416931655201497;-1.276049235172695e-05;1.6895278912806747e-06;2.220446049250313e-16;-0.0;2.220446049250313e-16;2.298181480884629e-05;-0.0004930571555255909
0.9600863456726074;-0.00019959454497031577;0.0005960111891053278;2.04153702987928e-05;-0.003022116941763912;-9.323103431694814e-07;-0.00031139033471242465;2.220446049250313e-16;2.220446049250313e-16;2.220446049250313e-16;2.220446049250313e-16;2.220446049250313e-16;2.220446049250313e-16;2.220446049250313e-16;2.220446049250313e-16;2.220446049250313e-16;2.220446049250313e-16;2.220446049250313e-16;2.220446049250313e-16;-6.377960662682233e-06;-6.3508635927374045e-06;-0.00011340666667799751;-0.0005011681466577201;8.498288068791342e-06;2.969909101535716e-06;2.6399670282484428e-06;-4.819040655792057e-06;4.819040655570012e-06;7.72679680464127e-05;-0.0006855643438984463;-1.0393500773558797e-05;1.37613102699743e-06;2.220446049250313e-16;-0.0;2.220446049250313e-16;1.8718831798147856e-05;-0.0004015981347828156
0.9800848960876465;-0.0002665513631489003;0.000556882791868012;4.6061291459971255e-06;-0.0030596283674653793;-9.204705628018737e-05;-0.0002471426513823209;2.220446049250313e-16;2.220446049250313e-16;2.220446049250313e-16;2.220446049250313e-16;2.220446049250313e-16;2.220446049250313e-16;2.220446049250313e-16;2.220446049250313e-16;2.220446049250313e-16;2.220446049250313e-16;2.220446049250313e-16;2.220446049250313e-16;-5.1948888220088205e-06;-5.172818089182071e-06;-0.00024496473237157443;-0.00040820458775362963;6.921908746330977e-06;2.419009525132725e-06;5.807993227285716e-06;-3.925138733167322e-06;3.925138732945276e-06;6.293524289860342e-05;-0.0005583964428824338;-8.465571339443474e-06;1.120867322308325e-06;2.220446049250313e-16;-0.0;2.220446049250313e-16;1.5246605492290165e-05;-0.0003271041907689456
1.0000560283660889;-0.0003251705979165549;0.000510516361693065;-1.0381795742866039e-05;-0.0030927155203010715;-0.0001716048450901328;-0.00017308027330920802;2.220446049250313e-16;2.220446049250313e-16;2.220446049250313e-16;2.220446049250313e-16;2.220446049250313e-16;2.220446049250313e-16;2.220446049250313e-16;2.220446049250313e-16;2.220446049250313e-16;2.220446049250313e-16;2.220446049250313e-16;2.220446049250313e-16;-4.231269413581321e-06;-4.213292663751854e-06;-0.00019952530554622464;-0.0003324851880040047;5.637937935816245e-06;1.970298377030136e-06;4.730646783581885e-06;-3.1970500303024586e-06;3.1970500300804144e-06;5.126114868618059e-05;-0.00045481739270551036;-6.89526076579758e-06;9.129534394408951e-07;2.220446049250313e-16;-0.0;2.220446049250313e-16;1.2418455464754664e-05;-0.0002664284077824984
1.0200188159942627;-0.0003738969009544036;0.00045454249487497005;-2.4491521752988876e-05;-0.0031126770456577557;-0.00023819509828835862;-8.734647319653947e-05;2.220446049250313e-16;2.220446049250313e-16;2.220446049250313e-16;2.220446049250313e-16;2.220446049250313e-16;2.220446049250313e-16;2.220446049250313e-16;2.220446049250313e-16;2.220446049250313e-16;2.220446049250313e-16;2.220446049250313e-16;2.220446049250313e-16;-3.4463953827958198e-06;-3.431753207705032e-06;-0.00016251460840055958;-0.0002708112636616868;4.59213568583443e-06;1.604820342455902e-06;3.853141371769842e-06;-2.604017231264636e-06;2.6040172310425917e-06;4.175252598707337e-05;-0.0003704516089673425;-5.616232989121913e-06;7.436062823836054e-07;2.220446049250313e-16;-0.0;2.220446049250313e-16;1.0114909591389324e-05;-0.00021700760331639355
1.0399928092956543;-0.00041218919541843234;0.0003895395374987656;-3.757024355539499e-05;-0.0031138285691444407;-0.0002916044136697071;8.150491290024018e-06;2.220446049250313e-16;2.220446049250313e-16;2.220446049250313e-16;2.220446049250313e-16;2.220446049250313e-16;2.220446049250313e-16;2.220446049250313e-16;2.220446049250313e-16;2.220446049250313e-16;2.220446049250313e-16;2.220446049250313e-16;2.220446049250313e-16;-2.807110579258337e-06;-2.795184436133297e-06;-0.00013236916425855827;-0.0002205774668228418;3.7403232169601783e-06;1.3071361990574723e-06;3.1384077294401093e-06;-2.120988309993335e-06;2.1209883097712904e-06;3.4007693369758664e-05;-0.00030173515082645644;-4.574456871095979e-06;6.056719645407113e-07;2.220446049250313e-16;-0.0;2.220446049250313e-16;8.238657080371547e-06;-0.00017675404919872322
1.0600154399871826;-0.00043831912551117047;0.0003182724683983754;-4.90438735162414e-05;-0.0030951810246621658;-0.0003295099229075998;0.00010917082178709325;2.220446049250313e-16;2.220446049250313e-16;2.220446049250313e-16;2.220446049250313e-16;2.220446049250313e-16;2.220446049250313e-16;2.220446049250313e-16;2.220446049250313e-16;2.220446049250313e-16;2.220446049250313e-16;2.220446049250313e-16;2.220446049250313e-16;-2.286409111247036e-06;-2.2766951931332954e-06;-0.0001078155115958723;-0.00017966172533637225;3.0465166372341712e-06;1.0646706037335552e-06;2.556252710677277e-06;-1.7275582346871028e-06;1.727558234465058e-06;2.769947879775199e-05;-0.0002457651661928414;-3.7259237118631197e-06;4.933236005681876e-07;2.220446049250313e-16;-0.0;2.220446049250313e-16;6.710437683569377e-06;-0.0001439672777851675
1.0799946784973145;-0.00045131304236953763;0.00024386164238809576;-5.844099310770666e-05;-0.003059347413938258;-0.0003503212195363312;0.00021162318204172455;2.220446049250313e-16;2.220446049250313e-16;2.220446049250313e-16;2.220446049250313e-16;2.220446049250313e-16;2.220446049250313e-16;2.220446049250313e-16;2.220446049250313e-16;2.220446049250313e-16;2.220446049250313e-16;2.220446049250313e-16;2.220446049250313e-16;-1.862294511167656e-06;-1.854382464152026e-06;-8.781640804178542e-05;-0.00014633559817225848;2.4814068417562147e-06;8.671808609322538e-07;2.082083809426084e-06;-1.4071069794122059e-06;1.4071069791901613e-06;2.256139860251148e-05;-0.000200177263896358;-3.0347881503357085e-06;4.0181515593529223e-07;2.220446049250313e-16;-0.0;2.220446049250313e-16;5.465693433502779e-06;-0.00011726224755150503
1.1000268459320068;-0.00045175359143739537;0.0001675823561210947;-6.574591458631841e-05;-0.0030107688676596594;-0.0003544581450826397;0.00031446114743839725;2.220446049250313e-16;2.220446049250313e-16;2.220446049250313e-16;2.220446049250313e-16;2.220446049250313e-16;2.220446049250313e-16;2.220446049250313e-16;2.220446049250313e-16;2.220446049250313e-16;2.220446049250313e-16;2.220446049250313e-16;2.220446049250313e-16;-1.51685051868675e-06;-1.510406106942226e-06;-7.152701320258447e-05;-0.00011919125930879311;2.021121381403197e-06;7.063242311097014e-07;-8.919911247100596e-05;-5.082729519372322e-06;5.082729519150277e-06;1.8376400170486867e-05;-0.00016304563255148294;-2.471853915874374e-06;3.272809558540201e-07;2.220446049250313e-16;-0.0;2.220446049250313e-16;4.4518414621719716e-06;-9.551083351974804e-05
1.1200048923492432;-0.00044048884469033987;9.192200974448983e-05;-7.087624976948125e-05;-0.0029566086297467655;-0.0003424750026721017;0.0004153673025628699;2.220446049250313e-16;2.220446049250313e-16;2.220446049250313e-16;2.220446049250313e-16;2.220446049250313e-16;2.220446049250313e-16;2.220446049250313e-16;2.220446049250313e-16;2.220446049250313e-16;2.220446049250313e-16;2.220446049250313e-16;2.220446049250313e-16;-1.2354842277860992e-06;-1.2302352141426108e-06;-5.825919929733757e-05;-9.708202565238266e-05;1.6462159971615376e-06;5.75305500765296e-07;4.452023632424088e-06;-4.1399149606088464e-06;4.139914960386801e-06;1.4967692791362615e-05;-0.00013280168674838626;-2.0133404635666517e-06;2.665723840490734e-07;2.220446049250313e-16;-0.0;2.220446049250313e-16;3.6260526949482085e-06;0.015425720027144329
1.1400363445281982;-0.00041856347993419986;1.9922638617700168e-05;-7.373289490393805e-05;-0.0029036421730209315;-0.0003152530314490807;0.0005111381626160793;2.220446049250313e-16;2.220446049250313e-16;2.220446049250313e-16;2.220446049250313e-16;2.220446049250313e-16;2.220446049250313e-16;2.220446049250313e-16;2.220446049250313e-16;2.220446049250313e-16;2.220446049250313e-16;2.220446049250313e-16;2.220446049250313e-16;-1.006309625308201e-06;-1.0020342708892447e-06;-4.745248194767704e-05;-7.907391665652599e-05;1.3408532185380545e-06;4.685899260327134e-07;3.626201073757122e-06;-6.261571569933464e-06;6.261571569711417e-06;1.2191279326644796e-05;-0.00010816780386710279;-1.6398783909529344e-06;2.171248728853705e-07;2.220446049250313e-16;-0.0;2.220446049250313e-16;2.9534425828646593e-06;-0.0013268339001334141
1.1600027084350586;-0.000386230089181788;-4.497146991529021e-05;-7.403545732775075e-05;-0.002854949913266241;-0.00027290929581239763;0.0005972927297110686;2.220446049250313e-16;2.220446049250313e-16;2.220446049250313e-16;2.220446049250313e-16;2.220446049250313e-16;2.220446049250313e-16;2.220446049250313e-16;2.220446049250313e-16;2.220446049250313e-16;2.220446049250313e-16;2.220446049250313e-16;2.220446049250313e-16;-8.196454792486879e-07;-8.161631763534826e-07;-3.865034312439511e-05;-6.440619932871951e-05;1.092133326831861e-06;3.8166942344068273e-07;2.953563438331887e-06;-5.1000891785537105e-06;5.100089178331667e-06;9.929873207047972e-06;-8.810335229852937e-05;-1.3356911986711085e-06;1.768495659955898e-07;2.220446049250313e-16;-0.0;2.220446049250313e-16;2.405597442759407e-06;-0.0010807145043705412
1.1799888610839844;-0.00034298059295273915;-0.00010087854519109594;-7.15139118556067e-05;-0.002811038195196801;-0.00021470219936766527;0.0006711634986865239;2.220446049250313e-16;2.220446049250313e-16;2.220446049250313e-16;2.220446049250313e-16;2.220446049250313e-16;2.220446049250313e-16;2.220446049250313e-16;2.220446049250313e-16;2.220446049250313e-16;2.220446049250313e-16;2.220446049250313e-16;2.220446049250313e-16;-6.676063656323015e-07;-6.647700081597638e-07;-3.148094603946434e-05;-5.245925189198784e-05;8.895494205378435e-07;3.108721308263325e-07;2.405695880292811e-06;-4.1540545115099575e-06;4.154054511287912e-06;8.087943788848115e-06;-7.176073109310403e-05;-1.0879288293876093e-06;1.4404507681319533e-07;2.220446049250313e-16;-0.0;2.220446049250313e-16;1.9593741521115543e-06;-0.0008802487182754578
1.199993371963501;-0.0002892988081943913;-0.00014605494102018203;-6.609050035915225e-05;-0.0027741904601870752;-0.00014112828886093807;0.0007306160665482434;2.220446049250313e-16;2.220446049250313e-16;2.220446049250313e-16;2.220446049250313e-16;2.220446049250313e-16;2.220446049250313e-16;2.220446049250313e-16;2.220446049250313e-16;2.220446049250313e-16;2.220446049250313e-16;2.220446049250313e-16;2.220446049250313e-16;-5.437695573472946e-07;-5.414593264586786e-07;-0.0001627837411935837;-4.272838853634841e-05;7.245435627119517e-07;2.5320729350886537e-07;1.959454330097746e-06;-3.3835033624861508e-06;3.3835033622641057e-06;6.58768076566547e-06;-5.8449563979902536e-05;-8.861248310913912e-07;1.1732561534607766e-07;2.220446049250313e-16;-0.0;2.220446049250313e-16;1.5959224929833115e-06;-0.0007169680825898496
1.220015287399292;-0.00022668101076765476;-0.0001786876706157331;-5.786394930480628e-05;-0.002747798225431861;-5.401951885797117e-05;0.0007736203591318868;2.220446049250313e-16;2.220446049250313e-16;2.220446049250313e-16;2.220446049250313e-16;2.220446049250313e-16;2.220446049250313e-16;2.220446049250313e-16;2.220446049250313e-16;2.220446049250313e-16;2.220446049250313e-16;2.220446049250313e-16;2.220446049250313e-16;-4.429037030191048e-07;-4.4102200552138397e-07;-0.00013258837460055633;-3.4802539515284116e-05;5.901452602261516e-07;2.062389231085552e-07;1.595987798454177e-06;-2.7558846356615785e-06;2.755884635439534e-06;5.3657071566393085e-06;-4.760753517140549e-05;-7.217542132041323e-07;9.556244698447617e-08;2.220446049250313e-16;-0.0;2.220446049250313e-16;1.2998888450504882e-06;-0.002331535242777048
1.240013837814331;-0.00015740685490314436;-0.00019832875249625037;-4.7203758939050055e-05;-0.002734345518877387;4.361155589023203e-05;0.0007999795107054567;2.220446049250313e-16;2.220446049250313e-16;2.220446049250313e-16;2.220446049250313e-16;2.220446049250313e-16;2.220446049250313e-16;2.220446049250313e-16;2.220446049250313e-16;2.220446049250313e-16;2.220446049250313e-16;2.220446049250313e-16;2.220446049250313e-16;-3.6074783425720465e-07;-3.592151798847016e-07;-0.00010799405978949436;-2.8346885951070887e-05;4.806770028620768e-07;1.6798289186518762e-07;7.789870485483806e-06;-2.2446852600459217e-06;2.2446852598238775e-06;4.370402014752446e-06;-3.877663494420458e-05;-5.878733176185982e-07;7.783621033414947e-08;2.220446049250313e-16;-0.0;2.220446049250313e-16;1.0587675885989036e-06;0.013597834751662024
1.260019063949585;-8.62981138168885e-05;-0.00020673157838199416;-3.514777527284925e-05;-0.0027358511121412694;0.0001451250840135997;0.0008126385985235108;2.220446049250313e-16;2.220446049250313e-16;2.220446049250313e-16;2.220446049250313e-16;2.220446049250313e-16;2.220446049250313e-16;2.220446049250313e-16;2.220446049250313e-16;2.220446049250313e-16;2.220446049250313e-16;2.220446049250313e-16;2.220446049250313e-16;-2.9383136567645725e-07;-2.9258300911096375e-07;-8.796183666141683e-05;-2.308871577518443e-05;3.9151442306242923e-07;1.3682311531726945e-07;6.344898197117092e-06;-1.8283101736108726e-06;1.8283101733888282e-06;3.5597197560284583e-06;-3.158381151602302e-05;-4.788264914085832e-07;6.339807979347932e-08;2.220446049250313e-16;-0.0;2.220446049250313e-16;8.623728182112358e-07;-0.002817634947139765
1.2799932956695557;-2.018129414959665e-05;-0.00020605764543289563;-2.3135151126676756e-05;-0.0027547260243099;0.0002410724443443294;0.0008152140103011345;2.220446049250313e-16;2.220446049250313e-16;2.220446049250313e-16;2.220446049250313e-16;2.220446049250313e-16;2.220446049250313e-16;2.220446049250313e-16;2.220446049250313e-16;2.220446049250313e-16;2.220446049250313e-16;2.220446049250313e-16;2.220446049250313e-16;-2.3932748378950987e-07;-2.3831068956468683e-07;-7.164546572220312e-05;-1.880590330336131e-05;3.1889094454949267e-07;-0.00014664502056334068;5.167959237165603e-06;-3.8412743782339615e-06;3.841274378011916e-06;2.8994139895336536e-06;-2.5725211878622725e-05;-3.9000716991786225e-07;5.16381322297876e-08;2.220446049250313e-16;-0.0;2.220446049250313e-16;7.024080502631652e-07;0.013238449774150752
1.2999992370605469;3.7148218310826e-05;-0.00019717857824333085;-1.1934581482714624e-05;-0.002793104125635155;0.0003262716513245824;0.000809380331222931;2.220446049250313e-16;2.220446049250313e-16;2.220446049250313e-16;2.220446049250313e-16;2.220446049250313e-16;2.220446049250313e-16;2.220446049250313e-16;2.220446049250313e-16;2.220446049250313e-16;2.220446049250313e-16;2.220446049250313e-16;2.220446049250313e-16;-1.9493373134332945e-07;-1.9410554609224718e-07;-5.83556796148952e-05;-1.531752577748343e-05;2.597386674039652e-07;-0.00011944328578021948;4.209335098416615e-06;-3.1287419890570184e-06;3.128741988834973e-06;2.3615908158125958e-06;-2.0953345857712448e-05;-3.1766327744291075e-07;4.2059581439488434e-08;2.220446049250313e-16;-0.0;2.220446049250313e-16;5.721157469896622e-07;-0.003209395486836157
1.3200058937072754;8.409492668919374e-05;-0.0001805232427455436;-1.8748787142376898e-06;-0.002849248895543358;0.00039829024275090595;0.0007954426400847417;2.220446049250313e-16;2.220446049250313e-16;2.220446049250313e-16;2.220446049250313e-16;2.220446049250313e-16;2.220446049250313e-16;2.220446049250313e-16;2.220446049250313e-16;2.220446049250313e-16;2.220446049250313e-16;2.220446049250313e-16;2.220446049250313e-16;-1.587747425149627e-07;-1.5810018045179836e-07;-4.7531065769329716e-05;-1.2476220480296359e-05;2.1155876796720077e-07;-9.728730278852488e-05;3.428529746004697e-06;-5.539480598135057e-06;5.5394805979130125e-06;1.923530479421957e-06;-1.70666311595184e-05;-2.5873872487273476e-07;3.4257791954847315e-08;2.220446049250313e-16;-0.0;2.220446049250313e-16;4.659918516464985e-07;-0.0041986497588386755
1.3400139808654785;0.00012066060897880856;-0.0001572934513127489;6.930727989504868e-06;-0.002917967655573791;0.00045664783200282684;0.000774196957112708;2.220446049250313e-16;2.220446049250313e-16;2.220446049250313e-16;2.220446049250313e-16;2.220446049250313e-16;2.220446049250313e-16;2.220446049250313e-16;2.220446049250313e-16;2.220446049250313e-16;2.220446049250313e-16;2.220446049250313e-16;2.220446049250313e-16;-1.2932302012057778e-07;-1.2877358510411757e-07;-3.871435013828011e-05;-1.0161959557579383e-05;1.7231593875158483e-07;-7.924111616689592e-05;2.792558906431738e-06;4.1545174796827304e-05;-4.154517479704936e-05;1.5667275975546802e-06;-1.3900877745872485e-05;-2.107443085258729e-07;2.790318565842285e-08;2.220446049250313e-16;-0.0;2.220446049250313e-16;3.7955327561514577e-07;-0.0034198264701350944
1.3600177764892578;0.00014753031380694407;-0.00012968243621342698;1.4398603041137156e-05;-0.0029934793742001213;0.0005017961820472459;0.0007477848085654441;2.220446049250313e-16;2.220446049250313e-16;2.220446049250313e-16;2.220446049250313e-16;2.220446049250313e-16;2.220446049250313e-16;2.220446049250313e-16;2.220446049250313e-16;2.220446049250313e-16;2.220446049250313e-16;2.220446049250313e-16;2.220446049250313e-16;-1.0533440815708637e-07;-1.0488688990221064e-07;-3.153308015231751e-05;-8.276979571895641e-06;1.4035240908778304e-07;-6.454238437491275e-05;7.034150668354741e-06;-4.571338961819324e-06;4.5713389615972785e-06;1.2761094202557716e-06;-1.1322351804499048e-05;-1.716525564462517e-07;2.2727319113695775e-08;2.220446049250313e-16;-0.0;2.220446049250313e-16;3.091485151965088e-07;-0.002785470033840472
1.380018949508667;0.0001644617361586713;-0.00010154536434957756;2.0119982493781842e-05;-0.0030696786886061423;0.0005328636442473189;0.0007207253249994269;2.220446049250313e-16;2.220446049250313e-16;2.220446049250313e-16;2.220446049250313e-16;2.220446049250313e-16;2.220446049250313e-16;2.220446049250313e-16;2.220446049250313e-16;2.220446049250313e-16;2.220446049250313e-16;2.220446049250313e-16;2.220446049250313e-16;-8.579553378399781e-08;-8.543102736841245e-08;-2.5683890865813557e-05;-6.741651592431323e-06;1.1431791440455609e-07;-5.2570175463268765e-05;5.729359682816612e-06;-6.493067741844754e-06;6.493067741622709e-06;1.0393990984822022e-06;-9.22212630946325e-06;-1.3981208005394973e-07;1.8511543463849665e-08;2.220446049250313e-16;-0.0;2.220446049250313e-16;2.518033978057764e-07;-0.002268782751750776
1.4000191688537598;0.00017084616636633284;-7.746832919192583e-05;2.3550573967629023e-05;-0.0031395714445283597;0.0005483834254866916;0.0006984444202724906;2.220446049250313e-16;2.220446049250313e-16;2.220446049250313e-16;2.220446049250313e-16;2.220446049250313e-16;2.220446049250313e-16;2.220446049250313e-16;2.220446049250313e-16;2.220446049250313e-16;2.220446049250313e-16;2.220446049250313e-16;2.220446049250313e-16;-6.988099848915235e-08;-6.958410573549298e-08;-2.0919689634523045e-05;-5.4911173573577655e-06;9.311265576947596e-08;-0.00017284046221535752;4.666599270152149e-06;-5.288644257426532e-06;5.288644257204487e-06;8.465970619581191e-07;-7.511479517347252e-06;-1.1387781302944241e-07;1.5077767848452197e-08;2.220446049250313e-16;-0.0;2.220446049250313e-16;2.050954412840411e-07;0.013590653695300384
1.4200177192687988;0.00016585251787813856;-6.104466800990875e-05;2.4199972281687568e-05;-0.003197189812102536;0.0005466553228751162;0.0006851030614731745;2.220446049250313e-16;2.220446049250313e-16;2.220446049250313e-16;2.220446049250313e-16;2.220446049250313e-16;2.220446049250313e-16;2.220446049250313e-16;2.220446049250313e-16;2.220446049250313e-16;2.220446049250313e-16;2.220446049250313e-16;2.220446049250313e-16;-5.691851002565514e-08;-5.667668902221986e-08;-1.7039217955379233e-05;-4.472549407051382e-06;7.58408400783367e-08;-0.00014077963672729752;3.800974271784362e-06;-4.307633801721112e-06;4.307633801499067e-06;6.895585981965251e-07;-6.1181470136263174e-06;-9.275419044881225e-08;1.2280936148613364e-08;2.220446049250313e-16;-0.0;2.220446049250313e-16;1.6705151877235945e-07;-0.0027952375921712017
1.44000244140625;0.0001493639539282644;-5.508927224110067e-05;2.178063271009568e-05;-0.003238545412689964;0.0005271748064839021;0.0006840891458670919;2.220446049250313e-16;2.220446049250313e-16;2.220446049250313e-16;2.220446049250313e-16;2.220446049250313e-16;2.220446049250313e-16;2.220446049250313e-16;2.220446049250313e-16;2.220446049250313e-16;2.220446049250313e-16;2.220446049250313e-16;2.220446049250313e-16;-4.636048215658376e-08;-4.6163517437904464e-08;-1.3878549519768604e-05;-3.642919445477144e-06;-0.0010460386698648893;-0.00011466589398711336;3.0959173004575612e-06;-3.508594654233699e-06;3.508594654011655e-06;5.616497879723083e-07;-4.9832689810174694e-06;-7.554886783424788e-08;1.0002899248896512e-08;2.220446049250313e-16;-0.0;2.220446049250313e-16;1.3606450611207908e-07;-0.004018841296594496
1.4600131511688232;0.0001232786911340046;-6.146230403080197e-05;1.6459584102735397e-05;-0.0032580849504136315;0.0004921380335948057;0.0006970986104698977;2.220446049250313e-16;2.220446049250313e-16;2.220446049250313e-16;2.220446049250313e-16;2.220446049250313e-16;2.220446049250313e-16;2.220446049250313e-16;2.220446049250313e-16;2.220446049250313e-16;2.220446049250313e-16;2.220446049250313e-16;2.220446049250313e-16;-3.776090246955094e-08;-3.760047347515716e-08;-1.1304165324786022e-05;-2.9671806565876667e-06;-0.001863211534003993;-0.0002252655738733539;2.5216439907058108e-06;-2.8577722746105303e-06;2.857772274388486e-06;4.574672626146199e-07;-4.05890373046986e-06;-6.153502503141885e-08;8.147423956346514e-09;2.220446049250313e-16;-0.0;2.220446049250313e-16;1.108253906314516e-07;0.009929812595444402
1.4800069332122803;8.949383123923691e-05;-7.985310588156036e-05;8.609211872263505e-06;-0.003251672393609271;0.00044383925801782907;0.0007229064080045361;2.220446049250313e-16;2.220446049250313e-16;2.220446049250313e-16;2.220446049250313e-16;2.220446049250313e-16;2.220446049250313e-16;2.220446049250313e-16;2.220446049250313e-16;2.220446049250313e-16;2.220446049250313e-16;2.220446049250313e-16;2.220446049250313e-16;-3.075649106708967e-08;-3.0625820648474714e-08;-9.207313308071492e-06;-2.4167871896697573e-06;-0.0015175974395183398;-0.00018348021782968343;6.6340119032628445e-06;-2.3276733787675867e-06;2.3276733785455417e-06;3.7260994456999924e-07;-3.3060024566160164e-06;-5.012066248199709e-08;6.6361277338439624e-09;2.220446049250313e-16;-0.0;2.220446049250313e-16;9.026797332800878e-08;-0.005787105223671899
1.499983310699463;5.0350278294596736e-05;-0.00010695841381876264;-1.0349165690352869e-06;-0.0032187498378807734;0.0003854989368902878;0.0007565628588728442;2.220446049250313e-16;2.220446049250313e-16;2.220446049250313e-16;2.220446049250313e-16;2.220446049250313e-16;2.220446049250313e-16;2.220446049250313e-16;2.220446049250313e-16;2.220446049250313e-16;2.220446049250313e-16;2.220446049250313e-16;2.220446049250313e-16;-2.5051354202213695e-08;-2.4944922329561707e-08;-7.499414235132404e-06;-1.9684882709059533e-06;-0.00137521710507535;-0.0011272838968543256;5.4034441577819814e-06;-1.8959045149854104e-06;1.8959045147633656e-06;3.034931286644179e-07;-2.692759663429098e-06;-4.0823592845727125e-08;5.405167515014242e-09;2.220446049250313e-16;-0.0;2.220446049250313e-16;7.352382845049641e-08;-0.00471363337408841
1.520035743713379;8.14266347677569e-06;-0.00013922780052934096;-1.1722251230234848e-05;-0.0031614366507004966;0.0003205267752817394;0.0007932539424767851;2.220446049250313e-16;2.220446049250313e-16;2.220446049250313e-16;2.220446049250313e-16;2.220446049250313e-16;2.220446049250313e-16;2.220446049250313e-16;2.220446049250313e-16;2.220446049250313e-16;2.220446049250313e-16;2.220446049250313e-16;2.220446049250313e-16;-2.040448456866682e-08;-2.0317795143192565e-08;-6.108319765854312e-06;-1.6033459997045915e-06;-0.0011201229271907789;-0.0009181797795122034;4.4011390380394095e-06;4.3913999073707314e-05;-4.391399907392936e-05;2.4719705012922243e-07;-2.1932695756108964e-06;-3.325107152030003e-08;4.402542723276068e-09;2.220446049250313e-16;-0.0;2.220446049250313e-16;5.988561779685715e-08;-0.0038392838434035967
1.5402092933654785;-3.682828507465409e-05;-0.00017498531224525489;-2.323967175010904e-05;-0.003085326784886053;0.0002498634846666807;0.0008315633965523552;2.220446049250313e-16;2.220446049250313e-16;2.220446049250313e-16;2.220446049250313e-16;2.220446049250313e-16;2.220446049250313e-16;2.220446049250313e-16;2.220446049250313e-16;2.220446049250313e-16;2.220446049250313e-16;2.220446049250313e-16;2.220446049250313e-16;-1.6619580209207673e-08;-1.6548971130349985e-08;-4.975264626286873e-06;-1.3059353376718875e-06;-0.0009123471249651841;-0.0008935991937592736;3.584755253602086e-06;-2.911147434859517e-06;2.9111474346374726e-06;2.0134354231181492e-07;-1.7864317772699222e-06;-2.708320557248137e-08;3.585898564000377e-09;2.220446049250313e-16;-0.0;2.220446049250313e-16;4.877720998065137e-08;0.011791098503989858
1.5601422786712646;-8.302983172286049e-05;-0.00021291629776708904;-3.51854564192458e-05;-0.00299724806039573;0.00017632752028582435;0.000870833734329854;2.220446049250313e-16;2.220446049250313e-16;2.220446049250313e-16;2.220446049250313e-16;2.220446049250313e-16;2.220446049250313e-16;2.220446049250313e-16;2.220446049250313e-16;2.220446049250313e-16;2.220446049250313e-16;2.220446049250313e-16;2.220446049250313e-16;-1.3536751952775955e-08;-1.3479240416739624e-08;-0.00014925797879635183;-1.0636924946296127e-06;-0.0007431124354536733;-0.0007278421283118892;2.919805558779233e-06;-2.973209408018507e-06;2.9732094077964626e-06;1.6399557361011266e-07;-1.4550598477849594e-06;-2.2059440208820902e-08;2.920736792244332e-09;2.220446049250313e-16;-0.0;2.220446049250313e-16;3.97293423868029e-08;-0.004934513226893869
1.5799870491027832;-0.0001283986442994738;-0.0002528057709786234;-4.71662663522758e-05;-0.002900209411771464;0.00010314410846033742;0.0009113084660947134;2.220446049250313e-16;2.220446049250313e-16;2.220446049250313e-16;2.220446049250313e-16;2.220446049250313e-16;2.220446049250313e-16;2.220446049250313e-16;2.220446049250313e-16;2.220446049250313e-16;2.220446049250313e-16;2.220446049250313e-16;2.220446049250313e-16;-1.1025769070235715e-08;-1.0978925564687029e-08;-0.00012157155659199602;-8.66384184953911e-07;-0.0006052697231297387;-0.0005928319625233356;2.378199876410428e-06;-2.4216976454104674e-06;2.4216976451884228e-06;1.335754196777718e-07;-1.185155340144898e-06;-1.796755192158593e-08;2.3789583718879597e-09;2.220446049250313e-16;-0.0;2.220446049250313e-16;3.235979768244087e-08;-0.0040191918640127226
1.5999810695648193;-0.00017082448791049754;-0.00029438238023320624;-5.877497587777757e-05;-0.0027971822018351784;3.360090516296614e-05;0.0009531408359155664;2.220446049250313e-16;2.220446049250313e-16;2.220446049250313e-16;2.220446049250313e-16;2.220446049250313e-16;2.220446049250313e-16;2.220446049250313e-16;2.220446049250313e-16;2.220446049250313e-16;2.220446049250313e-16;2.220446049250313e-16;2.220446049250313e-16;-8.98055781876368e-09;-8.942403490722363e-09;-9.902079266640944e-05;-7.056753335461163e-07;-0.0004929959724249415;-0.00048286533867502245;-8.949518202962324e-05;-7.361507081332216e-06;7.361507081110171e-06;1.0879801417391806e-07;-9.653164317688949e-07;-1.4634683337331247e-08;1.9376764623925672e-09;2.220446049250313e-16;-0.0;2.220446049250313e-16;2.63572574610836e-08;-0.003273656893187513
1.6200933456420898;-0.0002072497283354858;-0.0003367641631548154;-6.937535316654694e-05;-0.0026921954829370156;-2.757566130231734e-05;0.0009957841674192772;2.220446049250313e-16;2.220446049250313e-16;2.220446049250313e-16;2.220446049250313e-16;2.220446049250313e-16;2.220446049250313e-16;2.220446049250313e-16;2.220446049250313e-16;2.220446049250313e-16;2.220446049250313e-16;2.220446049250313e-16;2.220446049250313e-16;-7.314720471869382e-09;-7.28364353321518e-09;-8.065305450674466e-05;-5.747769696441463e-07;-0.00040154830076494246;-0.00039329683625917243;2.929262582435592e-06;-5.995993527184941e-06;5.995993526962896e-06;8.861666253224485e-08;-7.862562669034635e-07;-1.1920041045027156e-08;1.5782495890966353e-09;2.220446049250313e-16;-0.0;2.220446049250313e-16;2.1468150934911718e-08;-0.0026664139998568114
1.640176773071289;-0.00023514474249496746;-0.0003790125254049032;-7.842113135925034e-05;-0.0025898724275031683;-7.63546503700688e-05;0.001038719757753178;2.220446049250313e-16;2.220446049250313e-16;2.220446049250313e-16;2.220446049250313e-16;2.220446049250313e-16;2.220446049250313e-16;2.220446049250313e-16;2.220446049250313e-16;2.220446049250313e-16;2.220446049250313e-16;2.220446049250313e-16;2.220446049250313e-16;-5.9578855413405615e-09;-5.932573180575846e-09;-6.569241697733418e-05;-4.681594341312174e-07;-0.00032706360064992536;-0.0003203427312383225;2.385902681284929e-06;-4.883774202872274e-06;4.883774202650228e-06;7.217882548665423e-08;-6.40410643494539e-07;-9.708947931431147e-09;1.2854941543791409e-09;2.220446049250313e-16;-0.0;2.220446049250313e-16;1.7485943112428937e-08;-0.0021718108679708715
1.6600356101989746;-0.0002535482692694686;-0.0004203062574166269;-8.566048043748361e-05;-0.002496558580105758;-0.00011076853204199243;0.0010819233138799776;2.220446049250313e-16;2.220446049250313e-16;2.220446049250313e-16;2.220446049250313e-16;2.220446049250313e-16;2.220446049250313e-16;2.220446049250313e-16;2.220446049250313e-16;2.220446049250313e-16;2.220446049250313e-16;2.220446049250313e-16;2.220446049250313e-16;-4.852735010206519e-09;-4.832117934161404e-09;-5.350688420564479e-05;-3.8131878509633995e-07;-0.00026639534687686827;-0.000412703513183883;1.943332645798333e-06;-3.977864611848826e-06;3.977864611626783e-06;5.879010447653916e-08;-5.216184716928238e-07;-7.907998771075241e-09;1.0470430230802748e-09;2.220446049250313e-16;-0.0;2.220446049250313e-16;1.4242409952217824e-08;-0.0017689535257801993
1.6802349090576172;-0.00026171425221742465;-0.00046099443076204187;-9.099136173978763e-05;-0.0024141680172064368;-0.0001295617317207719;0.001126261475123931;2.220446049250313e-16;2.220446049250313e-16;2.220446049250313e-16;2.220446049250313e-16;2.220446049250313e-16;2.220446049250313e-16;2.220446049250313e-16;2.220446049250313e-16;2.220446049250313e-16;2.220446049250313e-16;2.220446049250313e-16;2.220446049250313e-16;-3.952582995407024e-09;-3.9357902581115504e-09;-4.3581691603523964e-05;-3.105865337033756e-07;-0.00021698067500212714;-0.00033614959088522996;1.5828565858317782e-06;-3.239995588025287e-06;3.2399955878032427e-06;4.7884907534294124e-08;-4.2486150530925296e-07;-6.441114424033101e-09;8.52823086317778e-10;2.220446049250313e-16;-0.0;2.220446049250313e-16;1.1600531921143617e-08;-0.0014408237027075086
1.7001709938049316;-0.00025833587795698966;-0.0004974828737143502;-9.383688606470968e-05;-0.0023461835840244178;-0.00013060520981706308;0.001167108591669371;2.220446049250313e-16;2.220446049250313e-16;2.220446049250313e-16;2.220446049250313e-16;2.220446049250313e-16;2.220446049250313e-16;2.220446049250313e-16;2.220446049250313e-16;2.220446049250313e-16;2.220446049250313e-16;2.220446049250313e-16;2.220446049250313e-16;-3.219403553402741e-09;-3.2057257639209713e-09;-3.549756019664278e-05;-2.5297467286723503e-07;-0.00017673211591845133;-0.0002737959427109628;1.2892465820136445e-06;-2.6389966564396145e-06;2.63899665621757e-06;3.900255646735463e-08;-3.4605235145879466e-07;-5.24632795534011e-09;6.946297339501197e-10;2.220446049250313e-16;-0.0;2.220446049250313e-16;9.44870575309598e-09;-0.0011735599110034073
1.7200524806976318;-0.00024471731059251295;-0.0005258634725744514;-9.406260231890071e-05;-0.0022925456898301513;-0.00011583299793062778;0.0011987213342928;2.220446049250313e-16;2.220446049250313e-16;2.220446049250313e-16;2.220446049250313e-16;2.220446049250313e-16;2.220446049250313e-16;2.220446049250313e-16;2.220446049250313e-16;2.220446049250313e-16;2.220446049250313e-16;2.220446049250313e-16;2.220446049250313e-16;7.816503224638585e-05;7.816504338703087e-05;-2.8912984639916765e-05;-2.0604945214206836e-07;-0.00014394941299130306;-0.0002230085065627211;1.0500993988412507e-06;-2.1494792704197627e-06;2.149479270197718e-06;3.176782600863826e-08;-2.818618030903848e-07;-4.27316690917424e-09;5.657802597382093e-10;2.220446049250313e-16;-0.0;2.220446049250313e-16;7.69602989030763e-09;-0.0009558718822617187
1.7401726245880127;-0.00022301608750339088;-0.0005415025466131658;-9.161961766104847e-05;-0.0022574820787164876;-8.79916820724197e-05;0.0012150918863551572;2.220446049250313e-16;2.220446049250313e-16;2.220446049250313e-16;2.220446049250313e-16;2.220446049250313e-16;2.220446049250313e-16;2.220446049250313e-16;2.220446049250313e-16;2.220446049250313e-16;2.220446049250313e-16;2.220446049250313e-16;2.220446049250313e-16;6.366590729613283e-05;6.366591637025781e-05;-2.3549806695366198e-05;0.00014835865571554183;-0.00011724769656524751;-0.00018164182239850232;8.843242373386542e-06;-2.708085280019959e-06;2.7080852797979144e-06;2.5875092832948412e-08;-2.2957820025338769e-07;-3.480521154815601e-09;4.6083155768339495e-10;2.220446049250313e-16;-0.0;2.220446049250313e-16;6.26846444584238e-09;-0.000778563622301434
1.7602534294128418;-0.00019709362148119376;-0.0005409575962295238;-8.68799449870934e-05;-0.002248337234957839;-5.193064248961831e-05;0.0012125439415149467;2.220446049250313e-16;2.220446049250313e-16;2.220446049250313e-16;2.220446049250313e-16;2.220446049250313e-16;2.220446049250313e-16;2.220446049250313e-16;2.220446049250313e-16;2.220446049250313e-16;2.220446049250313e-16;2.220446049250313e-16;2.220446049250313e-16;5.185627940462077e-05;5.1856286795552286e-05;-1.918146473966761e-05;0.000120839052321907;-9.549898165049762e-05;-0.00014794839960497006;7.2028761833881696e-06;-2.20575238612985e-06;2.205752385907805e-06;2.1075424831766682e-08;0.00015047824523495258;-2.834906233854524e-09;3.753501839303606e-10;2.220446049250313e-16;-0.0;2.220446049250313e-16;5.105703469041404e-09;-0.0006341449363871574
1.7799811363220215;-0.0001711750813678239;-0.0005235019559063999;-8.053855889397981e-05;-0.002268828194313535;-1.3318501784850697e-05;0.0011907103924213005;2.220446049250313e-16;2.220446049250313e-16;2.220446049250313e-16;2.220446049250313e-16;2.220446049250313e-16;2.220446049250313e-16;2.220446049250313e-16;2.220446049250313e-16;2.220446049250313e-16;2.220446049250313e-16;2.220446049250313e-16;2.220446049250313e-16;4.223726367680989e-05;4.223726969676981e-05;-1.5623422914613888e-05;9.842416336027024e-05;-7.778451742296562e-05;-0.00012050489615574564;5.86678766934581e-06;-3.492318932378835e-06;3.49231893215679e-06;1.716606524687916e-08;0.0001225654712329016;-2.309048845638471e-09;3.057250707499282e-10;2.220446049250313e-16;-0.0;2.220446049250313e-16;4.158627386180904e-09;-0.0005165150140931919
1.8001720905303955;-0.0001460157565942115;-0.0004872475210643479;-7.255278390883518e-05;-0.0023207212081007922;2.6906902746261814e-05;0.00114715134901128;2.220446049250313e-16;2.220446049250313e-16;2.220446049250313e-16;2.220446049250313e-16;2.220446049250313e-16;2.220446049250313e-16;2.220446049250313e-16;2.220446049250313e-16;2.220446049250313e-16;2.220446049250313e-16;2.220446049250313e-16;2.220446049250313e-16;3.4402515247659636e-05;3.440252015095461e-05;-1.272537561034623e-05;0.00021102199601622117;-6.335597559423939e-05;-9.815199107445577e-05;4.778535224105096e-06;-2.8445155974364818e-06;2.8445155972144367e-06;1.3981867431490868e-08;9.983034235339352e-05;-1.8807347163278197e-09;2.4901498090750865e-10;2.220446049250313e-16;-0.0;2.220446049250313e-16;3.3872279974655094e-09;-0.00042070470719774296
1.8200628757476807;-0.0001245674753475031;-0.0004340753428950765;-6.363455890305148e-05;-0.002401080050883112;6.429050762077244e-05;0.001084084256042813;2.220446049250313e-16;2.220446049250313e-16;2.220446049250313e-16;2.220446049250313e-16;2.220446049250313e-16;2.220446049250313e-16;2.220446049250313e-16;2.220446049250313e-16;2.220446049250313e-16;2.220446049250313e-16;2.220446049250313e-16;2.220446049250313e-16;2.802106368493906e-05;2.8021067678703474e-05;-1.0364897968224566e-05;0.00045990434719356575;-5.160383809635544e-05;-7.994541018008843e-05;3.89214680587875e-06;-1.945925800308593e-06;1.9459258000865484e-06;1.1388318409620755e-08;0.00023397661355595707;-1.5318701810409853e-09;2.0282425829279642e-10;2.220446049250313e-16;-0.0;2.220446049250313e-16;2.7589183741106408e-09;-0.00034266661341698164
1.8401978015899658;-0.00010739307584776163;-0.000364423565525156;-5.392718502392602e-05;-0.0025095665070903176;9.800609766601661e-05;0.0010020902585218153;2.220446049250313e-16;2.220446049250313e-16;2.220446049250313e-16;2.220446049250313e-16;2.220446049250313e-16;2.220446049250313e-16;2.220446049250313e-16;2.220446049250313e-16;2.220446049250313e-16;2.220446049250313e-16;2.220446049250313e-16;2.220446049250313e-16;2.2823331503030896e-05;2.2823334755976965e-05;-8.442274175731211e-06;0.0006658329439409043;-4.2031648653469605e-05;-6.511603625049564e-05;3.170177899305778e-06;-1.5849687264081944e-06;1.5849687261861496e-06;9.275856521626164e-09;0.00019057541409516168;-1.2477178366465138e-09;1.6520162603109698e-10;2.220446049250313e-16;-0.0;2.220446049250313e-16;2.247156258952955e-09;-0.00027910409829446536
1.8600358963012695;-9.466203946474187e-05;-0.0002827285772196185;-4.388194792161362e-05;-0.0026394713165286267;0.00012724119670251116;0.0009064285855788386;2.220446049250313e-16;2.220446049250313e-16;2.220446049250313e-16;2.220446049250313e-16;2.220446049250313e-16;2.220446049250313e-16;2.220446049250313e-16;2.220446049250313e-16;2.220446049250313e-16;2.220446049250313e-16;2.220446049250313e-16;2.220446049250313e-16;1.8589746155040553e-05;1.8589748804585457e-05;-6.8762850803466675e-06;0.0008283045514247711;-3.4235040526055066e-05;-5.303741850125525e-05;1.3173708227901147e-05;-1.290966933734608e-06;1.2909669335125636e-06;7.55524311096777e-09;0.00028986538528585687;-1.0162739761850643e-09;1.3455775691249113e-10;2.220446049250313e-16;-0.0;2.220446049250313e-16;1.8303228176438003e-09;-0.0002273320324614563
1.8800153732299805;-8.68999816357954e-05;-0.00019113402890674405;-3.379749699713152e-05;-0.002789211879927257;0.00015113318100251505;0.0007999511955011652;2.220446049250313e-16;2.220446049250313e-16;2.220446049250313e-16;2.220446049250313e-16;2.220446049250313e-16;2.220446049250313e-16;2.220446049250313e-16;2.220446049250313e-16;2.220446049250313e-16;2.220446049250313e-16;2.220446049250313e-16;2.220446049250313e-16;7.923997306612334e-05;7.923997522419424e-05;-5.600777174724111e-06;0.0008316591997693213;-2.7884654477475134e-05;-4.319930885313803e-05;1.0730067687301907e-05;-1.051500636090768e-06;1.0515006358687234e-06;6.15379273415269e-09;0.00023609716797398842;-8.277615053150859e-10;1.0959813399120471e-10;2.220446049250313e-16;-0.0;2.220446049250313e-16;1.4908093744884855e-09;-0.0017077196738227805
1.9000182151794434;-8.640145315947478e-05;-9.306462485365343e-05;-2.4413760115559987e-05;-0.002954445899967186;0.00016605680297881428;0.0006868783154365504;2.220446049250313e-16;2.220446049250313e-16;2.220446049250313e-16;2.220446049250313e-16;2.220446049250313e-16;2.220446049250313e-16;2.220446049250313e-16;2.220446049250313e-16;2.220446049250313e-16;2.220446049250313e-16;2.220446049250313e-16;2.220446049250313e-16;6.454145331218914e-05;6.454145506995136e-05;-4.5618680136701295e-06;0.0013410123666603329;-2.2712225350993974e-05;-3.5186107056561246e-05;8.73970719423045e-06;-8.564538399954998e-07;8.564538397734551e-07;5.012302643171954e-09;0.00019230261892211345;-6.742169195885457e-10;8.926836512417366e-11;2.220446049250313e-16;-0.0;2.220446049250313e-16;1.2142735530794618e-09;0.013838800797225492
1.9200317859649658;-9.490962805251341e-05;8.156557733616725e-06;-1.6361441298469153e-05;-0.0031287244975504733;0.00016896497560046908;0.0005708879432136105;2.220446049250313e-16;2.220446049250313e-16;2.220446049250313e-16;2.220446049250313e-16;2.220446049250313e-16;2.220446049250313e-16;2.220446049250313e-16;2.220446049250313e-16;2.220446049250313e-16;2.220446049250313e-16;2.220446049250313e-16;2.220446049250313e-16;5.256941710686123e-05;5.256941853856955e-05;-3.7156700088094047e-06;0.0010922629539721325;-1.8499249499793035e-05;-2.8659304110738238e-05;7.1185461328706615e-06;-4.8227196668514295e-06;4.8227196666293865e-06;4.082551829755075e-09;0.0002853999390433757;-5.491538948606177e-10;7.270964132092148e-11;2.220446049250313e-16;-0.0;2.220446049250313e-16;9.890333981929279e-10;-0.0028788254508010608
1.940157413482666;-0.00011183931818277376;0.00010885366196777096;-9.88387990825708e-06;-0.0033045223839097216;0.00016002673958327886;0.0004559711890497315;2.220446049250313e-16;2.220446049250313e-16;2.220446049250313e-16;2.220446049250313e-16;2.220446049250313e-16;2.220446049250313e-16;2.220446049250313e-16;2.220446049250313e-16;2.220446049250313e-16;2.220446049250313e-16;2.220446049250313e-16;2.220446049250313e-16;4.281811879239538e-05;4.281811995853076e-05;-3.0264364451128145e-06;0.0008896550026537641;-1.5067754337890801e-05;-2.334318231884698e-05;5.798100316136485e-06;-3.928135310669e-06;3.928135310446956e-06;3.325263981284444e-09;0.0002324600341004485;-4.472892795758159e-10;5.922245729114879e-11;2.220446049250313e-16;-0.0;2.220446049250313e-16;8.055738842868784e-10;-0.0023448213223365307
1.9599764347076416;-0.00013403681040966375;0.0002047622728625443;-4.815341686856745e-06;-0.003470709060453986;0.00014272923192434667;0.000346305099220866;2.220446049250313e-16;2.220446049250313e-16;2.220446049250313e-16;2.220446049250313e-16;2.220446049250313e-16;2.220446049250313e-16;2.220446049250313e-16;2.220446049250313e-16;2.220446049250313e-16;2.220446049250313e-16;2.220446049250313e-16;2.220446049250313e-16;0.0005596281170168945;0.0005596281179667191;-2.465051399772169e-06;0.0007246295600052572;-1.2272780081676666e-05;-1.901316789359036e-05;4.722588945620142e-06;-7.788065419949293e-06;7.78806541972725e-06;2.708448295656062e-09;0.0001893401506500284;-3.6431991377249936e-10;4.823706160399875e-11;2.220446049250313e-16;-0.0;2.220446049250313e-16;6.561449635884391e-10;-0.001909871622176369
1.9799976348876953;-0.0001599346829101048;0.0002977376433993801;-6.969273177802719e-07;-0.003626952958226168;0.0001192344653241922;0.0002391047356717449;2.220446049250313e-16;2.220446049250313e-16;2.220446049250313e-16;2.220446049250313e-16;2.220446049250313e-16;2.220446049250313e-16;2.220446049250313e-16;2.220446049250313e-16;2.220446049250313e-16;2.220446049250313e-16;2.220446049250313e-16;2.220446049250313e-16;0.000597562725890965;0.0005975627266646031;-2.00779977168568e-06;0.0005902153055590317;0.0001465809658448715;-1.5486344081628682e-05;7.113572153399919e-06;-6.343427959978168e-06;6.343427959756122e-06;2.2060480646137098e-09;0.00015421873608038967;-2.967408467671617e-10;3.9289388158092e-11;2.220446049250313e-16;-0.0;2.220446049250313e-16;5.344341737488061e-10;0.014121397039671453
2.000013589859009;-0.00018876045803033057;0.0003859946804846553;2.4418406538821256e-06;-0.00377036260267534;9.039506082419658e-05;0.00013644887192789686;2.220446049250313e-16;2.220446049250313e-16;2.220446049250313e-16;2.220446049250313e-16;2.220446049250313e-16;2.220446049250313e-16;2.220446049250313e-16;2.220446049250313e-16;2.220446049250313e-16;2.220446049250313e-16;2.220446049250313e-16;2.220446049250313e-16;0.0004867185750052278;0.00048671857563536085;-1.6353654627865592e-06;0.0004807340552234911;0.00011939111281168435;-1.2613724044137066e-05;5.794048978770191e-06;-6.459273506496033e-06;6.459273506273989e-06;1.7968399364282704e-09;0.00012561212440457786;-2.4169727432214556e-10;3.2001452213441915e-11;2.220446049250313e-16;-0.0;2.220446049250313e-16;4.352999747319883e-10;0.013162719300309985
2.020035743713379;-0.00022105376350890437;0.00047040720788465757;4.586177063503428e-06;-0.003902864991671744;5.561317187832463e-05;3.741632790264193e-05;2.220446049250313e-16;2.220446049250313e-16;2.220446049250313e-16;2.220446049250313e-16;2.220446049250313e-16;2.220446049250313e-16;2.220446049250313e-16;2.220446049250313e-16;2.220446049250313e-16;2.220446049250313e-16;2.220446049250313e-16;2.220446049250313e-16;0.0008348282171878242;0.0008348282177010714;-1.332015390473795e-06;0.00039156089256737857;0.0005146980324223634;-1.0273957069724912e-05;4.719289106014438e-06;-5.2611186415210266e-06;5.261118641298983e-06;1.4635373584704286e-09;0.00010231186040330617;-1.9686394054335202e-10;2.606538283692477e-11;2.220446049250313e-16;-0.0;2.220446049250313e-16;3.5455455004404647e-10;-0.002724709549346834
2.040163040161133;-0.00025746550970534175;0.000551708222024005;5.68771540708868e-06;-0.0040273070938483665;1.422487267119361e-05;-5.853575431818006e-05;2.220446049250313e-16;2.220446049250313e-16;2.220446049250313e-16;2.220446049250313e-16;2.220446049250313e-16;2.220446049250313e-16;2.220446049250313e-16;2.220446049250313e-16;2.220446049250313e-16;2.220446049250313e-16;2.220446049250313e-16;2.220446049250313e-16;0.000746368091370097;0.0007463680917881402;-1.084934860637096e-06;0.0003189287942517083;0.0007000016183734994;-8.368202245522626e-06;3.843890472405671e-06;-4.28521401553098e-06;4.285214015308936e-06;1.1920603255826547e-09;0.00021679222733092272;-1.6034690997218862e-10;2.1230417229317952e-11;2.220446049250313e-16;-0.0;2.220446049250313e-16;2.8878689697681367e-10;-0.00221929295737768
2.0601871013641357;-0.00029680740090507683;0.0006275769911120711;5.741542783546642e-06;-0.004141033733733594;-3.228971399653006e-05;-0.00014850059384066827;2.220446049250313e-16;2.220446049250313e-16;2.220446049250313e-16;2.220446049250313e-16;2.220446049250313e-16;2.220446049250313e-16;2.220446049250313e-16;2.220446049250313e-16;2.220446049250313e-16;2.220446049250313e-16;2.220446049250313e-16;2.220446049250313e-16;0.000607921475221515;0.0006079214755620138;-8.836862248317936e-07;0.00025976949622298043;0.0005701556931753301;-6.815953030242213e-06;3.130872814089872e-06;-3.4903335982581735e-06;3.490333598036129e-06;9.709405855641068e-10;0.00017657862411245731;-1.3060356034053494e-10;1.7292307523387152e-11;2.220446049250313e-16;-0.0;2.220446049250313e-16;2.352187325057208e-10;-0.0018076279843651031
2.0802154541015625;-0.0003366667517900445;0.0006981916717532168;5.2007201085703764e-06;-0.004243755524314069;-8.052761122976667e-05;-0.00023280012077054083;2.220446049250313e-16;2.220446049250313e-16;2.220446049250313e-16;2.220446049250313e-16;2.220446049250313e-16;2.220446049250313e-16;2.220446049250313e-16;2.220446049250313e-16;2.220446049250313e-16;2.220446049250313e-16;2.220446049250313e-16;2.220446049250313e-16;0.0004951558410771442;0.0004951558413544823;-7.197679531644008e-07;0.0002115838782329689;0.0006055324319513353;-5.5516363428387196e-06;2.550115475031288e-06;-2.842898530386865e-06;2.84289853016482e-06;7.908371753206244e-10;0.00014382439295599717;-1.0637741616961784e-10;1.4084692554720855e-11;2.220446049250313e-16;-0.0;2.220446049250313e-16;1.9158712774298767e-10;-0.0014723242909402785
2.0999817848205566;-0.0003729347744436585;0.0007628324563595857;4.740472188402615e-06;-0.004334763376342972;-0.00012469231852184516;-0.0003105234870715307;2.220446049250313e-16;2.220446049250313e-16;2.220446049250313e-16;2.220446049250313e-16;2.220446049250313e-16;2.220446049250313e-16;2.220446049250313e-16;2.220446049250313e-16;2.220446049250313e-16;2.220446049250313e-16;2.220446049250313e-16;2.220446049250313e-16;0.0004033075272813405;0.00040330752750723434;-5.862554964021118e-07;0.0001723363912199921;0.0004932099504020623;-4.521842498969279e-06;-9.173967816287554e-05;-6.4547099487949585e-06;6.454709948572915e-06;6.441418220309943e-10;0.00011714586696511566;-8.664507032900478e-11;1.1472070115148606e-11;2.220446049250313e-16;-0.0;2.220446049250313e-16;1.5604891296621182e-10;-0.0011992173369976748
2.1200387477874756;-0.0004044604782027822;0.0008232504297723776;4.7343282635057925e-06;-0.0044166548747052725;-0.00016292924626254933;-0.0003837583900845005;2.220446049250313e-16;2.220446049250313e-16;2.220446049250313e-16;2.220446049250313e-16;2.220446049250313e-16;2.220446049250313e-16;2.220446049250313e-16;2.220446049250313e-16;2.220446049250313e-16;2.220446049250313e-16;2.220446049250313e-16;2.220446049250313e-16;0.00032849650164269717;0.00032849650182668915;-4.775087659163725e-07;0.00014036906775112862;0.0004017225871646696;-3.6830689769260946e-06;3.2615350488715568e-06;-5.257401595251267e-06;5.257401595029223e-06;5.246575399306324e-10;9.541604080475524e-05;-7.057295131466394e-11;9.344072809226754e-12;2.220446049250313e-16;-0.0;2.220446049250313e-16;1.2710281491668552e-10;-0.0009767700160929619
2.1402227878570557;-0.0004299177146095992;0.0008797464671539734;5.451103156760289e-06;-0.004488590683557391;-0.00019343646243761753;-0.0004531076513919134;2.220446049250313e-16;2.220446049250313e-16;2.220446049250313e-16;2.220446049250313e-16;2.220446049250313e-16;2.220446049250313e-16;2.220446049250313e-16;2.220446049250313e-16;2.220446049250313e-16;2.220446049250313e-16;2.220446049250313e-16;2.220446049250313e-16;0.00026756245369111213;0.00026756245384097467;-3.889338742686723e-07;0.0001143314829899677;0.0004736096914499635;-2.999882700887409e-06;2.6565406818999373e-06;-4.28218645811272e-06;4.282186457890675e-06;4.2733684538312463e-10;7.771696158572814e-05;-5.748210992673948e-11;7.610805703570249e-12;2.220446049250313e-16;-0.0;2.220446049250313e-16;1.0352603714223356e-10;-0.0007955852829203179
2.1601243019104004;-0.0004490575006041507;0.0009327994985182947;6.982205119841822e-06;-0.004546406128678562;-0.00021626962899119536;-0.000520052374080125;2.220446049250313e-16;2.220446049250313e-16;2.220446049250313e-16;2.220446049250313e-16;2.220446049250313e-16;2.220446049250313e-16;2.220446049250313e-16;2.220446049250313e-16;2.220446049250313e-16;2.220446049250313e-16;2.220446049250313e-16;2.220446049250313e-16;0.00021793129079674637;0.00021793129091881032;-3.1678907142854773e-07;9.312370746709737e-05;0.0003857580537465668;-2.4434232091396757e-06;2.163768988786761e-06;-3.487867633818766e-06;3.4878676335967215e-06;3.480685314198385e-10;6.330095094258548e-05;-4.681953779851634e-11;6.199048813093613e-12;2.220446049250313e-16;-0.0;2.220446049250313e-16;8.432260429008136e-11;-0.0006480091853466172
2.180111885070801;-0.0004639688222041901;0.00098455950382271;9.153236138275182e-06;-0.004586110726341553;-0.00023483397333429992;-0.0005884830105604537;2.220446049250313e-16;2.220446049250313e-16;2.220446049250313e-16;2.220446049250313e-16;2.220446049250313e-16;2.220446049250313e-16;2.220446049250313e-16;2.220446049250313e-16;2.220446049250313e-16;2.220446049250313e-16;2.220446049250313e-16;2.220446049250313e-16;0.00017750639842451735;0.00017750639852393924;-2.580266786102485e-07;7.584984175512246e-05;0.0003142023457644145;-1.9901834752393227e-06;1.7624033649229957e-06;-6.629307952903626e-06;6.629307952681581e-06;2.835039942697798e-10;5.155902017367925e-05;-3.81348061590028e-11;5.04916400231983e-12;2.220446049250313e-16;-0.0;2.220446049250313e-16;6.868128821054807e-11;-0.0005278075315222282
2.200127363204956;-0.0004766512922553577;0.001034474142640431;1.1550708701010526e-05;-0.004602723459605901;-0.0002524460193170356;-0.0006585113031873377;2.220446049250313e-16;2.220446049250313e-16;2.220446049250313e-16;2.220446049250313e-16;2.220446049250313e-16;2.220446049250313e-16;2.220446049250313e-16;2.220446049250313e-16;2.220446049250313e-16;2.220446049250313e-16;2.220446049250313e-16;2.220446049250313e-16;0.0001445800709317595;0.00014458007101273926;-2.1016434239478871e-07;6.17801701710582e-05;0.0002559197743897766;-1.6210168792291482e-06;1.4354885557508106e-06;-5.399612760835301e-06;5.3996127606132566e-06;2.3091577523269985e-10;4.199514417533783e-05;-3.106103795904626e-11;4.1125756371645146e-12;2.220446049250313e-16;-0.0;2.220446049250313e-16;5.594133850554272e-11;-0.0004299025332219267
2.21999192237854;-0.0004890542124241512;0.0010816229816592287;1.3735679301892824e-05;-0.004592028311243241;-0.0002722673657717087;-0.0007295669388353995;2.220446049250313e-16;2.220446049250313e-16;2.220446049250313e-16;2.220446049250313e-16;2.220446049250313e-16;2.220446049250313e-16;2.220446049250313e-16;2.220446049250313e-16;2.220446049250313e-16;2.220446049250313e-16;2.220446049250313e-16;2.220446049250313e-16;0.0001177613713993614;0.00011776137146531992;-1.7118017040769534e-07;5.032033473039046e-05;0.00020844825573906292;-1.320328379487636e-06;1.1692144004625085e-06;-4.398018341300701e-06;4.398018341078657e-06;1.880823421506292e-10;3.4205307400463755e-05;-2.529940954913042e-11;3.349718560068229e-12;2.220446049250313e-16;-0.0;2.220446049250313e-16;4.5564569846130205e-11;-0.0003501583002000919
2.2400214672088623;-0.0005019290636442755;0.0011266959671998244;1.5637661066877528e-05;-0.004551323485194334;-0.0002956441008528926;-0.0008031630831862122;2.220446049250313e-16;2.220446049250313e-16;2.220446049250313e-16;2.220446049250313e-16;2.220446049250313e-16;2.220446049250313e-16;2.220446049250313e-16;2.220446049250313e-16;2.220446049250313e-16;2.220446049250313e-16;2.220446049250313e-16;2.220446049250313e-16;9.591737301335108e-05;9.591737306707472e-05;-1.3942731867313286e-07;4.098622713999508e-05;0.0003216191187322501;-1.0754157171450509e-06;3.1065988887043513e-06;4.160708602424181e-05;-4.1607086024463855e-05;-0.00015183655843694182;2.7860436660848973e-05;-2.0606527199076407e-11;2.7283667029165727e-12;2.220446049250313e-16;-0.0;2.220446049250313e-16;3.711262691823457e-11;-0.000285206124002351
2.260145902633667;-0.0005137865494847891;0.0011682723362366422;1.739263617789163e-05;-0.004479534413830236;-0.00032052750034164716;-0.0008774230844777513;2.220446049250313e-16;2.220446049250313e-16;2.220446049250313e-16;2.220446049250313e-16;2.220446049250313e-16;2.220446049250313e-16;2.220446049250313e-16;2.220446049250313e-16;2.220446049250313e-16;2.220446049250313e-16;2.220446049250313e-16;2.220446049250313e-16;7.812529980295579e-05;7.812529984671403e-05;-1.1356442248000839e-07;3.3383538169445614e-05;0.0002619607823269098;-8.759328229628757e-07;2.530344211092748e-06;-4.414347106710106e-06;4.414347106488062e-06;-0.0001236718258253793;2.2692499787990615e-05;-1.6784145194442724e-11;2.2222717318174414e-12;2.220446049250313e-16;-0.0;2.220446049250313e-16;3.022846657882029e-11;-0.00023230217053818995
2.280142307281494;-0.00052251184995039;0.0012039911732055107;1.916119110369705e-05;-0.0043789645509312945;-0.00034362855140971613;-0.0009484652569662583;2.220446049250313e-16;2.220446049250313e-16;2.220446049250313e-16;2.220446049250313e-16;2.220446049250313e-16;2.220446049250313e-16;2.220446049250313e-16;2.220446049250313e-16;2.220446049250313e-16;2.220446049250313e-16;2.220446049250313e-16;2.220446049250313e-16;6.363354497263125e-05;6.363354500827261e-05;-9.249893188760732e-08;2.7191100486127012e-05;0.0002133686944601576;-7.134527588834058e-07;2.060981174586362e-06;-4.332905418055084e-06;4.332905417833039e-06;-0.00010073147508368282;1.8483182905442032e-05;-1.3670791161781061e-11;1.8100542147636298e-12;2.220446049250313e-16;-0.0;2.220446049250313e-16;2.4621274956365238e-11;-0.00018921156979192155
2.3000216484069824;-0.0005268118764498567;0.0012309145567915385;2.0900354088604527e-05;-0.004254247019439483;-0.00036258989421394087;-0.0010111235198915038;2.220446049250313e-16;2.220446049250313e-16;2.220446049250313e-16;2.220446049250313e-16;2.220446049250313e-16;2.220446049250313e-16;2.220446049250313e-16;2.220446049250313e-16;2.220446049250313e-16;2.220446049250313e-16;2.220446049250313e-16;2.220446049250313e-16;5.182992008986423e-05;5.182992011889433e-05;-7.534095814078044e-08;2.214732129032848e-05;0.00017379013519213868;-5.81111731190277e-07;1.678682047832933e-06;-3.529178543685322e-06;3.5291785434632773e-06;-0.0006656690626343497;1.5054667996375693e-05;-1.1134944843715432e-11;1.4743004707638182e-12;2.220446049250313e-16;-0.0;2.220446049250313e-16;2.0054182334927962e-11;-0.00015411400616783128
2.3203165531158447;-0.0005257466679953403;0.0012454015115695416;2.2436224849429006e-05;-0.004107590772000225;-0.00037578048086879594;-0.0010596493643728643;2.220446049250313e-16;2.220446049250313e-16;2.220446049250313e-16;2.220446049250313e-16;2.220446049250313e-16;2.220446049250313e-16;2.220446049250313e-16;2.220446049250313e-16;2.220446049250313e-16;2.220446049250313e-16;2.220446049250313e-16;2.220446049250313e-16;4.221579385019496e-05;4.221579387384016e-05;-6.136568128665403e-08;1.8039131611730606e-05;0.00014155315130234188;-4.733191370028004e-07;1.3672970197227225e-06;-3.9336040037754715e-06;3.933604003553426e-06;-0.0006827348588267318;1.2262121174722975e-05;-9.06948216861149e-12;1.2008269478150724e-12;2.220446049250313e-16;-0.0;2.220446049250313e-16;1.6334256850438412e-11;-0.00012552682123623707
2.3401689529418945;-0.0005179564043452534;0.00124352852177104;2.3646191424829774e-05;-0.0039513450716991425;-0.0003799702970253325;-0.001085996433408254;2.220446049250313e-16;2.220446049250313e-16;2.220446049250313e-16;2.220446049250313e-16;2.220446049250313e-16;2.220446049250313e-16;2.220446049250313e-16;2.220446049250313e-16;2.220446049250313e-16;2.220446049250313e-16;2.220446049250313e-16;2.220446049250313e-16;3.4385027939695354e-05;3.438502795895451e-05;-4.998273094348775e-08;1.4692985442327151e-05;0.0002637187115452705;-3.855213953333872e-07;1.1136719681705308e-06;-3.2039450461207383e-06;3.2039450458986924e-06;-0.0007045145947095581;9.987574335069206e-06;-7.387149910597611e-12;9.780810541637998e-13;2.220446049250313e-16;-0.0;2.220446049250313e-16;1.33043542937874e-11;-0.00010224238043954784
2.3599812984466553;-0.0005020005049392641;0.0012244482746915518;2.4711414656658207e-05;-0.003788882253732443;-0.0003727626019808477;-0.0010883008800303083;2.220446049250313e-16;2.220446049250313e-16;2.220446049250313e-16;2.220446049250313e-16;2.220446049250313e-16;2.220446049250313e-16;2.220446049250313e-16;2.220446049250313e-16;2.220446049250313e-16;2.220446049250313e-16;2.220446049250313e-16;2.220446049250313e-16;2.800682016330648e-05;2.800682017899319e-05;-4.0711246745539155e-08;1.1967528473934475e-05;0.00021480053879557;-3.140095860077646e-07;1.0487251002810037e-05;-2.609633264742473e-06;2.609633264520428e-06;-0.0005738315406071518;8.13494171825346e-06;-6.016879771868693e-12;7.966531316230035e-13;2.220446049250313e-16;-0.0;2.220446049250313e-16;1.083647972450417e-11;-8.327705788288944e-05
2.3800253868103027;-0.0004766308536086136;0.0011881810615736695;2.5860468865591612e-05;-0.0036244995789216595;-0.0003519630589685023;-0.0010657989809972714;2.220446049250313e-16;2.220446049250313e-16;2.220446049250313e-16;2.220446049250313e-16;2.220446049250313e-16;2.220446049250313e-16;2.220446049250313e-16;2.220446049250313e-16;2.220446049250313e-16;2.220446049250313e-16;2.220446049250313e-16;2.220446049250313e-16;2.281173006563915e-05;2.281173007841607e-05;-3.3159564919533787e-08;9.74762673907259e-06;0.00017495638135235918;-2.557627703632368e-07;8.541931487107542e-06;-2.1255626043612417e-06;2.1255626041391966e-06;-0.0004673893762716541;6.62596087290318e-06;0.00031246617130468085;6.488789547890089e-13;2.220446049250313e-16;-0.0;2.220446049250313e-16;8.826380463606928e-12;-0.0014116653195028125
2.400175094604492;-0.0004418894983675923;0.0011354122027073428;2.715155807099337e-05;-0.0034650125405833515;-0.0003169812307200245;-0.0010182279687178596;2.220446049250313e-16;2.220446049250313e-16;2.220446049250313e-16;2.220446049250313e-16;2.220446049250313e-16;2.220446049250313e-16;2.220446049250313e-16;2.220446049250313e-16;2.220446049250313e-16;2.220446049250313e-16;2.220446049250313e-16;2.220446049250313e-16;1.858029671177599e-05;1.8580296722182874e-05;-2.7008672874241014e-08;7.939502901641742e-06;0.00014250306608888002;-2.0832037497817107e-07;6.957456583320888e-06;-1.7312840260391017e-06;1.7312840258170573e-06;-0.00038069156815686385;0.00015171742702855984;0.0007963559261498622;5.285159641691149e-13;2.220446049250313e-16;-0.0;2.220446049250313e-16;7.18914205248574e-12;-0.0011498102256432875
2.4199981689453125;-0.00039963396312406443;0.0010677672016561229;2.8403000400287844e-05;-0.0033159143257014637;-0.0002699584315012998;-0.0009469417706166721;2.220446049250313e-16;2.220446049250313e-16;2.220446049250313e-16;2.220446049250313e-16;2.220446049250313e-16;2.220446049250313e-16;2.220446049250313e-16;2.220446049250313e-16;2.220446049250313e-16;2.220446049250313e-16;2.220446049250313e-16;2.220446049250313e-16;1.513376779859599e-05;1.5133767807072464e-05;-2.1998732860274763e-08;6.466774735280332e-06;0.0008089618872014968;-1.6967824742206393e-07;5.666891871218507e-06;4.4020471920762975e-05;-4.402047192098502e-05;-0.00031007566158606657;0.00012357479254868092;0.0007986368253857012;4.3047955604052004e-13;2.220446049250313e-16;-0.0;2.220446049250313e-16;5.855601133887464e-12;-0.0009365276151003676
