flxalr/sts-optimization-reemc/input/415_104/acc.csv
time;base_link_tx;base_link_ty;base_link_tz;base_link_rz;base_link_ry;base_link_rx;leg_left_1_joint;leg_left_2_joint;leg_left_3_joint;leg_left_4_joint;leg_left_5_joint;leg_left_6_joint;leg_right_1_joint;leg_right_2_joint;leg_right_3_joint;leg_right_4_joint;leg_right_5_joint;leg_right_6_joint;torso_1_joint;torso_2_joint;arm_left_1_joint;arm_left_2_joint;arm_left_3_joint;arm_left_4_joint;arm_left_5_joint;arm_left_6_joint;arm_left_7_joint;arm_right_1_joint;arm_right_2_joint;arm_right_3_joint;arm_right_4_joint;arm_right_5_joint;arm_right_6_joint;arm_right_7_joint;head_1_joint;head_2_joint
0.0;0.0;0.0;0.0;0.0;0.0;0.0;2.234115778273635e-05;-2.3434540446053653e-23;-3.6273230660211353e-19;4.6579310548023945e-21;9.134843497012154e-22;4.607956065296571e-24;-4.028838763453739e-14;6.249619425651318e-23;-3.4371521681023926e-19;4.605734152415942e-21;4.311659019064625e-22;1.5905587099578072e-15;8.759875559667572e-08;-4.19953900730942e-07;1.0164918850122145e-06;-0.001257534957446953;-0.002086506010687948;-6.185252340891253e-05;-2.9372639206146854e-05;-2.7519375919995194e-05;2.7519375919994523e-05;5.23049006871099e-05;-4.392621079793235e-05;0.0005880104749822831;7.218388949449859e-06;0.0;-9.605770606016272e-05;7.246178418630427e-05;-0.0005613738759846186;0.03470854946733909
0.020132780075073242;0.00018145724689397165;0.0001660566284086591;5.080249596887782e-05;0.000308038559784545;0.00024382528035106816;-0.0002353959345053989;-4.0929617561119526e-06;-2.3455499131353174e-23;-3.634478428285598e-19;4.677451430550071e-21;8.952607315627553e-22;4.637727356365766e-24;-4.028587576588652e-14;6.278534761412352e-23;-3.443972843588527e-19;4.625266337304324e-21;4.1257013745138106e-22;1.5845685636655736e-15;8.77353158778798e-08;-4.2023189690251974e-07;1.0140435865737207e-06;-0.0012564749211375751;-0.00208853394830417;-6.185942671110599e-05;-2.9397607389080763e-05;-2.704154649331724e-05;2.7041546493315544e-05;5.230429490922189e-05;-4.507630923636154e-05;0.0005938991214500428;7.437525238004809e-06;0.0;-9.692937280307404e-05;7.297788845312235e-05;-0.0005629338953028493;0.03460335020859222
0.04002714157104492;0.0004651821765486124;0.000490140993562145;0.00013646937745952835;0.0007351826275689849;0.0006300532513900624;-0.0006839446480045075;-9.512211758649713e-05;-2.3528594835060395e-23;-3.66116180556464e-19;4.7523116199273904e-21;8.232980898284926e-22;4.7528838336020245e-24;-4.026011548209227e-14;6.38968098776576e-23;-3.46941621375096e-19;4.7001935204497995e-21;3.39335546363615e-22;1.5617846185962219e-15;8.824558062608471e-08;-4.211667861788277e-07;1.0054493152660103e-06;-0.001251854074273632;-0.0020956988770040835;-6.186215401768151e-05;-2.9510395398697e-05;-2.6059552457689546e-05;2.605955245768673e-05;5.2284735017437806e-05;-4.957782966474953e-05;0.0006172471536451959;8.211983516327617e-06;0.0;-9.935227837556862e-05;7.405712774528078e-05;-0.0005688419442808778;0.034218591954714224
0.0603947639465332;0.0007585942242210382;0.0007284978303838854;0.00022231262594252043;0.0011206226790784403;0.0010361533127416882;-0.0010861933255848944;-0.00023261590932834698;-2.3671233151255146e-23;-3.718799691168466e-19;4.9202523990018054e-21;6.557638987336639e-22;5.014114669117233e-24;-4.015497416125525e-14;6.63977846550232e-23;-3.524400021409453e-19;4.868348298601883e-21;1.6940359878576106e-22;1.5109726015071753e-15;8.93493386273057e-08;-4.228773371149966e-07;9.882432659085693e-07;-0.0012398490221127412;-0.002109971635082043;-6.179855055565703e-05;-2.9808659185309612e-05;-2.447418109183152e-05;2.447418109183034e-05;5.2189618178770025e-05;-5.6827109279068775e-05;0.0006689410129011128;9.771073837979798e-06;0.0;-0.00010131974765792813;7.491561364173868e-05;-0.0005818770165991311;0.03337601175954743
0.08011293411254883;0.0011991179314198186;0.0008884891852340875;0.00034025594299756743;0.001421094477785847;0.0016782730752229638;-0.0014535186427765516;-0.0003451287172317032;-2.3869487820720988e-23;-3.8105200080650437e-19;5.199244674873e-21;3.663995944666981e-22;5.453327619637348e-24;-3.989446434593041e-14;7.056618662811274e-23;-3.611942832046832e-19;5.14781158876644e-21;-1.231178038210626e-22;1.4347714284233692e-15;9.110536206363474e-08;-4.250144781879802e-07;9.628448819822793e-07;-0.0012169185956409903;-0.002130409216936331;-6.156648886213938e-05;-3.0235913780213346e-05;-2.2319814059973444e-05;2.231981405997076e-05;5.1937325758798396e-05;-6.319769101995772e-05;0.0007418670132030823;1.2071592337059505e-05;0.0;-0.00010161599050359902;7.56247198017361e-05;-0.0006031345496724322;0.03199222144271656
0.1000223159790039;0.0017298643121698761;0.0010266819767587843;0.0004819688056830675;0.0017290176479924312;0.0024578866570246845;-0.0018721990410169097;-0.00039036467988976025;-2.4105718749713285e-23;-3.9428927956412863e-19;5.6222929251364624e-21;-9.075766481193497e-23;6.12804173017115e-24;-3.9356610537605804e-14;7.69096308048046e-23;-3.73836641805571e-19;5.571766238765973e-21;-5.836876511432766e-22;1.3385241170831544e-15;9.363399820279803e-08;-4.270779138474677e-07;9.287708558973263e-07;-0.0011771540181784216;-0.002155941610088914;-6.100429135736491e-05;-3.0658170494118013e-05;-1.947507525637749e-05;1.9475075256377538e-05;5.13958128557319e-05;-6.667952658114288e-05;0.0008259904798286188;1.512877436412567e-05;0.0;-0.00010168119352271285;7.707968479610567e-05;-0.000634707672343498;0.03021621293254422
0.11999821662902832;0.0022551022085225787;0.001127787768522542;0.0006228504994787885;0.002122093321124424;0.0032195516329101316;-0.0023115775130109397;-0.0003415977129640311;-2.4336481853894803e-23;-4.11677187234083e-19;6.2105087928159075e-21;-7.542865584844259e-22;7.07941016972526e-24;-3.83920723681558e-14;8.576415297376839e-23;-3.9045581942197833e-19;6.1615339504743106e-21;-1.2498759497095143e-21;1.2289713370452527e-15;9.694003330114576e-08;-4.2815459372417306e-07;8.870237221722841e-07;-0.0011199022029162052;-0.0021831464635112905;-5.9903527781521326e-05;-3.097615903066878e-05;-1.5925229860064557e-05;1.5925229860060382e-05;5.0399060768910604e-05;-6.566799789045677e-05;0.0009104391619003066;1.879015118693711e-05;0.0;-0.00010173587575483164;7.908292123819257e-05;-0.0006776054202201009;0.02823897408607064
0.13999128341674805;0.0026645074807898953;0.001240275300656018;0.0007312983847552485;0.002773193611076913;0.003775604293601669;-0.002717817193736001;-0.00022916807685820722;-2.4499359629994933e-23;-4.3297874391932075e-19;6.980110306135199e-21;-1.6621160079888737e-21;8.342974283914288e-24;-3.682168881921518e-14;9.739814818040427e-23;-4.108348011286937e-19;6.933580819527663e-21;-2.1582165789885877e-21;1.1117892945879787e-15;1.0095887205749921e-07;-4.2700424814161094e-07;8.39033385366835e-07;-0.0010511390524603457;-0.002206913596779533;-5.8009200593836876e-05;-3.112787842387092e-05;-1.2557111236739013e-05;1.2557111236737566e-05;4.874457524295714e-05;-5.922291647022485e-05;0.0009856800719431572;2.2822864197846882e-05;0.0;-0.00010014299384653178;7.963502921690936e-05;-0.0007323049022815474;0.025953014930344565
0.16007137298583984;0.002964020741547106;0.0013534891767161608;0.0008074431805278425;0.0037223969412858203;0.004130963234952895;-0.0030826177037579245;-0.00012240089984087574;-2.4512670638271452e-23;-4.577486344836152e-19;7.947011940470366e-21;-2.8572964891775084e-21;9.95637923236205e-24;-3.4424339251429264e-14;1.1208218613860538e-22;-4.345600877537149e-19;7.90412571784991e-21;-3.3499549873281556e-21;9.910650939771234e-16;1.0557645857669899e-07;-4.220282284694217e-07;7.862075218024948e-07;-0.00097912545148401;-0.002220477301785538;-5.500436388159273e-05;-3.1076514477392144e-05;-1.019315371717405e-05;1.0193153717172111e-05;4.61798291816134e-05;-4.685570747880003e-05;0.001046036626822353;2.694399060357897e-05;0.0;-9.615711825232942e-05;7.770006521262254e-05;-0.000799064713629384;0.02325459128958407
0.18014883995056152;0.0032195205178638907;0.0015543625556278325;0.0008775593713737968;0.004687419215309674;0.004416274436386381;-0.003511810100429302;-7.061939274725195e-05;-2.4274140677774855e-23;-4.850010084370041e-19;9.114327328825824e-21;-4.3728824040886855e-21;1.1938677541256455e-23;-3.0965363740806075e-14;1.2989964114727407e-22;-4.607036895316261e-19;9.076599356041434e-21;-4.855950347979981e-21;8.70986743248511e-16;1.1056592190604016e-07;-4.113114139925071e-07;7.304759543495078e-07;-0.0009118967511244151;-0.002215139939846687;-5.054518338979171e-05;-3.0755709639071504e-05;-8.740823217875096e-06;8.740823217873651e-06;4.2432029274729006e-05;-2.856239372249731e-05;0.0010879610724524218;3.0772333590802317e-05;0.0;-9.078942040278836e-05;7.388348255820888e-05;-0.0008770501916888167;0.02007273349283556
0.20000576972961426;0.0032318848782487107;0.0016950625588994178;0.0008858399489952895;0.005325829485016499;0.004364456968749355;-0.0037497501675049782;-8.875507362009827e-05;-2.3671912598713523e-23;-5.131590135520159e-19;1.0465890107247498e-20;-6.2207572974084065e-21;1.4278003914572156e-23;-2.6237228408027976e-14;1.5064436729974069e-22;-4.877730226473624e-19;1.0435107634160713e-20;-6.685760597551616e-21;7.556713863927015e-16;1.1558147485766598e-07;-3.9286005829863294e-07;6.741813705075342e-07;-0.0008539234744102217;-0.002181125336253082;-4.431729528112911e-05;-3.0081424899055155e-05;-8.113371724679204e-06;8.11337172467871e-06;3.7253408256235646e-05;-4.940137058240959e-06;0.0011101320812118751;3.385739622309843e-05;0.0;-8.416236737909523e-05;6.783496433655936e-05;-0.0009639998453882242;0.01637959405688833
0.22012066841125488;0.0030271751419801516;0.001625943728283436;0.0008311422774086195;0.005620263123967344;0.004018559444654369;-0.003680929687043615;-0.00014123723725872504;-2.2549710436013165e-23;-5.412481729009679e-19;1.202734053168262e-20;-8.477325159253116e-21;1.7038355139579735e-23;-1.9828943614650476e-14;1.747610010536507e-22;-5.148596366192507e-19;1.2005854871101378e-20;-8.912354797803476e-21;6.445401901281033e-16;1.2036670396032762e-07;-3.6362613874574464e-07;6.176199137387015e-07;-0.0008072038941502751;-0.002105390076837291;-3.572946302468822e-05;-2.8959915533867504e-05;-8.200490923551044e-06;8.20049092355259e-06;3.0167313000468217e-05;2.4012122206247868e-05;0.001113278201580438;3.579365299369019e-05;0.0;-7.534881285978993e-05;6.0108510503104716e-05;-0.001060077127585498;0.012330975859275367
0.23996615409851074;0.002647752375659834;0.001430952271007879;0.0007313565301333865;0.005456216420616973;0.003455042921581249;-0.003405354192787501;-0.0001683266488147401;-2.0781953557898662e-23;-5.665191511967833e-19;1.3742096325474056e-20;-1.1108269683961804e-20;2.014221462844764e-23;-1.1603982109542379e-14;2.014342559225158e-22;-5.393500063759532e-19;1.3732418056101717e-20;-1.1498953878329612e-20;5.420463350373265e-16;1.2434102594397491e-07;-3.215688620368642e-07;5.637683025075971e-07;-0.0007757266382613183;-0.0019789431997166646;-2.454992587119395e-05;-2.7356491306277464e-05;-8.868922245165988e-06;8.868922245167182e-06;2.0994680343445127e-05;5.672863456373721e-05;0.0010985472586508105;3.6015821819205725e-05;0.0;-6.472025885782224e-05;5.253166173024875e-05;-0.0011600949567322125;0.008245464341757349
0.25994300842285156;0.002077101512191516;0.0010080288235579764;0.0005701015753042437;0.004963324908079937;0.0026362302980679217;-0.0027662789550383063;-0.00013175323528359856;-1.8164344574620045e-23;-5.870374029178852e-19;1.5617742686202607e-20;-1.4181313308926066e-20;2.3629910866879955e-23;-1.0901615627445016e-15;2.308514191018126e-22;-5.594237047088653e-19;1.562302098277884e-20;-1.450888982169753e-20;4.47101835903141e-16;1.2703731064707956e-07;-2.628348086494925e-07;5.128821340630284e-07;-0.0007610500934021972;-0.0017890129615673346;-1.0087537935469676e-05;-2.5183306439686966e-05;-9.957908387872138e-06;9.957908387875018e-06;9.178380426933263e-06;9.279746062952149e-05;0.0010676978436199426;3.3975053961339506e-05;0.0;-5.287377046541967e-05;4.5462499800256235e-05;-0.0012624800818517357;0.00392638602515324
0.2799499034881592;0.0014144396210875423;0.0006108007449427983;0.00038785761276311935;0.004380279770676256;0.0016857675386648752;-0.0021009410387007365;-3.8680945327953384e-05;-1.450835016701582e-23;-5.997242251119752e-19;1.761050729096815e-20;-1.769599519655504e-20;2.7453853658479324e-23;1.2020838258771407e-14;2.624140084683708e-22;-5.721617777109709e-19;1.763428728302626e-20;-1.793784572000715e-20;3.609154179877937e-16;1.277749270490931e-07;-1.8413337629367322e-07;4.664512091022856e-07;-0.0007653274910626221;-0.0015312785405922423;8.135461013257923e-06;-2.2348802423148405e-05;-1.1285719428090602e-05;1.1285719428090678e-05;-5.662897334299591e-06;0.00013084022540620804;0.0010229326175186018;2.9039494386728815e-05;0.0;-3.9718884533752194e-05;3.839524039241946e-05;-0.0013622822006185207;-0.0004384424776179394
0.29999327659606934;0.0007962935890546172;0.00024575761424812566;0.00021081697665408032;0.003712533570589036;0.0008140714100621357;-0.001354992832308766;5.6501817168785485e-05;-9.600779634913023e-24;-6.011503376387892e-19;1.9672935495430715e-20;-2.1654325776295426e-20;3.1563639759933114e-23;2.8082778869304542e-14;2.954763107796814e-22;-5.743133949475364e-19;1.9719217800660755e-20;-2.1783463815154183e-20;2.837780219970361e-16;1.2579072353801835e-07;-8.172944062797577e-08;4.254962008496476e-07;-0.0007873178968444226;-0.001213880309950015;3.066574124190305e-05;-1.8721508940206072e-05;-1.2647301940870878e-05;1.2647301940871786e-05;-2.3967151022785914e-05;0.00016943497007203742;0.0009665830390775504;2.053570949718107e-05;0.0;-2.5384052654921306e-05;3.0943597746164854e-05;-0.0014540443547639908;-0.004448287598427083
0.3201334476470947;0.00022622737507117324;-3.9235189618088314e-05;4.605117565029493e-05;0.0028948624544591975;3.2803751581624936e-05;-0.0006054585959454071;9.810305139540291e-05;-3.1942607756472815e-24;-5.87302952977984e-19;2.174864179280997e-20;-2.6056997988708744e-20;3.5898568512397893e-23;4.750282150106524e-14;3.2926897995639105e-22;-5.62074247407911e-19;2.1821950519363948e-20;-2.6041373597590503e-20;2.1553517341559578e-16;1.2019006308890236e-07;4.8706691329973945e-08;3.907799901792917e-07;-0.0008231502558276985;-0.0008516451983430627;5.813345205052831e-05;-1.4163855157527546e-05;-1.381311276912391e-05;1.3813112769125414e-05;-4.624024210456632e-05;0.0002097466288213569;0.0009008113706658391;7.705677978545572e-06;0.0;-1.0888320300577075e-05;2.3724289588641192e-05;-0.0015313435450840553;-0.00774697710270064
0.3399641513824463;-0.00019986218922030108;-0.00019122556915191543;-7.695883695445639e-05;0.001918713688240699;-0.0005107425203540886;3.0094402420735556e-05;5.410138725772899e-05;4.780394909932085e-24;-5.544321819472716e-19;2.3718712486691313e-20;-3.0776306752890034e-20;4.026936407118546e-23;7.01359690995035e-14;3.620099375448232e-22;-5.318633398578834e-19;2.3823325292363435e-20;-3.058285120812895e-20;1.5718018386010688e-16;1.1020685991756285e-07;2.0785552779683792e-07;3.6352185067896594e-07;-0.0008655613877769125;-0.0004666432031309653;9.038967682738371e-05;-8.67370821821648e-06;-1.4568666367842421e-05;1.456866636784355e-05;-7.23575319237397e-05;0.00025388174133375807;0.0008293729081351426;-9.826800859546638e-06;0.0;2.623427477149423e-06;1.723757475440213e-05;-0.0015852762959249706;-0.00994071064251989
0.3601703643798828;-0.0004635135445323579;-0.0002468764500559869;-0.00014602991032228911;0.0009310595005209668;-0.0008058372701254517;0.00040996703700144554;-5.0222244464157117e-05;1.4838761161690841e-23;-4.964157753241153e-19;2.555360936698628e-20;-3.592279540624038e-20;4.469649109946963e-23;9.705166394404076e-14;3.9343228970931126e-22;-4.778986107865278e-19;2.56952301055021e-20;-3.550754759387279e-20;1.0632048569169548e-16;9.4409626407722e-08;4.0520053807064434e-07;3.432629309502096e-07;-0.0009074050724245062;-6.669521543571668e-05;0.00012902516024971262;-1.9512149587714678e-06;-1.4799238177051115e-05;1.479923817705242e-05;-0.00010360323995352369;0.00030527103965634594;0.0007519577661832693;-3.34316784214188e-05;0.0;1.5715208611612232e-05;1.0583950690212888e-05;-0.0016085179511430377;-0.011071509255899581
0.38001489639282227;-0.0006188714001782044;-0.0001869244990479748;-0.00017088613881965348;1.5529888103457704e-05;-0.0009454356441293851;0.00048145604231330917;-0.00014582803565706956;2.6835493048561154e-23;-4.101963643714655e-19;2.7073890673380777e-20;-4.123246268583728e-20;4.886051715162516e-23;1.274771268953856e-13;4.2075877534443443e-22;-3.9722810008566033e-19;2.7257105904779215e-20;-4.0555255803898515e-20;6.429055670456079e-17;7.225720612317307e-08;6.371080107244078e-07;3.309945869643784e-07;-0.0009370046150422971;0.00030766151027301;0.00017299948112318672;4.126523709180904e-06;-1.4405430915336725e-05;1.4405430915338168e-05;-0.00013913318790499365;0.00036288734123425455;0.0006732904758285193;-6.296475339043932e-05;0.0;2.7901721673087283e-05;3.5309974394935444e-06;-0.0015901953699478722;-0.011359111751552442
0.400099515914917;-0.0006636529047289035;7.474781566285305e-05;-0.00014347081101058666;-0.0007339160595438239;-0.0009374082560069904;0.00010920747118941942;-0.0001879667482259425;4.132817489823415e-23;-2.877514949943572e-19;2.819260173203462e-20;-4.6756646395573947e-20;5.2691677290735223e-23;1.624308720284124e-13;4.428650662738362e-22;-2.822562384793098e-19;2.8423330894819654e-20;-4.576574569447719e-20;2.911285374335764e-17;4.1923874779855775e-08;9.135536911553599e-07;3.2633036494637735e-07;-0.0009461457859132848;0.0006503422857161165;0.00022385957890070482;8.24089581734546e-06;-1.3319387077284266e-05;1.3319387077284263e-05;-0.0001801953345247304;0.00042838032581368177;0.000592726523174358;-9.99701282458878e-05;0.0;3.8637934359435996e-05;-3.6494124111618074e-06;-0.0015185966657267791;-0.011090639304617856
0.42016124725341797;-0.0006821215320445645;0.00035590568458273273;-0.00010562685212442959;-0.00133876019847622;-0.0009055855840059355;-0.00036182568343096105;-0.0001564550557284507;5.835543528206756e-23;-1.2415167209275374e-19;2.873202773542227e-20;-5.228600248532025e-20;5.589833332454687e-23;2.0155252348588426e-13;4.570650262081654e-22;-1.2826717804927168e-19;2.901562861933397e-20;-5.0929533475804774e-20;6.896034507295509e-19;2.415179448103795e-09;1.234354835150822e-06;3.293140356678987e-07;-0.0009260284184726298;0.0009458133460408244;0.000281171338264096;1.0703151568213058e-05;-1.1508008123369557e-05;1.1508008123371078e-05;-0.00022643701376538712;0.0005001604392143655;0.0005127718167943525;-0.0001447339399110757;0.0;4.704756950226451e-05;-1.0545972901994544e-05;-0.0013810802686427261;-0.010502205562777598
0.4399678707122803;-0.000622900106927734;0.0006686442481400202;-5.5331472753962634e-05;-0.001733842828732251;-0.000776292376853002;-0.0008184649448078558;-8.619871638007945e-05;7.782137466315415e-23;8.392073634602134e-20;2.8522727380731865e-20;-5.758304578145278e-20;5.818444738171346e-23;2.4420408439201763e-13;4.607507594819967e-22;6.793243604771044e-20;2.886362616507419e-20;-5.581183413864073e-20;-2.1477687439359717e-17;-4.689101406857242e-08;1.5968611754063105e-06;3.3940893365656514e-07;-0.0008670292607389345;0.0011866466535139224;0.00034408736691601014;1.1836367453608822e-05;-8.98116540296246e-06;8.981165402964619e-06;-0.00027717361867209654;0.000575678700682737;0.00043555193755796605;-0.00019714320596755182;0.0;5.31595892062148e-05;-1.7778360751457303e-05;-0.0011669547982169656;-0.00949380666916911
0.4600708484649658;-0.0006314652485258714;0.0009541438980976533;-3.0419302392575465e-05;-0.001844007339660273;-0.0007810628828043645;-0.0011944936042935863;-3.685074629522388e-05;1.0038742024471614e-22;3.4872249872705305e-19;2.7353983364122523e-20;-6.257528756295397e-20;5.928757898293379e-23;2.913237609745289e-13;4.509544143388991e-22;3.1797765932143354e-19;2.775777759057504e-20;-6.03268511862086e-20;-3.869570306670536e-17;-1.0870341465715541e-07;2.0123579836003915e-06;3.5634534737506126e-07;-0.0007574867434647641;0.0013783923870144927;0.00041410357298243323;1.1929228877423836e-05;-5.597880612377024e-06;5.597880612376809e-06;-0.0003336100529385189;0.0006546726875077774;0.0003599516738407528;-0.0002591503293036053;0.0;5.697050217121822e-05;-2.6214678274060937e-05;-0.0008549152797506298;-0.007938522317212387
0.47994422912597656;-0.0006742935410540577;0.0012476701497532805;-1.7235345313292863e-05;-0.001896862834475696;-0.0008442031738731216;-0.0015273785006679605;-4.806191380787144e-05;1.2552456173790037e-22;6.696907333923286e-19;2.503160546864845e-20;-6.687091955161708e-20;5.881169878427211e-23;3.4125075211139423e-13;4.245393685387259e-22;6.214139758561618e-19;2.550157417778972e-20;-6.40948178470332e-20;-5.116316568061176e-17;-1.8269836723816218e-07;2.4699821785050358e-06;3.789226147785571e-07;-0.0005909323360508982;0.0015177366591881522;0.0004888799762131139;1.1175514720421271e-05;-1.3248020448390168e-06;1.3248020448397248e-06;-0.00039385870355998677;0.0007320333160211388;0.0002887856216087077;-0.00032948041276771887;0.0;5.836000730288284e-05;-3.4363695484821754e-05;-0.00043700843802109304;-0.005821482641926844
0.499950647354126;-0.000853823467210918;0.0013870853593918571;-4.8402186440225476e-05;-0.0020446642071970927;-0.0011055485265248131;-0.0016279329354519383;-0.00011364474870402538;1.5363920549313786e-22;1.0581609089893524e-18;2.127677919913419e-20;-7.024021606947951e-20;5.634607827761247e-23;3.9418669763064875e-13;3.774133337730338e-22;9.890347344748236e-19;2.1816352323300897e-20;-6.687840706604991e-20;-5.979673014122922e-17;-2.712985843280875e-07;2.97591124221286e-06;4.0645278123377264e-07;-0.0003622198004713539;0.0016116860923769542;0.0005688649114795222;9.766668132365642e-06;3.1429502231459126e-06;-3.1429502231453824e-06;-0.00045827937351174564;0.0008053269229053433;0.0002214083105904104;-0.00040945469469686347;0.0;5.7563373316788314e-05;-4.115090923005733e-05;0.00011014662813023227;-0.0030923526564388807
0.5199916362762451;-0.001193129374746131;0.0013014735544949843;-0.00013130116811336555;-0.0024189355154297628;-0.0015860378573553154;-0.0014271704074171523;-0.00018294658447418863;1.8449676283009955e-22;1.518414496856062e-18;1.5825523743705364e-20;-7.228887091365926e-20;5.141797470264798e-23;4.4894868174660464e-13;3.0548329254353267e-22;1.4249787645186904e-18;1.6436425579057832e-20;-6.8289337873807e-20;-6.512059161439868e-17;-3.7526524718950045e-07;3.524428212978384e-06;4.375256616438234e-07;-8.894661015125653e-05;0.0016646997320043275;0.0006524599662340812;7.89480799842836e-06;7.072173442797253e-06;-7.072173442799763e-06;-0.0005255823887196286;0.0008695153958241184;0.00015876081507773686;-0.000498637637491706;0.0;5.5576679336753014e-05;-4.622541701519219e-05;0.0008023326015824309;-4.278709141147699e-05
0.5401003360748291;-0.0015475463726489327;0.00112869959235351;-0.00022016538814221474;-0.0030337913590814712;-0.002063268880260081;-0.0011256163941463526;-0.00020126225532443316;2.179129923967058e-22;2.0563125150739964e-18;8.372437476949445e-21;-7.258558687396824e-20;4.3492267404161167e-23;5.043614988234338e-13;2.0404474702996487e-22;1.9348899059663968e-18;9.05467915995969e-21;-6.790142311999738e-20;-6.769132949613075e-17;-4.956949230911582e-07;4.110546864725464e-06;4.705675744217096e-07;0.0002026701375934538;0.001682943964188719;0.0007381005772646205;5.701943650758935e-06;1.0714187283728933e-05;-1.0714187283728418e-05;-0.00059450524716493;0.0009191814792249208;0.00010124554967623336;-0.0005967598031585722;0.0;5.318706508923467e-05;-4.905652008003782e-05;0.0016587027519647313;0.0031157028781260377
0.5603044033050537;-0.0018907903486106868;0.0008237510455087343;-0.00031632583959989265;-0.0038798534772808368;-0.00249669911827414;-0.0006216987996613784;-0.00013613606509184362;2.535557792380684e-22;2.6768759003148384e-18;-1.4153591411455227e-21;-7.062278440662608e-20;3.196791244265047e-23;5.588529932219262e-13;6.792360490787263e-23;2.5236309416234992e-18;-6.640256013564278e-22;-6.521545582844138e-20;-6.800459904559643e-17;-6.334583174346892e-07;4.726381074442232e-06;5.036414635835573e-07;0.0004897807126481288;0.0016728767674579759;0.0008236526155801854;3.2931943337557518e-06;1.4334757600338321e-05;-1.4334757600339419e-05;-0.0006633264176637652;0.0009478840017399041;4.926354125147906e-05;-0.0007031664482942681;0.0;4.9302746244129556e-05;-4.9028195669579307e-05;0.0024113584586084756;0.006208491234868285
0.5801060199737549;-0.0022174779701819173;0.00046684189295563913;-0.0004225502075789196;-0.004563460795816456;-0.0029203241239549827;4.0360464288431336e-05;-1.807811308172037e-05;2.8993483640849447e-22;3.3646171291026677e-18;-1.353920474660693e-20;-6.597339714585598e-20;1.6640884195493115e-23;6.091142238091094e-13;-1.0342606468859402e-22;3.1766047029402655e-18;-1.2725480142075025e-20;-5.983618884026013e-20;-6.655955287606053e-17;-7.848819195795653e-07;5.344102889014664e-06;5.33641509212379e-07;0.0007480043091229667;0.0016420782143029698;0.0009042445530287081;8.115171681114793e-07;1.7208874319722485e-05;-1.7208874319722733e-05;-0.0007281228100574176;0.0009510810714527136;4.340887275263426e-06;-0.0008137259569938993;0.0;4.401837491392243e-05;-4.6552050616338036e-05;0.0028177278562291977;0.008997808288248007
0.5999429225921631;-0.002501311199574366;0.00017881479247401703;-0.0005197435998662747;-0.005014801399408534;-0.003303149736751097;0.0006481547276055142;8.757732916466579e-05;3.270483580316e-22;4.1320597647562046e-18;-2.8491447579995216e-20;-5.802638893802416e-20;-3.31152983300418e-24;6.539054344514472e-13;-3.1748443633048195e-22;3.9058079703495316e-18;-2.7623913456800115e-20;-5.115452177493052e-20;-6.377721952491915e-17;-9.524628051463866e-07;5.961185389491408e-06;5.586110164568801e-07;0.000972747769520978;0.0015969866094116554;0.0009783183135589678;-1.6769869622256235e-06;1.879514488133603e-05;-1.879514488133559e-05;-0.0007876356693310346;0.0009265433487722355;-3.429804474438952e-05;-0.0009288206463947022;0.0;3.8054192811841266e-05;-4.2739395714982e-05;0.002976880820633591;0.011407367591238666
0.619992733001709;-0.002661997858568457;-6.714941253532231e-05;-0.0005913959154971592;-0.005248709840615164;-0.00351975999547467;0.0012257786504550749;0.0001331451319841966;3.6423589760223576e-22;4.9844075682020115e-18;-4.674638621493365e-20;-4.600509135234247e-20;-2.8771073000547787e-23;6.905712252298374e-13;-5.816897623080013e-22;4.716331212417713e-18;-4.5837401834366264e-20;-3.840971307498148e-20;-5.996512443723774e-17;-1.1369783470749503e-06;6.562895678981914e-06;5.755417666751331e-07;0.0011594621449115118;0.0015431995251120577;0.001042221551207694;-4.0418643009131785e-06;1.9393741501010436e-05;-1.9393741501010504e-05;-0.0008389192581967837;0.0008687767724142581;-6.645578096577489e-05;-0.0010470066514391126;0.0;3.1125733032568243e-05;-3.7603884391342e-05;0.0029525348492406875;0.013337255220339992
0.6402590274810791;-0.002662928579298742;-0.000160899376512506;-0.0006141176839738804;-0.00539288036432894;-0.0035019611801423867;0.0015794465669051302;9.620401679318893e-05;4.002044054188192e-22;5.917729222082594e-18;-6.867835493242879e-20;-2.907621942135464e-20;-6.053814902476082e-23;7.153039638727082e-13;-9.021848070537713e-22;5.604615536442255e-18;-6.774556446280524e-20;-2.0797523685834226e-20;-5.540347713810251e-17;-1.3371356900147762e-06;7.123197570806524e-06;5.805284020052388e-07;0.0013048228269367395;0.0014863193619311494;0.0010905510211025567;-6.1569650400638586e-06;1.9273770190049114e-05;-1.9273770190050727e-05;-0.0008776185897766628;0.0007703143688328326;-9.142511912791492e-05;-0.0011650085714290828;0.0;2.2096570286131262e-05;-3.035188367322487e-05;0.002793947969702448;0.01467852986325226
0.6599512100219727;-0.0024863552035543288;-0.0002687883776253112;-0.0005909401359294489;-0.0056428164878882196;-0.0032004597563876904;0.0018684068716285861;1.2587107476778897e-05;4.320822904834846e-22;6.883606802916398e-18;-9.356074677108202e-20;-7.321082723603341e-21;-9.778779013765011e-23;7.235579968886276e-13;-1.268944043321021e-21;6.5247403887273805e-18;-9.262759680533897e-20;1.5422357076553197e-21;-5.054118917317392e-17;-1.5421556604554017e-06;7.592167206432923e-06;5.69785637949085e-07;0.0014051308456759148;0.0014336396923348253;0.0011162188336324443;-7.855172117109807e-06;1.8666864142165086e-05;-1.8666864142165648e-05;-0.0008980333481800423;0.0006286670150640916;-0.00010788763931643403;-0.0012742510614166163;0.0;1.1256172221909023e-05;-2.1585006941269266e-05;0.002553018963996134;0.015315117602511016
0.6800892353057861;-0.002318130588956388;-0.0003334043011348876;-0.0005570628006109255;-0.005896232517659529;-0.002913542773494362;0.001980053602564402;-5.665839633681682e-05;4.596541019622105e-22;7.916176875834583e-18;-1.2282168064446496e-19;2.1092718991605456e-20;-1.4293483373449e-22;7.112709365159129e-13;-1.703738793831724e-21;7.509440137861119e-18;-1.219177005617363e-19;3.043186240050442e-20;-4.534917168931366e-17;-1.7587553746337222e-06;7.958543424009016e-06;5.383732333657341e-07;0.0014689553404068736;0.0013869431578906256;0.0011140189613948557;-9.150667107083889e-06;1.7638916441313746e-05;-1.763891644131499e-05;-0.0008959565686707674;0.0004401029428099542;-0.00011611399556172424;-0.0013753289139513869;0.0;-2.597976247646966e-07;-1.2871633696230067e-05;0.0022528480837142296;0.01552385183564501
0.6999495029449463;-0.002188170323552457;-0.00040578105263639364;-0.0005270073955038752;-0.006262484387582978;-0.0026740898206567623;0.0020541097057261595;-6.59203198761202e-05;4.796928444748857e-22;8.958693285766483e-18;-1.555529334460197e-19;5.59601208171217e-20;-1.9489904529584127e-22;6.735646467766568e-13;-2.193909862744068e-21;8.50487339172042e-18;-1.547138239798998e-19;6.560090313786819e-20;-4.018378474850842e-17;-1.9743561066900662e-06;8.166688089309717e-06;4.823319434444249e-07;0.0014977947970857305;0.0013516817187575916;0.0010762753109191455;-9.75515366497687e-06;1.6275603165291316e-05;-1.62756031652917e-05;-0.0008652161096127192;0.00022760134386488559;-0.00011496362489023296;-0.0014585292471564887;0.0;-1.1353461432103195e-05;-5.479316657901664e-06;0.0019296789092210914;0.015512837578242815
0.7199604511260986;-0.002105224734092964;-0.00047385282989855036;-0.0005089094915123902;-0.0066253468731643705;-0.0025071694187245026;0.002148173933093711;-1.7470751825791873e-05;4.901214959400978e-22;1.0006553007016613e-17;-1.924229932709753e-19;9.870294896371741e-20;-2.550783642872569e-22;6.041542929008763e-13;-2.7503451388133576e-21;9.506963303398657e-18;-1.9169320020452258e-19;1.084242689179081e-19;-3.507389140728968e-17;-2.1872212583852715e-06;8.174437849834347e-06;3.953484546172219e-07;0.0014978513665869558;0.001329978081524922;0.0009940968380145044;-9.311949341282333e-06;1.460122994240084e-05;-1.460122994240205e-05;-0.0007986448848223351;6.11210953676361e-06;-0.00010364499610840445;-0.0015186569546269233;0.0;-2.2345427766967305e-05;2.4468699505377455e-06;0.0015970581239971623;0.0151879241617008
0.7402012348175049;-0.0019421725475915442;-0.0006111047119684252;-0.0004885341073871581;-0.0066825437682370235;-0.0022480592667373706;0.0023936017925593658;4.0007213210860146e-05;4.876944949301819e-22;1.102928295059087e-17;-2.335625792458047e-19;1.5040975068054467e-19;-3.2413062152208196e-22;4.95512862760985e-13;-3.3761751171614205e-21;1.0487038782354802e-17;-2.3299673252300835e-19;1.5992071842387902e-19;-3.011175347123285e-17;-2.3899986186061777e-06;7.920540240122471e-06;2.703872135351447e-07;0.0014741380888395289;0.001324364158467169;0.0008595043128938137;-7.472260284679962e-06;1.2623867602327535e-05;-1.2623867602327393e-05;-0.000687373076208428;-0.0002091942000975582;-8.359319828087132e-05;-0.0015468285223899177;0.0;-3.229732509333072e-05;1.1579035429032733e-05;0.0012686930466135782;0.014447455024044206
0.7600691318511963;-0.001693765791003812;-0.0007389043831794932;-0.00045558050812993404;-0.006511636912865846;-0.0018813554815710043;0.0026735078133483677;4.751280680349984e-05;4.693216435430662e-22;1.1955460341464031e-17;-2.7743140364891113e-19;2.100526349459469e-19;-3.99901185233993e-22;3.4465211710271117e-13;-4.049090300339165e-21;1.1377177603562613e-17;-2.77087488696832e-19;2.190023285841103e-19;-2.5521852730823828e-17;-2.567239776731482e-06;7.35511583116894e-06;1.0561541385303117e-07;0.001433448327682228;0.0013361603278356515;0.0006810652764862759;-4.04866599277119e-06;1.0438878737857157e-05;-1.043887873785752e-05;-0.0005383353893797649;-0.00040134907519540216;-5.927018583040817e-05;-0.0015331741855949365;0.0;-3.918330553089747e-05;1.961472642280663e-05;0.0009647917378710351;0.013232017210691248
0.7799463272094727;-0.0014299248767346022;-0.00086611200416069;-0.00042357327720817883;-0.006256801269788276;-0.001499325021094592;0.0029946073516934606;-2.7715893720870003e-05;4.313939300724954e-22;1.2754855840411158e-17;-3.2431834762557177e-19;2.7902001950764477e-19;-4.833613071197553e-22;1.4284191664009336e-13;-4.77475208315869e-21;1.214900034218271e-17;-3.2426622116860907e-19;2.869793604029268e-19;-2.1263624868688343e-17;-2.711497244927151e-06;6.4093249738499125e-06;-1.0715668985886761e-07;0.0013812749803264117;0.0013655844267654853;0.0004737891794208523;1.1967739113339076e-06;8.062574892083567e-06;-8.06257489208426e-06;-0.00036442075566368073;-0.000567915379840558;-3.315658918359992e-05;-0.0014679404501350983;0.0;-4.250883632480207e-05;2.5685500202177478e-05;0.000686100156389499;0.011446195356646425
0.7999255657196045;-0.001255380998806743;-0.0010809037427601145;-0.00041291987082279986;-0.00585802365740781;-0.0012708502630738203;0.003313481191463884;-0.00015851596347840792;3.694940075372163e-22;1.3370352086981319e-17;-3.7378728331116093e-19;3.580320323690865e-19;-5.743805579861515e-22;-1.1862107012234715e-13;-5.5480929360534246e-21;1.2748500553684878e-17;-3.741083241717569e-19;3.644793234001592e-19;-1.7355546370816652e-17;-2.8096476536862264e-06;5.002913496674218e-06;-3.7560031586398883e-07;0.0013228793810882843;0.0014124820986978488;0.0002558161850803204;6.637704279247257e-06;5.517606330185908e-06;-5.517606330185749e-06;-0.00018019752160964938;-0.0007058962592630276;-7.162846517063351e-06;-0.0013416264043250165;0.0;-4.3283042630269824e-05;3.0431176609147114e-05;0.0004358796225338914;0.009301420386229001
0.8199462890625;-0.0011572386595179091;-0.001382091301989478;-0.000420562621295458;-0.005560876205851114;-0.0011491398952257806;0.003683784509948094;-0.000276719433668213;2.791243969295284e-22;1.372800612351696e-17;-4.2477435920485754e-19;4.470532868859389e-19;-6.717907453528723e-22;-4.4704238374909655e-13;-6.354537497761235e-21;1.3105567151713345e-17;-4.255593164523836e-19;4.513749207157048e-19;-1.3832319760177866e-17;-2.845184052514832e-06;3.057313690677627e-06;-7.056959660357291e-07;0.0012636429825145848;0.0014754954961009943;4.1064369753904075e-05;1.05920821424123e-05;2.824692094593542e-06;-2.824692094596592e-06;4.0027006115958856e-07;-0.000813344829644592;1.7203927984008607e-05;-0.001152114176395721;0.0;-4.141460137930946e-05;3.34252838605255e-05;0.00021738771309428128;0.007278085456468326
0.8399672508239746;-0.0011602814777959842;-0.001663026134695266;-0.00044165071203926986;-0.005539850849547175;-0.0011544900487682028;0.003991097521716403;-0.00033079577264016484;1.5565932514343586e-22;1.3745565674389045e-17;-4.759419923822912e-19;5.457455840764903e-19;-7.7398378746702195e-22;-8.493250717553353e-13;-7.175397247751846e-21;1.3142149975258235e-17;-4.772903255490396e-19;5.472343593398279e-19;-1.0707493358439737e-17;-2.7998933828579372e-06;4.929505951647733e-07;-1.1028607567910792e-06;0.0012085124492267536;0.0015521159062031335;-0.0001614721177881427;1.32235414483464e-05;2.2447863561531462e-08;-2.2447863561025784e-08;0.0001678683702461677;-0.0008904612209417826;3.8958271101164835e-05;-0.0009027194618184866;0.0;-3.703223688555454e-05;3.4360813783628994e-05;3.16660751728497e-05;0.0054746298281744075
0.8600811958312988;-0.0012776683287149045;-0.0019147000648993698;-0.00048157768802719843;-0.005573872299439768;-0.001330912875751545;0.0042177554059834605;-0.0002954447635962239;-6.688096393721345e-24;1.332837476130544e-17;-5.259404075723195e-19;6.540870461200307e-19;-8.794884472313432e-22;-1.3349170029841401e-12;-7.992207953067566e-21;1.2768503038191893e-17;-5.279637054810771e-19;6.519174276640845e-19;-7.963349071579118e-18;-2.6526327176395952e-06;-2.791365403085095e-06;-1.574785739550972e-06;0.0011616101491110935;0.0016392394877109554;-0.0003478783983064199;1.4672795271736661e-05;-2.8547196996208247e-06;2.8547196996203173e-06;0.00031717370695057655;-0.0009391451911873351;5.763542543906839e-05;-0.0006048174978354541;0.0;-3.1278640179528564e-05;3.3898896455239156e-05;-0.00012270118006682513;0.003663564442072123
0.8799905776977539;-0.001419831817240896;-0.0019792864927351407;-0.0005148537612660063;-0.005713195025385831;-0.0015350496627481545;0.004280545835730228;-0.0002029343363495014;-2.102107619539855e-22;1.2384723783794506e-17;-5.72106985816293e-19;7.694304776042718e-19;-9.8416728848033e-22;-1.9022209703620626e-12;-8.765328980199796e-21;1.1897143470116387e-17;-5.749135382746541e-19;7.627382436376429e-19;-5.62279877399015e-18;-2.3842266147950448e-06;-6.824939592383055e-06;-2.118291790295353e-06;0.001127272700596674;0.001730842336744707;-0.0005109394608497898;1.5027903005108671e-05;-5.707355208527998e-06;5.707355208526992e-06;0.00044329943805535796;-0.0009614433302306155;7.274056306066901e-05;-0.000286625245819211;0.0;-2.5202681309945893e-05;3.251828363076629e-05;-0.00024537737258279325;0.0016627060088972362
0.9001128673553467;-0.001502177170097316;-0.0019100621386795912;-0.0005283546377571919;-0.0056587575872082945;-0.0016686475905515698;0.004194616735146231;-0.00011656335148871096;-4.643054107892353e-22;1.0780345069014445e-17;-6.13012871546477e-19;8.926863777336526e-19;-1.0869057575571847e-21;-2.568493281281229e-12;-9.476367876950798e-21;1.0400958507980861e-17;-6.167335698629416e-19;8.804122160280146e-19;-3.615857225951e-18;-1.9642144661576954e-06;-1.1775952067979999e-05;-2.7480461395767616e-06;0.0011079688801188296;0.001822842012701143;-0.0006492661819547167;1.436435636204062e-05;-8.513670715122525e-06;8.513670715122017e-06;0.000547915587983865;-0.0009608852836703533;8.456160258035469e-05;3.4327892731050445e-05;0.0;-1.862108892897044e-05;2.9634651304136774e-05;-0.00034126746595595077;-0.0008110046445085675
0.9199678897857666;-0.0013993588518980732;-0.0018370360986801576;-0.0005064804812642046;-0.005357977568611593;-0.0015429823139376689;0.004130825195992447;-8.425332913492748e-05;-7.675130755897347e-22;8.435342724950747e-18;-6.449252511283064e-19;1.018809508027697e-18;-1.1812706445167681e-21;-3.321128664737501e-12;-1.0068102872791102e-20;8.203181255209155e-18;-6.496724138766827e-19;9.999396371159892e-19;-1.9639327609695194e-18;-1.3772565399920877e-06;-1.7598239712688057e-05;-3.450167609372531e-06;0.0011065740873659592;0.001905882217106836;-0.0007575557673632892;1.2888507673532044e-05;-1.1108282125887847e-05;1.110828212588835e-05;0.0006291726188165382;-0.0009408200328492769;9.296105798475172e-05;0.0003317048689226274;0.0;-1.1670372422382404e-05;2.487855339737428e-05;-0.0004108801868161135;-0.0036467804452564034
0.9401192665100098;-0.001088904932296867;-0.001755175269657049;-0.0004362428779647497;-0.004878697759641716;-0.0011174038597280803;0.00399367016318778;-0.00010834315901997316;-1.1331169981777688e-21;5.148584888052043e-18;-6.653795013752806e-19;1.1485354033215619e-18;-1.2649433953222785e-21;-4.18340428018544e-12;-1.0507777312459841e-20;5.1132709158331974e-18;-6.71295702444554e-19;1.12178197553667e-18;-5.921361183414687e-19;-5.780363011855486e-07;-2.4527287273268515e-05;-4.24406317557658e-06;0.0011249616829158713;0.0019735040662821096;-0.0008386152701348032;1.0846991203195088e-05;-1.3458550502661093e-05;1.3458550502660403e-05;0.0006910016511198747;-0.000904033079641171;9.841594767418805e-05;0.0006013206759169527;0.0;-5.1199387797867564e-06;1.8483715969289788e-05;-0.000459114294133825;-0.006598805082456843
0.959954023361206;-0.0006362142257611958;-0.0015424515446128399;-0.00031231356330888976;-0.00439690132955661;-0.00047615575178413;0.0035362030233726397;-0.00014133094737033496;-1.55372271896784e-21;8.86153176711995e-19;-6.700209487768603e-19;1.2743534096131236e-18;-1.3296482964183287e-21;-5.127988656824693e-12;-1.0726629053280736e-20;1.0975530217155316e-18;-6.7721010643218145e-19;1.2386032125210765e-18;4.876653381956396e-19;4.3728165720064377e-07;-3.2402971081894325e-05;-5.102078075229144e-06;0.001163666736694543;0.002013690534021458;-0.0008911954269405753;8.513432058125166e-06;-1.5378341317496318e-05;1.53783413174958e-05;0.0007339011262796721;-0.0008548875837807079;0.00010107220291586506;0.000827822923300758;0.0;-1.2720078139957043e-08;1.07849383045693e-05;-0.0004874896917606794;-0.00931869263516588
0.9800105094909668;-0.00010943405509722225;-0.001337828309329403;-0.00016591932549725157;-0.003782647106617522;0.0002636041273532523;0.0029662746208049045;-0.0001281230760720742;-2.043304446021815e-21;-4.602680009854002e-18;-6.547205830385356e-19;1.3951324191558035e-18;-1.370379993053658e-21;-6.175514026389506e-12;-1.0666860518923585e-20;-4.0819110609890266e-18;-6.633125932356672e-19;1.3489898380508393e-18;1.337328779005009e-18;1.7241670693322968e-06;-4.1465236530869954e-05;-6.0401008725387746e-06;0.0012239867946783629;0.002015957573719117;-0.0009190877420381581;5.983179021387839e-06;-1.6795277962113153e-05;1.6795277962114644e-05;0.000762031867708784;-0.0007952653105330197;0.00010137538554497873;0.0010141788045322263;0.0;4.8151247535906185e-06;1.7477245635908966e-06;-0.0004998935671495125;-0.011628243014601608
1.0001332759857178;0.0004393129834823214;-0.0011767927577904511;-1.473854316625237e-05;-0.003022945406089346;0.0010210518908242408;0.0023691399280179777;-3.510652118244514e-05;-2.6012047308244784e-21;-1.1444043688779348e-17;-6.142584092155877e-19;1.504211852501713e-18;-1.3783294718758262e-21;-7.311420220124995e-12;-1.0248940028574871e-20;-1.0546047276291854e-17;-6.243613225378362e-19;1.4463154240410893e-18;1.9753366525876763e-18;3.307486922646325e-06;-5.167534405284189e-05;-7.041432457069367e-06;0.001305492745600699;0.0019660889180438596;-0.000924329998200113;3.38057833170496e-06;-1.754991233460538e-05;1.754991233460637e-05;0.0007779629520731046;-0.0007283085010640709;9.964207058021275e-05;0.0011574834844365262;0.0;1.017480193050411e-05;-8.238722378568778e-06;-0.0004987379069524664;-0.013234501433653506
1.020003080368042;0.0011377062630147582;-0.0009792867112593617;0.00016560262247182042;-0.0022609075345104536;0.002009736704141669;0.0018239954476165377;0.00010841909169795242;-3.2177499009868503e-21;-1.9647565761413908e-17;-5.44301429872657e-19;1.593457330960936e-18;-1.3449486184188815e-21;-8.503374718770847e-12;-9.403630896644835e-21;-1.8305626727899252e-17;-5.559779216545727e-19;1.5226687989264118e-18;2.4232379034209036e-18;5.185337356242982e-06;-6.283073032398211e-05;-8.073862484781694e-06;0.00140531928505981;0.0018509250769429039;-0.0009102438302055424;8.439452729285499e-07;-1.751210498738058e-05;1.75121049873817e-05;0.000784730528058326;-0.0006577499429107343;9.6288462222757e-05;0.001257598493317053;0.0;1.588268742247055e-05;-1.7751466750020913e-05;-0.00048685254644182014;-0.01416328871044628
1.040151596069336;0.0018552223239533014;-0.000716359737265257;0.0003494366593428524;-0.0014892604775897887;0.003027411022689365;0.0012803397778369985;0.0002381630449055189;-3.907571768881342e-21;-2.956636866221999e-17;-4.369699812650951e-19;1.6572745671726986e-18;-1.2590556546913494e-21;-9.764054435621922e-12;-8.016389232014654e-21;-2.769656820247467e-17;-4.502963806805523e-19;1.5721736888935278e-18;2.7205303424698702e-18;7.433846452586704e-06;-7.516460114838187e-05;-9.143551777499741e-06;0.0015238872231287137;0.0016506475773027964;-0.0008797326196345507;-1.6032952785035217e-06;-1.6591889433194102e-05;1.659188943319668e-05;0.0007856237809784898;-0.0005840427259782487;9.157545743357458e-05;0.0013201554180045675;0.0;2.210202180438184e-05;-2.5957922298057912e-05;-0.0004663632631202118;-0.014488833999911768
1.0600039958953857;0.0025207542191309296;-0.00046000935676045814;0.000514517635812233;-0.0007070702064520805;0.003965160197332485;0.0008348675032580403;0.0003005161395610741;-4.646446173043962e-21;-4.102685520191101e-17;-2.891746505323635e-19;1.6849177968136055e-18;-1.1122096942958047e-21;-1.1031974118112013e-11;-6.031738593987205e-21;-3.855645798976752e-17;-3.0414322316574447e-19;1.5846133609230353e-18;2.8841308472958395e-18;1.000886061478963e-05;-8.820906015219053e-05;-1.0192708943342069e-05;0.001654530871264219;0.001364646240694146;-0.0008369055719228774;-3.8345717989519465e-06;-1.4768171122576942e-05;1.476817112257728e-05;0.000783485167911633;-0.0005112976363791959;8.595858073816415e-05;0.0013472765895158497;0.0;2.861926133447811e-05;-3.332571336293344e-05;-0.000440018719938017;-0.01426474636818086
1.0800855159759521;0.003021748663515126;-0.00021691772795726387;0.0006390555002065448;0.0002386506013022877;0.004632225276783143;0.0004084744317074695;0.00027526154802599937;-5.44592947786166e-21;-5.4414006836031355e-17;-9.05277594070895e-20;1.6668048476490286e-18;-8.886228995896096e-22;-1.2306694130189181e-11;-3.2959498150563163e-21;-5.1252225336208956e-17;-1.0712569298757461e-19;1.5501989746986804e-18;2.9426649223261952e-18;1.299163965507781e-05;-0.00010212718276954149;-1.1213924523694988e-05;0.001796131327668103;0.0010016797115716357;-0.0007838740145444039;-5.876205730233728e-06;-1.1974598309600139e-05;1.1974598309601801e-05;0.00078093824389774;-0.00043937304663199304;7.959032059520711e-05;0.0013443273552499406;0.0;3.533130251656127e-05;-4.041643847690197e-05;-0.0004091008317841185;-0.013829410597122239
1.1002426147460938;0.0033122375391399046;-4.1537929828974144e-05;0.0007177043596149648;0.0012818390582170374;0.004963814695035381;-4.5235253801362633e-05;0.00019567175429300432;-6.289646562397003e-21;-6.972381506024694e-17;1.6550825989899182e-19;1.5901546857149394e-18;-5.751570264907569e-22;-1.3535484287179977e-11;2.96068134452919e-22;-6.578265150550507e-17;1.473675503703609e-19;1.4565242584715474e-18;2.9146534177531043e-18;1.6374915612577913e-05;-0.00011658012125763964;-1.2155008680270539e-05;0.0019420167298789652;0.0005965881296844751;-0.0007238212612078371;-7.692089614485566e-06;-8.193790405738994e-06;8.19379040573776e-06;0.0007803357530658142;-0.0003703952708361287;7.276648302219833e-05;0.001315334616719349;0.0;4.094791376849034e-05;-4.646777751030411e-05;-0.00037544389792038197;-0.013451779102918894
1.1199700832366943;0.00351382397905535;7.625326709539475e-05;0.0007784557877279446;0.002115684812388823;0.005180779343744724;-0.00047001732409815997;0.0001289815510194054;-7.140082637558332e-21;-8.653651570914743e-17;4.777933538125899e-19;1.4456723540010018e-18;-1.6863691198386523e-22;-1.4637995497103708e-11;4.740226939818216e-21;-8.175164342038019e-17;4.583040718304929e-19;1.295090708762582e-18;2.82147715112817e-18;2.006024403650317e-05;-0.00013087330514384985;-1.294390579697868e-05;0.0020814656035677095;0.00019322524111675435;-0.0006610965712960912;-8.970242772245343e-06;-3.5281999890068074e-06;3.528199989009554e-06;0.0007835305700303768;-0.0003072795156464819;6.58885869570758e-05;0.0012662123362554257;0.0;4.4356098828314286e-05;-5.0804505146065084e-05;-0.0003413543509781574;-0.013081310117202235
1.1399567127227783;0.0036703533294529037;0.0002066266081813498;0.0008356782134205209;0.0025720051261726353;0.005368716009175673;-0.0008985764861195978;0.000114953404307078;-8.005982488634407e-21;-1.0537341894374087e-16;8.6321630068858075e-19;1.2149115978458136e-18;3.5796605973788756e-22;-1.5591234396531554e-11;1.0290009153686307e-20;-9.965717149288908e-17;8.426108817245563e-19;1.047330476865803e-18;2.6772872107460376e-18;2.4154932614987535e-05;-0.00014508435997147374;-1.3548399152575595e-05;0.002210748727561869;-0.00019955462659502568;-0.0005960328170219096;-9.263336604271751e-06;1.2997943384912264e-06;-1.2997943384949351e-06;0.0007920967189010445;-0.0002488773572291935;5.890858976304565e-05;0.0011999352273370414;0.0;4.56574618234339e-05;-5.3935977044046564e-05;-0.00030684907005679775;-0.012374452274059264
1.1599507331848145;0.0035995743756736635;0.00035522930407063313;0.0008436369336194817;0.0026919373349696307;0.0052433523581679065;-0.0012688433581860953;0.0001556840228907449;-8.850380873182703e-21;-1.2592331624000536e-16;1.3246737227968744e-18;8.837287608253984e-19;1.0144959039275512e-21;-1.6305938991268396e-11;1.7002456003371785e-20;-1.1920704161691724e-16;1.303305956648088e-18;6.9990018474558895e-19;2.4971660933622606e-18;2.858237991315244e-05;-0.00015850850823488156;-1.388563914344448e-05;0.00231778500171067;-0.000559430085787987;-0.0005316161598156121;-8.14901264036591e-06;5.42916515907118e-06;-5.429165159065803e-06;0.0008070799632018332;-0.00019698650250573934;5.206950027077753e-05;0.001121100872868798;0.0;4.472756971910192e-05;-5.6046810878434445e-05;-0.00027333217709291167;-0.01131831634017535
1.1801187992095947;0.0033642088512966834;0.0005731024313545172;0.0008146526349386684;0.0027516984177585694;0.0048716217465254626;-0.0016275079829660688;0.00020699486617105963;-9.646963143437702e-21;-1.4818381899757394e-16;1.8728305234203546e-18;4.3138756817774107e-19;1.822331416788094e-21;-1.6696973100813143e-11;2.50488646484099e-20;-1.4040317774274876e-16;1.8511733579028816e-18;2.326664096819881e-19;2.2915085173316752e-18;3.3331713823566604e-05;-0.00017060041857223484;-1.3871287343132977e-05;0.002391006962253857;-0.0008760057009432965;-0.00046928952999361075;-5.271851316976588e-06;9.069418005571995e-06;-9.069418005571318e-06;0.0008292533638458966;-0.00015210238993821503;4.5442401506635295e-05;0.0010326565958579954;0.0;4.155388005310333e-05;-5.5546065366923144e-05;-0.0002413198720619732;-0.010175445551378118
1.199955940246582;0.0030512505734954895;0.00094161176127725;0.0007774123015074387;0.0027723903676929026;0.004384076425087676;-0.0021174469438486904;0.00021142927775838979;-1.0337392089207148e-20;-1.7128963037765216e-16;2.4975704302441554e-18;-1.4622001592220447e-19;2.772472425405154e-21;-1.666033177961597e-11;3.4296127852332355e-20;-1.6242603786727506e-16;2.4762323842383198e-18;-3.572725159156825e-19;2.0758263872721236e-18;3.8207506734057623e-05;-0.00018032230411837698;-1.3417883935178388e-05;0.002415381372958416;-0.0011351195167866104;-0.0004122483641074387;-4.687338171862664e-07;1.2344334389007903e-05;-1.2344334389004133e-05;0.0008579956278052075;-0.00011597812526504137;3.9283896513060644e-05;0.000940161380687277;0.0;3.729901562897241e-05;-5.194066750130059e-05;-0.00021217131465707173;-0.009260521045740702
1.2200543880462646;0.002768158415037413;0.0013366468029811604;0.0007444984374186676;0.0028307461131574794;0.003939026360523746;-0.0025868286365898297;0.00013322368013531576;-1.0895037678315833e-20;-1.9550798470436098e-16;3.2202713487989523e-18;-8.832046546725202e-19;3.904236487296544e-21;-1.6083290253113267e-11;4.507840109302325e-20;-1.855358719091884e-16;3.2000218468764545e-18;-1.1033763854339793e-18;1.852255729240702e-18;4.325247481625676e-05;-0.0001870686297864973;-1.2408883593311627e-05;0.002378758470815122;-0.001342364067588761;-0.0003602381288292088;4.73812474954174e-06;1.4642311192151437e-05;-1.4642311192150358e-05;0.0008935663086145634;-8.81506788615298e-05;3.347801204461298e-05;0.0008437540310503879;0.0;3.284165661453656e-05;-4.637788756013357e-05;-0.00018543072592075237;-0.008541580040967597
1.239961862564087;0.002454849012418395;0.0016082436326680248;0.0006989834497093086;0.0027884358042235447;0.0034587237359517604;-0.0029385602982926187;-2.166687913135573e-06;-1.1251775042128508e-20;-2.1975609690870453e-16;4.02628115092778e-18;-1.780843721840326e-18;5.2023715647617804e-21;-1.485151858207906e-11;5.71971224210753e-20;-2.08706369564181e-16;4.0080371221667386e-18;-2.005524742383839e-18;1.6325057738892646e-18;4.822399669643857e-05;-0.00018964188352739835;-1.0750520367895734e-05;0.0022720482001900902;-0.0014936988635482875;-0.0003156882635099038;8.615351282839475e-06;1.5230834836838234e-05;-1.5230834836836923e-05;0.0009340444042220882;-6.988199030423277e-05;2.8203254467402215e-05;0.0007479656448722628;0.0;2.8132143049795968e-05;-3.9168132832563716e-05;-0.0001619879223519504;-0.007714522815170965
1.2600793838500977;0.002052769778711521;0.0017729612895819977;0.0006301550433090424;0.002550769239723374;0.0028630602943019246;-0.003184408979089505;-0.00013022245601882642;-1.1349777838479504e-20;-2.438123582955688e-16;4.930542706457602e-18;-2.8741733241557875e-18;6.699669578114961e-21;-1.2799247858492923e-11;7.089969159272723e-20;-2.317345047360229e-16;4.915450578068735e-18;-3.0974616593055385e-18;1.417518935082797e-18;5.3055078801271904e-05;-0.0001868867632288551;-8.282508102676767e-06;0.0020888692800147116;-0.0015954229960527724;-0.000278770094401779;1.1449938770623255e-05;1.4384591418847555e-05;-1.4384591418849288e-05;0.000978414441885908;-6.13791986237863e-05;2.338041256154657e-05;0.0006528667280703603;0.0;2.1983321839355557e-05;-2.9514367690577186e-05;-0.00014152363014259122;-0.006719435186926667
1.2799949645996094;0.0016071690634973986;0.001797853152337983;0.0005432631284315735;0.00225401670453959;0.0022073969828025897;-0.003285907490834037;-0.00019719816380648462;-1.1114627181613764e-20;-2.6631480390612416e-16;5.910017957677781e-18;-4.1558687307517814e-18;8.3677220370911e-21;-9.819235781493281e-12;8.58623712090871e-20;-2.533275443291935e-16;5.8993585030678375e-18;-4.370362530819156e-18;1.2156797192209716e-18;5.744499636029588e-05;-0.00017753077351381365;-4.923144585794548e-06;0.0018327347014739032;-0.0016502822366800717;-0.00025110743504615885;1.3336555004194203e-05;1.2372421408145959e-05;-1.2372421408146157e-05;0.0010232793511934812;-6.334172370812617e-05;1.911752716101527e-05;0.0005619779638909821;0.0;1.446287579390232e-05;-1.7916774358606994e-05;-0.00012449145014678935;-0.005496922049573747
1.300074815750122;0.0012297133890618178;0.0016940337597994952;0.00046086673131220544;0.0017885043948094787;0.0016762447638646557;-0.0031877946260644883;-0.00017962315009109424;-1.046042448989159e-20;-2.8660242603134193e-16;6.97387839671331e-18;-5.661822671044617e-18;1.0233480850393698e-20;-5.6979329927132095e-12;1.0225478549915714e-19;-2.728660492702931e-16;6.969223684110066e-18;-5.8582510213869666e-18;1.0261560303807927e-18;6.277346567880966e-05;-0.0001614691381109261;-4.7272551004147215e-07;0.001501398363383341;-0.001665380639389044;-0.00023288132043445785;1.4420938014027537e-05;9.391046241619309e-06;-9.391046241620515e-06;0.0010661844546291592;-7.627445297449465e-05;1.532952770169182e-05;0.00047486001818482573;0.0;7.137736648902344e-06;-6.177676546976216e-06;-0.00011050058309000365;-0.003911325983361194
1.3200173377990723;0.0010217524402408307;0.0016622700942506212;0.0004157446639901154;0.0010334576934798749;0.0014384618494871619;-0.003025368513479043;-0.00010997316235441265;-9.30613367142766e-21;-3.0309326745185213e-16;8.093155583402383e-18;-7.379245497141934e-18;1.2259526817884278e-20;-3.283046861314329e-13;1.196654391457588e-19;-2.8884761204279805e-16;8.096209186786056e-18;-7.546719202047833e-18;8.537327657463723e-19;7.001210679719978e-05;-0.000141506023042763;5.146273434487705e-06;0.0011037706269006145;-0.0016468351718034009;-0.00022493994257865343;1.4750661838963552e-05;5.696537534150932e-06;-5.69653753415518e-06;0.001102475896552751;-0.00010046143326565614;1.2057622762943566e-05;0.0003937432393517406;0.0;7.371197373614218e-07;4.64900953062689e-06;-9.961139089817352e-05;-0.0021440326479241953
1.3399653434753418;0.0009213389111814815;0.0016126849300643518;0.00038516916934544173;0.0004052961861326824;0.0013539551804667058;-0.0027610143433444987;-5.1562116798091474e-05;-7.550047313761727e-21;-3.1444047409336877e-16;9.256561472138527e-18;-9.323172306064586e-18;1.4440774787690657e-20;6.486911310089008e-12;1.379587198510097e-19;-2.9999834237955923e-16;9.269287509421558e-18;-9.44867447174637e-18;6.981214875406676e-19;7.851880855151236e-05;-0.0001206441238546046;1.210503519377122e-05;0.0006494985837773078;-0.0016014772841481664;-0.00022753730519838088;1.4420045107886038e-05;1.4453733403674541e-06;-1.4453733403669334e-06;0.0011276461018635438;-0.00013637278851100318;9.247497520304878e-06;0.0003186405635826763;0.0;-5.969876065833028e-06;1.5544295626207662e-05;-9.147982498381233e-05;-0.0002949574000561719
1.3600609302520752;0.000898076923384547;0.0016163069463004014;0.00037118187083921025;-0.00020080323792690102;0.0013863314165043002;-0.0024996817131677242;-4.919647930042451e-05;-5.065828775379406e-21;-3.1890642024796254e-16;1.0447537846226765e-17;-1.1509133513535834e-17;1.6766670664997282e-20;1.498637877456575e-11;1.569276395954567e-19;-3.046739667681192e-16;1.0472214409604853e-17;-1.1577014085479678e-17;5.588406586927419e-19;8.769345476916501e-05;-0.00010084126932517724;2.060871845754791e-05;0.0001645024891870325;-0.0015353108829739607;-0.0002410821509437145;1.3517877639609414e-05;-3.238862054583129e-06;3.238862054578699e-06;0.0011360045555511681;-0.00018474288406696447;6.8508686254606054e-06;0.0002495156907759673;0.0;-1.314905477168847e-05;2.639531003416784e-05;-8.576759417006389e-05;0.0015387412501472995
1.3801651000976562;0.0009024351368269459;0.0015044120152570206;0.00035113704122931907;-0.0007861079601057931;0.0014603058723173436;-0.0020624101110711494;-0.0001118401668699947;-1.7494055857002435e-21;-3.143679025493015e-16;1.1625287977047621e-17;-1.3916247895420582e-17;1.9183155302194457e-20;2.5298540531152352e-11;1.7598913760928902e-19;-3.0085729789384775e-16;1.166434836074038e-17;-1.3908792352173807e-17;4.369304826554461e-19;9.67920771830908e-05;-8.352897478479061e-05;3.07462915085806e-05;-0.0003123611132694285;-0.0014549269021723345;-0.0002657207734213503;1.2095279157614385e-05;-8.178718756911416e-06;8.17871875691225e-06;0.0011206662789191096;-0.0002456213277918529;4.850253649608669e-06;0.00018716948489810967;0.0;-1.9063860592518394e-05;3.517749410063421e-05;-8.216252524069981e-05;0.003200721670923091
1.399965524673462;0.0009382275522417071;0.0014333116236887578;0.000351051615500599;-0.0012939483851533637;0.0015721587035417645;-0.0018266116037594074;-0.0001929432129435651;2.4434798320484357e-21;-2.9888314597886344e-16;1.2731681970684326e-17;-1.6485066465541194e-17;2.1599115401223556e-20;3.737566022466819e-11;1.9427573973799347e-19;-2.8669536693871733e-16;1.2787470133327597e-17;-1.6383839515148295e-17;3.333401680288363e-19;0.00010497644273748881;-6.950372683815572e-05;4.2435400179739006e-05;-0.0007474600458767674;-0.0013677033885527727;-0.00030076881803691927;1.0197091587556179e-05;-1.3156925441552029e-05;1.3156925441549916e-05;0.0010750516892215965;-0.00031788593190499085;3.22600176307182e-06;0.00013252349591590646;0.0;-2.2961381745529782e-05;4.089633601833677e-05;-8.024003919923849e-05;0.004530098787348783
1.4199802875518799;0.0009790990022141793;0.0012909619049250368;0.0003517827638839789;-0.0017898102149981894;0.0016900293909341123;-0.0015817248771496132;-0.00023412858277955091;7.733713726275552e-21;-2.6962186485594087e-16;1.374592552030093e-17;-1.9252856114900457e-17;2.400972280176134e-20;5.165548730235826e-11;2.1154945134520381e-19;-2.5951236042525906e-16;1.3821365437929771e-17;-1.9034787231327946e-17;2.4432443729482604e-19;0.00011171119931351644;-5.84147695378315e-05;5.605877589335248e-05;-0.001135280793704605;-0.0012768546771280134;-0.0003468163450251152;7.755342228079793e-06;-1.8131040018887445e-05;1.81310400188857e-05;0.0009898227592154347;-0.00040325314957809244;1.8878124038193648e-06;8.4104299469385e-05;0.0;-2.5950758164075466e-05;4.450677775849481e-05;-7.943423419817383e-05;0.00545275896927466
1.4400649070739746;0.0009971367195739382;0.0010552910980463149;0.0003424705340762368;-0.0024904773862090297;0.0017953648538255099;-0.001211127328923309;-0.00019780690075843008;1.4221208737433568e-20;-2.237635863171655e-16;1.4598149813015175e-17;-2.216149815103119e-17;2.6311790227501444e-20;6.818426838920848e-11;2.2678409457338126e-19;-2.1662250120997579e-16;1.4696197511632186e-17;-2.1801653180020055e-17;1.6966966368475606e-19;0.00011610281065080147;-4.998917806986539e-05;7.161134174457581e-05;-0.0014623372468911696;-0.0011878926634295908;-0.0004032775119676483;4.9249659590298945e-06;-2.2868234523420115e-05;2.2868234523418737e-05;0.0008555493145946747;-0.0005010292471268796;8.04728167256971e-07;4.2342542523719805e-05;0.0;-2.803303233776433e-05;4.55771363903688e-05;-7.92085065184593e-05;0.006143791915462283
1.4601385593414307;0.0009683849590669078;0.0008782559350099786;0.00032177136834625226;-0.0032918392369144164;0.0018402359709971446;-0.0008098423865670666;-0.00010788840528173999;2.1994532867886258e-20;-1.5846161336721742e-16;1.5212818389496892e-17;-2.5142607532789825e-17;2.839112649884546e-20;8.696886140151697e-11;2.3886339018314465e-19;-1.5531307583070528e-16;1.533640649918986e-17;-2.4614452713004946e-17;1.0835048544797029e-19;0.00011724332246236677;-4.3480824602170824e-05;8.90485117930424e-05;-0.0017232009381395405;-0.0011055300344767263;-0.0004692226585988814;2.0024604449286848e-06;-2.7170890565009926e-05;2.717089056500753e-05;0.0006765556387899208;-0.0006102130891157111;-6.562034555434384e-08;7.335538725978564e-06;0.0;-2.9363769744826455e-05;4.369760991836349e-05;-7.89374760548825e-05;0.006746849698031903
1.4799432754516602;0.0009453740042442948;0.0007392400488427644;0.00029915594931855563;-0.003935044901726848;0.0018774391584611971;-0.00040484601869336667;-3.010536801419949e-05;3.102270823072268e-20;-7.189606608747891e-17;1.5505826554742096e-17;-2.8083049865145853e-17;3.010304030859654e-20;1.0772945679326207e-10;2.464987322055122e-19;-7.383583797801817e-17;1.5657474893919572e-17;-2.7361036854643078e-17;5.93847505216215e-20;0.00011425326014629308;-3.786119156587443e-05;0.00010806014069762775;-0.001916302898476821;-0.0010343598831808458;-0.000542568812273314;-7.734491886217175e-07;-3.085248777084611e-05;3.085248777084486e-05;0.0004730678796189208;-0.0007281273610350964;-7.632383421841466e-07;-2.0714166969433104e-05;0.0;-3.0013999878873476e-05;4.046458236317808e-05;-7.795085415943095e-05;0.007102876865562843
1.5000004768371582;0.000861821776376283;0.0005648879170839674;0.0002531571869700338;-0.00432833543149741;0.0017954751848806314;8.36205876122245e-05;-1.0402576265602422e-05;4.1621999034475984e-20;4.144074586963351e-17;1.5390273348858716e-17;-3.0965344079373175e-17;3.134518689626144e-20;1.3094943520871327e-10;2.4848150188372145e-19;3.30344818241156e-17;1.5573114600069698e-17;-3.001750797949465e-17;1.9854198715379726e-20;0.00010602803274486661;-3.1633974772798605e-05;0.00012902585350949865;-0.002050289942322654;-0.0009756614217539144;-0.0006238100948244811;-3.3385540541109034e-06;-3.384926560086298e-05;3.384926560086142e-05;0.00025704513437297305;-0.0008563216836832225;-1.353914553660034e-06;-4.264847056777318e-05;0.0;-2.9867333360362823e-05;3.723655238868882e-05;-7.547266357394048e-05;0.007375881998359427
1.5200610160827637;0.0006958201843066122;0.0003665686719043485;0.00018254258745540087;-0.004292972433817805;0.0015404638765701116;0.0005629242475926782;-7.525806257170837e-05;5.374383489471258e-20;1.8393237341512103e-16;1.475273450620517e-17;-3.36349770522531e-17;3.1921514571421063e-20;1.5623637509939842e-10;2.430714789832624e-19;1.6758889396068022e-16;1.4969324356460744e-17;-3.243082692989386e-17;-1.1215124098457838e-20;9.297914821718003e-05;-2.483202118185976e-05;0.00015151372937529937;-0.00212786915747405;-0.0009329934944907152;-0.000710223444151439;-5.57110902941437e-06;-3.58994607240111e-05;3.589946072401075e-05;4.5529482915252645e-05;-0.000991257551683528;-1.8741115924533734e-06;-5.813291788128941e-05;0.0;-2.8687996154162147e-05;3.3515901748824876e-05;-7.06963981872359e-05;0.007697475005067633
1.5399963855743408;0.0004446410148075035;0.00016290712738826918;0.00010056610230009292;-0.004366468980258373;0.0011647488413526635;0.0009633583042791047;-0.0001920633111835469;6.73184609151665e-20;3.576382831870878e-16;1.3483846479298484e-17;-3.593642389266053e-17;3.163988660799148e-20;1.8316105828635563e-10;2.2858266043319574e-19;3.3181135493233946e-16;1.3736115863433305e-17;-3.44473793677398e-17;-3.536295037341703e-20;7.678237745968056e-05;-1.851961293472507e-05;0.0001750612303060158;-0.0021558480735952095;-0.0009084576732616198;-0.0007988879114363339;-7.414959156304041e-06;-3.677961202617389e-05;3.677961202617262e-05;-0.00015071884416264312;-0.0011292370257932902;-2.3653735104519845e-06;-6.714201283251131e-05;0.0;-2.634768158682186e-05;2.8851593202951318e-05;-6.281267901577473e-05;0.007902813434735494
1.5600576400756836;2.6907799195820605e-05;-1.008945404549334e-05;-6.965209618838489e-06;-0.0050576875151845885;0.0005983081444087351;0.0013445319677437215;-0.00029306429384354325;8.249585287089488e-20;5.678703826263941e-16;1.1436407237018342e-17;-3.7729961575412106e-17;3.0274709384828823e-20;2.1168667289526622e-10;2.028317135264823e-19;5.307662078502993e-16;1.1726173984062009e-17;-3.5924807939648696e-17;-5.456530411909176e-20;5.8223208211576196e-05;-1.2997105717181897e-05;0.00019953599386807007;-0.0021421427676240733;-0.0009031543674234152;-0.0008880117649447853;-8.878417178161806e-06;-3.6284008444048676e-05;3.628400844404734e-05;-0.0003286129662709787;-0.0012684055647904013;-2.8768160122159966e-06;-6.974717114143651e-05;0.0;-2.363045658750957e-05;2.3644990207343675e-05;-5.079648478263993e-05;0.008154843714609861
1.5799930095672607;-0.0004312364061344336;-0.00019001898104991461;-0.00011795096059131865;-0.006156132333949791;1.3157319636344197e-05;0.0017439457014355748;-0.00032750392513376304;9.901153762478062e-20;8.147873273755681e-16;8.496059681500523e-18;-3.8798290494204486e-17;2.7599138980604944e-20;2.409395677534423e-10;1.6398810139146875e-19;7.646477637019983e-16;8.823916720627515e-18;-3.6651899584613665e-17;-7.020535902823987e-20;3.8048186521846503e-05;-8.190276600096432e-06;0.00022406934920321794;-0.0020946264547810588;-0.0009179513384722013;-0.0009729790159168201;-9.950657856334897e-06;-3.508116114097203e-05;3.5081161140971984e-05;-0.0004834943273044922;-0.0014025813742782683;-3.4423032501336675e-06;-6.581334622453556e-05;0.0;-2.122434310207095e-05;1.8295962154624718e-05;-3.3836428647445486e-05;0.008601524364486711
1.6001255512237549;-0.0008059504196944621;-0.00023763549795605604;-0.0001939046241995031;-0.007528541888403169;-0.0004154636476373233;0.0019642907448768373;-0.0002764576771014704;1.1699913610206602e-19;1.1049848805193538e-15;4.458517332618733e-18;-3.892623310864633e-17;2.329000777388916e-20;2.707033757984064e-10;1.0899552205766134e-19;1.0397528063021132e-15;4.824678238943446e-18;-3.641141155867132e-17;-8.41297872881179e-20;1.6062844869997913e-05;-3.4496845877820616e-06;0.0002483278171125685;-0.0020200748832975243;-0.0009533915547522422;-0.001050874626854077;-1.067089344097856e-05;-3.3747846965099814e-05;3.374784696510079e-05;-0.0006176620207639611;-0.0015283816873057055;-4.109835713050846e-06;-5.507473802059388e-05;0.0;-1.881583400934691e-05;1.2141597612945666e-05;-1.0610686004674695e-05;0.009050739221353379
1.6201317310333252;-0.001103525026553796;-0.00010637979349233285;-0.00024197377585194262;-0.00911531448085761;-0.0007023881372380423;0.00206630378947294;-0.00017735466243878328;1.359577578642754e-19;1.4357223034640353e-15;-7.7341956236946995e-19;-3.7850279648545395e-17;1.711712149737785e-20;2.9962311882790817e-10;3.620070465821613e-20;1.353536119088313e-15;-3.706063360313825e-19;-3.4950901435963534e-17;-9.764100396956174e-20;-7.5472403742842885e-06;2.0587620049320635e-06;0.00027101805547748864;-0.0019268014352695714;-0.0010085607829576541;-0.001115417230559801;-1.1060089709808657e-05;-3.19565812763216e-05;3.195658127632157e-05;-0.0007279422526998999;-0.001637157079823592;-4.9043311767602724e-06;-3.744593885663731e-05;0.0;-1.6289294441993915e-05;4.850449048695679e-06;1.9572388692830074e-05;0.009293356790194399
1.6399710178375244;-0.0013592032563103898;6.055498682823263e-05;-0.00028467148804968054;-0.010584881649256597;-0.0009366633319326224;0.002192011109209643;-9.587260644631606e-05;1.555174649056435e-19;1.806218500239261e-15;-7.320337111095298e-18;-3.531530129461562e-17;8.828950408954631e-21;3.265755822893071e-10;-5.635871177095828e-20;1.7053086932303295e-15;-6.8840864932089644e-18;-3.2023602359456824e-17;-1.121704118501088e-19;-3.156820909924221e-05;7.965545691333968e-06;0.00029104103284600773;-0.0018220324460629495;-0.001081782278337488;-0.0011610111814686513;-1.1165356403682204e-05;-2.940222841032449e-05;2.9402228410325807e-05;-0.0008129016031699324;-0.0017213520202352549;-5.852652768409897e-06;-1.2848268902774501e-05;0.0;-1.348707960716117e-05;-2.147288849609805e-06;5.752338614446872e-05;0.009169308438137522
1.6599905490875244;-0.00161577582218657;0.0002014997768544427;-0.00033641908328334324;-0.012021078582728224;-0.001174629633261321;0.0024352231281991217;-7.53651397577676e-05;1.7560138232034518e-19;2.222686597809485e-15;-1.5457561990959648e-17;-3.095794273185777e-17;-2.0448475145143762e-21;3.506991967274299e-10;-1.728924783397242e-19;2.1010344729325546e-15;-1.4992367074657916e-17;-2.7268861142298397e-17;-1.2936843533957743e-19;-5.4190282281236425e-05;1.299052117566012e-05;0.00030743076734498744;-0.0017099636968061476;-0.0011724677208958295;-0.0011817274576785052;-1.1033327688229052e-05;-2.6616015417142854e-05;2.6616015417145158e-05;-0.0008739640945163056;-0.0017733222788506215;-6.999340152085572e-06;1.9459356080166388e-05;0.0;-1.0100389708135728e-05;-7.738406464919088e-06;0.00010493979835331234;0.008803018637284195
1.6803200244903564;-0.0017607145968473064;0.0001283449851359913;-0.00038443726868569387;-0.013380309872579425;-0.0012470603653887402;0.002974443419409948;-0.00011726723233685933;1.95795434369506e-19;2.6876036338390388e-15;-2.545162408661899e-17;-2.4329502399500226e-17;-1.6005577323829657e-20;3.7040653575150893e-10;-3.1759563464325244e-19;2.543152524998761e-15;-2.4964228981541334e-17;-2.024784284769324e-17;-1.507787908504522e-19;-7.387088943238721e-05;1.642682446603263e-05;0.0003185693742187702;-0.0015950613135462738;-0.001279055448681701;-0.0011689491001006173;-1.0701917513622737e-05;-2.408966532813161e-05;2.4089665328133986e-05;-0.0009118165767049291;-0.0017814680365078898;-8.382440681265685e-06;6.028687452202817e-05;0.0;-5.880767384890224e-06;-1.2527603868093325e-05;0.00016346869885101157;0.008282497541862676
1.6999266147613525;-0.0017916345203049006;-5.124496729615592e-05;-0.00040985748788368887;-0.01466012160105631;-0.0011529596491790606;0.003544341535958936;-0.00016714594681436194;2.1442084776699247e-19;3.1726781072891987e-15;-3.68783006646447e-17;-1.547681777247424e-17;-3.257188673527475e-20;3.83038732476308e-10;-4.846156572049605e-19;3.004830744395701e-15;-3.637884380745037e-17;-1.1041587720303102e-17;-1.7635396804611104e-19;-8.865434663309774e-05;1.8024616024040578e-05;0.0003223325225410485;-0.0014875320959238352;-0.0013922202456749411;-0.0011160910689748842;-1.0238151756884581e-05;-2.1565206530385497e-05;2.1565206530386795e-05;-0.0009271729300573787;-0.001735285191568203;-9.941814833877379e-06;0.00010760907070093864;0.0;-1.021194727261065e-06;-1.6716083531589608e-05;0.000230684215856233;0.007726874550504592
1.720139503479004;-0.001905935947377824;-0.000233556660246344;-0.000446963332178821;-0.015887398394562026;-0.001194317528736578;0.004007995030756356;-0.00016919975567038372;2.318921057362436e-19;3.704686765957403e-15;-5.061925401810643e-17;-3.4249226322348253e-18;-5.3160469246830715e-20;3.873022160947732e-10;-6.872001797805464e-19;3.511652600383591e-15;-5.011999514369123e-17;1.3303209320614302e-18;-2.0888854143109437e-19;-9.885546213929424e-05;1.8237375505439e-05;0.00031695493310114815;-0.0013838238014281436;-0.0015148598382236057;-0.00101025220016491;-9.65692882752621e-06;-1.8579388090181674e-05;1.8579388090182047e-05;-0.000923802860098232;-0.0016185820004626784;-1.1792006292633074e-05;0.00016482403121798847;0.0;3.914638403583099e-06;-2.0080332044953593e-05;0.00031182495567117234;0.00713907532218838
1.739931583404541;-0.0021019909468229492;-0.0003422338606029565;-0.0004898171947226456;-0.016811567376767457;-0.0013964025387888119;0.004222488676012076;-9.096456077145555e-05;2.46314740989794e-19;4.249055900588198e-15;-6.609183888302698e-17;1.1644468212829337e-17;-7.705453357074359e-20;3.804573265572292e-10;-9.171660672030864e-19;4.030802699540153e-15;-6.560847234082688e-17;1.664797152387077e-17;-2.4773214218169313e-19;-0.00010347703794044871;1.7705821986173545e-05;0.0003028838535469718;-0.0012921212904380536;-0.0016353009172724714;-0.0008612239026065634;-9.026861386242452e-06;-1.5048330564676215e-05;1.5048330564677992e-05;-0.0009043019873710617;-0.001424952281384779;-1.3844922942615002e-05;0.00022930667098547056;0.0;7.986147897100263e-06;-2.2048014674255913e-05;0.0004034934254030988;0.006266047826750119
1.7602732181549072;-0.002340959733722542;-0.00024557317485449066;-0.0005275761768046138;-0.01737138380862706;-0.001705413381661195;0.004128865545526276;4.388388887430248e-05;2.57141288945618e-19;4.8212414007810125e-15;-8.412660624281786e-17;3.09175311915373e-17;-1.0571564266186441e-19;3.5920510834968925e-10;-1.187323757027845e-18;4.577174079214809e-15;-8.367962388028207e-17;3.608265274339785e-17;-2.9565683715588456e-19;-0.00010248127122389227;1.7409218041022878e-05;0.0002815765723616197;-0.001210184045634285;-0.0017523956921865673;-0.0006788753207486443;-8.35597137887857e-06;-1.056237718267067e-05;1.0562377182672045e-05;-0.000870482079034174;-0.0011364693729034397;-1.6196620483774534e-05;0.00030434344175319543;0.0;1.1636354278460022e-05;-2.3205227343683527e-05;0.0005106427554779058;0.004810719683468543
1.7801978588104248;-0.002555184667260478;-1.0497053091214594e-05;-0.0005527433113044184;-0.01742314957825488;-0.0020320482689000553;0.0038053958322523517;0.00016261047851085327;2.624465173780998e-19;5.379828670204073e-15;-1.0388494963499388e-16;5.39039357568485e-17;-1.3800358799911212e-19;3.2138011143175276e-10;-1.485612517458546e-18;5.111403291024563e-15;-1.0349739475954566e-16;5.910616692290746e-17;-3.510334661094442e-19;-9.581115152220404e-05;1.856993438375941e-05;0.0002550197802684542;-0.0011433244747847274;-0.001852474191155363;-0.00048521474668489076;-7.710306675862125e-06;-5.9779555563761965e-06;5.977955556376798e-06;-0.000826568860903291;-0.0007845243666005037;-1.8720046020807035e-05;0.00038631335619023486;0.0;1.4879167569229611e-05;-2.3870456417003205e-05;0.0006283123472386598;0.0028972790408604144
1.8001420497894287;-0.002674211316084069;0.00040722600641349637;-0.0005437135487466612;-0.016798415706783254;-0.0022868986544351084;0.003126111141940934;0.000217754893683604;2.609176795193517e-19;5.918814497749157e-15;-1.2566792536707451e-16;8.135172394179641e-17;-1.7459903394930287e-19;2.633149311694583e-10;-1.8170688449303604e-18;5.6279499001684805e-15;-1.2536790585503972e-16;8.643737203210947e-17;-4.1516316789487656e-19;-8.355397181960873e-05;2.2575789949811944e-05;0.0002229202969326129;-0.00109022633077064;-0.0019286797104658164;-0.00029022893640145823;-7.10637091659317e-06;-1.7659808252381623e-06;1.7659808252372183e-06;-0.0007745453052069684;-0.0004031999422507293;-2.143321138479064e-05;0.0004763762860605337;0.0;1.7150868978572025e-05;-2.3550860715761664e-05;0.000758299297424669;0.0008246206319383644
1.8199427127838135;-0.002672013074735141;0.0007956053559974976;-0.00051396865927635;-0.015139966373436068;-0.0024672836042900054;0.0022978233372205246;0.000186149582709983;2.5086901414015566e-19;6.411831501745785e-15;-1.4912969911140186e-16;1.1331325637836206e-16;-2.1515252215274656e-19;1.821384501590666e-10;-2.1770335217682464e-18;6.101826060396382e-15;-1.4894903660738213e-16;1.1809397466818505e-16;-4.875005166337387e-19;-6.744188916110982e-05;2.9461262170730605e-05;0.0001849423151034593;-0.0010510064707003161;-0.001969870096791243;-0.00010659989467922928;-6.57552849926424e-06;2.4132734787778934e-06;-2.4132734787763916e-06;-0.000717279994041547;-2.6651043211829825e-05;-2.4267441504371707e-05;0.0005730445750021883;0.0;1.793065284860495e-05;-2.1813849981233105e-05;0.0008985433401116849;-0.0011058082911943228
1.8401381969451904;-0.0025364801776867427;0.001183119381379538;-0.00044626387750206436;-0.013121256894784886;-0.0024832689984781026;0.0012712259403997552;0.00010166032340160523;2.298316466249369e-19;6.843807386300376e-15;-1.74687999279019e-16;1.5101126948303761e-16;-2.6069616101904203e-19;7.132604596989601e-11;-2.5727232222850064e-18;6.518988990746848e-15;-1.7466747481400785e-16;1.552443971150741e-16;-5.699063158291079e-19;-4.987624856875496e-05;3.847132419982548e-05;0.00014167834508839878;-0.001023922201288617;-0.0019638503802201475;6.377694402107764e-05;-6.128720446446862e-06;7.025536443499994e-06;-7.025536443500648e-06;-0.0006553042841978282;0.00033320703764641113;-2.7238937967638908e-05;0.0006780026175768996;0.0;1.7573337447093224e-05;-1.901147450272975e-05;0.0010515473287326085;-0.0026998334907218464
1.8600616455078125;-0.002231932295131137;0.0015515220906961043;-0.00033567642356892215;-0.011129072196704141;-0.002237169566940216;0.00017869019958474032;3.2843589824664306e-05;1.9622573373842497e-19;7.16783830341248e-15;-2.0114752729609048e-16;1.934145346962392e-16;-3.094471214854815e-19;-6.962635499436984e-11;-2.986536695975385e-18;6.8347617292968626e-15;-2.0132808390352878e-16;1.968282914884514e-16;-6.590890749705194e-19;-3.383092931904105e-05;4.8927783465212046e-05;9.811159489068298e-05;-0.0010083571950145424;-0.0018995020643989564;0.0002122682715285054;-5.8014285635067735e-06;1.1376778216623146e-05;-1.1376778216622116e-05;-0.0005924992366817617;0.0006501894736293921;-3.0169297688935692e-05;0.0007863368021779072;0.0;1.621456463388387e-05;-1.545642264804513e-05;0.001210156806679544;-0.003988556335591615
1.8801722526550293;-0.0018917415033695775;0.00195856688043972;-0.00020722791397435156;-0.009149027137641003;-0.0019363491350651834;-0.0010526469382918162;2.254214626135986e-05;1.469528712200904e-19;7.353882784976499e-15;-2.285957773369353e-16;2.415159907065503e-16;-3.6197109638422293e-19;-2.478108482029241e-10;-3.4208958728780808e-18;7.0208630851567756e-15;-2.290279383554448e-16;2.4377211609865317e-16;-7.559326258560184e-19;-2.10237083565531e-05;6.112005710830804e-05;5.5461624352540795e-05;-0.0010014842157010664;-0.0017655157197430697;0.00034244598185114025;-5.60205295899343e-06;1.5072853523135726e-05;-1.5072853523136531e-05;-0.000529048703787913;0.0009233989056351351;-3.302143503037014e-05;0.0008984310573272087;0.0;1.2981199075489622e-05;-1.0348872433984066e-05;0.001374893556919985;-0.005059638998171878
1.899921178817749;-0.0015492123444433127;0.002360779660388949;-7.968018165446469e-05;-0.00714346925528219;-0.0016345166668592917;-0.002269648442966895;7.573670600460738e-05;8.108388648730169e-20;7.356313824774581e-15;-2.5562154852726376e-16;2.9383095037618894e-16;-4.1603648920166275e-19;-4.617463683685088e-10;-3.854690131013678e-18;7.0337350517907986e-15;-2.563532350189639e-16;2.945767867119492e-16;-8.561116923330883e-19;-1.2008752218073823e-05;7.360700129293738e-05;1.5884837883482657e-05;-0.001000351001652815;-0.0015571416209816393;0.0004507166142442916;-5.546958144016692e-06;1.8439928385389965e-05;-1.843992838538916e-05;-0.00046798000925463634;0.0011422115237913963;-3.559450283286585e-05;0.0010085711450983925;0.0;8.145936697146274e-06;-4.118420695205898e-06;0.0015372853667456182;-0.005892089097598157
1.9199714660644531;-0.0010327245484330649;0.0027029430930168305;7.277569712511848e-05;-0.004418074210918608;-0.0011415800682140187;-0.003456283549652182;0.00015174061197805128;-6.172382865875008e-21;7.12660747198382e-15;-2.8227888347508733e-16;3.5179407194733194e-16;-4.723823168679886e-19;-7.221957120811086e-10;-4.290430228292458e-18;6.827662764585934e-15;-2.8337252134159483e-16;3.5057447394470234e-16;-9.607254378462287e-19;-5.23327267994504e-06;8.47052572375443e-05;-2.184991265638144e-05;-0.0010010431098751694;-0.0012727692024347974;0.0005400916348506769;-5.643036411302545e-06;2.1952093143737314e-05;-2.1952093143736433e-05;-0.0004083074514968888;0.0013136879759337;-3.782173027775501e-05;0.0011170459155484087;0.0;2.5440454185741544e-06;2.342637750582033e-06;0.0016976596893820643;-0.006459397800346953
1.9401235580444336;-0.0003566584280375723;0.0030049967915653482;0.00024894272131029913;-0.0007083650762190034;-0.0005088130393771953;-0.004703074795648971;0.00019333390930812886;-1.17297876369979e-19;6.604528336865205e-15;-3.0721797269696946e-16;4.1444003454050867e-16;-5.290897867606769e-19;-1.0312760550670604e-09;-4.708485809301279e-18;6.345343188375414e-15;-3.0873825356316474e-16;4.107520755357469e-16;-1.0658854887532883e-18;6.219895903378534e-08;9.288082571270088e-05;-5.792339044132049e-05;-0.0009989919906603843;-0.0009325099622994051;0.0006104789964647791;-5.899627291910912e-06;2.4989591396886958e-05;-2.4989591396887686e-05;-0.0003515266750903065;0.0014365217704058965;-3.948602380917061e-05;0.0012184456586965989;0.0;-3.8097634434027764e-06;8.892441003915644e-06;0.0018479123353463858;-0.006686814268998835
1.9599909782409668;0.0003302809431652731;0.0031374907441240087;0.0004038763378867471;0.004135260317030649;1.946348932252098e-05;-0.005865837409098048;0.00016086871221534648;-2.5251162352811686e-19;5.74415519265917e-15;-3.2872572577401666e-16;4.79707089843154e-16;-5.8332684057026785e-19;-1.3851734555859395e-09;-5.082909626222287e-18;5.542822810539304e-15;-3.3073146968649364e-16;4.730497692661539e-16;-1.1659470990956885e-18;4.403691492759811e-06;9.723198514603326e-05;-9.28446476110556e-05;-0.0009890068953394256;-0.0005601134073646418;0.000660834312614958;-6.311328632434209e-06;2.6971521019063518e-05;-2.6971521019063908e-05;-0.0002992794606094099;0.00151255844560453;-4.0354213016918077e-05;0.0013059133713165514;0.0;-1.162095668298318e-05;1.6105239537657927e-05;0.0019777405772224985;-0.006833841569693653
1.9800515174865723;0.0010496317480430087;0.0030864890572718587;0.0005512127973984854;0.0096193468827615;0.0005287937821640558;-0.006951844271224842;6.761883141801426e-05;-4.175082952253124e-19;4.460975775215433e-15;-3.458128591022698e-16;5.479940559475981e-16;-6.342119579186489e-19;-1.7940360657869967e-09;-5.40068134940959e-18;4.340057687812727e-15;-3.483761133333121e-16;5.37748618673155e-16;-1.2587972763208599e-18;8.28885604208891e-06;9.753874967823579e-05;-0.00012908884380359687;-0.000964774286498345;-0.00016733110943667243;0.0006912840261860939;-6.884401948277108e-06;2.8349336506202402e-05;-2.8349336506202453e-05;-0.00025069471484494494;0.0015486086405256045;-4.020822447977885e-05;0.0013755607027774695;0.0;-2.089430202650354e-05;2.380625906099544e-05;0.0020812126197174274;-0.006859618207715594
2.0001144409179688;0.001620676368733691;0.00287478871337462;0.0006564491915955026;0.01469307338573735;0.0008551687231779127;-0.00779943762712206;-2.6254903749238836e-05;-6.135425141572411e-19;2.6906227684971287e-15;-3.5646557935796623e-16;6.17161917746679e-16;-6.785509792810025e-19;-2.2555922179733687e-09;-5.631650825605003e-18;2.6755903072972037e-15;-3.596544648835026e-16;6.026905862482755e-16;-1.3379778941384219e-18;1.1868064238689945e-05;9.373750816764987e-05;-0.00016543570626667258;-0.0009194511236486809;0.00021577899176592039;0.000701838712214791;-7.608511078084733e-06;2.9492857343628235e-05;-2.9492857343628886e-05;-0.0002065366313657372;0.0015489913258728899;-3.875903792833023e-05;0.0014193580467462194;0.0;-2.96255436183064e-05;2.9836208614196457e-05;0.0021462210479248917;-0.006735978474306428
2.020019769668579;0.0019697022289489087;0.002571345240716948;0.000708852527125405;0.018595439864100168;0.0009679501726060358;-0.008318662440677024;-6.870371620719946e-05;-8.407388954037262e-19;3.7970209182537035e-16;-3.5863884781653636e-16;6.847103528377318e-16;-7.129445430585045e-19;-2.76498537971303e-09;-5.744794699761846e-18;4.982936950495872e-16;-3.6251406784853793e-16;6.653805704415676e-16;-1.3966335752182376e-18;1.5151610479678422e-05;8.617000266681494e-05;-0.00019865681744157525;-0.0008543605083854002;0.000566015785544363;0.0006945671910666614;-8.46389434940214e-06;2.9887813228459312e-05;-2.988781322845912e-05;-0.0001672025214850752;0.0015195456683010106;-3.572950739666753e-05;0.0014291629407058818;0.0;-3.682961512218276e-05;3.31026197598681e-05;0.002160462490389959;-0.006717799227277696
2.040095329284668;0.0021616582643464183;0.0021586827983353903;0.0007192910800010143;0.021506515953615767;0.000947964711314453;-0.008499848760126131;-3.101727876015293e-05;-1.1044546462979215e-18;-2.586702077173468e-15;-3.5001191673638964e-16;7.492908044172762e-16;-7.342412258821449e-19;-3.3282732802169247e-09;-5.706746622266023e-18;-2.3010540922461748e-15;-3.5464132294480237e-16;7.243645950327954e-16;-1.4281681158934671e-18;1.809474814378846e-05;7.518432780569153e-05;-0.00022739772791137436;-0.000777969105283133;0.0008763077355822668;0.0006722795124287288;-9.446511614333639e-06;2.903751915743032e-05;-2.9037519157429276e-05;-0.0001320275594375392;0.0014652352105425951;-3.07291373165609e-05;0.001398462741532762;0.0;-4.340901171945829e-05;3.430954977316616e-05;0.0021100032999514765;-0.006736123731719226
2.060126304626465;0.002088810192074813;0.0016141959907521107;0.0006489676934664041;0.023471560568652947;0.0006267984537807038;-0.00814552153394847;5.99244688681225e-05;-1.403095247554236e-18;-6.25890969555244e-15;-3.279575592406388e-16;8.071902943235915e-16;-7.378363451765641e-19;-3.93532495877284e-09;-5.477032587141123e-18;-5.770910454650936e-15;-3.333942372712606e-16;7.759738455497806e-16;-1.423380859045805e-18;2.0451410439890877e-05;6.150108878519281e-05;-0.0002502440330920908;-0.0007021928998999234;0.001136159443116904;0.0006387109175738666;-1.052229473139327e-05;2.7332964364897073e-05;-2.7332964364897723e-05;-0.0001013135788679052;0.0013916223181976682;-2.342798321561631e-05;0.001324639037057961;0.0;-4.8151931235659264e-05;3.394500769398792e-05;0.001979031262712184;-0.006757489735660865
2.080152750015259;0.0018079082111435683;0.000951662523363832;0.0005125632342462574;0.02456360513676273;8.355868711190926e-05;-0.0073025303985451775;0.0001398650774130183;-1.7371479189228774e-18;-1.0715715473840704e-14;-2.895818834944409e-16;8.549594092515412e-16;-7.189616290168086e-19;-4.579957590969615e-09;-5.011861731127183e-18;-9.986675937046499e-15;-2.958693500738329e-16;8.167596601055922e-16;-1.372645074761483e-18;2.1920267811309313e-05;4.586553679638851e-05;-0.0002668191541553239;-0.0006367243485620216;0.0013440194025262546;0.0005979695893819028;-1.166095873847258e-05;2.509786059016551e-05;-2.509786059016429e-05;-7.47909291515338e-05;0.0013034790042261131;-1.3429977660197227e-05;0.0012055459122618769;0.0;-5.005572631972326e-05;3.252579311301222e-05;0.0017501417934165729;-0.006773308437649039
2.0999841690063477;0.0012221618283161243;0.0001555236095542963;0.00028821034611857115;0.02489159896683054;-0.0008428360293720708;-0.00598929826829998;0.00016362002147926282;-2.1018264596526825e-18;-1.5970809170233305e-14;-2.3239067328030955e-16;8.881390371841861e-16;-6.728024250409624e-19;-5.245294680222993e-09;-4.271655030666872e-18;-1.4962230243583185e-14;-2.3954866034016635e-16;8.423747122157822e-16;-1.266442540809021e-18;2.211599273232245e-05;2.9306227073906086e-05;-0.0002770689931101227;-0.0005876268288743687;0.001499767929150638;0.0005549327710742795;-1.2811116608508753e-05;2.2615088203382497e-05;-2.261508820338264e-05;-5.240555784553812e-05;0.001206170522242411;-4.6933612741122367e-07;0.0010407874776014103;0.0;-4.99490733841344e-05;3.054872174713642e-05;0.0014083046604148213;-0.006475056169838985
2.12007212638855;0.00036199820300462335;-0.0006924313312164237;-4.037835780892772e-06;0.02463697901573008;-0.0021272738315218542;-0.0044400918640465515;0.00011650446831395236;-2.5031009006855745e-18;-2.2208469127976402e-14;-1.5159090285628942e-16;9.024898724427863e-16;-5.921603505588746e-19;-5.932547958187806e-09;-3.1857045383694464e-18;-2.0873140534332e-14;-1.5963870267745678e-16;8.484707220784443e-16;-1.0900795244987576e-18;2.057150966585178e-05;1.2399227459122976e-05;-0.0002815319933399044;-0.0005561195797317789;0.0016102523495355667;0.0005104543477388832;-1.3949370768855728e-05;2.0026852905492554e-05;-2.0026852905491846e-05;-3.337650034560718e-05;0.001101332534167564;1.6183863836988036e-05;0.0008298966961986167;0.0;-4.844124021451193e-05;2.830930666037458e-05;0.0009640294786348928;-0.0058368526162591115
2.1399853229522705;-0.000677690655532179;-0.001644680254211981;-0.0003392171758633301;0.02372901574147739;-0.0036169013522668026;-0.002686481056252065;3.639253643200292e-05;-2.9284505754928063e-18;-2.934732250041847e-14;-4.525782960493439e-17;8.92051148700291e-16;-4.72124786651563e-19;-6.6091146595454765e-09;-1.7203545930084776e-18;-2.7643462751814313e-14;-5.417003569942436e-17;8.293616258276069e-16;-8.3413806104186405e-19;1.6790803843206056e-05;-3.4752624219954826e-06;-0.00028061541942340444;-0.000545041645763928;0.0016779033731868646;0.00046513926788082456;-1.4992358171056483e-05;1.7542124140102836e-05;-1.7542124140103144e-05;-1.7825236669857546e-05;0.0009944861744342274;3.6606542887831744e-05;0.0005880515354276148;0.0;-4.512601320288643e-05;2.5208606110241986e-05;0.00047505588000409493;-0.005116138222859763
2.1600003242492676;-0.0019004118523658128;-0.002607552262744974;-0.0007092756105350113;0.02205860513035575;-0.005306196893441878;-0.0008355896722223495;-1.951280799747809e-05;-3.377494178499265e-18;-3.751109307144749e-14;9.16212252911602e-17;8.504981873976872e-16;-3.0427042901208077e-19;-7.261567464412494e-09;2.006796388217744e-19;-3.539177463440019e-14;8.189025098421313e-17;7.787502024515373e-16;-4.817137777312969e-19;1.0156600896508982e-05;-1.744015195045187e-05;-0.0002750111580856781;-0.0005559970919638161;0.0017100689012821098;0.00041901155313666625;-1.588457989786471e-05;1.5242003315019431e-05;-1.5242003315020739e-05;-5.190927007541531e-06;0.0008869863132233521;6.146554356938752e-05;0.00032611503829658604;0.0;-3.982268613726903e-05;2.0896267166117664e-05;-2.963638592529393e-05;-0.004494119801471027
2.1802175045013428;-0.0032491782347444393;-0.003484478252159929;-0.0010922771692814725;0.01977056147741434;-0.0071243026007171955;0.0009403475454248978;-1.2383676983073475e-05;-3.8443769444037895e-18;-4.676979889691644e-14;2.641885275854934e-16;7.697832123244095e-16;-7.921437442952384e-20;-7.864013258215851e-09;2.6575820191974435e-18;-4.4186084571633935e-14;2.537214835750498e-16;6.887334773863958e-16;-1.419262137176338e-20;-5.852348405536166e-08;-2.8329753741472665e-05;-0.0002653361160658741;-0.0005884764313129379;0.0017129209420386786;0.0003732702694761011;-1.654337603714451e-05;1.3204482970246793e-05;-1.3204482970247777e-05;4.856558292687783e-06;0.0007806443313040449;9.136547422704522e-05;5.609110595352605e-05;0.0;-3.345305776094324e-05;1.6174420869947584e-05;-0.0005281013635698919;-0.003810767493920773
2.2001211643218994;-0.0044876930444777054;-0.004079132928769536;-0.00142389877077437;0.017302054515535934;-0.008755869454290098;0.002354878813077748;5.121010928459817e-05;-4.306037202964317e-18;-5.685550250660435e-14;4.713548748809517e-16;6.446738720211637e-16;2.0434649009199465e-19;-8.36803339081317e-09;5.641939362586714e-18;-5.377342293411707e-14;4.602991372585011e-16;5.545672107539159e-16;5.702366131808985e-19;-1.2795518606203038e-05;-3.608004701250234e-05;-0.0002526174449616805;-0.0006379978253547622;0.0016934460112913619;0.00033106917749803523;-1.6860084878411033e-05;1.1597392648969539e-05;-1.1597392648971628e-05;1.2405557378700966e-05;0.0006799755589576962;0.00012582607063215155;-0.00020181508295849678;0.0;-2.6916776746071787e-05;1.1780774371081697e-05;-0.0009921559147127725;-0.0029337419189656515
2.219970941543579;-0.0055231188894897835;-0.004485877194838424;-0.0016982660864218817;0.014899831467844142;-0.010082842720911216;0.0035654610172843647;0.00011798701568371775;-4.754409156432234e-18;-6.781284424283497e-14;7.18170303663565e-16;4.666056142533537e-16;5.559403797841788e-19;-8.743062004698397e-09;9.233314221753656e-18;-6.419784235871747e-14;7.067165563794988e-16;3.678784965612989e-16;1.2903925239324694e-18;-2.6243897998810392e-05;-4.21493023910093e-05;-0.00023750281597642955;-0.0006991673238792696;0.0016586876973932437;0.0002942223098412786;-1.6741454567295027e-05;1.0527895153050503e-05;-1.0527895153052724e-05;1.7930142793794238e-05;0.0005849441763834195;0.0001654072243598628;-0.0004404882221006015;0.0;-1.9835019233038694e-05;7.273463984772727e-06;-0.001419658038871773;-0.0020210864119137822
2.2401278018951416;-0.00631407428714107;-0.004649843666312444;-0.0018992863314958833;0.01250039795042172;-0.011035388011935954;0.004484937705033377;0.00013384151717226787;-5.1796134341744795e-18;-7.975122498334167e-14;1.0129685023262877e-15;2.224243976725972e-16;9.908264102815157e-19;-8.946268812797448e-09;1.3561792524838928e-17;-7.55657207724732e-14;1.0013686573293686e-15;1.157563093395463e-16;2.176497469925262e-18;-3.920997012257188e-05;-4.736710132988022e-05;-0.00022036845720803765;-0.000765767405452686;0.0016142301606495704;0.00026501977124462574;-1.605456012576441e-05;1.007683628130349e-05;-1.0076836281304634e-05;2.1794793535421433e-05;0.0004949561863941284;0.00021108240775759814;-0.0006578090469460419;0.0;-1.1837695826010853e-05;2.2915379291280026e-06;-0.0018136421156525321;-0.0012362940286467687
2.2599728107452393;-0.006668495548561281;-0.004551896390209936;-0.0019798429893115688;0.01021970672514256;-0.011331012844086639;0.005022306940523561;6.706997839570262e-05;-5.547592802041319e-18;-9.214661097402429e-14;1.3491027003427659e-15;-8.934931936959116e-17;1.5025126180428863e-18;-8.918795390117516e-09;1.853841098199485e-17;-8.738053040405603e-14;1.3376849937827856e-15;-2.02577470628352e-16;3.214345034839981e-18;-5.026033802541509e-05;-5.1857688002973394e-05;-0.00020235893753191062;-0.0008267875449800981;0.0015672907683886726;0.00024739862919869284;-1.4688721115009435e-05;1.030170981356976e-05;-1.0301709813570555e-05;2.4157155688968427e-05;0.00041344149955097054;0.0002614666230430771;-0.0008421879430957444;0.0;-3.831197613166096e-06;-2.3704915477554555e-06;-0.002161592734068095;-0.0005136799799566818
2.2799222469329834;-0.006742303828044165;-0.004373613771265673;-0.001981792661369337;0.007990622781756326;-0.011202496902752272;0.0053141047048444745;-5.440563483205293e-05;-5.841494967265047e-18;-1.0502680130653478e-13;1.7345541627234028e-15;-4.834229959484642e-16;2.106613551943575e-18;-8.603229556525744e-09;2.4290360903524275e-17;-9.967159782575242e-14;1.7237275266902352e-15;-6.014397902076006e-16;4.434608926384569e-18;-5.890212648207262e-05;-5.5634519626739243e-05;-0.0001836686672448194;-0.0008755964375703129;0.0015222535389382416;0.00024110099610371308;-1.2479825573996768e-05;1.1236860583404257e-05;-1.123686058340286e-05;2.534779813198382e-05;0.00033896596612448043;0.0003173846544036716;-0.0009935671815690847;0.0;3.787565823608637e-06;-6.413722784143361e-06;-0.0024733881984106776;0.0005132385031474144
2.3000833988189697;-0.006499720749729739;-0.00413591369635607;-0.0018993621043743136;0.0058061096434593095;-0.010593711017596812;0.005394426301529843;-0.00016329475104124027;-6.030918550041647e-18;-1.1817184061419555e-13;2.1731180455379338e-15;-9.731808283784022e-16;2.8135854605875257e-18;-7.922613164628847e-09;3.088601867124392e-17;-1.1223309094337676e-13;2.16339659951087e-15;-1.0935512265423238e-15;5.85714271923093e-18;-6.459280266012534e-05;-5.8283268432689235e-05;-0.0001646687205350168;-0.0009048112592308728;0.001483624235678317;0.00024430835615880497;-9.236002592189822e-06;1.2045916529634397e-05;-1.2045916529634008e-05;2.5584655423018316e-05;0.0002714518738846176;0.00037890355970414364;-0.0011104257841012153;0.0;1.1408319008889254e-05;-1.0488191359773183e-05;-0.002753222279625321;0.0018735160924481123
2.320131540298462;-0.00594087521202006;-0.0037453619278783904;-0.0017237214924903043;0.003818773476292632;-0.00952236360603203;0.0050954300235379986;-0.00020621329173469655;-6.077475328473561e-18;-1.309905687349881e-13;2.6572832394506478e-15;-1.5602668454418757e-15;3.616078933109615e-18;-6.8106507825633694e-09;3.822481782113562e-17;-1.2450487391552246e-13;2.6492670604121517e-15;-1.6797652616533096e-15;7.465851706321517e-18;-6.686516435689754e-05;-5.9067270243861355e-05;-0.00014606790680123677;-0.000904369416168672;0.0014559649564619252;0.0002560923743686901;-4.833627094279566e-06;1.191360813611496e-05;-1.1913608136114404e-05;2.507192526547357e-05;0.0002119837157912322;0.00044445925022105066;-0.0011912109558232583;0.0;1.909852094542668e-05;-1.4934871939949889e-05;-0.0030003029617509764;0.0032595442785686027
2.3400869369506836;-0.0050751082716219975;-0.0033255442468152294;-0.0014743512013944541;0.0020069238228640107;-0.007998253977880699;0.004676840577992224;-0.0001615861515500431;-5.94426702997289e-18;-1.430278579419549e-13;3.1842694335903486e-15;-2.251766064116244e-15;4.514445608199083e-18;-5.192477744903718e-09;4.6277534561617956e-17;-1.3605687974432305e-13;3.1786581292333185e-15;-2.366389941126498e-15;9.260110818413985e-18;-6.554876744502176e-05;-5.710357661187693e-05;-0.0001281689043044722;-0.0008661013034776686;0.0014421329272972345;0.0002735422621773979;8.883737671822718e-07;1.1021619196781158e-05;-1.1021619196779415e-05;2.401221443716438e-05;0.00016016217358096713;0.0005131430911745415;-0.0012386065398724744;0.0;2.608723894841409e-05;-1.9138598842476162e-05;-0.0032191936385602576;0.004728320249969161
2.3600003719329834;-0.003896885691405856;-0.0028198407806826783;-0.0011538679307568716;0.0005333239204373269;-0.006029463350475748;0.004148252866148483;-6.184648117969974e-05;-5.589086860245178e-18;-1.537491254991296e-13;3.750347680323262e-15;-3.0551024956340188e-15;5.5081712188410615e-18;-2.983835720094171e-09;5.500240607129145e-17;-1.4638378009399449e-13;3.747952618659284e-15;-3.1599626369259133e-15;1.1237365636033851e-17;-6.05447316078696e-05;-5.131142195451108e-05;-0.00011117407887772761;-0.0007822208008573228;0.0014441344859655674;0.00029231419193379997;8.108450910836053e-06;9.554163478785063e-06;-9.554163478783504e-06;2.2577669771258367e-05;0.00011543687597068387;0.0005838421531109583;-0.0012560850571758607;0.0;3.1809217046870995e-05;-2.264605352372645e-05;-0.003413857773027911;0.006353685588501552
2.3800361156463623;-0.0026470851716964222;-0.0023256664436655068;-0.000826027585942566;-0.0007796786009295264;-0.00396651367981499;0.003703318041450306;3.2794989333694095e-05;-4.958873076296338e-18;-1.6254380555615999e-13;4.353244325004824e-15;-3.982603307916743e-15;6.600642358292071e-18;-7.273659007146469e-11;6.438360605086484e-17;-1.5490919884844166e-13;4.355026573716983e-15;-4.071686543306685e-15;1.3402478902868637e-17;-5.172350141229112e-05;-4.033759225738374e-05;-9.514031085082751e-05;-0.0006439248638086511;0.0014633788935856501;0.00030959348429701063;1.5218210020225241e-05;7.675290614327244e-06;-7.675290614325866e-06;2.0904696183050975e-05;7.704252322734228e-05;0.0006554807999028578;-0.001247245512044997;0.0;3.665792516603542e-05;-2.5931208277248692e-05;-0.0035877502546792714;0.007917059016773845
2.400123119354248;-0.0014915565364094047;-0.0018688630199702242;-0.0005292247190936297;-0.0018280964805397898;-0.0020761189146217343;0.00334199525924179;7.616544078432633e-05;-3.9989163181414835e-18;-1.685386104862858e-13;4.981046180235686e-15;-5.035112746380046e-15;7.779365883877666e-18;3.6322675875579454e-09;7.425944986090441e-17;-1.6080535883176809e-13;4.988084706374247e-15;-5.1012839078803805e-15;1.5728448783861048e-17;-4.056634162568154e-05;-2.4242130678211568e-05;-8.027243312126007e-05;-0.0004463631065120597;0.0015003683606967797;0.00032339191509477553;2.054750274951434e-05;5.568773714568153e-06;-5.568773714568133e-06;1.9128253908529856e-05;4.469789289669329e-05;0.0007256676331282774;-0.0012157074584916291;0.0;4.0822901280051604e-05;-2.9272328009278403e-05;-0.003740377941094881;0.009226083276748905
2.4199490547180176;-0.00031741169915218713;-0.0014960991894091336;-0.00023858793783060198;-0.0025737817755904203;-0.0001888742793639898;0.003063924858507351;5.297478689399155e-05;-2.673170707672518e-18;-1.7075889153812595e-13;5.610230613091715e-15;-6.193751565485579e-15;9.009927991749054e-18;8.152088684496666e-09;8.428530509397132e-17;-1.6314440031222182e-13;5.6236223617726754e-15;-6.2291966459952e-15;1.8145042675836244e-17;-2.999120802191529e-05;-4.53397542842331e-06;-6.686362273968356e-05;-0.000199815271430607;0.001553601894194364;0.00033248938020655737;2.4272053852950732e-05;3.4086340317414488e-06;-3.4086340317370764e-06;1.738951642505448e-05;1.8279973537927542e-05;0.0007907265165394858;-0.0011662106267710077;0.0;4.353797857366468e-05;-3.200529202946407e-05;-0.003868203505265798;0.010118521555542218
