flxalr/sts-optimization-reemc/input/415_104/augmented.txt
time, StatePelvisPosX, StatePelvisPosZ, StatePelvisRotY, StateHipRotY, StateKneeRotY, StateAnkleRotY, StateMiddleTrunkRotY, StateLShoulderRotY, StateLElbowRotY, StateRShoulderRotY, StateRElbowRotY, StateHeadRotY, StatePelvisVelX, StatePelvisVelZ, StatePelvisRotVelY, StateHipRotVelY, StateKneeRotVelY, StateAnkleRotVelY, StateMiddleTrunkRotVelY, StateLShoulderRotVelY, StateLElbowRotVelY, StateRShoulderRotVelY, StateRElbowRotVelY, StateHeadRotVelY, StateHipTorque, StateKneeTorque, StateAnkleTorque, StateMiddleTrunkTorque, StateShoulderTorque, StateElbowTorque, StateHeadTorque, ControlHipDTorque, ControlKneeDTorque, ControlAnkleDTorque, ControlMiddleTrunkDTorque, ControlShoulderDTorque, ControlElbowDTorque, ControlHeadDTorque, TauPelvisPosX, TauPelvisPosZ, TauPelvisRotY, Tauleg_3_joint, Tauleg_4_joint, Tauleg_5_joint, Tautorso_2_joint, Tauarm_1_joint, Tauarm_4_joint, Tauarm_1_joint, Tauarm_4_joint, Tauhead_2_joint, Heel_Fx, Heel_Fy, Heel_Fz, Toe_Fx, Toe_Fy, Toe_Fz, CoP, Hand_x, Hand_y, Hand_z, Box_Hand_Fx, Box_Hand_Fz, Box_Hand_Ty, Phase
0, -0.0563343, 0.641817, 0.1, -1.32415, 1.59061, -0.366454, 0.1, 0.23, 1, 0.23, 1, 0.03, 3.67273e-18, 4.07378e-18, 9.72475e-18, -1.50609e-18, -5.24033e-19, 1.20222e-18, 2.20256e-18, 1.60885e-18, 1.78798e-18, -3.88751e-19, 7.86176e-19, -8.21379e-19, 30.273, -0.549543, 1.20106, -16.7209, 0.342056, 3.8693, -1.12798, -4.00661, -0.911086, -2.33545, -8.00506, -0.974839, 4.85326, 9.06215, 4.65454e-310, 0, 0, 30.273, -0.549543, 1.20106, -16.7209, 0.171028, 1.93465, 0.171028, 0, 0, 7.01496, 0, 85.9773, 0, 0, 43.0135, 1.93011e-05, 0, 0, 0, 0, 0, 0, 0
0.000363814, -0.0563343, 0.641817, 0.0999999, -1.32415, 1.59061, -0.366454, 0.100001, 0.23, 1, 0.23, 1, 0.029996, -7.98825e-05, 8.01497e-06, -0.00055935, 0.00055935, -9.01565e-19, 1.03122e-18, 0.00299141, -0.00175001, 8.25793e-05, -0.00175769, 9.15298e-05, -0.0220903, 30.2716, -0.549881, 1.20022, -16.7238, 0.34169, 3.87108, -1.12466, -3.74469, -0.944112, -2.29036, -8.06825, -1.04049, 4.9365, 9.16972, 4.65454e-310, 0, 0, 30.2716, -0.549881, 1.20022, -16.7238, 0.170845, 1.93554, 0.170845, 0, 0, 7.00877, 0, 85.9642, 0, 0, 43.0058, 1.83945e-05, 0, 0, 0, 0, 0, 0, 0
0.000727628, -0.0563343, 0.641817, 0.0999996, -1.32415, 1.59061, -0.366454, 0.100002, 0.229999, 1, 0.229999, 1, 0.0299839, -0.000159154, 1.59686e-05, -0.00111442, 0.00111442, 3.17404e-18, -2.46126e-18, 0.00596988, -0.00350596, 0.000163257, -0.00352132, 0.000181148, -0.0440865, 30.2703, -0.55023, 1.1994, -16.7268, 0.341299, 3.87289, -1.12131, -3.48277, -0.977138, -2.24526, -8.13144, -1.10615, 5.01973, 9.2773, 4.65454e-310, 0, 0, 30.2703, -0.55023, 1.1994, -16.7268, 0.17065, 1.93644, 0.17065, 0, 0, 7.00272, 0, 85.9515, 0, 0, 42.9983, 1.74811e-05, 0, 0, 0, 0, 0, 0, 0
0.00109144, -0.0563344, 0.641817, 0.0999991, -1.32415, 1.59061, -0.366454, 0.100005, 0.229997, 1, 0.229997, 1, 0.0299639, -0.000237812, 2.38606e-05, -0.0016652, 0.0016652, 2.78981e-18, -1.00854e-17, 0.00893537, -0.00526788, 0.00024205, -0.00529091, 0.000268872, -0.0659878, 30.2691, -0.550592, 1.19859, -16.7298, 0.340885, 3.87473, -1.11791, -3.22085, -1.01016, -2.20017, -8.19463, -1.1718, 5.10297, 9.38487, 4.65454e-310, 0, 0, 30.2691, -0.550592, 1.19859, -16.7298, 0.170442, 1.93737, 0.170442, 0, 0, 6.99683, 0, 85.9393, 0, 0, 42.991, 1.65617e-05, 0, 0, 0, 0, 0, 0, 0
0.00145526, -0.0563345, 0.641817, 0.0999984, -1.32415, 1.59061, -0.366454, 0.100009, 0.229995, 1, 0.229995, 1, 0.0299359, -0.00031586, 3.16912e-05, -0.0022117, 0.0022117, -1.23308e-18, -1.28004e-17, 0.0118879, -0.00703577, 0.000318985, -0.00706647, 0.000354727, -0.0877935, 30.268, -0.550966, 1.1978, -16.7327, 0.340446, 3.8766, -1.11448, -2.95894, -1.04319, -2.15508, -8.25782, -1.23745, 5.18621, 9.49245, 4.65454e-310, 0, 0, 30.268, -0.550966, 1.1978, -16.7327, 0.170223, 1.9383, 0.170223, 0, 0, 6.99108, 0, 85.9275, 0, 0, 42.9839, 1.56368e-05, 0, 0, 0, 0, 0, 0, 0
0.00181907, -0.0563346, 0.641817, 0.0999975, -1.32415, 1.59061, -0.366454, 0.100014, 0.229992, 1, 0.229992, 1, 0.0299, -0.000393298, 3.94604e-05, -0.00275394, 0.00275394, -5.87621e-18, -5.10718e-18, 0.0148274, -0.00880964, 0.00039409, -0.00884801, 0.000438742, -0.109503, 30.2669, -0.551351, 1.19702, -16.7358, 0.339984, 3.8785, -1.11101, -2.69702, -1.07622, -2.10998, -8.32101, -1.30311, 5.26944, 9.60002, 4.65454e-310, 0, 0, 30.2669, -0.551351, 1.19702, -16.7358, 0.169992, 1.93925, 0.169992, 0, 0, 6.98547, 0, 85.9161, 0, 0, 42.977, 1.47072e-05, 0, 0, 0, 0, 0, 0, 0
0.00218288, -0.0563348, 0.641817, 0.0999964, -1.32415, 1.59061, -0.366454, 0.100019, 0.229988, 1, 0.229988, 1, 0.0298562, -0.000470127, 4.71683e-05, -0.00329191, 0.00329191, -9.76054e-18, 3.20035e-18, 0.0177539, -0.0105895, 0.000467392, -0.0106355, 0.000520944, -0.131115, 30.266, -0.551749, 1.19626, -16.7388, 0.339498, 3.88044, -1.10749, -2.4351, -1.10924, -2.06489, -8.3842, -1.36876, 5.35268, 9.7076, 4.65454e-310, 0, 0, 30.266, -0.551749, 1.19626, -16.7388, 0.169749, 1.94022, 0.169749, 0, 0, 6.98001, 0, 85.9052, 0, 0, 42.9704, 1.37733e-05, 0, 0, 0, 0, 0, 0, 0
0.0025467, -0.056335, 0.641817, 0.0999951, -1.32415, 1.59061, -0.366454, 0.100026, 0.229984, 1, 0.229984, 1, 0.0298046, -0.000546348, 5.4815e-05, -0.00382562, 0.00382562, -1.05271e-17, 8.44332e-18, 0.0206674, -0.0123753, 0.000538917, -0.012429, 0.000601358, -0.15263, 30.2652, -0.552158, 1.19552, -16.7419, 0.338988, 3.8824, -1.10394, -2.17318, -1.14227, -2.0198, -8.44739, -1.43441, 5.43592, 9.81517, 4.65454e-310, 0, 0, 30.2652, -0.552158, 1.19552, -16.7419, 0.169494, 1.9412, 0.169494, 0, 0, 6.9747, 0, 85.8947, 0, 0, 42.9639, 1.2836e-05, 0, 0, 0, 0, 0, 0, 0
0.00291051, -0.0563352, 0.641817, 0.0999936, -1.32415, 1.59061, -0.366454, 0.100035, 0.229979, 1, 0.229979, 1, 0.0297452, -0.000621963, 6.24005e-05, -0.00435509, 0.00435509, -6.92184e-18, 1.01261e-17, 0.0235679, -0.0141672, 0.000608692, -0.0142285, 0.000680012, -0.174046, 30.2644, -0.55258, 1.19479, -16.7449, 0.338455, 3.88439, -1.10035, -1.91126, -1.17529, -1.9747, -8.51058, -1.50007, 5.51915, 9.92275, 4.65454e-310, 0, 0, 30.2644, -0.55258, 1.19479, -16.7449, 0.169227, 1.9422, 0.169227, 0, 0, 6.96952, 0, 85.8847, 0, 0, 42.9577, 1.18959e-05, 0, 0, 0, 0, 0, 0, 0
0.00327432, -0.0563354, 0.641817, 0.0999919, -1.32414, 1.59061, -0.366454, 0.100044, 0.229974, 1, 0.229974, 1, 0.029678, -0.000696973, 6.99249e-05, -0.00488032, 0.00488032, -4.98181e-18, 1.84163e-17, 0.0264554, -0.015965, 0.000676743, -0.016034, 0.00075693, -0.195363, 30.2638, -0.553013, 1.19408, -16.7481, 0.337897, 3.88641, -1.09672, -1.64934, -1.20832, -1.92961, -8.57377, -1.56572, 5.60239, 10.0303, 4.65454e-310, 0, 0, 30.2638, -0.553013, 1.19408, -16.7481, 0.168948, 1.94321, 0.168948, 0, 0, 6.96449, 0, 85.875, 0, 0, 42.9516, 1.09535e-05, 0, 0, 0, 0, 0, 0, 0
0.00363814, -0.0563357, 0.641817, 0.09999, -1.32414, 1.59061, -0.366454, 0.100054, 0.229968, 1, 0.229968, 1, 0.0296031, -0.000771378, 7.73882e-05, -0.00540131, 0.00540131, -6.08465e-18, 3.60795e-17, 0.0293299, -0.0177689, 0.000743095, -0.0178455, 0.000832139, -0.21658, 30.2632, -0.553459, 1.19339, -16.7512, 0.337315, 3.88847, -1.09305, -1.38742, -1.24135, -1.88452, -8.63696, -1.63137, 5.68563, 10.1379, 4.65454e-310, 0, 0, 30.2632, -0.553459, 1.19339, -16.7512, 0.168658, 1.94423, 0.168658, 0, 0, 6.9596, 0, 85.8658, 0, 0, 42.9458, 1.00096e-05, 0, 0, 0, 0, 0, 0, 0
0.00400195, -0.056336, 0.641817, 0.099988, -1.32414, 1.59061, -0.366454, 0.100065, 0.229961, 1, 0.229961, 1, 0.0295204, -0.000845181, 8.47907e-05, -0.00591809, 0.00591809, -8.1235e-18, 5.72066e-17, 0.0321914, -0.0195788, 0.000807774, -0.019663, 0.000905663, -0.237697, 30.2628, -0.553917, 1.19271, -16.7543, 0.33671, 3.89055, -1.08935, -1.12551, -1.27437, -1.83942, -8.70015, -1.69703, 5.76887, 10.2455, 4.65454e-310, 0, 0, 30.2628, -0.553917, 1.19271, -16.7543, 0.168355, 1.94528, 0.168355, 0, 0, 6.95486, 0, 85.857, 0, 0, 42.9402, 9.06481e-06, 0, 0, 0, 0, 0, 0, 0
0.00436577, -0.0563363, 0.641817, 0.0999857, -1.32414, 1.59061, -0.366454, 0.100077, 0.229954, 1, 0.229953, 1, 0.0294301, -0.000918381, 9.21322e-05, -0.00643065, 0.00643065, -1.25126e-17, 8.3997e-17, 0.0350398, -0.0213946, 0.000870807, -0.0214865, 0.000977529, -0.258712, 30.2624, -0.554386, 1.19205, -16.7575, 0.33608, 3.89267, -1.0856, -0.863587, -1.3074, -1.79433, -8.76334, -1.76268, 5.8521, 10.353, 4.65454e-310, 0, 0, 30.2624, -0.554386, 1.19205, -16.7575, 0.16804, 1.94633, 0.16804, 0, 0, 6.95025, 0, 85.8486, 0, 0, 42.9348, 8.11978e-06, 0, 0, 0, 0, 0, 0, 0
0.00472958, -0.0563366, 0.641817, 0.0999833, -1.32414, 1.59061, -0.366454, 0.10009, 0.229945, 1, 0.229945, 1, 0.0293322, -0.00099098, 9.9413e-05, -0.006939, 0.006939, -1.84163e-17, 1.12645e-16, 0.0378752, -0.0232166, 0.000932217, -0.0233161, 0.00104776, -0.279626, 30.2621, -0.554868, 1.19141, -16.7607, 0.335427, 3.89481, -1.08181, -0.601669, -1.34042, -1.74924, -8.82653, -1.82834, 5.93534, 10.4606, 4.65454e-310, 0, 0, 30.2621, -0.554868, 1.19141, -16.7607, 0.167714, 1.9474, 0.167714, 0, 0, 6.94578, 0, 85.8406, 0, 0, 42.9296, 7.17515e-06, 0, 0, 0, 0, 0, 0, 0
0.00509339, -0.056337, 0.641817, 0.0999807, -1.32413, 1.59061, -0.366454, 0.100105, 0.229937, 1, 0.229936, 1, 0.0292267, -0.00106298, 0.000106633, -0.00744314, 0.00744314, -2.35822e-17, 1.35411e-16, 0.0406975, -0.0250445, 0.000992031, -0.0251516, 0.00111639, -0.300437, 30.262, -0.555362, 1.19078, -16.7639, 0.33475, 3.89698, -1.07799, -0.33975, -1.37345, -1.70414, -8.88972, -1.89399, 6.01858, 10.5682, 4.65454e-310, 0, 0, 30.262, -0.555362, 1.19078, -16.7639, 0.167375, 1.94849, 0.167375, 0, 0, 6.94145, 0, 85.8331, 0, 0, 42.9246, 6.2316e-06, 0, 0, 0, 0, 0, 0, 0
0.00545721, -0.0563374, 0.641817, 0.0999779, -1.32413, 1.59061, -0.366454, 0.10012, 0.229927, 1, 0.229927, 1, 0.0291136, -0.00113438, 0.000113792, -0.0079431, 0.0079431, -2.65126e-17, 1.46685e-16, 0.0435068, -0.0268785, 0.00105027, -0.0269932, 0.00118343, -0.321145, 30.2619, -0.555867, 1.19017, -16.7672, 0.334049, 3.89919, -1.07412, -0.0778317, -1.40648, -1.65905, -8.95291, -1.95964, 6.10181, 10.6758, 4.65454e-310, 0, 0, 30.2619, -0.555867, 1.19017, -16.7672, 0.167025, 1.94959, 0.167025, 0, 0, 6.93726, 0, 85.826, 0, 0, 42.9198, 5.28978e-06, 0, 0, 0, 0, 0, 0, 0
0.00582102, -0.0563378, 0.641817, 0.0999749, -1.32413, 1.59061, -0.366454, 0.100136, 0.229917, 1, 0.229917, 1, 0.028993, -0.00120518, 0.000120891, -0.00843886, 0.00843886, -2.49318e-17, 1.38857e-16, 0.0463031, -0.0287186, 0.00110697, -0.0288409, 0.00124891, -0.341749, 30.2619, -0.556385, 1.18957, -16.7704, 0.333324, 3.90142, -1.07022, 0.184087, -1.4395, -1.61396, -9.0161, -2.0253, 6.18505, 10.7833, 4.65454e-310, 0, 0, 30.2619, -0.556385, 1.18957, -16.7704, 0.166662, 1.95071, 0.166662, 0, 0, 6.9332, 0, 85.8193, 0, 0, 42.9152, 4.35035e-06, 0, 0, 0, 0, 0, 0, 0
0.00618484, -0.0563383, 0.641817, 0.0999718, -1.32412, 1.59061, -0.366454, 0.100154, 0.229906, 1, 0.229906, 1, 0.0288649, -0.00127539, 0.000127929, -0.00893045, 0.00893045, -2.54302e-17, 1.35999e-16, 0.0490862, -0.0305647, 0.00116214, -0.0306946, 0.00131286, -0.362248, 30.262, -0.556915, 1.18899, -16.7737, 0.332575, 3.90369, -1.06628, 0.446005, -1.47253, -1.56886, -9.07929, -2.09095, 6.26829, 10.8909, 4.65454e-310, 0, 0, 30.262, -0.556915, 1.18899, -16.7737, 0.166288, 1.95184, 0.166288, 0, 0, 6.92928, 0, 85.8129, 0, 0, 42.9109, 3.41397e-06, 0, 0, 0, 0, 0, 0, 0
0.00654865, -0.0563388, 0.641818, 0.0999684, -1.32412, 1.59061, -0.366454, 0.100172, 0.229895, 1, 0.229894, 1, 0.0287294, -0.001345, 0.000134907, -0.00941786, 0.00941786, -2.52828e-17, 1.29749e-16, 0.0518563, -0.0324168, 0.00121582, -0.0325544, 0.0013753, -0.382641, 30.2622, -0.557456, 1.18843, -16.7771, 0.331803, 3.90599, -1.06229, 0.707924, -1.50555, -1.52377, -9.14248, -2.1566, 6.35152, 10.9985, 4.65454e-310, 0, 0, 30.2622, -0.557456, 1.18843, -16.7771, 0.165901, 1.95299, 0.165901, 0, 0, 6.9255, 0, 85.807, 0, 0, 42.9067, 2.4813e-06, 0, 0, 0, 0, 0, 0, 0
0.00691246, -0.0563393, 0.641818, 0.0999649, -1.32412, 1.59061, -0.366454, 0.100191, 0.229883, 1, 0.229882, 1.00001, 0.0285865, -0.00141401, 0.000141824, -0.00990111, 0.00990111, -2.50393e-17, 1.23708e-16, 0.0546133, -0.0342751, 0.00126802, -0.0344202, 0.00143625, -0.402929, 30.2625, -0.55801, 1.18788, -16.7804, 0.331006, 3.90831, -1.05827, 0.969843, -1.53858, -1.47868, -9.20567, -2.22226, 6.43476, 11.1061, 4.65454e-310, 0, 0, 30.2625, -0.55801, 1.18788, -16.7804, 0.165503, 1.95416, 0.165503, 0, 0, 6.92186, 0, 85.8016, 0, 0, 42.9028, 1.553e-06, 0, 0, 0, 0, 0, 0, 0
0.00727628, -0.0563398, 0.641818, 0.0999612, -1.32411, 1.59061, -0.366454, 0.100212, 0.22987, 1.00001, 0.229869, 1.00001, 0.0284363, -0.00148243, 0.000148681, -0.0103802, 0.0103802, -2.54758e-17, 1.22691e-16, 0.0573572, -0.0361394, 0.00131877, -0.0362921, 0.00149574, -0.42311, 30.2629, -0.558576, 1.18735, -16.7838, 0.330186, 3.91067, -1.05421, 1.23176, -1.57161, -1.43359, -9.26886, -2.28791, 6.518, 11.2136, 4.65454e-310, 0, 0, 30.2629, -0.558576, 1.18735, -16.7838, 0.165093, 1.95533, 0.165093, 0, 0, 6.91834, 0, 85.7965, 0, 0, 42.899, 6.29736e-07, 0, 0, 0, 0, 0, 0, 0
0.00764009, -0.0563404, 0.641818, 0.0999573, -1.32411, 1.59061, -0.366454, 0.100233, 0.229856, 1.00001, 0.229856, 1.00001, 0.0282787, -0.00155026, 0.000155478, -0.0108551, 0.0108551, -2.65256e-17, 1.26859e-16, 0.060088, -0.0380098, 0.0013681, -0.0381701, 0.0015538, -0.443183, 30.2634, -0.559154, 1.18684, -16.7871, 0.329342, 3.91305, -1.05011, 1.49368, -1.60463, -1.38849, -9.33205, -2.35356, 6.60123, 11.3212, 4.65454e-310, 0, 0, 30.2634, -0.559154, 1.18684, -16.7871, 0.164671, 1.95653, 0.164671, 0, 0, 6.91496, 0, 85.7918, 0, 0, 42.8955, -2.87828e-07, 0, 0, 0, 0, 0, 0, 0
0.0080039, -0.0563409, 0.641818, 0.0999533, -1.32411, 1.59061, -0.366454, 0.100256, 0.229842, 1.00001, 0.229842, 1.00001, 0.0281138, -0.00161749, 0.000162215, -0.0113259, 0.0113259, -2.54725e-17, 1.21795e-16, 0.0628056, -0.0398863, 0.00141603, -0.0400541, 0.00161044, -0.463148, 30.264, -0.559743, 1.18634, -16.7905, 0.328473, 3.91547, -1.04598, 1.7556, -1.63766, -1.3434, -9.39524, -2.41922, 6.68447, 11.4288, 4.65454e-310, 0, 0, 30.264, -0.559743, 1.18634, -16.7905, 0.164237, 1.95774, 0.164237, 0, 0, 6.91172, 0, 85.7875, 0, 0, 42.8922, -1.19903e-06, 0, 0, 0, 0, 0, 0, 0
0.00836772, -0.0563415, 0.641818, 0.0999491, -1.3241, 1.59061, -0.366454, 0.100279, 0.229827, 1.00001, 0.229827, 1.00001, 0.0279417, -0.00168414, 0.000168891, -0.0117926, 0.0117926, -2.42521e-17, 1.18593e-16, 0.0655102, -0.0417688, 0.00146258, -0.0419443, 0.00166569, -0.483004, 30.2647, -0.560345, 1.18586, -16.794, 0.327581, 3.91792, -1.0418, 2.01752, -1.67069, -1.29831, -9.45843, -2.48487, 6.76771, 11.5364, 4.65454e-310, 0, 0, 30.2647, -0.560345, 1.18586, -16.794, 0.163791, 1.95896, 0.163791, 0, 0, 6.90861, 0, 85.7836, 0, 0, 42.8891, -2.1032e-06, 0, 0, 0, 0, 0, 0, 0
0.00873153, -0.0563422, 0.641818, 0.0999447, -1.3241, 1.59061, -0.366454, 0.100303, 0.229812, 1.00001, 0.229811, 1.00001, 0.0277624, -0.00175019, 0.000175507, -0.0122551, 0.0122551, -2.3054e-17, 1.18736e-16, 0.0682016, -0.0436575, 0.00150777, -0.0438406, 0.00171957, -0.50275, 30.2655, -0.560959, 1.1854, -16.7974, 0.326665, 3.92039, -1.03758, 2.27944, -1.70371, -1.25321, -9.52162, -2.55053, 6.85094, 11.6439, 4.65454e-310, 0, 0, 30.2655, -0.560959, 1.1854, -16.7974, 0.163333, 1.9602, 0.163333, 0, 0, 6.90563, 0, 85.7801, 0, 0, 42.8862, -2.99967e-06, 0, 0, 0, 0, 0, 0, 0
0.00909535, -0.0563428, 0.641818, 0.0999402, -1.32409, 1.59061, -0.366454, 0.100329, 0.229796, 1.00001, 0.229795, 1.00001, 0.0275759, -0.00181566, 0.000182064, -0.0127135, 0.0127135, -2.17813e-17, 1.21431e-16, 0.0708798, -0.0455524, 0.00155164, -0.0457429, 0.00177211, -0.522386, 30.2664, -0.561585, 1.18495, -16.8009, 0.325725, 3.9229, -1.03333, 2.54135, -1.73674, -1.20812, -9.58481, -2.61618, 6.93418, 11.7515, 4.65454e-310, 0, 0, 30.2664, -0.561585, 1.18495, -16.8009, 0.162863, 1.96145, 0.162863, 0, 0, 6.90278, 0, 85.7771, 0, 0, 42.8835, -3.88778e-06, 0, 0, 0, 0, 0, 0, 0
0.00945916, -0.0563435, 0.641818, 0.0999355, -1.32409, 1.59061, -0.366454, 0.100355, 0.229779, 1.00001, 0.229778, 1.00001, 0.0273823, -0.00188053, 0.00018856, -0.0131677, 0.0131677, -2.06641e-17, 1.28269e-16, 0.0735449, -0.0474533, 0.00159419, -0.0476514, 0.00182332, -0.541911, 30.2673, -0.562223, 1.18452, -16.8044, 0.324762, 3.92544, -1.02903, 2.80327, -1.76976, -1.16303, -9.648, -2.68183, 7.01742, 11.8591, 4.65454e-310, 0, 0, 30.2673, -0.562223, 1.18452, -16.8044, 0.162381, 1.96272, 0.162381, 0, 0, 6.90006, 0, 85.7744, 0, 0, 42.8811, -4.76686e-06, 0, 0, 0, 0, 0, 0, 0
0.00982297, -0.0563442, 0.641818, 0.0999306, -1.32408, 1.59061, -0.366454, 0.100382, 0.229761, 1.00001, 0.22976, 1.00001, 0.0271816, -0.00194482, 0.000194997, -0.0136179, 0.0136179, -1.98856e-17, 1.40388e-16, 0.0761969, -0.0493604, 0.00163547, -0.049566, 0.00187324, -0.561324, 30.2684, -0.562873, 1.1841, -16.8079, 0.323774, 3.92801, -1.0247, 3.06519, -1.80279, -1.11793, -9.71119, -2.74749, 7.10066, 11.9667, 4.65454e-310, 0, 0, 30.2684, -0.562873, 1.1841, -16.8079, 0.161887, 1.964, 0.161887, 0, 0, 6.89746, 0, 85.7721, 0, 0, 42.8788, -5.63624e-06, 0, 0, 0, 0, 0, 0, 0
0.0101868, -0.0563449, 0.641818, 0.0999256, -1.32408, 1.59061, -0.366454, 0.10041, 0.229743, 1.00001, 0.229742, 1.00001, 0.0269739, -0.00200852, 0.000201374, -0.0140639, 0.0140639, -1.96283e-17, 1.58819e-16, 0.0788356, -0.0512736, 0.00167547, -0.0514868, 0.00192189, -0.580624, 30.2696, -0.563535, 1.1837, -16.8115, 0.322762, 3.93061, -1.02032, 3.32711, -1.83582, -1.07284, -9.77438, -2.81314, 7.18389, 12.0742, 4.65454e-310, 0, 0, 30.2696, -0.563535, 1.1837, -16.8115, 0.161381, 1.9653, 0.161381, 0, 0, 6.895, 0, 85.7702, 0, 0, 42.8767, -6.49526e-06, 0, 0, 0, 0, 0, 0, 0
0.0105506, -0.0563456, 0.641818, 0.0999204, -1.32407, 1.59061, -0.366454, 0.100439, 0.229724, 1.00001, 0.229723, 1.00001, 0.0267591, -0.00207164, 0.000207691, -0.0145058, 0.0145058, -1.94495e-17, 1.80111e-16, 0.0814612, -0.053193, 0.00171424, -0.0534137, 0.00196927, -0.599811, 30.2708, -0.564208, 1.18332, -16.815, 0.321727, 3.93324, -1.01591, 3.58903, -1.86884, -1.02775, -9.83757, -2.87879, 7.26713, 12.1818, 4.65454e-310, 0, 0, 30.2708, -0.564208, 1.18332, -16.815, 0.160864, 1.96662, 0.160864, 0, 0, 6.89267, 0, 85.7687, 0, 0, 42.8749, -7.34324e-06, 0, 0, 0, 0, 0, 0, 0
0.0109144, -0.0563464, 0.641818, 0.099915, -1.32407, 1.59061, -0.366454, 0.10047, 0.229704, 1.00001, 0.229703, 1.00001, 0.0265375, -0.00213417, 0.000213948, -0.0149437, 0.0149437, -1.91741e-17, 2.02601e-16, 0.0840735, -0.0551185, 0.00175179, -0.0553467, 0.00201543, -0.618884, 30.2722, -0.564894, 1.18296, -16.8186, 0.320668, 3.93589, -1.01146, 3.85095, -1.90187, -0.982653, -9.90076, -2.94445, 7.35037, 12.2894, 4.65454e-310, 0, 0, 30.2722, -0.564894, 1.18296, -16.8186, 0.160334, 1.96795, 0.160334, 0, 0, 6.89046, 0, 85.7675, 0, 0, 42.8732, -8.17951e-06, 0, 0, 0, 0, 0, 0, 0
0.0112782, -0.0563472, 0.641818, 0.0999095, -1.32406, 1.59061, -0.366454, 0.100501, 0.229684, 1.00001, 0.229682, 1.00001, 0.0263088, -0.00219611, 0.000220146, -0.0153774, 0.0153774, -1.89235e-17, 2.26626e-16, 0.0866726, -0.0570502, 0.00178815, -0.0572859, 0.00206038, -0.637843, 30.2736, -0.565592, 1.18261, -16.8222, 0.319585, 3.93858, -1.00697, 4.11287, -1.93489, -0.937559, -9.96395, -3.0101, 7.4336, 12.397, 4.65454e-310, 0, 0, 30.2736, -0.565592, 1.18261, -16.8222, 0.159792, 1.96929, 0.159792, 0, 0, 6.88838, 0, 85.7668, 0, 0, 42.8718, -9.00341e-06, 0, 0, 0, 0, 0, 0, 0
0.011642, -0.056348, 0.641818, 0.0999038, -1.32406, 1.59061, -0.366454, 0.100533, 0.229663, 1.00001, 0.229661, 1.00001, 0.0260734, -0.00225748, 0.000226284, -0.0158071, 0.0158071, -1.85911e-17, 2.50827e-16, 0.0892585, -0.058988, 0.00182333, -0.0592313, 0.00210414, -0.656686, 30.2752, -0.566302, 1.18227, -16.8259, 0.318478, 3.9413, -1.00244, 4.37478, -1.96792, -0.892466, -10.0271, -3.07575, 7.51684, 12.5045, 4.65454e-310, 0, 0, 30.2752, -0.566302, 1.18227, -16.8259, 0.159239, 1.97065, 0.159239, 0, 0, 6.88643, 0, 85.7664, 0, 0, 42.8706, -9.81427e-06, 0, 0, 0, 0, 0, 0, 0
0.0120059, -0.0563488, 0.641819, 0.099898, -1.32405, 1.59061, -0.366454, 0.100566, 0.229641, 1.00001, 0.229639, 1.00001, 0.025831, -0.00231826, 0.000232363, -0.0162326, 0.0162326, -1.80434e-17, 2.73569e-16, 0.0918311, -0.0609321, 0.00185736, -0.0611828, 0.00214673, -0.675412, 30.2768, -0.567024, 1.18196, -16.8295, 0.317347, 3.94405, -0.99787, 4.6367, -2.00095, -0.847373, -10.0903, -3.14141, 7.60008, 12.6121, 4.65454e-310, 0, 0, 30.2768, -0.567024, 1.18196, -16.8295, 0.158673, 1.97203, 0.158673, 0, 0, 6.8846, 0, 85.7664, 0, 0, 42.8696, -1.06114e-05, 0, 0, 0, 0, 0, 0, 0
0.0123697, -0.0563497, 0.641819, 0.099892, -1.32404, 1.59061, -0.366454, 0.100599, 0.229618, 1.00001, 0.229617, 1.00002, 0.0255819, -0.00237845, 0.000238382, -0.0166541, 0.0166541, -1.71201e-17, 2.92936e-16, 0.0943905, -0.0628823, 0.00189026, -0.0631406, 0.00218818, -0.694022, 30.2785, -0.567758, 1.18166, -16.8332, 0.316192, 3.94683, -0.993262, 4.89862, -2.03397, -0.80228, -10.1535, -3.20706, 7.68331, 12.7197, 4.65454e-310, 0, 0, 30.2785, -0.567758, 1.18166, -16.8332, 0.158096, 1.97342, 0.158096, 0, 0, 6.8829, 0, 85.7668, 0, 0, 42.8688, -1.13942e-05, 0, 0, 0, 0, 0, 0, 0
0.0127335, -0.0563506, 0.641819, 0.0998859, -1.32404, 1.59061, -0.366454, 0.100634, 0.229595, 1.00001, 0.229593, 1.00002, 0.0253261, -0.00243807, 0.000244342, -0.0170716, 0.0170716, -1.67613e-17, 3.15433e-16, 0.0969365, -0.0648388, 0.00192205, -0.0651045, 0.0022285, -0.712514, 30.2804, -0.568504, 1.18137, -16.8369, 0.315013, 3.94964, -0.988615, 5.16054, -2.067, -0.757186, -10.2167, -3.27271, 7.76655, 12.8273, 4.65454e-310, 0, 0, 30.2804, -0.568504, 1.18137, -16.8369, 0.157507, 1.97482, 0.157507, 0, 0, 6.88132, 0, 85.7676, 0, 0, 42.8682, -1.21619e-05, 0, 0, 0, 0, 0, 0, 0
0.0130973, -0.0563515, 0.641819, 0.0998796, -1.32403, 1.59061, -0.366454, 0.10067, 0.229571, 1.00001, 0.229569, 1.00002, 0.0250635, -0.0024971, 0.000250243, -0.0174849, 0.0174849, -1.69408e-17, 3.40037e-16, 0.0994693, -0.0668014, 0.00195275, -0.0670747, 0.00226773, -0.730888, 30.2823, -0.569262, 1.18111, -16.8407, 0.31381, 3.95248, -0.983929, 5.42246, -2.10002, -0.712093, -10.2799, -3.33837, 7.84979, 12.9348, 4.65454e-310, 0, 0, 30.2823, -0.569262, 1.18111, -16.8407, 0.156905, 1.97624, 0.156905, 0, 0, 6.87986, 0, 85.7688, 0, 0, 42.8678, -1.29138e-05, 0, 0, 0, 0, 0, 0, 0
0.0134611, -0.0563524, 0.641819, 0.0998732, -1.32403, 1.59061, -0.366454, 0.100707, 0.229546, 1.00002, 0.229545, 1.00002, 0.0247943, -0.00255556, 0.000256084, -0.0178942, 0.0178942, -1.74334e-17, 3.64122e-16, 0.101989, -0.0687703, 0.00198239, -0.069051, 0.00230587, -0.749142, 30.2843, -0.570032, 1.18086, -16.8444, 0.312584, 3.95536, -0.979203, 5.68438, -2.13305, -0.667, -10.3431, -3.40402, 7.93302, 13.0424, 4.65454e-310, 0, 0, 30.2843, -0.570032, 1.18086, -16.8444, 0.156292, 1.97768, 0.156292, 0, 0, 6.87852, 0, 85.7703, 0, 0, 42.8676, -1.36494e-05, 0, 0, 0, 0, 0, 0, 0
0.0138249, -0.0563533, 0.641819, 0.0998666, -1.32402, 1.59061, -0.366454, 0.100744, 0.229521, 1.00002, 0.229519, 1.00002, 0.0245184, -0.00261344, 0.000261866, -0.0182995, 0.0182995, -1.83124e-17, 3.87288e-16, 0.104495, -0.0707454, 0.00201098, -0.0710336, 0.00234294, -0.767277, 30.2864, -0.570814, 1.18062, -16.8482, 0.311334, 3.95826, -0.974439, 5.9463, -2.16608, -0.621907, -10.4063, -3.46968, 8.01626, 13.15, 4.65454e-310, 0, 0, 30.2864, -0.570814, 1.18062, -16.8482, 0.155667, 1.97913, 0.155667, 0, 0, 6.87731, 0, 85.7722, 0, 0, 42.8676, -1.43679e-05, 0, 0, 0, 0, 0, 0, 0
0.0141887, -0.0563543, 0.641819, 0.0998598, -1.32401, 1.59061, -0.366454, 0.100783, 0.229495, 1.00002, 0.229493, 1.00002, 0.024236, -0.00267073, 0.000267589, -0.0187007, 0.0187007, -1.96591e-17, 4.09132e-16, 0.106988, -0.0727267, 0.00203854, -0.0730224, 0.00237898, -0.785291, 30.2886, -0.571608, 1.1804, -16.852, 0.310059, 3.96119, -0.969635, 6.20821, -2.1991, -0.576813, -10.4695, -3.53533, 8.0995, 13.2576, 4.65454e-310, 0, 0, 30.2886, -0.571608, 1.1804, -16.852, 0.15503, 1.98059, 0.15503, 0, 0, 6.87622, 0, 85.7745, 0, 0, 42.8679, -1.50687e-05, 0, 0, 0, 0, 0, 0, 0
0.0145526, -0.0563553, 0.641819, 0.099853, -1.32401, 1.59061, -0.366454, 0.100822, 0.229468, 1.00002, 0.229466, 1.00002, 0.023947, -0.00272745, 0.000273253, -0.0190978, 0.0190978, -2.15636e-17, 4.29244e-16, 0.109467, -0.0747143, 0.0020651, -0.0750174, 0.002414, -0.803183, 30.291, -0.572414, 1.1802, -16.8558, 0.308761, 3.96415, -0.964792, 6.47013, -2.23213, -0.53172, -10.5327, -3.60098, 8.18273, 13.3651, 4.65454e-310, 0, 0, 30.291, -0.572414, 1.1802, -16.8558, 0.154381, 1.98208, 0.154381, 0, 0, 6.87524, 0, 85.7771, 0, 0, 42.8683, -1.57511e-05, 0, 0, 0, 0, 0, 0, 0
0.0149164, -0.0563563, 0.641819, 0.099846, -1.324, 1.59061, -0.366454, 0.100862, 0.229441, 1.00002, 0.229438, 1.00002, 0.0236516, -0.0027836, 0.000278858, -0.0194909, 0.0194909, -2.39487e-17, 4.47244e-16, 0.111933, -0.0767082, 0.00209067, -0.0770187, 0.00244801, -0.820954, 30.2934, -0.573233, 1.18002, -16.8596, 0.307439, 3.96714, -0.95991, 6.73205, -2.26515, -0.486627, -10.5958, -3.66664, 8.26597, 13.4727, 4.65454e-310, 0, 0, 30.2934, -0.573233, 1.18002, -16.8596, 0.15372, 1.98357, 0.15372, 0, 0, 6.87439, 0, 85.7801, 0, 0, 42.869, -1.64144e-05, 0, 0, 0, 0, 0, 0, 0
0.0152802, -0.0563573, 0.641819, 0.0998388, -1.32399, 1.59061, -0.366454, 0.100903, 0.229412, 1.00002, 0.22941, 1.00002, 0.0233497, -0.00283916, 0.000284404, -0.01988, 0.01988, -2.62126e-17, 4.6286e-16, 0.114386, -0.0787083, 0.00211527, -0.0790263, 0.00248105, -0.838601, 30.2958, -0.574063, 1.17985, -16.8635, 0.306093, 3.97017, -0.954989, 6.99397, -2.29818, -0.441534, -10.659, -3.73229, 8.34921, 13.5803, 4.65454e-310, 0, 0, 30.2958, -0.574063, 1.17985, -16.8635, 0.153047, 1.98508, 0.153047, 0, 0, 6.87366, 0, 85.7835, 0, 0, 42.8698, -1.7058e-05, 0, 0, 0, 0, 0, 0, 0
0.015644, -0.0563583, 0.641819, 0.0998315, -1.32398, 1.59061, -0.366454, 0.100945, 0.229383, 1.00002, 0.229381, 1.00002, 0.0230414, -0.00289415, 0.000289891, -0.020265, 0.020265, -2.86641e-17, 4.75623e-16, 0.116825, -0.0807147, 0.00213893, -0.0810401, 0.00251312, -0.856125, 30.2984, -0.574905, 1.1797, -16.8674, 0.304723, 3.97322, -0.950029, 7.25589, -2.33121, -0.39644, -10.7222, -3.79794, 8.43245, 13.6879, 4.65454e-310, 0, 0, 30.2984, -0.574905, 1.1797, -16.8674, 0.152362, 1.98661, 0.152362, 0, 0, 6.87304, 0, 85.7873, 0, 0, 42.8709, -1.76812e-05, 0, 0, 0, 0, 0, 0, 0
0.0160078, -0.0563594, 0.64182, 0.099824, -1.32398, 1.59061, -0.366454, 0.100988, 0.229354, 1.00002, 0.229351, 1.00002, 0.0227268, -0.00294857, 0.00029532, -0.020646, 0.020646, -3.12009e-17, 4.85149e-16, 0.119251, -0.0827274, 0.00216167, -0.0830603, 0.00254425, -0.873525, 30.3011, -0.575759, 1.17956, -16.8713, 0.30333, 3.9763, -0.94503, 7.51781, -2.36423, -0.351347, -10.7854, -3.8636, 8.51568, 13.7954, 4.65454e-310, 0, 0, 30.3011, -0.575759, 1.17956, -16.8713, 0.151665, 1.98815, 0.151665, 0, 0, 6.87254, 0, 85.7914, 0, 0, 42.8722, -1.82833e-05, 0, 0, 0, 0, 0, 0, 0
0.0163716, -0.0563605, 0.64182, 0.0998165, -1.32397, 1.59061, -0.366454, 0.101032, 0.229323, 1.00002, 0.22932, 1.00002, 0.0224058, -0.00300241, 0.000300689, -0.021023, 0.021023, -3.36896e-17, 4.91053e-16, 0.121664, -0.0847464, 0.0021835, -0.0850867, 0.00257446, -0.890799, 30.3039, -0.576625, 1.17944, -16.8752, 0.301912, 3.97941, -0.939991, 7.77973, -2.39726, -0.306254, -10.8486, -3.92925, 8.59892, 13.903, 4.65454e-310, 0, 0, 30.3039, -0.576625, 1.17944, -16.8752, 0.150956, 1.98971, 0.150956, 0, 0, 6.87216, 0, 85.7958, 0, 0, 42.8736, -1.88636e-05, 0, 0, 0, 0, 0, 0, 0
0.0167354, -0.0563616, 0.64182, 0.0998087, -1.32396, 1.59061, -0.366454, 0.101077, 0.229292, 1.00002, 0.229289, 1.00003, 0.0220786, -0.00305567, 0.000306, -0.0213959, 0.0213959, -3.59627e-17, 4.92955e-16, 0.124062, -0.0867717, 0.00220444, -0.0871194, 0.00260376, -0.907948, 30.3068, -0.577503, 1.17934, -16.8792, 0.300471, 3.98256, -0.934913, 8.04164, -2.43028, -0.261161, -10.9118, -3.9949, 8.68216, 14.0106, 4.65454e-310, 0, 0, 30.3068, -0.577503, 1.17934, -16.8792, 0.150235, 1.99128, 0.150235, 0, 0, 6.87189, 0, 85.8006, 0, 0, 42.8753, -1.94215e-05, 0, 0, 0, 0, 0, 0, 0
0.0170993, -0.0563627, 0.64182, 0.0998009, -1.32395, 1.59061, -0.366454, 0.101123, 0.22926, 1.00002, 0.229257, 1.00003, 0.0217452, -0.00310837, 0.000311252, -0.0217649, 0.0217649, -3.78158e-17, 4.9048e-16, 0.126448, -0.0888034, 0.00222451, -0.0891584, 0.00263219, -0.92497, 30.3098, -0.578393, 1.17925, -16.8832, 0.299005, 3.98573, -0.929796, 8.30356, -2.46331, -0.216067, -10.975, -4.06056, 8.76539, 14.1182, 4.65454e-310, 0, 0, 30.3098, -0.578393, 1.17925, -16.8832, 0.149503, 1.99287, 0.149503, 0, 0, 6.87174, 0, 85.8058, 0, 0, 42.8772, -1.99564e-05, 0, 0, 0, 0, 0, 0, 0
0.0174631, -0.0563638, 0.64182, 0.0997929, -1.32395, 1.59061, -0.366454, 0.101169, 0.229227, 1.00002, 0.229224, 1.00003, 0.0214056, -0.00316049, 0.000316445, -0.0221298, 0.0221298, -3.90046e-17, 4.83255e-16, 0.12882, -0.0908413, 0.00224374, -0.0912038, 0.00265974, -0.941864, 30.3128, -0.579296, 1.17918, -16.8872, 0.297516, 3.98894, -0.924641, 8.56548, -2.49634, -0.170974, -11.0382, -4.12621, 8.84863, 14.2257, 4.65454e-310, 0, 0, 30.3128, -0.579296, 1.17918, -16.8872, 0.148758, 1.99447, 0.148758, 0, 0, 6.8717, 0, 85.8114, 0, 0, 42.8793, -2.04675e-05, 0, 0, 0, 0, 0, 0, 0
0.0178269, -0.056365, 0.64182, 0.0997848, -1.32394, 1.59061, -0.366454, 0.101216, 0.229194, 1.00002, 0.229191, 1.00003, 0.0210599, -0.00321203, 0.00032158, -0.0224907, 0.0224907, -3.92419e-17, 4.70913e-16, 0.131178, -0.0928856, 0.00226213, -0.0932554, 0.00268645, -0.958631, 30.316, -0.58021, 1.17913, -16.8912, 0.296003, 3.99217, -0.919445, 8.8274, -2.52936, -0.125881, -11.1014, -4.19186, 8.93187, 14.3333, 4.65454e-310, 0, 0, 30.316, -0.58021, 1.17913, -16.8912, 0.148002, 1.99608, 0.148002, 0, 0, 6.87177, 0, 85.8172, 0, 0, 42.8817, -2.09542e-05, 0, 0, 0, 0, 0, 0, 0
0.0181907, -0.0563662, 0.64182, 0.0997765, -1.32393, 1.59061, -0.366454, 0.101264, 0.22916, 1.00003, 0.229156, 1.00003, 0.0207081, -0.00326301, 0.000326656, -0.0228476, 0.0228476, -3.88861e-17, 4.54098e-16, 0.133523, -0.0949363, 0.00227971, -0.0953135, 0.00271233, -0.975268, 30.3193, -0.581136, 1.17909, -16.8953, 0.294466, 3.99543, -0.914211, 9.08932, -2.56239, -0.0807877, -11.1646, -4.25752, 9.0151, 14.4409, 4.65454e-310, 0, 0, 30.3193, -0.581136, 1.17909, -16.8953, 0.147233, 1.99772, 0.147233, 0, 0, 6.87196, 0, 85.8235, 0, 0, 42.8842, -2.14159e-05, 0, 0, 0, 0, 0, 0, 0
0.0185545, -0.0563674, 0.64182, 0.0997682, -1.32392, 1.59061, -0.366454, 0.101313, 0.229125, 1.00003, 0.229121, 1.00003, 0.0203503, -0.00331341, 0.000331674, -0.0232005, 0.0232005, -3.98203e-17, 4.3575e-16, 0.135855, -0.0969933, 0.0022965, -0.0973778, 0.00273739, -0.991776, 30.3226, -0.582074, 1.17907, -16.8993, 0.292905, 3.99873, -0.908938, 9.35124, -2.59541, -0.0356945, -11.2277, -4.32317, 9.09834, 14.5485, 4.65454e-310, 0, 0, 30.3226, -0.582074, 1.17907, -16.8993, 0.146453, 1.99936, 0.146453, 0, 0, 6.87226, 0, 85.8301, 0, 0, 42.8869, -2.18518e-05, 0, 0, 0, 0, 0, 0, 0
0.0189183, -0.0563686, 0.64182, 0.0997597, -1.32391, 1.59061, -0.366454, 0.101363, 0.229089, 1.00003, 0.229085, 1.00003, 0.0199865, -0.00336324, 0.000336634, -0.0235494, 0.0235494, -4.04839e-17, 4.13881e-16, 0.138172, -0.0990567, 0.00231251, -0.0994486, 0.00276167, -1.00815, 30.3261, -0.583024, 1.17906, -16.9034, 0.29132, 4.00205, -0.903625, 9.61315, -2.62844, 0.00939876, -11.2909, -4.38883, 9.18158, 14.656, 4.65454e-310, 0, 0, 30.3261, -0.583024, 1.17906, -16.9034, 0.14566, 2.00103, 0.14566, 0, 0, 6.87267, 0, 85.837, 0, 0, 42.8898, -2.22613e-05, 0, 0, 0, 0, 0, 0, 0
0.0192821, -0.0563698, 0.641821, 0.099751, -1.3239, 1.59061, -0.366454, 0.101414, 0.229053, 1.00003, 0.229049, 1.00003, 0.0196167, -0.00341251, 0.000341535, -0.0238943, 0.0238943, -4.0859e-17, 3.88834e-16, 0.140476, -0.101126, 0.00232776, -0.101526, 0.00278517, -1.0244, 30.3296, -0.583987, 1.17907, -16.9076, 0.289712, 4.00541, -0.898274, 9.87507, -2.66147, 0.054492, -11.3541, -4.45448, 9.26481, 14.7636, 4.65454e-310, 0, 0, 30.3296, -0.583987, 1.17907, -16.9076, 0.144856, 2.00271, 0.144856, 0, 0, 6.87319, 0, 85.8443, 0, 0, 42.893, -2.26438e-05, 0, 0, 0, 0, 0, 0, 0
0.0196459, -0.0563711, 0.641821, 0.0997423, -1.32389, 1.59061, -0.366454, 0.101465, 0.229016, 1.00003, 0.229012, 1.00003, 0.0192411, -0.0034612, 0.000346377, -0.0242353, 0.0242353, -4.09362e-17, 3.61057e-16, 0.142767, -0.103203, 0.00234227, -0.103609, 0.00280791, -1.04051, 30.3332, -0.584961, 1.1791, -16.9117, 0.288079, 4.0088, -0.892883, 10.137, -2.69449, 0.0995853, -11.4173, -4.52013, 9.34805, 14.8712, 4.65454e-310, 0, 0, 30.3332, -0.584961, 1.1791, -16.9117, 0.14404, 2.0044, 0.14404, 0, 0, 6.87383, 0, 85.8519, 0, 0, 42.8963, -2.29986e-05, 0, 0, 0, 0, 0, 0, 0
0.0200098, -0.0563723, 0.641821, 0.0997334, -1.32389, 1.59061, -0.366454, 0.101518, 0.228978, 1.00003, 0.228973, 1.00003, 0.0188596, -0.00350932, 0.000351162, -0.0245722, 0.0245722, -4.07145e-17, 3.31106e-16, 0.145044, -0.105285, 0.00235606, -0.105699, 0.00282991, -1.05649, 30.337, -0.585947, 1.17915, -16.9159, 0.286423, 4.01221, -0.887453, 10.3989, -2.72752, 0.144678, -11.4805, -4.58579, 9.43129, 14.9788, 4.65454e-310, 0, 0, 30.337, -0.585947, 1.17915, -16.9159, 0.143211, 2.00611, 0.143211, 0, 0, 6.87457, 0, 85.8599, 0, 0, 42.8999, -2.3325e-05, 0, 0, 0, 0, 0, 0, 0
0.0203736, -0.0563736, 0.641821, 0.0997244, -1.32388, 1.59061, -0.366454, 0.101571, 0.228939, 1.00003, 0.228935, 1.00004, 0.0184724, -0.00355687, 0.000355888, -0.0249051, 0.0249051, -4.02033e-17, 2.99656e-16, 0.147307, -0.107374, 0.00236914, -0.107795, 0.00285118, -1.07234, 30.3408, -0.586946, 1.17921, -16.92, 0.284742, 4.01566, -0.881984, 10.6608, -2.76054, 0.189772, -11.5437, -4.65144, 9.51452, 15.0863, 4.65454e-310, 0, 0, 30.3408, -0.586946, 1.17921, -16.92, 0.142371, 2.00783, 0.142371, 0, 0, 6.87542, 0, 85.8682, 0, 0, 42.9037, -2.36224e-05, 0, 0, 0, 0, 0, 0, 0
0.0207374, -0.0563749, 0.641821, 0.0997153, -1.32387, 1.59061, -0.366454, 0.101625, 0.2289, 1.00003, 0.228895, 1.00004, 0.0180794, -0.00360386, 0.000360556, -0.0252341, 0.0252341, -3.94227e-17, 2.67501e-16, 0.149557, -0.10947, 0.00238154, -0.109898, 0.00287176, -1.08805, 30.3447, -0.587956, 1.17928, -16.9243, 0.283038, 4.01914, -0.876476, 10.9227, -2.79357, 0.234865, -11.6069, -4.71709, 9.59776, 15.1939, 4.65454e-310, 0, 0, 30.3447, -0.587956, 1.17928, -16.9243, 0.141519, 2.00957, 0.141519, 0, 0, 6.87637, 0, 85.8768, 0, 0, 42.9076, -2.38901e-05, 0, 0, 0, 0, 0, 0, 0
0.0211012, -0.0563762, 0.641821, 0.099706, -1.32386, 1.59061, -0.366454, 0.10168, 0.228859, 1.00003, 0.228855, 1.00004, 0.0176807, -0.00365028, 0.000365165, -0.0255591, 0.0255591, -3.84049e-17, 2.35568e-16, 0.151792, -0.111572, 0.00239326, -0.112007, 0.00289164, -1.10363, 30.3488, -0.588978, 1.17938, -16.9285, 0.28131, 4.02264, -0.870928, 11.1847, -2.8266, 0.279958, -11.6701, -4.78275, 9.681, 15.3015, 4.65454e-310, 0, 0, 30.3488, -0.588978, 1.17938, -16.9285, 0.140655, 2.01132, 0.140655, 0, 0, 6.87744, 0, 85.8858, 0, 0, 42.9118, -2.41274e-05, 0, 0, 0, 0, 0, 0, 0
0.021465, -0.0563776, 0.641821, 0.0996967, -1.32385, 1.59061, -0.366454, 0.101735, 0.228818, 1.00003, 0.228814, 1.00004, 0.0172764, -0.00369612, 0.000369717, -0.0258801, 0.0258801, -3.7195e-17, 2.04917e-16, 0.154014, -0.11368, 0.00240433, -0.114123, 0.00291084, -1.11908, 30.3529, -0.590013, 1.17949, -16.9328, 0.279558, 4.02618, -0.865342, 11.4466, -2.85962, 0.325051, -11.7333, -4.8484, 9.76424, 15.4091, 4.65454e-310, 0, 0, 30.3529, -0.590013, 1.17949, -16.9328, 0.139779, 2.01309, 0.139779, 0, 0, 6.87861, 0, 85.8951, 0, 0, 42.9162, -2.43338e-05, 0, 0, 0, 0, 0, 0, 0
0.0218288, -0.0563789, 0.641822, 0.0996872, -1.32384, 1.59061, -0.366454, 0.101792, 0.228777, 1.00003, 0.228772, 1.00004, 0.0168664, -0.0037414, 0.000374211, -0.0261971, 0.0261971, -3.58521e-17, 1.76749e-16, 0.156223, -0.115795, 0.00241476, -0.116245, 0.0029294, -1.13438, 30.3571, -0.591059, 1.17961, -16.937, 0.277782, 4.02975, -0.859716, 11.7085, -2.89265, 0.370145, -11.7965, -4.91405, 9.84747, 15.5166, 4.65454e-310, 0, 0, 30.3571, -0.591059, 1.17961, -16.937, 0.138891, 2.01487, 0.138891, 0, 0, 6.87989, 0, 85.9047, 0, 0, 42.9208, -2.45086e-05, 0, 0, 0, 0, 0, 0, 0
0.0221926, -0.0563803, 0.641822, 0.0996776, -1.32383, 1.59061, -0.366454, 0.101849, 0.228734, 1.00004, 0.228729, 1.00004, 0.016451, -0.00378612, 0.000378646, -0.0265102, 0.0265102, -3.42055e-17, 1.45022e-16, 0.158417, -0.117916, 0.00242457, -0.118374, 0.00294731, -1.14955, 30.3614, -0.592117, 1.17976, -16.9413, 0.275983, 4.03334, -0.854052, 11.9704, -2.92568, 0.415238, -11.8596, -4.97971, 9.93071, 15.6242, 4.65454e-310, 0, 0, 30.3614, -0.592117, 1.17976, -16.9413, 0.137991, 2.01667, 0.137991, 0, 0, 6.88127, 0, 85.9147, 0, 0, 42.9256, -2.4651e-05, 0, 0, 0, 0, 0, 0, 0
0.0225565, -0.0563817, 0.641822, 0.0996679, -1.32382, 1.59061, -0.366454, 0.101907, 0.228691, 1.00004, 0.228686, 1.00004, 0.01603, -0.00383027, 0.000383024, -0.0268193, 0.0268193, -3.22609e-17, 1.08692e-16, 0.160598, -0.120044, 0.00243377, -0.120509, 0.00296459, -1.16458, 30.3658, -0.593188, 1.17992, -16.9457, 0.274159, 4.03697, -0.848348, 12.2323, -2.9587, 0.460331, -11.9228, -5.04536, 10.0139, 15.7318, 4.65454e-310, 0, 0, 30.3658, -0.593188, 1.17992, -16.9457, 0.137079, 2.01849, 0.137079, 0, 0, 6.88275, 0, 85.925, 0, 0, 42.9306, -2.47606e-05, 0, 0, 0, 0, 0, 0, 0
0.0229203, -0.0563831, 0.641822, 0.0996581, -1.32381, 1.59061, -0.366454, 0.101966, 0.228647, 1.00004, 0.228641, 1.00004, 0.0156036, -0.00387385, 0.000387343, -0.0271244, 0.0271244, -3.02302e-17, 7.25901e-17, 0.162765, -0.122178, 0.00244238, -0.12265, 0.00298127, -1.17947, 30.3703, -0.59427, 1.18009, -16.95, 0.272311, 4.04063, -0.842605, 12.4943, -2.99173, 0.505424, -11.986, -5.11102, 10.0972, 15.8394, 4.65454e-310, 0, 0, 30.3703, -0.59427, 1.18009, -16.95, 0.136156, 2.02032, 0.136156, 0, 0, 6.88434, 0, 85.9356, 0, 0, 42.9358, -2.48365e-05, 0, 0, 0, 0, 0, 0, 0
0.0232841, -0.0563845, 0.641822, 0.0996482, -1.3238, 1.59061, -0.366454, 0.102026, 0.228602, 1.00004, 0.228596, 1.00004, 0.0151718, -0.00391686, 0.000391605, -0.0274255, 0.0274255, -2.81921e-17, 3.71551e-17, 0.164918, -0.124319, 0.00245042, -0.124798, 0.00299735, -1.19422, 30.3749, -0.595365, 1.18028, -16.9544, 0.27044, 4.04432, -0.836823, 12.7562, -3.02475, 0.550518, -12.0492, -5.17667, 10.1804, 15.9469, 4.65454e-310, 0, 0, 30.3749, -0.595365, 1.18028, -16.9544, 0.13522, 2.02216, 0.13522, 0, 0, 6.88603, 0, 85.9466, 0, 0, 42.9412, -2.48782e-05, 0, 0, 0, 0, 0, 0, 0
0.0236479, -0.0563859, 0.641822, 0.0996382, -1.32379, 1.59061, -0.366454, 0.102086, 0.228556, 1.00004, 0.22855, 1.00005, 0.0147347, -0.00395931, 0.000395809, -0.0277227, 0.0277227, -2.62395e-17, 2.84316e-18, 0.167057, -0.126466, 0.0024579, -0.126953, 0.00301286, -1.20883, 30.3796, -0.596471, 1.18049, -16.9588, 0.268545, 4.04804, -0.831001, 13.0181, -3.05778, 0.595611, -12.1124, -5.24232, 10.2637, 16.0545, 4.65454e-310, 0, 0, 30.3796, -0.596471, 1.18049, -16.9588, 0.134272, 2.02402, 0.134272, 0, 0, 6.88782, 0, 85.9579, 0, 0, 42.9469, -2.48851e-05, 0, 0, 0, 0, 0, 0, 0
0.0240117, -0.0563874, 0.641822, 0.099628, -1.32378, 1.59061, -0.366454, 0.102147, 0.22851, 1.00004, 0.228504, 1.00005, 0.0142923, -0.00400119, 0.000399955, -0.028016, 0.028016, -2.44795e-17, -2.98748e-17, 0.169182, -0.12862, 0.00246483, -0.129114, 0.00302781, -1.2233, 30.3844, -0.59759, 1.18072, -16.9632, 0.266626, 4.05179, -0.825141, 13.28, -3.09081, 0.640704, -12.1756, -5.30798, 10.3469, 16.1621, 4.65454e-310, 0, 0, 30.3844, -0.59759, 1.18072, -16.9632, 0.133313, 2.02589, 0.133313, 0, 0, 6.88972, 0, 85.9695, 0, 0, 42.9527, -2.48565e-05, 0, 0, 0, 0, 0, 0, 0
0.0243755, -0.0563889, 0.641823, 0.0996178, -1.32377, 1.59061, -0.366454, 0.102209, 0.228463, 1.00004, 0.228457, 1.00005, 0.0138446, -0.00404251, 0.000404043, -0.0283052, 0.0283052, -2.30347e-17, -6.05141e-17, 0.171293, -0.130781, 0.00247124, -0.131282, 0.0030422, -1.23763, 30.3892, -0.59872, 1.18096, -16.9676, 0.264683, 4.05557, -0.819241, 13.5419, -3.12383, 0.685797, -12.2388, -5.37363, 10.4301, 16.2697, 4.65454e-310, 0, 0, 30.3892, -0.59872, 1.18096, -16.9676, 0.132341, 2.02778, 0.132341, 0, 0, 6.89171, 0, 85.9814, 0, 0, 42.9587, -2.47917e-05, 0, 0, 0, 0, 0, 0, 0
0.0247393, -0.0563903, 0.641823, 0.0996074, -1.32376, 1.59061, -0.366454, 0.102272, 0.228415, 1.00004, 0.228408, 1.00005, 0.0133917, -0.00408326, 0.000408073, -0.0285905, 0.0285905, -2.20435e-17, -8.85776e-17, 0.173391, -0.132948, 0.00247714, -0.133456, 0.00305607, -1.25181, 30.3942, -0.599863, 1.18122, -16.9721, 0.262716, 4.05938, -0.813303, 13.8039, -3.15686, 0.730891, -12.302, -5.43928, 10.5134, 16.3772, 4.65454e-310, 0, 0, 30.3942, -0.599863, 1.18122, -16.9721, 0.131358, 2.02969, 0.131358, 0, 0, 6.89381, 0, 85.9936, 0, 0, 42.965, -2.46901e-05, 0, 0, 0, 0, 0, 0, 0
0.0251032, -0.0563918, 0.641823, 0.099597, -1.32375, 1.59061, -0.366454, 0.102335, 0.228366, 1.00004, 0.228359, 1.00005, 0.0129338, -0.00412345, 0.000412046, -0.0288719, 0.0288719, -2.16614e-17, -1.13557e-16, 0.175474, -0.135121, 0.00248253, -0.135637, 0.00306942, -1.26585, 30.3993, -0.601017, 1.18149, -16.9766, 0.260725, 4.06322, -0.807325, 14.0658, -3.18988, 0.775984, -12.3652, -5.50494, 10.5966, 16.4848, 4.65454e-310, 0, 0, 30.3993, -0.601017, 1.18149, -16.9766, 0.130362, 2.03161, 0.130362, 0, 0, 6.896, 0, 86.0062, 0, 0, 42.9714, -2.45512e-05, 0, 0, 0, 0, 0, 0, 0
0.025467, -0.0563933, 0.641823, 0.0995864, -1.32374, 1.59061, -0.366454, 0.102399, 0.228316, 1.00004, 0.22831, 1.00005, 0.0124707, -0.00416307, 0.000415961, -0.0291493, 0.0291493, -2.20613e-17, -1.34935e-16, 0.177543, -0.137301, 0.00248745, -0.137824, 0.00308226, -1.27974, 30.4044, -0.602184, 1.18178, -16.9811, 0.25871, 4.06709, -0.801308, 14.3277, -3.22291, 0.821077, -12.4284, -5.57059, 10.6798, 16.5924, 4.65454e-310, 0, 0, 30.4044, -0.602184, 1.18178, -16.9811, 0.129355, 2.03354, 0.129355, 0, 0, 6.89829, 0, 86.019, 0, 0, 42.9781, -2.43742e-05, 0, 0, 0, 0, 0, 0, 0
0.0258308, -0.0563949, 0.641823, 0.0995758, -1.32373, 1.59061, -0.366454, 0.102464, 0.228266, 1.00004, 0.228259, 1.00005, 0.0120026, -0.00420213, 0.000419819, -0.0294228, 0.0294228, -2.34342e-17, -1.52186e-16, 0.179599, -0.139488, 0.00249189, -0.140018, 0.00309462, -1.29349, 30.4097, -0.603362, 1.18209, -16.9856, 0.256671, 4.07099, -0.795252, 14.5896, -3.25594, 0.86617, -12.4915, -5.63624, 10.7631, 16.7, 4.65454e-310, 0, 0, 30.4097, -0.603362, 1.18209, -16.9856, 0.128336, 2.03549, 0.128336, 0, 0, 6.90068, 0, 86.0322, 0, 0, 42.9849, -2.41585e-05, 0, 0, 0, 0, 0, 0, 0
0.0261946, -0.0563964, 0.641823, 0.099565, -1.32372, 1.59061, -0.366454, 0.10253, 0.228215, 1.00005, 0.228208, 1.00005, 0.0115295, -0.00424062, 0.000423618, -0.0296923, 0.0296923, -2.59903e-17, -1.64776e-16, 0.18164, -0.141682, 0.00249588, -0.142219, 0.00310649, -1.3071, 30.4151, -0.604553, 1.18241, -16.9902, 0.254609, 4.07492, -0.789156, 14.8515, -3.28896, 0.911264, -12.5547, -5.7019, 10.8463, 16.8075, 4.65454e-310, 0, 0, 30.4151, -0.604553, 1.18241, -16.9902, 0.127304, 2.03746, 0.127304, 0, 0, 6.90317, 0, 86.0457, 0, 0, 42.992, -2.39035e-05, 0, 0, 0, 0, 0, 0, 0
0.0265584, -0.0563979, 0.641823, 0.0995542, -1.32371, 1.59061, -0.366454, 0.102597, 0.228163, 1.00005, 0.228156, 1.00005, 0.0110515, -0.00427855, 0.000427361, -0.0299578, 0.0299578, -2.99596e-17, -1.72167e-16, 0.183667, -0.143882, 0.00249943, -0.144426, 0.00311791, -1.32055, 30.4205, -0.605755, 1.18275, -16.9948, 0.252523, 4.07888, -0.783022, 15.1134, -3.32199, 0.956357, -12.6179, -5.76755, 10.9296, 16.9151, 4.65454e-310, 0, 0, 30.4205, -0.605755, 1.18275, -16.9948, 0.126261, 2.03944, 0.126261, 0, 0, 6.90575, 0, 86.0595, 0, 0, 42.9993, -2.36086e-05, 0, 0, 0, 0, 0, 0, 0
0.0269222, -0.0563995, 0.641824, 0.0995432, -1.3237, 1.59061, -0.366454, 0.102664, 0.22811, 1.00005, 0.228103, 1.00006, 0.0105687, -0.00431592, 0.000431045, -0.0302194, 0.0302194, -3.31479e-17, -1.78494e-16, 0.18568, -0.146088, 0.00250255, -0.14664, 0.00312889, -1.33386, 30.4261, -0.60697, 1.18311, -16.9994, 0.250412, 4.08287, -0.776849, 15.3754, -3.35501, 1.00145, -12.6811, -5.8332, 11.0128, 17.0227, 4.65454e-310, 0, 0, 30.4261, -0.60697, 1.18311, -16.9994, 0.125206, 2.04144, 0.125206, 0, 0, 6.90843, 0, 86.0736, 0, 0, 43.0068, -2.32732e-05, 0, 0, 0, 0, 0, 0, 0
0.027286, -0.0564011, 0.641824, 0.0995322, -1.32368, 1.59061, -0.366454, 0.102732, 0.228057, 1.00005, 0.228049, 1.00006, 0.010081, -0.00435272, 0.000434672, -0.0304771, 0.0304771, -3.47226e-17, -1.85327e-16, 0.187679, -0.148302, 0.00250526, -0.14886, 0.00313943, -1.34702, 30.4317, -0.608197, 1.18348, -17.004, 0.248278, 4.08689, -0.770636, 15.6373, -3.38804, 1.04654, -12.7443, -5.89886, 11.096, 17.1303, 4.65454e-310, 0, 0, 30.4317, -0.608197, 1.18348, -17.004, 0.124139, 2.04345, 0.124139, 0, 0, 6.9112, 0, 86.088, 0, 0, 43.0145, -2.28965e-05, 0, 0, 0, 0, 0, 0, 0
0.0276499, -0.0564027, 0.641824, 0.099521, -1.32367, 1.59061, -0.366454, 0.1028, 0.228002, 1.00005, 0.227994, 1.00006, 0.00958855, -0.00438896, 0.000438242, -0.0307308, 0.0307308, -3.65693e-17, -1.89071e-16, 0.189663, -0.150522, 0.00250757, -0.151087, 0.00314955, -1.36003, 30.4374, -0.609435, 1.18387, -17.0086, 0.24612, 4.09095, -0.764384, 15.8992, -3.42107, 1.09164, -12.8075, -5.96451, 11.1793, 17.2378, 4.65454e-310, 0, 0, 30.4374, -0.609435, 1.18387, -17.0086, 0.12306, 2.04547, 0.12306, 0, 0, 6.91407, 0, 86.1028, 0, 0, 43.0224, -2.24781e-05, 0, 0, 0, 0, 0, 0, 0
0.0280137, -0.0564043, 0.641824, 0.0995098, -1.32366, 1.59061, -0.366454, 0.10287, 0.227947, 1.00005, 0.227939, 1.00006, 0.00909141, -0.00442464, 0.000441754, -0.0309805, 0.0309805, -3.86698e-17, -1.8982e-16, 0.191634, -0.152748, 0.0025095, -0.153321, 0.00315926, -1.37289, 30.4433, -0.610686, 1.18427, -17.0133, 0.243938, 4.09503, -0.758093, 16.1611, -3.45409, 1.13673, -12.8707, -6.03017, 11.2625, 17.3454, 4.65454e-310, 0, 0, 30.4433, -0.610686, 1.18427, -17.0133, 0.121969, 2.04751, 0.121969, 0, 0, 6.91703, 0, 86.1178, 0, 0, 43.0305, -2.20173e-05, 0, 0, 0, 0, 0, 0, 0
0.0283775, -0.0564059, 0.641824, 0.0994985, -1.32365, 1.59061, -0.366454, 0.10294, 0.227891, 1.00005, 0.227883, 1.00006, 0.00858961, -0.00445975, 0.000445209, -0.0312264, 0.0312264, -4.09978e-17, -1.8773e-16, 0.19359, -0.154982, 0.00251105, -0.155562, 0.00316858, -1.3856, 30.4492, -0.611949, 1.1847, -17.018, 0.241732, 4.09914, -0.751763, 16.423, -3.48712, 1.18182, -12.9339, -6.09582, 11.3457, 17.453, 4.65454e-310, 0, 0, 30.4492, -0.611949, 1.1847, -17.018, 0.120866, 2.04957, 0.120866, 0, 0, 6.92008, 0, 86.1331, 0, 0, 43.0388, -2.15135e-05, 0, 0, 0, 0, 0, 0, 0
0.0287413, -0.0564075, 0.641824, 0.0994871, -1.32364, 1.59061, -0.366454, 0.103011, 0.227834, 1.00005, 0.227826, 1.00006, 0.00808322, -0.0044943, 0.000448606, -0.0314682, 0.0314682, -4.35185e-17, -1.8302e-16, 0.195532, -0.157222, 0.00251225, -0.157809, 0.00317752, -1.39816, 30.4552, -0.613223, 1.18513, -17.0227, 0.239503, 4.10328, -0.745394, 16.685, -3.52014, 1.22692, -12.9971, -6.16147, 11.429, 17.5606, 4.65454e-310, 0, 0, 30.4552, -0.613223, 1.18513, -17.0227, 0.119751, 2.05164, 0.119751, 0, 0, 6.92323, 0, 86.1487, 0, 0, 43.0473, -2.09661e-05, 0, 0, 0, 0, 0, 0, 0
0.0291051, -0.0564092, 0.641825, 0.0994756, -1.32363, 1.59061, -0.366454, 0.103082, 0.227777, 1.00005, 0.227768, 1.00006, 0.00757229, -0.00452829, 0.000451946, -0.0317062, 0.0317062, -4.61879e-17, -1.75981e-16, 0.197459, -0.159469, 0.00251309, -0.160063, 0.00318609, -1.41056, 30.4613, -0.61451, 1.18559, -17.0275, 0.237249, 4.10746, -0.738985, 16.9469, -3.55317, 1.27201, -13.0603, -6.22713, 11.5122, 17.6681, 4.65454e-310, 0, 0, 30.4613, -0.61451, 1.18559, -17.0275, 0.118625, 2.05373, 0.118625, 0, 0, 6.92647, 0, 86.1646, 0, 0, 43.056, -2.03745e-05, 0, 0, 0, 0, 0, 0, 0
0.0294689, -0.0564108, 0.641825, 0.099464, -1.32362, 1.59061, -0.366454, 0.103154, 0.227718, 1.00005, 0.227709, 1.00006, 0.00705688, -0.00456171, 0.000455228, -0.0319402, 0.0319402, -4.89525e-17, -1.66976e-16, 0.199372, -0.161723, 0.00251361, -0.162324, 0.0031943, -1.42281, 30.4676, -0.615809, 1.18606, -17.0322, 0.234972, 4.11166, -0.732538, 17.2088, -3.5862, 1.3171, -13.1234, -6.29278, 11.5954, 17.7757, 4.65454e-310, 0, 0, 30.4676, -0.615809, 1.18606, -17.0322, 0.117486, 2.05583, 0.117486, 0, 0, 6.92979, 0, 86.1808, 0, 0, 43.0649, -1.9738e-05, 0, 0, 0, 0, 0, 0, 0
0.0298327, -0.0564125, 0.641825, 0.0994524, -1.3236, 1.59061, -0.366454, 0.103227, 0.227659, 1.00005, 0.22765, 1.00006, 0.00653703, -0.00459457, 0.000458454, -0.0321702, 0.0321702, -5.17487e-17, -1.56446e-16, 0.201271, -0.163983, 0.0025138, -0.164591, 0.00320218, -1.43491, 30.4739, -0.617119, 1.18655, -17.037, 0.23267, 4.11589, -0.726051, 17.4707, -3.61922, 1.3622, -13.1866, -6.35843, 11.6787, 17.8833, 4.65454e-310, 0, 0, 30.4739, -0.617119, 1.18655, -17.037, 0.116335, 2.05795, 0.116335, 0, 0, 6.93321, 0, 86.1973, 0, 0, 43.074, -1.90561e-05, 0, 0, 0, 0, 0, 0, 0
0.0301965, -0.0564142, 0.641825, 0.0994406, -1.32359, 1.59061, -0.366454, 0.103301, 0.227599, 1.00006, 0.22759, 1.00007, 0.00601281, -0.00462687, 0.000461621, -0.0323963, 0.0323963, -5.45021e-17, -1.44909e-16, 0.203156, -0.16625, 0.00251368, -0.166865, 0.00320972, -1.44685, 30.4803, -0.618442, 1.18705, -17.0418, 0.230345, 4.12016, -0.719526, 17.7326, -3.65225, 1.40729, -13.2498, -6.42409, 11.7619, 17.9909, 4.65454e-310, 0, 0, 30.4803, -0.618442, 1.18705, -17.0418, 0.115173, 2.06008, 0.115173, 0, 0, 6.93671, 0, 86.2141, 0, 0, 43.0834, -1.83282e-05, 0, 0, 0, 0, 0, 0, 0
0.0305604, -0.0564158, 0.641825, 0.0994288, -1.32358, 1.59061, -0.366454, 0.103375, 0.227538, 1.00006, 0.227528, 1.00007, 0.00548428, -0.00465861, 0.000464732, -0.0326185, 0.0326185, -5.71271e-17, -1.32973e-16, 0.205026, -0.168524, 0.00251326, -0.169146, 0.00321694, -1.45864, 30.4868, -0.619777, 1.18757, -17.0467, 0.227996, 4.12445, -0.712961, 17.9945, -3.68527, 1.45238, -13.313, -6.48974, 11.8452, 18.0984, 4.65454e-310, 0, 0, 30.4868, -0.619777, 1.18757, -17.0467, 0.113998, 2.06223, 0.113998, 0, 0, 6.94031, 0, 86.2312, 0, 0, 43.0929, -1.75537e-05, 0, 0, 0, 0, 0, 0, 0
0.0309242, -0.0564175, 0.641825, 0.0994169, -1.32357, 1.59061, -0.366454, 0.10345, 0.227476, 1.00006, 0.227467, 1.00007, 0.00495149, -0.00468978, 0.000467785, -0.0328367, 0.0328367, -5.9526e-17, -1.21329e-16, 0.206881, -0.170805, 0.00251256, -0.171434, 0.00322386, -1.47026, 30.4934, -0.621124, 1.18811, -17.0515, 0.225623, 4.12878, -0.706357, 18.2565, -3.7183, 1.49748, -13.3762, -6.55539, 11.9284, 18.206, 4.65454e-310, 0, 0, 30.4934, -0.621124, 1.18811, -17.0515, 0.112812, 2.06439, 0.112812, 0, 0, 6.94399, 0, 86.2486, 0, 0, 43.1027, -1.6732e-05, 0, 0, 0, 0, 0, 0, 0
0.031288, -0.0564193, 0.641826, 0.0994049, -1.32356, 1.59061, -0.366454, 0.103525, 0.227414, 1.00006, 0.227404, 1.00007, 0.0044145, -0.00472039, 0.000470781, -0.033051, 0.033051, -6.15892e-17, -1.10766e-16, 0.208722, -0.173093, 0.00251159, -0.173729, 0.00323048, -1.48173, 30.5, -0.622482, 1.18866, -17.0564, 0.223226, 4.13313, -0.699714, 18.5184, -3.75133, 1.54257, -13.4394, -6.62105, 12.0116, 18.3136, 4.65454e-310, 0, 0, 30.5, -0.622482, 1.18866, -17.0564, 0.111613, 2.06657, 0.111613, 0, 0, 6.94776, 0, 86.2663, 0, 0, 43.1126, -1.58624e-05, 0, 0, 0, 0, 0, 0, 0
0.0316518, -0.056421, 0.641826, 0.0993928, -1.32355, 1.59061, -0.366454, 0.103602, 0.22735, 1.00006, 0.22734, 1.00007, 0.00387336, -0.00475043, 0.00047372, -0.0332613, 0.0332613, -6.31938e-17, -1.02165e-16, 0.210549, -0.175387, 0.00251036, -0.17603, 0.00323681, -1.49304, 30.5068, -0.623853, 1.18923, -17.0613, 0.220805, 4.13752, -0.693031, 18.7803, -3.78435, 1.58766, -13.5026, -6.6867, 12.0949, 18.4212, 4.65454e-310, 0, 0, 30.5068, -0.623853, 1.18923, -17.0613, 0.110403, 2.06876, 0.110403, 0, 0, 6.95162, 0, 86.2842, 0, 0, 43.1228, -1.49445e-05, 0, 0, 0, 0, 0, 0, 0
0.0320156, -0.0564227, 0.641826, 0.0993807, -1.32353, 1.59061, -0.366454, 0.103679, 0.227286, 1.00006, 0.227276, 1.00007, 0.00332813, -0.00477992, 0.000476602, -0.0334677, 0.0334677, -6.42037e-17, -9.65072e-17, 0.212361, -0.177688, 0.00250887, -0.178339, 0.00324287, -1.5042, 30.5137, -0.625236, 1.18982, -17.0662, 0.218361, 4.14193, -0.68631, 19.0422, -3.81738, 1.63276, -13.5658, -6.75236, 12.1781, 18.5287, 4.65454e-310, 0, 0, 30.5137, -0.625236, 1.18982, -17.0662, 0.10918, 2.07097, 0.10918, 0, 0, 6.95556, 0, 86.3024, 0, 0, 43.1331, -1.39777e-05, 0, 0, 0, 0, 0, 0, 0
0.0323794, -0.0564245, 0.641826, 0.0993685, -1.32352, 1.59061, -0.366454, 0.103756, 0.227221, 1.00006, 0.22721, 1.00007, 0.00277888, -0.00480884, 0.000479426, -0.0336702, 0.0336702, -6.62586e-17, -8.54937e-17, 0.214158, -0.179996, 0.00250715, -0.180654, 0.00324868, -1.51519, 30.5207, -0.626631, 1.19042, -17.0712, 0.215892, 4.14638, -0.679549, 19.3041, -3.8504, 1.67785, -13.629, -6.81801, 12.2613, 18.6363, 4.65454e-310, 0, 0, 30.5207, -0.626631, 1.19042, -17.0712, 0.107946, 2.07319, 0.107946, 0, 0, 6.95958, 0, 86.3209, 0, 0, 43.1437, -1.29613e-05, 0, 0, 0, 0, 0, 0, 0
0.0327432, -0.0564262, 0.641826, 0.0993562, -1.32351, 1.59061, -0.366454, 0.103834, 0.227155, 1.00006, 0.227144, 1.00007, 0.00222566, -0.0048372, 0.000482193, -0.0338687, 0.0338687, -7.03649e-17, -6.41782e-17, 0.215941, -0.182312, 0.0025052, -0.182976, 0.00325423, -1.52602, 30.5278, -0.628038, 1.19104, -17.0761, 0.2134, 4.15085, -0.672749, 19.5661, -3.88343, 1.72294, -13.6922, -6.88366, 12.3446, 18.7439, 4.65454e-310, 0, 0, 30.5278, -0.628038, 1.19104, -17.0761, 0.1067, 2.07543, 0.1067, 0, 0, 6.96369, 0, 86.3397, 0, 0, 43.1545, -1.18948e-05, 0, 0, 0, 0, 0, 0, 0
0.0331071, -0.056428, 0.641826, 0.0993438, -1.3235, 1.59061, -0.366454, 0.103913, 0.227089, 1.00006, 0.227077, 1.00008, 0.00166853, -0.00486499, 0.000484903, -0.0340632, 0.0340632, -7.47209e-17, -4.23691e-17, 0.217709, -0.184634, 0.00250303, -0.185305, 0.00325954, -1.53669, 30.5349, -0.629456, 1.19167, -17.0811, 0.210883, 4.15536, -0.665911, 19.828, -3.91646, 1.76804, -13.7553, -6.94932, 12.4278, 18.8515, 4.65454e-310, 0, 0, 30.5349, -0.629456, 1.19167, -17.0811, 0.105442, 2.07768, 0.105442, 0, 0, 6.96789, 0, 86.3588, 0, 0, 43.1654, -1.07776e-05, 0, 0, 0, 0, 0, 0, 0
0.0334709, -0.0564298, 0.641827, 0.0993314, -1.32348, 1.59061, -0.366454, 0.103993, 0.227021, 1.00006, 0.227009, 1.00008, 0.00110754, -0.00489222, 0.000487556, -0.0342539, 0.0342539, -7.93272e-17, -2.04585e-17, 0.219462, -0.186962, 0.00250066, -0.187641, 0.00326463, -1.54719, 30.5422, -0.630887, 1.19232, -17.0861, 0.208343, 4.1599, -0.659033, 20.0899, -3.94948, 1.81313, -13.8185, -7.01497, 12.5111, 18.959, 4.65454e-310, 0, 0, 30.5422, -0.630887, 1.19232, -17.0861, 0.104172, 2.07995, 0.104172, 0, 0, 6.97216, 0, 86.3781, 0, 0, 43.1766, -9.60923e-06, 0, 0, 0, 0, 0, 0, 0
0.0338347, -0.0564315, 0.641827, 0.0993189, -1.32347, 1.59061, -0.366454, 0.104073, 0.226952, 1.00006, 0.226941, 1.00008, 0.000542768, -0.00491889, 0.000490152, -0.0344406, 0.0344406, -8.41839e-17, 1.12485e-18, 0.221201, -0.189298, 0.00249809, -0.189983, 0.00326949, -1.55753, 30.5495, -0.63233, 1.19299, -17.0912, 0.205779, 4.16446, -0.652115, 20.3518, -3.98251, 1.85822, -13.8817, -7.08062, 12.5943, 19.0666, 4.65454e-310, 0, 0, 30.5495, -0.63233, 1.19299, -17.0912, 0.10289, 2.08223, 0.10289, 0, 0, 6.97652, 0, 86.3977, 0, 0, 43.188, -8.38902e-06, 0, 0, 0, 0, 0, 0, 0
0.0341985, -0.0564333, 0.641827, 0.0993063, -1.32346, 1.59061, -0.366454, 0.104154, 0.226883, 1.00007, 0.226871, 1.00008, -2.57412e-05, -0.004945, 0.00049269, -0.0346233, 0.0346233, -8.92908e-17, 2.19147e-17, 0.222924, -0.191641, 0.00249534, -0.192333, 0.00327415, -1.56771, 30.557, -0.633785, 1.19368, -17.0962, 0.203191, 4.16906, -0.645159, 20.6137, -4.01554, 1.90332, -13.9449, -7.14628, 12.6775, 19.1742, 4.65454e-310, 0, 0, 30.557, -0.633785, 1.19368, -17.0962, 0.101596, 2.08453, 0.101596, 0, 0, 6.98096, 0, 86.4176, 0, 0, 43.1996, -7.11645e-06, 0, 0, 0, 0, 0, 0, 0
0.0345623, -0.0564351, 0.641827, 0.0992937, -1.32345, 1.59061, -0.366454, 0.104235, 0.226813, 1.00007, 0.226801, 1.00008, -0.000597922, -0.00497054, 0.000495172, -0.0348021, 0.0348021, -9.46473e-17, 4.14063e-17, 0.224633, -0.193991, 0.00249241, -0.19469, 0.00327861, -1.57772, 30.5645, -0.635252, 1.19438, -17.1013, 0.200579, 4.17369, -0.638164, 20.8757, -4.04856, 1.94841, -14.0081, -7.21193, 12.7608, 19.2818, 4.65454e-310, 0, 0, 30.5645, -0.635252, 1.19438, -17.1013, 0.10029, 2.08684, 0.10029, 0, 0, 6.98549, 0, 86.4378, 0, 0, 43.2114, -5.79097e-06, 0, 0, 0, 0, 0, 0, 0
0.0349261, -0.0564369, 0.641827, 0.099281, -1.32343, 1.59061, -0.366454, 0.104317, 0.226742, 1.00007, 0.226729, 1.00008, -0.00117372, -0.00499552, 0.000497596, -0.0349769, 0.0349769, -1.00252e-16, 5.90555e-17, 0.226327, -0.196347, 0.00248932, -0.197053, 0.00328289, -1.58757, 30.5722, -0.636731, 1.19509, -17.1064, 0.197944, 4.17835, -0.631129, 21.1376, -4.08159, 1.9935, -14.0713, -7.27758, 12.844, 19.3893, 4.65454e-310, 0, 0, 30.5722, -0.636731, 1.19509, -17.1064, 0.0989718, 2.08917, 0.0989718, 0, 0, 6.99009, 0, 86.4582, 0, 0, 43.2234, -4.41202e-06, 0, 0, 0, 0, 0, 0, 0
0.0352899, -0.0564388, 0.641828, 0.0992683, -1.32342, 1.59061, -0.366454, 0.1044, 0.22667, 1.00007, 0.226657, 1.00008, -0.00175306, -0.00501993, 0.000499963, -0.0351478, 0.0351478, -1.06103e-16, 7.42776e-17, 0.228007, -0.198711, 0.00248608, -0.199424, 0.00328698, -1.59725, 30.5799, -0.638222, 1.19583, -17.1116, 0.195284, 4.18303, -0.624056, 21.3995, -4.11461, 2.03859, -14.1345, -7.34324, 12.9272, 19.4969, 4.65454e-310, 0, 0, 30.5799, -0.638222, 1.19583, -17.1116, 0.097642, 2.09152, 0.097642, 0, 0, 6.99477, 0, 86.4789, 0, 0, 43.2356, -2.97907e-06, 0, 0, 0, 0, 0, 0, 0
0.0356538, -0.0564406, 0.641828, 0.0992554, -1.32341, 1.59061, -0.366454, 0.104483, 0.226597, 1.00007, 0.226584, 1.00008, -0.0023359, -0.00504378, 0.000502273, -0.0353148, 0.0353148, -1.12199e-16, 8.64468e-17, 0.229671, -0.201082, 0.00248269, -0.201802, 0.00329091, -1.60676, 30.5878, -0.639725, 1.19658, -17.1167, 0.1926, 4.18775, -0.616943, 21.6614, -4.14764, 2.08369, -14.1977, -7.40889, 13.0105, 19.6045, 4.65454e-310, 0, 0, 30.5878, -0.639725, 1.19658, -17.1167, 0.0963002, 2.09388, 0.0963002, 0, 0, 6.99953, 0, 86.4998, 0, 0, 43.248, -1.49156e-06, 0, 0, 0, 0, 0, 0, 0
0.0360176, -0.0564424, 0.641828, 0.0992426, -1.3234, 1.59061, -0.366454, 0.104567, 0.226524, 1.00007, 0.226511, 1.00008, -0.00292216, -0.00506707, 0.000504526, -0.0354777, 0.0354777, -1.18538e-16, 9.48948e-17, 0.23132, -0.20346, 0.00247917, -0.204186, 0.00329467, -1.6161, 30.5957, -0.64124, 1.19734, -17.1219, 0.189893, 4.1925, -0.609791, 21.9233, -4.18067, 2.12878, -14.2609, -7.47454, 13.0937, 19.7121, 4.65454e-310, 0, 0, 30.5957, -0.64124, 1.19734, -17.1219, 0.0949465, 2.09625, 0.0949465, 0, 0, 7.00437, 0, 86.521, 0, 0, 43.2606, 5.1037e-08, 0, 0, 0, 0, 0, 0, 0
0.0363814, -0.0564443, 0.641828, 0.0992296, -1.32338, 1.59061, -0.366454, 0.104651, 0.226449, 1.00007, 0.226436, 1.00009, -0.00351179, -0.00508979, 0.000506722, -0.0356368, 0.0356368, -1.23928e-16, 1.01271e-16, 0.232955, -0.205845, 0.00247552, -0.206578, 0.00329829, -1.62527, 30.6037, -0.642767, 1.19813, -17.1271, 0.187162, 4.19728, -0.6026, 22.1852, -4.21369, 2.17387, -14.3241, -7.5402, 13.1769, 19.8196, 4.65454e-310, 0, 0, 30.6037, -0.642767, 1.19813, -17.1271, 0.0935809, 2.09864, 0.0935809, 0, 0, 7.00928, 0, 86.5425, 0, 0, 43.2734, 1.64926e-06, 0, 0, 0, 0, 0, 0, 0
0.0363814, -0.0564443, 0.641828, 0.0992296, -1.32338, 1.59061, -0.366454, 0.104651, 0.226449, 1.00007, 0.226436, 1.00009, -0.00351179, -0.00508979, 0.000506722, -0.0356368, 0.0356368, -1.23928e-16, 1.01271e-16, 0.232955, -0.205845, 0.00247552, -0.206578, 0.00329829, -1.62527, 30.6037, -0.642767, 1.19813, -17.1271, 0.187162, 4.19728, -0.6026, 22.1852, -4.21369, 2.17387, -14.3241, -7.5402, 13.1769, 19.8196, 4.65454e-310, 0, 0, 30.6037, -0.642767, 1.19813, -17.1271, 0.0935809, 2.09864, 0.0935809, 0, 0, 7.00928, 0, 86.5425, 0, 0, 43.2734, 1.64926e-06, 0, 0, 0, 0, 0, 0, 0
0.0363814, -0.0564443, 0.641828, 0.0992296, -1.32338, 1.59061, -0.366454, 0.104651, 0.226449, 1.00007, 0.226436, 1.00009, -0.00351177, -0.00508979, 0.000506722, -0.0356368, 0.0356368, -2.71285e-13, 5.276e-13, 0.232955, -0.205845, 0.00247552, -0.206578, 0.00329829, -1.62527, 30.6037, -0.642767, 1.19813, -17.1271, 0.187162, 4.19728, -0.6026, 22.1852, -4.21369, 2.17387, -14.3241, -7.5402, 13.1769, 19.8196, 4.65454e-310, 0, 0, 30.6037, -0.642767, 1.19813, -17.1271, 0.0935808, 2.09864, 0.0935808, 0, 0, 7.00928, 0, 86.5425, 0, 0, 43.2734, 1.64949e-06, 0, 0, 0, 0, 0, 0, 0
0.0367452, -0.0564461, 0.641828, 0.0992166, -1.32337, 1.59061, -0.366454, 0.104737, 0.226374, 1.00007, 0.22636, 1.00009, -0.00410472, -0.00511194, 0.00050886, -0.0357919, 0.0357919, -2.71285e-13, 5.27593e-13, 0.234574, -0.208236, 0.00247175, -0.208977, 0.00330177, -1.63427, 30.6118, -0.644294, 1.19891, -17.1324, 0.18443, 4.20208, -0.595412, 22.2421, -4.18154, 2.15978, -14.6053, -7.47551, 13.2016, 19.6926, 4.65454e-310, 0, 0, 30.6118, -0.644294, 1.19891, -17.1324, 0.0922151, 2.10104, 0.0922151, 0, 0, 7.01424, 0, 86.5641, 0, 0, 43.2863, 3.25491e-06, 0, 0, 0, 0, 0, 0, 0
0.037109, -0.056448, 0.641828, 0.0992036, -1.32336, 1.59061, -0.366454, 0.104822, 0.226298, 1.00007, 0.226284, 1.00009, -0.0047009, -0.00513353, 0.000510942, -0.035943, 0.035943, -2.71286e-13, 5.27593e-13, 0.236178, -0.210635, 0.00246788, -0.211382, 0.00330511, -1.6431, 30.6199, -0.645809, 1.1997, -17.1377, 0.181722, 4.20688, -0.588271, 22.299, -4.1494, 2.14569, -14.8864, -7.41081, 13.2263, 19.5655, 4.65454e-310, 0, 0, 30.6199, -0.645809, 1.1997, -17.1377, 0.0908612, 2.10344, 0.0908612, 0, 0, 7.0192, 0, 86.5856, 0, 0, 43.2991, 4.81948e-06, 0, 0, 0, 0, 0, 0, 0
0.0374728, -0.0564499, 0.641829, 0.0991905, -1.32334, 1.59061, -0.366454, 0.104908, 0.226221, 1.00007, 0.226206, 1.00009, -0.00530026, -0.00515456, 0.000512967, -0.0360902, 0.0360902, -2.71279e-13, 5.27595e-13, 0.237767, -0.213041, 0.0024639, -0.213795, 0.00330833, -1.65177, 30.628, -0.647313, 1.20048, -17.1432, 0.179038, 4.2117, -0.581176, 22.3559, -4.11725, 2.1316, -15.1676, -7.34612, 13.2509, 19.4384, 4.65454e-310, 0, 0, 30.628, -0.647313, 1.20048, -17.1432, 0.089519, 2.10585, 0.089519, 0, 0, 7.02415, 0, 86.607, 0, 0, 43.3118, 6.34339e-06, 0, 0, 0, 0, 0, 0, 0
0.0378366, -0.0564518, 0.641829, 0.0991773, -1.32333, 1.59061, -0.366454, 0.104995, 0.226143, 1.00007, 0.226128, 1.00009, -0.00590275, -0.00517503, 0.000514935, -0.0362334, 0.0362334, -2.71273e-13, 5.27592e-13, 0.239342, -0.215454, 0.00245983, -0.216215, 0.00331142, -1.66026, 30.6362, -0.648805, 1.20125, -17.1488, 0.176377, 4.21653, -0.574127, 22.4128, -4.0851, 2.11751, -15.4488, -7.28143, 13.2756, 19.3113, 4.65454e-310, 0, 0, 30.6362, -0.648805, 1.20125, -17.1488, 0.0881886, 2.10826, 0.0881886, 0, 0, 7.02911, 0, 86.6284, 0, 0, 43.3244, 7.82698e-06, 0, 0, 0, 0, 0, 0, 0
0.0382005, -0.0564536, 0.641829, 0.0991641, -1.32332, 1.59061, -0.366454, 0.105083, 0.226064, 1.00008, 0.226049, 1.00009, -0.00650829, -0.00519493, 0.000516845, -0.0363727, 0.0363727, -2.71272e-13, 5.27578e-13, 0.240901, -0.217874, 0.00245566, -0.218641, 0.0033144, -1.66859, 30.6443, -0.650286, 1.20202, -17.1544, 0.17374, 4.22136, -0.567124, 22.4697, -4.05296, 2.10342, -15.73, -7.21673, 13.3003, 19.1842, 4.65454e-310, 0, 0, 30.6443, -0.650286, 1.20202, -17.1544, 0.0868699, 2.11068, 0.0868699, 0, 0, 7.03407, 0, 86.6497, 0, 0, 43.3369, 9.27061e-06, 0, 0, 0, 0, 0, 0, 0
0.0385643, -0.0564555, 0.641829, 0.0991509, -1.3233, 1.59061, -0.366454, 0.10517, 0.225984, 1.00008, 0.225969, 1.00009, -0.00711684, -0.00521426, 0.000518699, -0.036508, 0.036508, -2.71274e-13, 5.27575e-13, 0.242446, -0.220301, 0.00245141, -0.221075, 0.00331726, -1.67676, 30.6525, -0.651754, 1.20278, -17.1602, 0.171126, 4.2262, -0.560168, 22.5266, -4.02081, 2.08933, -16.0112, -7.15204, 13.3249, 19.0572, 4.65454e-310, 0, 0, 30.6525, -0.651754, 1.20278, -17.1602, 0.085563, 2.1131, 0.085563, 0, 0, 7.03902, 0, 86.6709, 0, 0, 43.3494, 1.06746e-05, 0, 0, 0, 0, 0, 0, 0
0.0389281, -0.0564574, 0.641829, 0.0991376, -1.32329, 1.59061, -0.366454, 0.105259, 0.225904, 1.00008, 0.225888, 1.00009, -0.00772833, -0.00523303, 0.000520496, -0.0366394, 0.0366394, -2.71276e-13, 5.27582e-13, 0.243976, -0.222735, 0.00244707, -0.223515, 0.00332002, -1.68476, 30.6607, -0.653211, 1.20354, -17.1661, 0.168536, 4.23106, -0.553258, 22.5834, -3.98866, 2.07523, -16.2924, -7.08735, 13.3496, 18.9301, 4.65454e-310, 0, 0, 30.6607, -0.653211, 1.20354, -17.1661, 0.0842679, 2.11553, 0.0842679, 0, 0, 7.04398, 0, 86.6921, 0, 0, 43.3617, 1.20393e-05, 0, 0, 0, 0, 0, 0, 0
0.0392919, -0.0564593, 0.64183, 0.0991242, -1.32328, 1.59061, -0.366454, 0.105348, 0.225822, 1.00008, 0.225806, 1.0001, -0.0083427, -0.00525124, 0.000522236, -0.0367668, 0.0367668, -2.71278e-13, 5.27581e-13, 0.24549, -0.225175, 0.00244266, -0.225963, 0.00332268, -1.6926, 30.6689, -0.654656, 1.20429, -17.1721, 0.165969, 4.23592, -0.546394, 22.6403, -3.95651, 2.06114, -16.5736, -7.02266, 13.3743, 18.803, 4.65454e-310, 0, 0, 30.6689, -0.654656, 1.20429, -17.1721, 0.0829845, 2.11796, 0.0829845, 0, 0, 7.04893, 0, 86.7132, 0, 0, 43.374, 1.3365e-05, 0, 0, 0, 0, 0, 0, 0
0.0396557, -0.0564613, 0.64183, 0.0991108, -1.32326, 1.59061, -0.366454, 0.105438, 0.22574, 1.00008, 0.225724, 1.0001, -0.00895989, -0.00526888, 0.00052392, -0.0368903, 0.0368903, -2.71281e-13, 5.27578e-13, 0.246991, -0.227622, 0.00243818, -0.228417, 0.00332523, -1.70028, 30.6772, -0.65609, 1.20504, -17.1781, 0.163426, 4.24079, -0.539576, 22.6972, -3.92437, 2.04705, -16.8548, -6.95796, 13.3989, 18.6759, 4.65454e-310, 0, 0, 30.6772, -0.65609, 1.20504, -17.1781, 0.0817129, 2.12039, 0.0817129, 0, 0, 7.05388, 0, 86.7342, 0, 0, 43.3862, 1.46521e-05, 0, 0, 0, 0, 0, 0, 0
0.0400195, -0.0564632, 0.64183, 0.0990974, -1.32325, 1.59061, -0.366454, 0.105528, 0.225657, 1.00008, 0.22564, 1.0001, -0.00957985, -0.00528596, 0.000525546, -0.0370098, 0.0370098, -2.71287e-13, 5.27581e-13, 0.248476, -0.230077, 0.00243362, -0.230878, 0.0033277, -1.70779, 30.6855, -0.657512, 1.20578, -17.1843, 0.160906, 4.24567, -0.532805, 22.7541, -3.89222, 2.03296, -17.136, -6.89327, 13.4236, 18.5488, 4.65454e-310, 0, 0, 30.6855, -0.657512, 1.20578, -17.1843, 0.0804531, 2.12283, 0.0804531, 0, 0, 7.05883, 0, 86.7551, 0, 0, 43.3983, 1.59008e-05, 0, 0, 0, 0, 0, 0, 0
0.0403833, -0.0564651, 0.64183, 0.0990839, -1.32324, 1.59061, -0.366454, 0.105618, 0.225572, 1.00008, 0.225556, 1.0001, -0.0102025, -0.00530248, 0.000527116, -0.0371254, 0.0371254, -2.71296e-13, 5.27586e-13, 0.249947, -0.232537, 0.00242901, -0.233345, 0.00333008, -1.71515, 30.6937, -0.658922, 1.20652, -17.1906, 0.15841, 4.25056, -0.52608, 22.811, -3.86007, 2.01887, -17.4172, -6.82858, 13.4483, 18.4218, 4.65454e-310, 0, 0, 30.6937, -0.658922, 1.20652, -17.1906, 0.0792051, 2.12528, 0.0792051, 0, 0, 7.06378, 0, 86.776, 0, 0, 43.4103, 1.71115e-05, 0, 0, 0, 0, 0, 0, 0
0.0407472, -0.056467, 0.64183, 0.0990704, -1.32322, 1.59061, -0.366454, 0.10571, 0.225487, 1.00008, 0.22547, 1.0001, -0.0108278, -0.00531842, 0.000528629, -0.037237, 0.037237, -2.71304e-13, 5.27593e-13, 0.251403, -0.235005, 0.00242434, -0.235819, 0.00333238, -1.72235, 30.7021, -0.660321, 1.20725, -17.197, 0.155938, 4.25545, -0.519401, 22.8679, -3.82793, 2.00478, -17.6984, -6.76389, 13.4729, 18.2947, 4.65454e-310, 0, 0, 30.7021, -0.660321, 1.20725, -17.197, 0.0779688, 2.12773, 0.0779688, 0, 0, 7.06873, 0, 86.7968, 0, 0, 43.4222, 1.82844e-05, 0, 0, 0, 0, 0, 0, 0
0.041111, -0.056469, 0.641831, 0.0990568, -1.32321, 1.59061, -0.366454, 0.105801, 0.225401, 1.00008, 0.225384, 1.0001, -0.0114557, -0.00533381, 0.000530085, -0.0373447, 0.0373447, -2.71311e-13, 5.27601e-13, 0.252844, -0.23748, 0.00241961, -0.238301, 0.00333459, -1.72939, 30.7104, -0.661707, 1.20797, -17.2035, 0.153489, 4.26036, -0.512768, 22.9247, -3.79578, 1.99068, -17.9796, -6.69919, 13.4976, 18.1676, 4.65454e-310, 0, 0, 30.7104, -0.661707, 1.20797, -17.2035, 0.0767443, 2.13018, 0.0767443, 0, 0, 7.07367, 0, 86.8175, 0, 0, 43.434, 1.94198e-05, 0, 0, 0, 0, 0, 0, 0
0.0414748, -0.0564709, 0.641831, 0.0990432, -1.3232, 1.59061, -0.366454, 0.105894, 0.225315, 1.00008, 0.225297, 1.0001, -0.0120862, -0.00534863, 0.000531484, -0.0374484, 0.0374484, -2.71317e-13, 5.2761e-13, 0.254271, -0.239961, 0.00241483, -0.240788, 0.00333674, -1.73628, 30.7187, -0.663083, 1.2087, -17.2101, 0.151063, 4.26527, -0.506181, 22.9816, -3.76363, 1.97659, -18.2608, -6.6345, 13.5222, 18.0405, 4.65454e-310, 0, 0, 30.7187, -0.663083, 1.2087, -17.2101, 0.0755315, 2.13264, 0.0755315, 0, 0, 7.07861, 0, 86.8381, 0, 0, 43.4458, 2.05181e-05, 0, 0, 0, 0, 0, 0, 0
0.0418386, -0.0564729, 0.641831, 0.0990295, -1.32318, 1.59061, -0.366454, 0.105986, 0.225227, 1.00008, 0.225209, 1.0001, -0.0127191, -0.00536289, 0.000532827, -0.0375482, 0.0375482, -2.71324e-13, 5.27617e-13, 0.255683, -0.242448, 0.00241001, -0.243283, 0.00333881, -1.74301, 30.7271, -0.664446, 1.20941, -17.2168, 0.148661, 4.2702, -0.499641, 23.0385, -3.73148, 1.9625, -18.542, -6.56981, 13.5469, 17.9134, 4.65454e-310, 0, 0, 30.7271, -0.664446, 1.20941, -17.2168, 0.0743306, 2.1351, 0.0743306, 0, 0, 7.08354, 0, 86.8586, 0, 0, 43.4574, 2.15794e-05, 0, 0, 0, 0, 0, 0, 0
0.0422024, -0.0564748, 0.641831, 0.0990159, -1.32317, 1.59061, -0.366454, 0.10608, 0.225138, 1.00008, 0.22512, 1.00011, -0.0133544, -0.00537658, 0.000534113, -0.037644, 0.037644, -2.7133e-13, 5.27621e-13, 0.257081, -0.244943, 0.00240515, -0.245784, 0.00334081, -1.74959, 30.7355, -0.665798, 1.21012, -17.2236, 0.146283, 4.27513, -0.493147, 23.0954, -3.69934, 1.94841, -18.8232, -6.50512, 13.5716, 17.7864, 4.65454e-310, 0, 0, 30.7355, -0.665798, 1.21012, -17.2236, 0.0731413, 2.13757, 0.0731413, 0, 0, 7.08848, 0, 86.8791, 0, 0, 43.469, 2.26041e-05, 0, 0, 0, 0, 0, 0, 0
0.0425662, -0.0564768, 0.641831, 0.0990021, -1.32315, 1.59061, -0.366454, 0.106173, 0.225049, 1.00009, 0.22503, 1.00011, -0.0139921, -0.00538971, 0.000535342, -0.0377359, 0.0377359, -2.71336e-13, 5.27619e-13, 0.258464, -0.247444, 0.00240025, -0.248291, 0.00334275, -1.75601, 30.7439, -0.667138, 1.21083, -17.2305, 0.143928, 4.28007, -0.486699, 23.1523, -3.66719, 1.93432, -19.1044, -6.44042, 13.5962, 17.6593, 4.65454e-310, 0, 0, 30.7439, -0.667138, 1.21083, -17.2305, 0.0719639, 2.14004, 0.0719639, 0, 0, 7.09341, 0, 86.8995, 0, 0, 43.4805, 2.35923e-05, 0, 0, 0, 0, 0, 0, 0
0.04293, -0.0564787, 0.641831, 0.0989884, -1.32314, 1.59061, -0.366454, 0.106268, 0.224958, 1.00009, 0.224939, 1.00011, -0.0146321, -0.00540227, 0.000536515, -0.0378237, 0.0378237, -2.71344e-13, 5.27612e-13, 0.259832, -0.249951, 0.00239531, -0.250805, 0.00334464, -1.76229, 30.7523, -0.668466, 1.21153, -17.2375, 0.141596, 4.28502, -0.480298, 23.2092, -3.63504, 1.92023, -19.3856, -6.37573, 13.6209, 17.5322, 4.65454e-310, 0, 0, 30.7523, -0.668466, 1.21153, -17.2375, 0.0707982, 2.14251, 0.0707982, 0, 0, 7.09833, 0, 86.9198, 0, 0, 43.4919, 2.45445e-05, 0, 0, 0, 0, 0, 0, 0
0.0432938, -0.0564807, 0.641832, 0.0989746, -1.32313, 1.59061, -0.366454, 0.106362, 0.224867, 1.00009, 0.224848, 1.00011, -0.0152744, -0.00541426, 0.000537631, -0.0379077, 0.0379077, -2.7135e-13, 5.27608e-13, 0.261186, -0.252465, 0.00239035, -0.253326, 0.00334647, -1.76841, 30.7608, -0.669783, 1.21223, -17.2446, 0.139289, 4.28998, -0.473942, 23.2661, -3.6029, 1.90614, -19.6667, -6.31104, 13.6456, 17.4051, 4.65454e-310, 0, 0, 30.7608, -0.669783, 1.21223, -17.2446, 0.0696443, 2.14499, 0.0696443, 0, 0, 7.10325, 0, 86.94, 0, 0, 43.5032, 2.54607e-05, 0, 0, 0, 0, 0, 0, 0
0.0436577, -0.0564827, 0.641832, 0.0989608, -1.32311, 1.59061, -0.366454, 0.106458, 0.224774, 1.00009, 0.224755, 1.00011, -0.0159189, -0.00542569, 0.00053869, -0.0379877, 0.0379877, -2.71358e-13, 5.27605e-13, 0.262526, -0.254986, 0.00238536, -0.255853, 0.00334824, -1.77439, 30.7693, -0.671088, 1.21292, -17.2518, 0.137004, 4.29495, -0.467633, 23.3229, -3.57075, 1.89204, -19.9479, -6.24634, 13.6702, 17.278, 4.65454e-310, 0, 0, 30.7693, -0.671088, 1.21292, -17.2518, 0.0685022, 2.14748, 0.0685022, 0, 0, 7.10817, 0, 86.9602, 0, 0, 43.5145, 2.63413e-05, 0, 0, 0, 0, 0, 0, 0
0.0440215, -0.0564847, 0.641832, 0.098947, -1.3231, 1.59061, -0.366454, 0.106553, 0.224681, 1.00009, 0.224661, 1.00011, -0.0165655, -0.00543656, 0.000539693, -0.0380637, 0.0380637, -2.71366e-13, 5.27604e-13, 0.263851, -0.257513, 0.00238034, -0.258387, 0.00334997, -1.78021, 30.7778, -0.672381, 1.2136, -17.2591, 0.134744, 4.29993, -0.46137, 23.3798, -3.5386, 1.87795, -20.2291, -6.18165, 13.6949, 17.151, 4.65454e-310, 0, 0, 30.7778, -0.672381, 1.2136, -17.2591, 0.0673718, 2.14997, 0.0673718, 0, 0, 7.11308, 0, 86.9803, 0, 0, 43.5256, 2.71866e-05, 0, 0, 0, 0, 0, 0, 0
0.0443853, -0.0564866, 0.641832, 0.0989331, -1.32309, 1.59061, -0.366454, 0.10665, 0.224587, 1.00009, 0.224567, 1.00011, -0.0172142, -0.00544685, 0.000540639, -0.0381357, 0.0381357, -2.71375e-13, 5.27608e-13, 0.265162, -0.260046, 0.00237531, -0.260927, 0.00335165, -1.78589, 30.7863, -0.673662, 1.21428, -17.2665, 0.132506, 4.30492, -0.455154, 23.4367, -3.50645, 1.86386, -20.5103, -6.11696, 13.7196, 17.0239, 4.65454e-310, 0, 0, 30.7863, -0.673662, 1.21428, -17.2665, 0.0662532, 2.15246, 0.0662532, 0, 0, 7.11799, 0, 87.0002, 0, 0, 43.5367, 2.79966e-05, 0, 0, 0, 0, 0, 0, 0
0.0447491, -0.0564886, 0.641832, 0.0989192, -1.32307, 1.59061, -0.366454, 0.106746, 0.224492, 1.00009, 0.224472, 1.00011, -0.0178649, -0.00545659, 0.000541529, -0.0382038, 0.0382038, -2.71387e-13, 5.2762e-13, 0.266458, -0.262586, 0.00237026, -0.263473, 0.00335329, -1.79142, 30.7948, -0.674932, 1.21496, -17.274, 0.130293, 4.30991, -0.448983, 23.4936, -3.47431, 1.84977, -20.7915, -6.05227, 13.7442, 16.8968, 4.65454e-310, 0, 0, 30.7948, -0.674932, 1.21496, -17.274, 0.0651464, 2.15496, 0.0651464, 0, 0, 7.12289, 0, 87.0201, 0, 0, 43.5476, 2.87717e-05, 0, 0, 0, 0, 0, 0, 0
0.0451129, -0.0564906, 0.641833, 0.0989053, -1.32306, 1.59061, -0.366454, 0.106844, 0.224396, 1.00009, 0.224375, 1.00012, -0.0185177, -0.00546575, 0.000542361, -0.0382679, 0.0382679, -2.71397e-13, 5.27627e-13, 0.26774, -0.265132, 0.0023652, -0.266026, 0.00335489, -1.79681, 30.8034, -0.67619, 1.21563, -17.2816, 0.128103, 4.31492, -0.442859, 23.5505, -3.44216, 1.83568, -21.0727, -5.98757, 13.7689, 16.7697, 4.65454e-310, 0, 0, 30.8034, -0.67619, 1.21563, -17.2816, 0.0640513, 2.15746, 0.0640513, 0, 0, 7.12779, 0, 87.04, 0, 0, 43.5585, 2.9512e-05, 0, 0, 0, 0, 0, 0, 0
0.0454767, -0.0564926, 0.641833, 0.0988914, -1.32304, 1.59061, -0.366454, 0.106941, 0.224299, 1.00009, 0.224278, 1.00012, -0.0191723, -0.00547435, 0.000543137, -0.0383281, 0.0383281, -2.71406e-13, 5.27631e-13, 0.269008, -0.267685, 0.00236012, -0.268585, 0.00335646, -1.80205, 30.812, -0.677437, 1.2163, -17.2893, 0.125936, 4.31993, -0.436781, 23.6074, -3.41001, 1.82159, -21.3539, -5.92288, 13.7935, 16.6426, 4.65454e-310, 0, 0, 30.812, -0.677437, 1.2163, -17.2893, 0.062968, 2.15997, 0.062968, 0, 0, 7.13268, 0, 87.0597, 0, 0, 43.5693, 3.02178e-05, 0, 0, 0, 0, 0, 0, 0
0.0458405, -0.0564946, 0.641833, 0.0988774, -1.32303, 1.59061, -0.366454, 0.107039, 0.224201, 1.00009, 0.22418, 1.00012, -0.0198289, -0.00548238, 0.000543857, -0.0383842, 0.0383842, -2.71415e-13, 5.27634e-13, 0.270262, -0.270244, 0.00235504, -0.271151, 0.00335799, -1.80716, 30.8206, -0.678672, 1.21696, -17.2972, 0.123793, 4.32495, -0.43075, 23.6643, -3.37787, 1.80749, -21.6351, -5.85819, 13.8182, 16.5156, 4.65454e-310, 0, 0, 30.8206, -0.678672, 1.21696, -17.2972, 0.0618965, 2.16248, 0.0618965, 0, 0, 7.13756, 0, 87.0793, 0, 0, 43.58, 3.08893e-05, 0, 0, 0, 0, 0, 0, 0
0.0462044, -0.0564966, 0.641833, 0.0988635, -1.32302, 1.59061, -0.366454, 0.107138, 0.224102, 1.00009, 0.224081, 1.00012, -0.0204872, -0.00548984, 0.00054452, -0.0384364, 0.0384364, -2.71423e-13, 5.27636e-13, 0.271501, -0.27281, 0.00234996, -0.273723, 0.00335949, -1.81211, 30.8292, -0.679895, 1.21761, -17.3051, 0.121673, 4.32999, -0.424764, 23.7211, -3.34572, 1.7934, -21.9163, -5.7935, 13.8429, 16.3885, 4.65454e-310, 0, 0, 30.8292, -0.679895, 1.21761, -17.3051, 0.0608367, 2.16499, 0.0608367, 0, 0, 7.14244, 0, 87.0989, 0, 0, 43.5906, 3.15267e-05, 0, 0, 0, 0, 0, 0, 0
0.0465682, -0.0564986, 0.641833, 0.0988495, -1.323, 1.59061, -0.366454, 0.107237, 0.224003, 1.0001, 0.223981, 1.00012, -0.0211474, -0.00549673, 0.000545126, -0.0384846, 0.0384846, -2.71429e-13, 5.27637e-13, 0.272726, -0.275381, 0.00234487, -0.276301, 0.00336096, -1.81693, 30.8378, -0.681106, 1.21826, -17.3131, 0.119577, 4.33503, -0.418825, 23.778, -3.31357, 1.77931, -22.1975, -5.7288, 13.8675, 16.2614, 4.65454e-310, 0, 0, 30.8378, -0.681106, 1.21826, -17.3131, 0.0597887, 2.16751, 0.0597887, 0, 0, 7.14731, 0, 87.1184, 0, 0, 43.6012, 3.21302e-05, 0, 0, 0, 0, 0, 0, 0
0.046932, -0.0565006, 0.641834, 0.0988355, -1.32299, 1.59061, -0.366454, 0.107336, 0.223902, 1.0001, 0.22388, 1.00012, -0.0218093, -0.00550306, 0.000545675, -0.0385289, 0.0385289, -2.71433e-13, 5.27634e-13, 0.273936, -0.277959, 0.00233978, -0.278885, 0.00336241, -1.82161, 30.8465, -0.682306, 1.21891, -17.3212, 0.117505, 4.34008, -0.412932, 23.8349, -3.28142, 1.76522, -22.4787, -5.66411, 13.8922, 16.1343, 4.65454e-310, 0, 0, 30.8465, -0.682306, 1.21891, -17.3212, 0.0587525, 2.17004, 0.0587525, 0, 0, 7.15218, 0, 87.1378, 0, 0, 43.6116, 3.27e-05, 0, 0, 0, 0, 0, 0, 0
0.0472958, -0.0565026, 0.641834, 0.0988214, -1.32297, 1.59061, -0.366454, 0.107436, 0.2238, 1.0001, 0.223778, 1.00012, -0.0224728, -0.00550882, 0.000546168, -0.0385691, 0.0385691, -2.71437e-13, 5.27631e-13, 0.275133, -0.280544, 0.00233469, -0.281476, 0.00336383, -1.82615, 30.8552, -0.683494, 1.21955, -17.3295, 0.115456, 4.34514, -0.407085, 23.8918, -3.24928, 1.75113, -22.7599, -5.59942, 13.9169, 16.0072, 4.65454e-310, 0, 0, 30.8552, -0.683494, 1.21955, -17.3295, 0.0577281, 2.17257, 0.0577281, 0, 0, 7.15704, 0, 87.1571, 0, 0, 43.622, 3.32363e-05, 0, 0, 0, 0, 0, 0, 0
0.0476596, -0.0565046, 0.641834, 0.0988074, -1.32296, 1.59061, -0.366454, 0.107536, 0.223698, 1.0001, 0.223675, 1.00012, -0.023138, -0.005514, 0.000546604, -0.0386054, 0.0386054, -2.71442e-13, 5.27627e-13, 0.276315, -0.283134, 0.00232961, -0.284073, 0.00336524, -1.83056, 30.8639, -0.68467, 1.22018, -17.3378, 0.113431, 4.3502, -0.401284, 23.9487, -3.21713, 1.73704, -23.0411, -5.53473, 13.9415, 15.8802, 4.65454e-310, 0, 0, 30.8639, -0.68467, 1.22018, -17.3378, 0.0567154, 2.1751, 0.0567154, 0, 0, 7.16189, 0, 87.1763, 0, 0, 43.6323, 3.37392e-05, 0, 0, 0, 0, 0, 0, 0
0.0480234, -0.0565066, 0.641834, 0.0987933, -1.32295, 1.59061, -0.366454, 0.107637, 0.223594, 1.0001, 0.223571, 1.00012, -0.0238048, -0.00551862, 0.000546984, -0.0386377, 0.0386377, -2.71447e-13, 5.27621e-13, 0.277483, -0.285731, 0.00232454, -0.286676, 0.00336662, -1.83483, 30.8726, -0.685835, 1.22081, -17.3462, 0.111429, 4.35528, -0.39553, 24.0056, -3.18498, 1.72295, -23.3223, -5.47003, 13.9662, 15.7531, 4.65454e-310, 0, 0, 30.8726, -0.685835, 1.22081, -17.3462, 0.0557144, 2.17764, 0.0557144, 0, 0, 7.16673, 0, 87.1954, 0, 0, 43.6425, 3.4209e-05, 0, 0, 0, 0, 0, 0, 0
0.0483872, -0.0565086, 0.641834, 0.0987793, -1.32293, 1.59061, -0.366454, 0.107738, 0.22349, 1.0001, 0.223466, 1.00013, -0.0244731, -0.00552267, 0.000547306, -0.0386659, 0.0386659, -2.71451e-13, 5.27612e-13, 0.278637, -0.288333, 0.00231947, -0.289285, 0.00336798, -1.83896, 30.8813, -0.686987, 1.22143, -17.3548, 0.109451, 4.36037, -0.389822, 24.0624, -3.15284, 1.70885, -23.6035, -5.40534, 13.9909, 15.626, 4.65454e-310, 0, 0, 30.8813, -0.686987, 1.22143, -17.3548, 0.0547253, 2.18018, 0.0547253, 0, 0, 7.17157, 0, 87.2144, 0, 0, 43.6526, 3.46458e-05, 0, 0, 0, 0, 0, 0, 0
0.0487511, -0.0565106, 0.641835, 0.0987652, -1.32292, 1.59061, -0.366454, 0.10784, 0.223385, 1.0001, 0.223361, 1.00013, -0.0251428, -0.00552614, 0.000547572, -0.0386902, 0.0386902, -2.71454e-13, 5.276e-13, 0.279777, -0.290942, 0.00231441, -0.2919, 0.00336933, -1.84296, 30.8901, -0.688129, 1.22205, -17.3634, 0.107496, 4.36546, -0.38416, 24.1193, -3.12069, 1.69476, -23.8847, -5.34065, 14.0155, 15.4989, 4.65454e-310, 0, 0, 30.8901, -0.688129, 1.22205, -17.3634, 0.0537479, 2.18273, 0.0537479, 0, 0, 7.1764, 0, 87.2334, 0, 0, 43.6626, 3.50497e-05, 0, 0, 0, 0, 0, 0, 0
0.0491149, -0.0565126, 0.641835, 0.0987511, -1.3229, 1.59061, -0.366454, 0.107942, 0.223278, 1.0001, 0.223254, 1.00013, -0.025814, -0.00552905, 0.000547781, -0.0387105, 0.0387105, -2.71458e-13, 5.27591e-13, 0.280903, -0.293557, 0.00230937, -0.294522, 0.00337067, -1.84682, 30.8989, -0.689258, 1.22267, -17.3721, 0.105565, 4.37056, -0.378545, 24.1762, -3.08854, 1.68067, -24.1659, -5.27595, 14.0402, 15.3718, 4.65454e-310, 0, 0, 30.8989, -0.689258, 1.22267, -17.3721, 0.0527823, 2.18528, 0.0527823, 0, 0, 7.18123, 0, 87.2523, 0, 0, 43.6725, 3.5421e-05, 0, 0, 0, 0, 0, 0, 0
0.0494787, -0.0565146, 0.641835, 0.098737, -1.32289, 1.59061, -0.366454, 0.108044, 0.223171, 1.0001, 0.223146, 1.00013, -0.0264866, -0.00553138, 0.000547934, -0.0387268, 0.0387268, -2.71461e-13, 5.27583e-13, 0.282015, -0.296179, 0.00230434, -0.297149, 0.003372, -1.85056, 30.9077, -0.690376, 1.22328, -17.381, 0.103657, 4.37568, -0.372975, 24.2331, -3.05639, 1.66658, -24.4471, -5.21126, 14.0649, 15.2448, 4.65454e-310, 0, 0, 30.9077, -0.690376, 1.22328, -17.381, 0.0518284, 2.18784, 0.0518284, 0, 0, 7.18604, 0, 87.271, 0, 0, 43.6823, 3.57598e-05, 0, 0, 0, 0, 0, 0, 0
0.0498425, -0.0565167, 0.641835, 0.098723, -1.32288, 1.59061, -0.366454, 0.108147, 0.223063, 1.0001, 0.223038, 1.00013, -0.0271605, -0.00553314, 0.000548029, -0.038739, 0.038739, -2.71464e-13, 5.27575e-13, 0.283113, -0.298806, 0.00229933, -0.299783, 0.00337331, -1.85416, 30.9165, -0.691482, 1.22388, -17.3899, 0.101773, 4.3808, -0.367452, 24.29, -3.02425, 1.65249, -24.7282, -5.14657, 14.0895, 15.1177, 4.65454e-310, 0, 0, 30.9165, -0.691482, 1.22388, -17.3899, 0.0508864, 2.1904, 0.0508864, 0, 0, 7.19085, 0, 87.2897, 0, 0, 43.6921, 3.60663e-05, 0, 0, 0, 0, 0, 0, 0
0.0502063, -0.0565187, 0.641835, 0.0987089, -1.32286, 1.59061, -0.366454, 0.10825, 0.222954, 1.0001, 0.222928, 1.00013, -0.0278357, -0.00553433, 0.000548068, -0.0387473, 0.0387473, -2.71468e-13, 5.27569e-13, 0.284196, -0.301439, 0.00229434, -0.302422, 0.00337462, -1.85763, 30.9254, -0.692577, 1.22448, -17.399, 0.0999121, 4.38593, -0.361975, 24.3469, -2.9921, 1.6384, -25.0094, -5.08188, 14.1142, 14.9906, 4.65454e-310, 0, 0, 30.9254, -0.692577, 1.22448, -17.399, 0.0499561, 2.19296, 0.0499561, 0, 0, 7.19565, 0, 87.3083, 0, 0, 43.7018, 3.63407e-05, 0, 0, 0, 0, 0, 0, 0
0.0505701, -0.0565207, 0.641836, 0.0986948, -1.32285, 1.59061, -0.366454, 0.108354, 0.222844, 1.0001, 0.222818, 1.00013, -0.0285122, -0.00553494, 0.00054805, -0.0387515, 0.0387515, -2.71472e-13, 5.27567e-13, 0.285266, -0.304078, 0.00228936, -0.305068, 0.00337591, -1.86097, 30.9342, -0.693659, 1.22507, -17.4081, 0.098075, 4.39107, -0.356545, 24.4038, -2.95995, 1.6243, -25.2906, -5.01718, 14.1388, 14.8635, 4.65454e-310, 0, 0, 30.9342, -0.693659, 1.22507, -17.4081, 0.0490375, 2.19553, 0.0490375, 0, 0, 7.20045, 0, 87.3268, 0, 0, 43.7113, 3.65829e-05, 0, 0, 0, 0, 0, 0, 0
0.0509339, -0.0565227, 0.641836, 0.0986807, -1.32283, 1.59061, -0.366454, 0.108458, 0.222732, 1.00011, 0.222706, 1.00013, -0.0291898, -0.00553498, 0.000547975, -0.0387517, 0.0387517, -2.71476e-13, 5.27568e-13, 0.286322, -0.306724, 0.0022844, -0.30772, 0.00337721, -1.86419, 30.9431, -0.69473, 1.22566, -17.4174, 0.0962615, 4.39622, -0.35116, 24.4606, -2.92781, 1.61021, -25.5718, -4.95249, 14.1635, 14.7365, 4.65454e-310, 0, 0, 30.9431, -0.69473, 1.22566, -17.4174, 0.0481307, 2.19811, 0.0481307, 0, 0, 7.20523, 0, 87.3452, 0, 0, 43.7208, 3.67933e-05, 0, 0, 0, 0, 0, 0, 0
0.0512978, -0.0565247, 0.641836, 0.0986666, -1.32282, 1.59061, -0.366454, 0.108562, 0.22262, 1.00011, 0.222594, 1.00014, -0.0298686, -0.00553444, 0.000547843, -0.0387479, 0.0387479, -2.7148e-13, 5.27567e-13, 0.287364, -0.309375, 0.00227947, -0.310377, 0.0033785, -1.86728, 30.952, -0.69579, 1.22624, -17.4267, 0.0944714, 4.40137, -0.345822, 24.5175, -2.89566, 1.59612, -25.853, -4.8878, 14.1882, 14.6094, 4.65454e-310, 0, 0, 30.952, -0.69579, 1.22624, -17.4267, 0.0472357, 2.20069, 0.0472357, 0, 0, 7.21001, 0, 87.3635, 0, 0, 43.7302, 3.6972e-05, 0, 0, 0, 0, 0, 0, 0
0.0516616, -0.0565267, 0.641836, 0.0986525, -1.3228, 1.59061, -0.366454, 0.108667, 0.222507, 1.00011, 0.22248, 1.00014, -0.0305485, -0.00553333, 0.000547654, -0.0387401, 0.0387401, -2.71483e-13, 5.27563e-13, 0.288391, -0.312032, 0.00227456, -0.313041, 0.00337978, -1.87024, 30.961, -0.696837, 1.22682, -17.4362, 0.092705, 4.40654, -0.34053, 24.5744, -2.86351, 1.58203, -26.1342, -4.82311, 14.2128, 14.4823, 4.65454e-310, 0, 0, 30.961, -0.696837, 1.22682, -17.4362, 0.0463525, 2.20327, 0.0463525, 0, 0, 7.21478, 0, 87.3818, 0, 0, 43.7396, 3.7119e-05, 0, 0, 0, 0, 0, 0, 0
0.0520254, -0.0565287, 0.641836, 0.0986384, -1.32279, 1.59061, -0.366454, 0.108772, 0.222393, 1.00011, 0.222366, 1.00014, -0.0312294, -0.00553164, 0.000547408, -0.0387282, 0.0387282, -2.71485e-13, 5.2756e-13, 0.289405, -0.314695, 0.00226967, -0.31571, 0.00338106, -1.87308, 30.9699, -0.697873, 1.22739, -17.4458, 0.090962, 4.41171, -0.335284, 24.6313, -2.83136, 1.56794, -26.4154, -4.75841, 14.2375, 14.3552, 4.65454e-310, 0, 0, 30.9699, -0.697873, 1.22739, -17.4458, 0.045481, 2.20586, 0.045481, 0, 0, 7.21953, 0, 87.3999, 0, 0, 43.7488, 3.72346e-05, 0, 0, 0, 0, 0, 0, 0
0.0523892, -0.0565307, 0.641837, 0.0986243, -1.32278, 1.59061, -0.366454, 0.108878, 0.222278, 1.00011, 0.222251, 1.00014, -0.0319114, -0.00552937, 0.000547105, -0.0387123, 0.0387123, -2.71486e-13, 5.27555e-13, 0.290405, -0.317365, 0.00226481, -0.318385, 0.00338234, -1.8758, 30.9789, -0.698897, 1.22796, -17.4554, 0.0892426, 4.4169, -0.330085, 24.6882, -2.79922, 1.55385, -26.6966, -4.69372, 14.2622, 14.2281, 4.65454e-310, 0, 0, 30.9789, -0.698897, 1.22796, -17.4554, 0.0446213, 2.20845, 0.0446213, 0, 0, 7.22428, 0, 87.4179, 0, 0, 43.7579, 3.73189e-05, 0, 0, 0, 0, 0, 0, 0
0.052753, -0.0565328, 0.641837, 0.0986102, -1.32276, 1.59061, -0.366454, 0.108983, 0.222162, 1.00011, 0.222134, 1.00014, -0.0325943, -0.00552653, 0.000546745, -0.0386923, 0.0386923, -2.71487e-13, 5.27549e-13, 0.291391, -0.320039, 0.00225998, -0.321067, 0.00338362, -1.87839, 30.9879, -0.69991, 1.22852, -17.4652, 0.0875467, 4.42209, -0.324931, 24.7451, -2.76707, 1.53976, -26.9778, -4.62903, 14.2868, 14.1011, 4.65454e-310, 0, 0, 30.9879, -0.69991, 1.22852, -17.4652, 0.0437734, 2.21105, 0.0437734, 0, 0, 7.22903, 0, 87.4359, 0, 0, 43.767, 3.73719e-05, 0, 0, 0, 0, 0, 0, 0
0.0531168, -0.0565348, 0.641837, 0.0985961, -1.32275, 1.59061, -0.366454, 0.10909, 0.222045, 1.00011, 0.222017, 1.00014, -0.0332781, -0.0055231, 0.000546328, -0.0386683, 0.0386683, -2.71486e-13, 5.27541e-13, 0.292363, -0.32272, 0.00225517, -0.323754, 0.0033849, -1.88087, 30.9969, -0.700911, 1.22908, -17.475, 0.0858744, 4.42729, -0.319824, 24.802, -2.73492, 1.52566, -27.259, -4.56434, 14.3115, 13.974, 4.65454e-310, 0, 0, 30.9969, -0.700911, 1.22908, -17.475, 0.0429372, 2.21365, 0.0429372, 0, 0, 7.23376, 0, 87.4538, 0, 0, 43.776, 3.73938e-05, 0, 0, 0, 0, 0, 0, 0
0.0534806, -0.0565368, 0.641837, 0.0985821, -1.32273, 1.59061, -0.366454, 0.109196, 0.221928, 1.00011, 0.221899, 1.00014, -0.0339629, -0.0055191, 0.000545854, -0.0386402, 0.0386402, -2.71484e-13, 5.2753e-13, 0.293322, -0.325407, 0.00225038, -0.326446, 0.00338618, -1.88322, 31.0059, -0.7019, 1.22963, -17.485, 0.0842256, 4.43251, -0.314764, 24.8588, -2.70278, 1.51157, -27.5402, -4.49964, 14.3362, 13.8469, 4.65454e-310, 0, 0, 31.0059, -0.7019, 1.22963, -17.485, 0.0421128, 2.21625, 0.0421128, 0, 0, 7.23848, 0, 87.4715, 0, 0, 43.7848, 3.73848e-05, 0, 0, 0, 0, 0, 0, 0
0.0538444, -0.0565388, 0.641837, 0.098568, -1.32272, 1.59061, -0.366454, 0.109303, 0.221809, 1.00011, 0.221779, 1.00014, -0.0346484, -0.00551452, 0.000545322, -0.0386081, 0.0386081, -2.71481e-13, 5.27516e-13, 0.294266, -0.328099, 0.00224563, -0.329145, 0.00338746, -1.88545, 31.015, -0.702877, 1.23018, -17.4951, 0.0826003, 4.43773, -0.309749, 24.9157, -2.67063, 1.49748, -27.8214, -4.43495, 14.3608, 13.7198, 4.65454e-310, 0, 0, 31.015, -0.702877, 1.23018, -17.4951, 0.0413002, 2.21886, 0.0413002, 0, 0, 7.2432, 0, 87.4892, 0, 0, 43.7936, 3.73449e-05, 0, 0, 0, 0, 0, 0, 0
0.0542083, -0.0565408, 0.641838, 0.098554, -1.32271, 1.59061, -0.366454, 0.10941, 0.221689, 1.00011, 0.221659, 1.00015, -0.0353348, -0.00550936, 0.000544734, -0.0385719, 0.0385719, -2.71477e-13, 5.27502e-13, 0.295197, -0.330798, 0.0022409, -0.331849, 0.00338874, -1.88757, 31.024, -0.703843, 1.23072, -17.5053, 0.0809986, 4.44295, -0.304781, 24.9726, -2.63848, 1.48339, -28.1026, -4.37026, 14.3855, 13.5927, 4.65454e-310, 0, 0, 31.024, -0.703843, 1.23072, -17.5053, 0.0404993, 2.22148, 0.0404993, 0, 0, 7.2479, 0, 87.5068, 0, 0, 43.8023, 3.72743e-05, 0, 0, 0, 0, 0, 0, 0
0.0545721, -0.0565428, 0.641838, 0.09854, -1.32269, 1.59061, -0.366454, 0.109518, 0.221568, 1.00011, 0.221538, 1.00015, -0.0360218, -0.00550361, 0.000544088, -0.0385316, 0.0385316, -2.71474e-13, 5.27491e-13, 0.296113, -0.333502, 0.0022362, -0.33456, 0.00339002, -1.88957, 31.0331, -0.704797, 1.23126, -17.5155, 0.0794204, 4.44819, -0.299859, 25.0295, -2.60633, 1.4693, -28.3838, -4.30556, 14.4101, 13.4657, 4.65454e-310, 0, 0, 31.0331, -0.704797, 1.23126, -17.5155, 0.0397102, 2.2241, 0.0397102, 0, 0, 7.2526, 0, 87.5243, 0, 0, 43.811, 3.7173e-05, 0, 0, 0, 0, 0, 0, 0
0.0549359, -0.0565448, 0.641838, 0.0985259, -1.32268, 1.59061, -0.366454, 0.109626, 0.221446, 1.00011, 0.221416, 1.00015, -0.0367096, -0.00549728, 0.000543384, -0.0384872, 0.0384872, -2.7147e-13, 5.27479e-13, 0.297016, -0.336211, 0.00223153, -0.337276, 0.00339131, -1.89145, 31.0423, -0.70574, 1.23179, -17.5259, 0.0778658, 4.45344, -0.294983, 25.0864, -2.57419, 1.45521, -28.665, -4.24087, 14.4348, 13.3386, 4.65454e-310, 0, 0, 31.0423, -0.70574, 1.23179, -17.5259, 0.0389329, 2.22672, 0.0389329, 0, 0, 7.25729, 0, 87.5417, 0, 0, 43.8195, 3.70413e-05, 0, 0, 0, 0, 0, 0, 0
0.0552997, -0.0565468, 0.641838, 0.098512, -1.32266, 1.59061, -0.366454, 0.109734, 0.221323, 1.00012, 0.221293, 1.00015, -0.0373981, -0.00549037, 0.000542624, -0.0384388, 0.0384388, -2.71466e-13, 5.27465e-13, 0.297906, -0.338927, 0.00222689, -0.339997, 0.00339259, -1.89322, 31.0514, -0.70667, 1.23232, -17.5364, 0.0763346, 4.4587, -0.290153, 25.1433, -2.54204, 1.44112, -28.9462, -4.17618, 14.4595, 13.2115, 4.65454e-310, 0, 0, 31.0514, -0.70667, 1.23232, -17.5364, 0.0381673, 2.22935, 0.0381673, 0, 0, 7.26196, 0, 87.559, 0, 0, 43.8279, 3.68791e-05, 0, 0, 0, 0, 0, 0, 0
0.0556635, -0.0565488, 0.641838, 0.098498, -1.32265, 1.59061, -0.366454, 0.109842, 0.2212, 1.00012, 0.221168, 1.00015, -0.0380872, -0.00548288, 0.000541805, -0.0383863, 0.0383863, -2.71462e-13, 5.27451e-13, 0.298781, -0.341648, 0.00222228, -0.342724, 0.00339388, -1.89487, 31.0606, -0.707589, 1.23284, -17.547, 0.0748271, 4.46396, -0.28537, 25.2001, -2.50989, 1.42702, -29.2274, -4.11149, 14.4841, 13.0844, 4.65454e-310, 0, 0, 31.0606, -0.707589, 1.23284, -17.547, 0.0374135, 2.23198, 0.0374135, 0, 0, 7.26663, 0, 87.5762, 0, 0, 43.8363, 3.66866e-05, 0, 0, 0, 0, 0, 0, 0
0.0560273, -0.0565508, 0.641839, 0.098484, -1.32264, 1.59061, -0.366454, 0.109951, 0.221075, 1.00012, 0.221043, 1.00015, -0.0387768, -0.00547479, 0.00054093, -0.0383296, 0.0383296, -2.71457e-13, 5.27435e-13, 0.299643, -0.344375, 0.0022177, -0.345457, 0.00339518, -1.89641, 31.0697, -0.708497, 1.23336, -17.5577, 0.073343, 4.46924, -0.280632, 25.257, -2.47775, 1.41293, -29.5085, -4.04679, 14.5088, 12.9573, 4.65454e-310, 0, 0, 31.0697, -0.708497, 1.23336, -17.5577, 0.0366715, 2.23462, 0.0366715, 0, 0, 7.27129, 0, 87.5933, 0, 0, 43.8446, 3.64638e-05, 0, 0, 0, 0, 0, 0, 0
0.0563911, -0.0565528, 0.641839, 0.0984701, -1.32262, 1.59061, -0.366454, 0.110061, 0.220949, 1.00012, 0.220917, 1.00015, -0.039467, -0.00546613, 0.000539996, -0.0382689, 0.0382689, -2.71452e-13, 5.27419e-13, 0.300491, -0.347107, 0.00221315, -0.348196, 0.00339647, -1.89784, 31.0789, -0.709392, 1.23387, -17.5684, 0.0718825, 4.47452, -0.275941, 25.3139, -2.4456, 1.39884, -29.7897, -3.9821, 14.5335, 12.8303, 4.65454e-310, 0, 0, 31.0789, -0.709392, 1.23387, -17.5684, 0.0359412, 2.23726, 0.0359412, 0, 0, 7.27594, 0, 87.6103, 0, 0, 43.8528, 3.6211e-05, 0, 0, 0, 0, 0, 0, 0
0.056755, -0.0565548, 0.641839, 0.0984562, -1.32261, 1.59061, -0.366454, 0.11017, 0.220822, 1.00012, 0.22079, 1.00015, -0.0401578, -0.00545687, 0.000539005, -0.0382041, 0.0382041, -2.71446e-13, 5.27401e-13, 0.301325, -0.349846, 0.00220863, -0.35094, 0.00339776, -1.89915, 31.0882, -0.710276, 1.23438, -17.5793, 0.0704455, 4.47981, -0.271297, 25.3708, -2.41345, 1.38475, -30.0709, -3.91741, 14.5581, 12.7032, 4.65454e-310, 0, 0, 31.0882, -0.710276, 1.23438, -17.5793, 0.0352228, 2.23991, 0.0352228, 0, 0, 7.28057, 0, 87.6272, 0, 0, 43.8609, 3.59281e-05, 0, 0, 0, 0, 0, 0, 0
0.0571188, -0.0565567, 0.641839, 0.0984423, -1.32259, 1.59061, -0.366454, 0.11028, 0.220694, 1.00012, 0.220662, 1.00016, -0.0408489, -0.00544703, 0.000537957, -0.0381351, 0.0381351, -2.7144e-13, 5.27383e-13, 0.302145, -0.352589, 0.00220413, -0.35369, 0.00339906, -1.90036, 31.0974, -0.711148, 1.23488, -17.5903, 0.0690321, 4.48511, -0.266698, 25.4277, -2.3813, 1.37066, -30.3521, -3.85272, 14.5828, 12.5761, 4.65454e-310, 0, 0, 31.0974, -0.711148, 1.23488, -17.5903, 0.034516, 2.24256, 0.034516, 0, 0, 7.2852, 0, 87.644, 0, 0, 43.8689, 3.56153e-05, 0, 0, 0, 0, 0, 0, 0
0.0574826, -0.0565587, 0.641839, 0.0984284, -1.32258, 1.59061, -0.366454, 0.11039, 0.220566, 1.00012, 0.220533, 1.00016, -0.0415405, -0.0054366, 0.00053685, -0.038062, 0.038062, -2.71435e-13, 5.27363e-13, 0.302952, -0.355339, 0.00219967, -0.356445, 0.00340036, -1.90146, 31.1067, -0.712009, 1.23537, -17.6014, 0.0676422, 4.49042, -0.262146, 25.4846, -2.34916, 1.35657, -30.6333, -3.78802, 14.6075, 12.449, 4.65454e-310, 0, 0, 31.1067, -0.712009, 1.23537, -17.6014, 0.0338211, 2.24521, 0.0338211, 0, 0, 7.28982, 0, 87.6608, 0, 0, 43.8768, 3.52727e-05, 0, 0, 0, 0, 0, 0, 0
0.0578464, -0.0565607, 0.64184, 0.0984146, -1.32257, 1.59061, -0.366454, 0.1105, 0.220436, 1.00012, 0.220402, 1.00016, -0.0422325, -0.00542557, 0.000535686, -0.0379848, 0.0379848, -2.71428e-13, 5.27344e-13, 0.303745, -0.358094, 0.00219523, -0.359206, 0.00340166, -1.90245, 31.1159, -0.712858, 1.23586, -17.6126, 0.0662758, 4.49574, -0.25764, 25.5415, -2.31701, 1.34247, -30.9145, -3.72333, 14.6321, 12.3219, 4.65454e-310, 0, 0, 31.1159, -0.712858, 1.23586, -17.6126, 0.0331379, 2.24787, 0.0331379, 0, 0, 7.29443, 0, 87.6774, 0, 0, 43.8846, 3.49002e-05, 0, 0, 0, 0, 0, 0, 0
0.0582102, -0.0565627, 0.64184, 0.0984008, -1.32255, 1.59061, -0.366454, 0.110611, 0.220305, 1.00012, 0.220271, 1.00016, -0.0429248, -0.00541396, 0.000534464, -0.0379034, 0.0379034, -2.71422e-13, 5.27326e-13, 0.304525, -0.360854, 0.00219082, -0.361973, 0.00340296, -1.90334, 31.1252, -0.713695, 1.23635, -17.6239, 0.064933, 4.50107, -0.25318, 25.5983, -2.28486, 1.32838, -31.1957, -3.65864, 14.6568, 12.1949, 4.65454e-310, 0, 0, 31.1252, -0.713695, 1.23635, -17.6239, 0.0324665, 2.25053, 0.0324665, 0, 0, 7.29903, 0, 87.694, 0, 0, 43.8924, 3.44982e-05, 0, 0, 0, 0, 0, 0, 0
0.058574, -0.0565646, 0.64184, 0.098387, -1.32254, 1.59061, -0.366454, 0.110722, 0.220173, 1.00012, 0.220139, 1.00016, -0.0436174, -0.00540175, 0.000533184, -0.0378179, 0.0378179, -2.71416e-13, 5.27308e-13, 0.30529, -0.36362, 0.00218644, -0.364745, 0.00340426, -1.90411, 31.1346, -0.71452, 1.23683, -17.6353, 0.0636137, 4.5064, -0.248767, 25.6552, -2.25272, 1.31429, -31.4769, -3.59394, 14.6815, 12.0678, 4.65454e-310, 0, 0, 31.1346, -0.71452, 1.23683, -17.6353, 0.0318068, 2.2532, 0.0318068, 0, 0, 7.30361, 0, 87.7104, 0, 0, 43.9, 3.40665e-05, 0, 0, 0, 0, 0, 0, 0
0.0589378, -0.0565666, 0.64184, 0.0983733, -1.32253, 1.59061, -0.366454, 0.110833, 0.22004, 1.00012, 0.220006, 1.00016, -0.0443102, -0.00538896, 0.000531846, -0.0377283, 0.0377283, -2.71409e-13, 5.2729e-13, 0.306042, -0.366392, 0.00218208, -0.367522, 0.00340556, -1.90479, 31.1439, -0.715334, 1.23731, -17.6468, 0.0623179, 4.51175, -0.244399, 25.7121, -2.22057, 1.3002, -31.7581, -3.52925, 14.7061, 11.9407, 4.65454e-310, 0, 0, 31.1439, -0.715334, 1.23731, -17.6468, 0.031159, 2.25588, 0.031159, 0, 0, 7.30819, 0, 87.7267, 0, 0, 43.9076, 3.36053e-05, 0, 0, 0, 0, 0, 0, 0
0.0593017, -0.0565686, 0.64184, 0.0983596, -1.32251, 1.59061, -0.366454, 0.110944, 0.219907, 1.00012, 0.219872, 1.00016, -0.0450033, -0.00537556, 0.000530449, -0.0376344, 0.0376344, -2.71403e-13, 5.27273e-13, 0.306781, -0.369169, 0.00217775, -0.370305, 0.00340685, -1.90536, 31.1533, -0.716136, 1.23778, -17.6584, 0.0610457, 4.51711, -0.240078, 25.769, -2.18842, 1.28611, -32.0393, -3.46456, 14.7308, 11.8136, 4.65454e-310, 0, 0, 31.1533, -0.716136, 1.23778, -17.6584, 0.0305229, 2.25855, 0.0305229, 0, 0, 7.31276, 0, 87.743, 0, 0, 43.9151, 3.31146e-05, 0, 0, 0, 0, 0, 0, 0
0.0596655, -0.0565705, 0.641841, 0.0983459, -1.3225, 1.59061, -0.366454, 0.111056, 0.219772, 1.00012, 0.219736, 1.00016, -0.0456966, -0.00536157, 0.000528995, -0.0375364, 0.0375364, -2.71396e-13, 5.27258e-13, 0.307506, -0.371951, 0.00217345, -0.373094, 0.00340814, -1.90583, 31.1627, -0.716926, 1.23824, -17.6701, 0.059797, 4.52247, -0.235804, 25.8259, -2.15627, 1.27202, -32.3205, -3.39987, 14.7554, 11.6865, 4.65454e-310, 0, 0, 31.1627, -0.716926, 1.23824, -17.6701, 0.0298985, 2.26123, 0.0298985, 0, 0, 7.31731, 0, 87.7591, 0, 0, 43.9225, 3.25946e-05, 0, 0, 0, 0, 0, 0, 0
0.0600293, -0.0565725, 0.641841, 0.0983323, -1.32248, 1.59061, -0.366454, 0.111168, 0.219636, 1.00013, 0.2196, 1.00017, -0.04639, -0.00534699, 0.000527482, -0.0374343, 0.0374343, -2.7139e-13, 5.27245e-13, 0.308217, -0.374739, 0.00216916, -0.375887, 0.00340943, -1.90619, 31.1721, -0.717705, 1.2387, -17.6819, 0.0585719, 4.52784, -0.231575, 25.8828, -2.12413, 1.25793, -32.6017, -3.33517, 14.7801, 11.5595, 4.65454e-310, 0, 0, 31.1721, -0.717705, 1.2387, -17.6819, 0.0292859, 2.26392, 0.0292859, 0, 0, 7.32186, 0, 87.7752, 0, 0, 43.9298, 3.20453e-05, 0, 0, 0, 0, 0, 0, 0
0.0603931, -0.0565744, 0.641841, 0.0983187, -1.32247, 1.59061, -0.366454, 0.11128, 0.219499, 1.00013, 0.219463, 1.00017, -0.0470836, -0.0053318, 0.000525911, -0.0373279, 0.0373279, -2.71384e-13, 5.27234e-13, 0.308914, -0.377532, 0.0021649, -0.378687, 0.00341072, -1.90646, 31.1815, -0.718472, 1.23916, -17.6939, 0.0573703, 4.53322, -0.227393, 25.9396, -2.09198, 1.24383, -32.8829, -3.27048, 14.8048, 11.4324, 4.65454e-310, 0, 0, 31.1815, -0.718472, 1.23916, -17.6939, 0.0286851, 2.26661, 0.0286851, 0, 0, 7.32639, 0, 87.7912, 0, 0, 43.937, 3.14668e-05, 0, 0, 0, 0, 0, 0, 0
0.0607569, -0.0565763, 0.641841, 0.0983051, -1.32246, 1.59061, -0.366454, 0.111393, 0.219361, 1.00013, 0.219325, 1.00017, -0.0477772, -0.00531602, 0.000524281, -0.0372174, 0.0372174, -2.71378e-13, 5.27225e-13, 0.309598, -0.380331, 0.00216067, -0.381491, 0.00341199, -1.90662, 31.1909, -0.719227, 1.23961, -17.7059, 0.0561922, 4.53861, -0.223256, 25.9965, -2.05983, 1.22974, -33.1641, -3.20579, 14.8294, 11.3053, 4.65454e-310, 0, 0, 31.1909, -0.719227, 1.23961, -17.7059, 0.0280961, 2.26931, 0.0280961, 0, 0, 7.33092, 0, 87.807, 0, 0, 43.9442, 3.08592e-05, 0, 0, 0, 0, 0, 0, 0
0.0611207, -0.0565783, 0.641841, 0.0982916, -1.32244, 1.59061, -0.366454, 0.111506, 0.219222, 1.00013, 0.219185, 1.00017, -0.0484709, -0.00529963, 0.000522593, -0.0371026, 0.0371026, -2.71372e-13, 5.2722e-13, 0.310268, -0.383135, 0.00215645, -0.384302, 0.00341326, -1.90669, 31.2004, -0.719971, 1.24005, -17.718, 0.0550376, 4.54401, -0.219167, 26.0534, -2.02769, 1.21565, -33.4453, -3.1411, 14.8541, 11.1782, 4.65454e-310, 0, 0, 31.2004, -0.719971, 1.24005, -17.718, 0.0275188, 2.27201, 0.0275188, 0, 0, 7.33543, 0, 87.8228, 0, 0, 43.9512, 3.02224e-05, 0, 0, 0, 0, 0, 0, 0
0.0614845, -0.0565802, 0.641842, 0.0982781, -1.32243, 1.59061, -0.366454, 0.111619, 0.219083, 1.00013, 0.219045, 1.00017, -0.0491646, -0.00528265, 0.000520846, -0.0369837, 0.0369837, -2.71367e-13, 5.27219e-13, 0.310925, -0.385945, 0.00215225, -0.387117, 0.00341453, -1.90666, 31.2099, -0.720702, 1.24049, -17.7302, 0.0539066, 4.54942, -0.215123, 26.1103, -1.99554, 1.20156, -33.7265, -3.0764, 14.8788, 11.0511, 4.65454e-310, 0, 0, 31.2099, -0.720702, 1.24049, -17.7302, 0.0269533, 2.27471, 0.0269533, 0, 0, 7.33993, 0, 87.8384, 0, 0, 43.9582, 2.95567e-05, 0, 0, 0, 0, 0, 0, 0
0.0618484, -0.0565821, 0.641842, 0.0982647, -1.32242, 1.59061, -0.366454, 0.111732, 0.218942, 1.00013, 0.218904, 1.00017, -0.0498582, -0.00526506, 0.000519041, -0.0368605, 0.0368605, -2.71362e-13, 5.27215e-13, 0.311568, -0.38876, 0.00214807, -0.389938, 0.00341578, -1.90653, 31.2194, -0.721423, 1.24093, -17.7425, 0.0527992, 4.55484, -0.211125, 26.1672, -1.96339, 1.18747, -34.0077, -3.01171, 14.9034, 10.9241, 4.65454e-310, 0, 0, 31.2194, -0.721423, 1.24093, -17.7425, 0.0263996, 2.27742, 0.0263996, 0, 0, 7.34442, 0, 87.854, 0, 0, 43.9651, 2.88619e-05, 0, 0, 0, 0, 0, 0, 0
