flxalr/sts-optimization-reemc/input/415_104/pos.csv
time;base_link_tx;base_link_ty;base_link_tz;base_link_rz;base_link_ry;base_link_rx;leg_left_1_joint;leg_left_2_joint;leg_left_3_joint;leg_left_4_joint;leg_left_5_joint;leg_left_6_joint;leg_right_1_joint;leg_right_2_joint;leg_right_3_joint;leg_right_4_joint;leg_right_5_joint;leg_right_6_joint;torso_1_joint;torso_2_joint;arm_left_1_joint;arm_left_2_joint;arm_left_3_joint;arm_left_4_joint;arm_left_5_joint;arm_left_6_joint;arm_left_7_joint;arm_right_1_joint;arm_right_2_joint;arm_right_3_joint;arm_right_4_joint;arm_right_5_joint;arm_right_6_joint;arm_right_7_joint;head_1_joint;head_2_joint
0.0;-0.1435963365286346;-0.0698327692677574;0.6492845633473501;0.001996302820389903;0.1255348899214512;-0.008137034457291619;-0.0016385231633323956;9.488012673525626e-06;-1.3241383198313048;1.5906078468534504;-0.36644130574670425;9.478042615285696e-06;-0.0014985630915726525;-9.507952790004623e-06;-1.3241276427956148;1.5905984012786585;-0.36645265681113054;9.497982731764693e-06;-2.3010017027411123e-05;0.10002454401816258;0.22997745018331314;0.1301397582414211;0.00012089769746426172;0.99999141879765;9.130919118318449e-06;-2.739275735495535e-05;2.739275735495535e-05;0.22999279019466476;0.1299556781052018;4.4197640706178376e-05;1.0000843025663841;0.0;-4.108913603243303e-05;-2.2827297795796123e-05;-0.005313147336269974;0.04217450113839005
0.020132780075073242;-0.14363986681521287;-0.06984099702474782;0.6492752398837833;0.001970351832822409;0.12547064334354402;-0.008134529806856168;-0.0015925022468258436;9.488012673525626e-06;-1.3241383198313048;1.5906078468534504;-0.36644130574670425;9.478042615285696e-06;-0.0014985630915726525;-9.507952790004623e-06;-1.3241276427956148;1.5905984012786585;-0.36645265681113054;9.497982731764693e-06;-2.3010017027411123e-05;0.10002454401816258;0.22997745018331314;0.1301397582414211;0.00012089769746426172;0.99999141879765;9.130919118318449e-06;-3.195821691411457e-05;3.195821691411457e-05;0.22999279019466476;0.1299556781052018;4.4197640706178376e-05;1.0000843025663841;0.0;-3.6523676473273796e-05;-2.739275735495535e-05;-0.005313147336269974;0.04217450113839005
0.04002714157104492;-0.14369678682430936;-0.06997456886487607;0.6492545116562538;0.0019479217816478623;0.1253867823702674;-0.008002631493195482;-0.001350892435166444;9.488012673525626e-06;-1.3241383198313048;1.5906078468534504;-0.36644130574670425;9.478042615285696e-06;-0.0014985630915726525;-9.507952790004623e-06;-1.3241276427956148;1.5905984012786585;-0.36645265681113054;9.497982731764693e-06;-2.3010017027411123e-05;0.10002454401816258;0.22997745018331314;0.1301397582414211;0.00012089769746426172;0.99999141879765;9.130919118318449e-06;-2.739275735495535e-05;2.739275735495535e-05;0.22999279019466476;0.12997101811655346;2.8857629354561712e-05;1.0000843025663841;0.0;-2.739275735495535e-05;-2.739275735495535e-05;-0.005313147336269974;0.04217450113839005
0.0603947639465332;-0.14362338714518022;-0.06997042702823275;0.6492714964822506;0.0020038906571818215;0.12549352576904782;-0.008025981248009269;-0.0013393872060398061;9.488012673525626e-06;-1.3241383198313048;1.5906078468534504;-0.36644130574670425;9.478042615285696e-06;-0.0014985630915726525;-9.507952790004623e-06;-1.3241276427956148;1.5905984012786585;-0.36645265681113054;9.497982731764693e-06;-2.3010017027411123e-05;0.10002454401816258;0.22997745018331314;0.1301397582414211;0.00012089769746426172;0.99999141879765;9.130919118318449e-06;-3.195821691411457e-05;3.195821691411457e-05;0.22999279019466476;0.12997101811655346;-3.2502416051904966e-05;1.0000843025663841;0.0;-4.108913603243303e-05;-2.2827297795796123e-05;-0.005313147336269974;0.04217450113839005
0.08011293411254883;-0.14366475286904778;-0.06995149700688456;0.6492634918014581;0.0021091861665857243;0.12541800607130374;-0.008068186014960482;-0.0013739028934197206;9.488012673525626e-06;-1.3241383198313048;1.5906078468534504;-0.36644130574670425;9.478042615285696e-06;-0.0014985630915726525;-9.507952790004623e-06;-1.3241276427956148;1.5905984012786585;-0.36645265681113054;9.497982731764693e-06;-2.3010017027411123e-05;0.10002454401816258;0.22997745018331314;0.1301397582414211;0.00012089769746426172;0.99999141879765;9.130919118318449e-06;-2.739275735495535e-05;2.739275735495535e-05;0.22999279019466476;0.12997101811655346;-3.2502416051904966e-05;1.0000843025663841;0.0;-4.108913603243303e-05;-2.2827297795796123e-05;-0.005313147336269974;0.043710390880145056
0.1000223159790039;-0.14371642881430163;-0.06996381532945839;0.6492498350934686;0.0022163836690400566;0.12532696610370309;-0.008060975831775527;-0.0014084185807996346;9.488012673525626e-06;-1.3241383198313048;1.5906078468534504;-0.36644130574670425;9.478042615285696e-06;-0.0014985630915726525;-9.507952790004623e-06;-1.3241276427956148;1.5905984012786585;-0.36645265681113054;9.497982731764693e-06;-2.3010017027411123e-05;0.10002454401816258;0.22997745018331314;0.13010907821871787;0.00012089769746426172;0.99999141879765;9.130919118318449e-06;-3.195821691411457e-05;3.195821691411457e-05;0.22999279019466476;0.12997101811655346;-4.784242740352162e-05;1.0000843025663841;0.0;-3.6523676473273796e-05;-2.739275735495535e-05;-0.005313147336269974;0.04217450113839005
0.11999821662902832;-0.14377520892923842;-0.0699439108100655;0.6492327163405378;0.00237191562045412;0.12522003027362846;-0.008042334014271131;-0.0016500283924590336;9.488012673525626e-06;-1.3241383198313048;1.5906078468534504;-0.36644130574670425;9.478042615285696e-06;-0.0014985630915726525;-9.507952790004623e-06;-1.3241276427956148;1.5905984012786585;-0.36645265681113054;9.497982731764693e-06;-2.3010017027411123e-05;0.10002454401816258;0.22997745018331314;0.13009373820736625;0.00012089769746426172;0.99999141879765;9.130919118318449e-06;-3.195821691411457e-05;3.195821691411457e-05;0.22999279019466476;0.12997101811655346;-4.784242740352162e-05;1.0000843025663841;0.0;-3.195821691411457e-05;-3.195821691411457e-05;-0.005313147336269974;0.04217450113839005
0.13999128341674805;-0.14377545773780698;-0.06995383972816495;0.6492315914899214;0.0024590599714823212;0.12521021180161127;-0.008046511151020843;-0.0016500283924590336;9.488012673525626e-06;-1.3241383198313048;1.5906078468534504;-0.36644130574670425;9.478042615285696e-06;-0.0014985630915726525;-9.507952790004623e-06;-1.3241276427956148;1.5905984012786585;-0.36645265681113054;9.497982731764693e-06;-2.3010017027411123e-05;0.10002454401816258;0.22997745018331314;0.13007839819601466;0.00012089769746426172;0.99999141879765;9.130919118318449e-06;-3.195821691411457e-05;3.195821691411457e-05;0.22999279019466476;0.12997101811655346;-4.784242740352162e-05;1.0000843025663841;0.0;-4.108913603243303e-05;-2.2827297795796123e-05;-0.005313147336269974;0.04217450113839005
0.16007137298583984;-0.14374317518576019;-0.0699137110717883;0.649244252590397;0.0023887887170822575;0.1252667657389586;-0.008110774249542483;-0.0016040074759524814;9.488012673525626e-06;-1.3241383198313048;1.5906078468534504;-0.36644130574670425;9.478042615285696e-06;-0.0014985630915726525;-9.507952790004623e-06;-1.3241276427956148;1.5905984012786585;-0.36645265681113054;9.497982731764693e-06;-2.3010017027411123e-05;0.10002454401816258;0.22997745018331314;0.13007839819601466;0.00012089769746426172;0.99999141879765;9.130919118318449e-06;-2.739275735495535e-05;2.739275735495535e-05;0.22999279019466476;0.12997101811655346;-4.784242740352162e-05;1.0000843025663841;0.0;-4.108913603243303e-05;-2.2827297795796123e-05;-0.005313147336269974;0.04217450113839005
0.18014883995056152;-0.14384388214769833;-0.06999061665514748;0.6492157444801581;0.0022917472110699135;0.12512334396729327;-0.007994819001685029;-0.001523470872066015;9.488012673525626e-06;-1.3241383198313048;1.5906078468534504;-0.36644130574670425;9.478042615285696e-06;-0.0014985630915726525;-9.507952790004623e-06;-1.3241276427956148;1.5905984012786585;-0.36645265681113054;9.497982731764693e-06;-2.3010017027411123e-05;0.10002454401816258;0.22997745018331314;0.13007839819601466;0.00012089769746426172;0.99999141879765;9.130919118318449e-06;-3.195821691411457e-05;3.195821691411457e-05;0.22999279019466476;0.12997101811655346;-4.784242740352162e-05;1.0000843025663841;0.0;-3.6523676473273796e-05;-2.739275735495535e-05;-0.005313147336269974;0.04217450113839005
0.20000576972961426;-0.14383002825389457;-0.07007007199410828;0.6492150045409405;0.002348380741877088;0.12513898936035647;-0.00794672107361033;-0.0013393872060398061;9.488012673525626e-06;-1.3241383198313048;1.5906078468534504;-0.36644130574670425;9.478042615285696e-06;-0.0014985630915726525;-9.507952790004623e-06;-1.3241276427956148;1.5905984012786585;-0.36645265681113054;9.497982731764693e-06;-2.3010017027411123e-05;0.10002454401816258;0.22997745018331314;0.13006305818466302;0.00012089769746426172;0.99999141879765;9.130919118318449e-06;-2.739275735495535e-05;2.739275735495535e-05;0.22999279019466476;0.12997101811655346;-4.784242740352162e-05;1.0000843025663841;0.0;-3.6523676473273796e-05;-1.8261838236636895e-05;-0.005313147336269974;0.043710390880145056
0.22012066841125488;-0.14380927940294658;-0.07003035643423339;0.6492235886601447;0.002369771114417383;0.12516793535057624;-0.008010873895587332;-0.001350892435166444;9.488012673525626e-06;-1.3241383198313048;1.5906078468534504;-0.36644130574670425;9.478042615285696e-06;-0.0014985630915726525;-9.507952790004623e-06;-1.3241276427956148;1.5905984012786585;-0.36645265681113054;9.497982731764693e-06;-2.3010017027411123e-05;0.10002454401816258;0.22997745018331314;0.13006305818466302;0.00010555768611264504;0.99999141879765;9.130919118318449e-06;-3.195821691411457e-05;3.195821691411457e-05;0.22999279019466476;0.12997101811655346;-4.784242740352162e-05;1.0000843025663841;0.0;-4.108913603243303e-05;-2.2827297795796123e-05;-0.005313147336269974;0.04217450113839005
0.23996615409851074;-0.1438112347350587;-0.0700817804085667;0.6492167137058321;0.0025124219143174776;0.12515023658797814;-0.007949216629751246;-0.0013854081225463586;9.488012673525626e-06;-1.3241383198313048;1.5906078468534504;-0.36644130574670425;9.478042615285696e-06;-0.0014985630915726525;-9.507952790004623e-06;-1.3241276427956148;1.5905984012786585;-0.36645265681113054;9.497982731764693e-06;-2.3010017027411123e-05;0.10002454401816258;0.22997745018331314;0.1300477181733114;0.00010555768611264504;0.99999141879765;9.130919118318449e-06;-2.739275735495535e-05;2.739275735495535e-05;0.22999279019466476;0.12997101811655346;-4.784242740352162e-05;1.0000843025663841;0.0;-4.108913603243303e-05;-2.2827297795796123e-05;-0.005313147336269974;0.04217450113839005
0.25994300842285156;-0.14375762779972662;-0.06995470781255024;0.6492378268672863;0.0027126904833251132;0.1252093045132662;-0.008136266302932503;-0.0015579865594459294;9.488012673525626e-06;-1.3241383198313048;1.5906078468534504;-0.36644130574670425;9.478042615285696e-06;-0.0014985630915726525;-9.507952790004623e-06;-1.3241276427956148;1.5905984012786585;-0.36645265681113054;9.497982731764693e-06;-2.3010017027411123e-05;0.10002454401816258;0.22997745018331314;0.1300477181733114;5.953765205779504e-05;0.99999141879765;9.130919118318449e-06;-3.195821691411457e-05;3.195821691411457e-05;0.22999279019466476;0.12997101811655346;-4.784242740352162e-05;1.0000843025663841;0.0;-3.6523676473273796e-05;-2.739275735495535e-05;-0.005313147336269974;0.043710390880145056
0.2799499034881592;-0.14368352683511418;-0.0699518327956013;0.6492521594370906;0.002797465882208599;0.12531447305039062;-0.008127105625359954;-0.0016500283924590336;9.488012673525626e-06;-1.3241383198313048;1.5906078468534504;-0.36644130574670425;9.478042615285696e-06;-0.0014985630915726525;-9.507952790004623e-06;-1.3241276427956148;1.5905984012786585;-0.36645265681113054;9.497982731764693e-06;-2.3010017027411123e-05;0.10002454401816258;0.22997745018331314;0.1300477181733114;1.3517618002945042e-05;0.99999141879765;9.130919118318449e-06;-2.739275735495535e-05;2.739275735495535e-05;0.22999279019466476;0.12997101811655346;-4.784242740352162e-05;1.0000843025663841;0.0;-4.108913603243303e-05;-2.2827297795796123e-05;-0.005313147336269974;0.043710390880145056
0.29999327659606934;-0.14367534204684176;-0.06992755461996272;0.6492571811863558;0.002849725268420323;0.125320803391448;-0.008186075380838632;-0.0016270179342057574;9.488012673525626e-06;-1.3241383198313048;1.5906078468534504;-0.36644130574670425;9.478042615285696e-06;-0.0014985630915726525;-9.507952790004623e-06;-1.3241276427956148;1.5905984012786585;-0.36645265681113054;9.497982731764693e-06;-2.3010017027411123e-05;0.10002454401816258;0.22997745018331314;0.1300477181733114;-1.7162404700288292e-05;0.99999141879765;9.130919118318449e-06;-3.195821691411457e-05;3.195821691411457e-05;0.22999279019466476;0.12998635812790504;-4.784242740352162e-05;1.0000843025663841;0.0;-4.108913603243303e-05;-2.2827297795796123e-05;-0.005313147336269974;0.043710390880145056
0.3201334476470947;-0.14362610926843566;-0.06990313634636239;0.6492718937362669;0.0029217591364314034;0.1253880772715422;-0.00825784647692894;-0.0015809970176992054;9.488012673525626e-06;-1.3241383198313048;1.5906078468534504;-0.36644130574670425;9.478042615285696e-06;-0.0014985630915726525;-9.507952790004623e-06;-1.3241276427956148;1.5905984012786585;-0.36645265681113054;9.497982731764693e-06;-2.3010017027411123e-05;0.10002454401816258;0.22997745018331314;0.1300477181733114;-1.7162404700288292e-05;0.99999141879765;9.130919118318449e-06;-2.739275735495535e-05;2.739275735495535e-05;0.22999279019466476;0.12998635812790504;-4.784242740352162e-05;1.0000843025663841;0.0;-4.108913603243303e-05;-2.2827297795796123e-05;-0.005313147336269974;0.043710390880145056
0.3399641513824463;-0.1436037710399952;-0.06991912457163056;0.6492813620458379;0.0030977734369630784;0.1254022506312796;-0.008359020079072844;-0.0013393872060398061;9.488012673525626e-06;-1.3241383198313048;1.5906078468534504;-0.36644130574670425;9.478042615285696e-06;-0.0014985630915726525;-9.507952790004623e-06;-1.3241276427956148;1.5905984012786585;-0.36645265681113054;9.497982731764693e-06;-2.3010017027411123e-05;0.10002454401816258;0.22997745018331314;0.1300477181733114;-9.386246145814958e-05;0.99999141879765;9.130919118318449e-06;-3.195821691411457e-05;3.195821691411457e-05;0.22999279019466476;0.12998635812790504;-4.784242740352162e-05;1.0000843025663841;0.0;-3.6523676473273796e-05;-2.739275735495535e-05;-0.005313147336269974;0.04217450113839005
0.3601703643798828;-0.14363026653536462;-0.06991053059451872;0.6492764267897319;0.0032097930349711356;0.12534897125027136;-0.008398608371645622;-0.0013393872060398061;9.488012673525626e-06;-1.3241383198313048;1.5906078468534504;-0.36644130574670425;9.478042615285696e-06;-0.0014985630915726525;-9.507952790004623e-06;-1.3241276427956148;1.5905984012786585;-0.36645265681113054;9.497982731764693e-06;-2.3010017027411123e-05;0.10002454401816258;0.22997745018331314;0.1300477181733114;-9.386246145814958e-05;0.99999141879765;0.0;-2.739275735495535e-05;2.739275735495535e-05;0.22999279019466476;0.12998635812790504;-4.784242740352162e-05;1.0000843025663841;0.0;-4.108913603243303e-05;-2.2827297795796123e-05;-0.005313147336269974;0.04217450113839005
0.38001489639282227;-0.14362069445259754;-0.06986801235326337;0.6492822282423947;0.003357776644191578;0.12534690777687554;-0.008488111500100341;-0.0013739028934197206;9.488012673525626e-06;-1.3241383198313048;1.5906078468534504;-0.36644130574670425;9.478042615285696e-06;-0.0014985630915726525;-9.507952790004623e-06;-1.3241276427956148;1.5905984012786585;-0.36645265681113054;9.497982731764693e-06;-2.3010017027411123e-05;0.10002454401816258;0.22997745018331314;0.1300323781619599;-9.386246145814958e-05;0.99999141879765;9.130919118318449e-06;-3.195821691411457e-05;3.195821691411457e-05;0.22999279019466476;0.12998635812790504;-4.784242740352162e-05;1.0000843025663841;0.0;-4.108913603243303e-05;-2.2827297795796123e-05;-0.005313147336269974;0.04217450113839005
0.400099515914917;-0.14365846430198623;-0.06995943147560027;0.6492622429468577;0.0034287188613346823;0.12528272473497026;-0.008333944633825733;-0.0014429342681795483;9.488012673525626e-06;-1.3241383198313048;1.5906078468534504;-0.36644130574670425;9.478042615285696e-06;-0.0014985630915726525;-9.507952790004623e-06;-1.3241276427956148;1.5905984012786585;-0.36645265681113054;9.497982731764693e-06;-2.3010017027411123e-05;0.10002454401816258;0.22997745018331314;0.1300323781619599;-9.386246145814958e-05;0.99999141879765;9.130919118318449e-06;-2.739275735495535e-05;2.739275735495535e-05;0.22999279019466476;0.12998635812790504;-4.784242740352162e-05;1.0000843025663841;0.0;-4.108913603243303e-05;-2.2827297795796123e-05;-0.005313147336269974;0.04217450113839005
0.42016124725341797;-0.14362689411632715;-0.06995172713693022;0.6492647014015347;0.003546672330026197;0.12531920439213878;-0.008299130327740722;-0.0016500283924590336;9.488012673525626e-06;-1.3241383198313048;1.5906078468534504;-0.36644130574670425;9.478042615285696e-06;-0.0014985630915726525;-9.507952790004623e-06;-1.3241276427956148;1.5905984012786585;-0.36645265681113054;9.497982731764693e-06;-2.3010017027411123e-05;0.10002454401816258;0.22997745018331314;0.1300323781619599;-9.386246145814958e-05;0.99999141879765;9.130919118318449e-06;-3.195821691411457e-05;3.195821691411457e-05;0.22999279019466476;0.12998635812790504;-4.784242740352162e-05;1.0000843025663841;0.0;-3.6523676473273796e-05;-2.739275735495535e-05;-0.005313147336269974;0.043710390880145056
0.4399678707122803;-0.1436959396346596;-0.06998581154123197;0.6492460480007836;0.0036754051323006987;0.1251991735178117;-0.008278796858091816;-0.0016385231633323956;9.488012673525626e-06;-1.3241383198313048;1.5906078468534504;-0.36644130574670425;9.478042615285696e-06;-0.0014985630915726525;-9.507952790004623e-06;-1.3241276427956148;1.5905984012786585;-0.36645265681113054;9.497982731764693e-06;-2.3010017027411123e-05;0.10002454401816258;0.22997745018331314;0.13001703815060828;-9.386246145814958e-05;0.99999141879765;9.130919118318449e-06;-2.739275735495535e-05;2.739275735495535e-05;0.22999279019466476;0.12998635812790504;-4.784242740352162e-05;1.0000843025663841;0.0;-4.108913603243303e-05;-2.2827297795796123e-05;-0.005313147336269974;0.04217450113839005
0.4600708484649658;-0.14367411819947534;-0.06996388966697493;0.6492544302756187;0.0036440213594962703;0.12523568326982015;-0.00832291785205938;-0.0015925022468258436;9.488012673525626e-06;-1.3241383198313048;1.5906078468534504;-0.36644130574670425;9.478042615285696e-06;-0.0014985630915726525;-9.507952790004623e-06;-1.3241276427956148;1.5905984012786585;-0.36645265681113054;9.497982731764693e-06;-2.3010017027411123e-05;0.10002454401816258;0.22997745018331314;0.13001703815060828;-9.386246145814958e-05;0.99999141879765;9.130919118318449e-06;-3.195821691411457e-05;3.195821691411457e-05;0.22999279019466476;0.12998635812790504;-4.784242740352162e-05;1.0000843025663841;0.0;-3.6523676473273796e-05;-1.8261838236636895e-05;-0.005313147336269974;0.043710390880145056
0.47994422912597656;-0.14372105508416183;-0.07004790281306163;0.649238851403215;0.00365231879930043;0.12516310146294554;-0.008244411160422922;-0.0014429342681795483;9.488012673525626e-06;-1.3241383198313048;1.5906078468534504;-0.36644130574670425;9.478042615285696e-06;-0.0014985630915726525;-9.507952790004623e-06;-1.3241276427956148;1.5905984012786585;-0.36645265681113054;9.497982731764693e-06;-2.3010017027411123e-05;0.10002454401816258;0.22997745018331314;0.12997101811655346;-9.386246145814958e-05;0.99999141879765;9.130919118318449e-06;-3.195821691411457e-05;3.195821691411457e-05;0.22999279019466476;0.12998635812790504;-4.784242740352162e-05;1.0000843025663841;0.0;-4.108913603243303e-05;-2.2827297795796123e-05;-0.005313147336269974;0.04217450113839005
0.499950647354126;-0.14372832963949578;-0.07008162494124828;0.6492362799801811;0.0036704087719621713;0.12514994953037045;-0.00823178323742631;-0.0013393872060398061;9.488012673525626e-06;-1.3241383198313048;1.5906078468534504;-0.36644130574670425;9.478042615285696e-06;-0.0014985630915726525;-9.507952790004623e-06;-1.3241276427956148;1.5905984012786585;-0.36645265681113054;9.497982731764693e-06;-2.3010017027411123e-05;0.10002454401816258;0.22997745018331314;0.12989431805979534;-9.386246145814958e-05;0.99999141879765;9.130919118318449e-06;-3.195821691411457e-05;3.195821691411457e-05;0.22999279019466476;0.12998635812790504;-4.784242740352162e-05;1.0000843025663841;0.0;-3.195821691411457e-05;-2.2827297795796123e-05;-0.005313147336269974;0.04217450113839005
0.5199916362762451;-0.14365109224861788;-0.07001016475975887;0.6492604884506233;0.003747867237254184;0.1252593781567701;-0.008355022810798947;-0.0013623976642930821;9.488012673525626e-06;-1.3241383198313048;1.5906078468534504;-0.36644130574670425;9.478042615285696e-06;-0.0014985630915726525;-9.507952790004623e-06;-1.3241276427956148;1.5905984012786585;-0.36645265681113054;9.497982731764693e-06;-2.3010017027411123e-05;0.10002454401816258;0.22997745018331314;0.12987897804844373;-9.386246145814958e-05;0.99999141879765;9.130919118318449e-06;-2.739275735495535e-05;2.739275735495535e-05;0.22999279019466476;0.12998635812790504;-4.784242740352162e-05;1.0000843025663841;0.0;-4.108913603243303e-05;-2.2827297795796123e-05;-0.005313147336269974;0.04217450113839005
0.5401003360748291;-0.14363424222983934;-0.07003011368403622;0.6492608746659144;0.0038368965659252986;0.12527605623434612;-0.00832706918769995;-0.0014084185807996346;9.488012673525626e-06;-1.3241383198313048;1.5906078468534504;-0.36644130574670425;9.478042615285696e-06;-0.0014985630915726525;-9.507952790004623e-06;-1.3241276427956148;1.5905984012786585;-0.36645265681113054;9.497982731764693e-06;-2.3010017027411123e-05;0.10002454401816258;0.22997745018331314;0.1298636380370921;-9.386246145814958e-05;0.99999141879765;9.130919118318449e-06;-3.195821691411457e-05;3.195821691411457e-05;0.22999279019466476;0.12998635812790504;-4.784242740352162e-05;1.0000843025663841;0.0;-4.108913603243303e-05;-2.2827297795796123e-05;-0.0068490370780249785;0.04217450113839005
0.5603044033050537;-0.14363291509920983;-0.06999150251099512;0.6492590828054106;0.00410739268981026;0.1252488687942436;-0.008364499598748588;-0.0016500283924590336;9.488012673525626e-06;-1.3241383198313048;1.5906078468534504;-0.36644130574670425;9.478042615285696e-06;-0.0014985630915726525;-9.507952790004623e-06;-1.3241276427956148;1.5905984012786585;-0.36645265681113054;9.497982731764693e-06;-2.3010017027411123e-05;0.10002454401816258;0.22997745018331314;0.1298636380370921;-9.386246145814958e-05;0.99999141879765;9.130919118318449e-06;-3.195821691411457e-05;3.195821691411457e-05;0.22999279019466476;0.13000169813925666;-4.784242740352162e-05;1.0000843025663841;0.0;-3.6523676473273796e-05;-2.739275735495535e-05;-0.005313147336269974;0.04217450113839005
0.5801060199737549;-0.14361376244155236;-0.06992368239956237;0.6492706270932274;0.004230940232148742;0.12526378235717683;-0.008501069318075963;-0.0016500283924590336;9.488012673525626e-06;-1.3241383198313048;1.5906078468534504;-0.36644130574670425;9.478042615285696e-06;-0.0014985630915726525;-9.507952790004623e-06;-1.3241276427956148;1.5905984012786585;-0.36645265681113054;9.497982731764693e-06;-2.3010017027411123e-05;0.10002454401816258;0.22997745018331314;0.1298636380370921;-9.386246145814958e-05;0.99999141879765;9.130919118318449e-06;-3.195821691411457e-05;3.195821691411457e-05;0.22999279019466476;0.13000169813925666;-4.784242740352162e-05;1.0000843025663841;0.0;-3.6523676473273796e-05;-2.739275735495535e-05;-0.005313147336269974;0.04217450113839005
0.5999429225921631;-0.14357117798038044;-0.06993332256185296;0.6492798994104928;0.004301321947398998;0.12532162748045006;-0.00851389766597969;-0.0016155127050791196;9.488012673525626e-06;-1.3241383198313048;1.5906078468534504;-0.36644130574670425;9.478042615285696e-06;-0.0014985630915726525;-9.507952790004623e-06;-1.3241276427956148;1.5905984012786585;-0.36645265681113054;9.497982731764693e-06;-2.3010017027411123e-05;0.10002454401816258;0.22997745018331314;0.1298636380370921;-9.386246145814958e-05;0.99999141879765;9.130919118318449e-06;-2.739275735495535e-05;2.739275735495535e-05;0.22999279019466476;0.13000169813925666;-4.784242740352162e-05;1.0000843025663841;0.0;-4.108913603243303e-05;-2.2827297795796123e-05;-0.005313147336269974;0.04217450113839005
0.619992733001709;-0.14355411708787374;-0.06987576514702262;0.6492916539149706;0.004311455099055444;0.12534563050779035;-0.008632702430328678;-0.0015464813303192912;9.488012673525626e-06;-1.3241383198313048;1.5906078468534504;-0.36644130574670425;9.478042615285696e-06;-0.0014985630915726525;-9.507952790004623e-06;-1.3241276427956148;1.5905984012786585;-0.36645265681113054;9.497982731764693e-06;-2.3010017027411123e-05;0.10002454401816258;0.22997745018331314;0.1298636380370921;-9.386246145814958e-05;0.99999141879765;9.130919118318449e-06;-3.195821691411457e-05;3.195821691411457e-05;0.22999279019466476;0.13000169813925666;-4.784242740352162e-05;1.0000843025663841;0.0;-4.108913603243303e-05;-2.2827297795796123e-05;-0.005313147336269974;0.04217450113839005
0.6402590274810791;-0.14354449823692006;-0.0699584363953542;0.6492902342873311;0.004283936090591297;0.1253637171904427;-0.008568340670754553;-0.0013393872060398061;9.488012673525626e-06;-1.3241383198313048;1.5906078468534504;-0.36644130574670425;9.478042615285696e-06;-0.0014985630915726525;-9.507952790004623e-06;-1.3241276427956148;1.5905984012786585;-0.36645265681113054;9.497982731764693e-06;-2.3010017027411123e-05;0.10002454401816258;0.22997745018331314;0.1298636380370921;-9.386246145814958e-05;0.99999141879765;9.130919118318449e-06;-2.739275735495535e-05;2.739275735495535e-05;0.22999279019466476;0.13000169813925666;-4.784242740352162e-05;1.0000843025663841;0.0;-3.6523676473273796e-05;-2.739275735495535e-05;-0.005313147336269974;0.04217450113839005
0.6599512100219727;-0.14364366548460478;-0.06992391086289461;0.6492720217240647;0.004411941503127252;0.12519641324865796;-0.008653576867590109;-0.0013393872060398061;9.488012673525626e-06;-1.3241383198313048;1.5906078468534504;-0.36644130574670425;9.478042615285696e-06;-0.0014985630915726525;-9.507952790004623e-06;-1.3241276427956148;1.5905984012786585;-0.36645265681113054;9.497982731764693e-06;-2.3010017027411123e-05;0.10002454401816258;0.22997745018331314;0.1298636380370921;-9.386246145814958e-05;0.99999141879765;9.130919118318449e-06;-3.195821691411457e-05;3.195821691411457e-05;0.22999279019466476;0.13006305818466302;-4.784242740352162e-05;1.0000843025663841;0.0;-3.195821691411457e-05;-3.195821691411457e-05;-0.005313147336269974;0.043710390880145056
0.6800892353057861;-0.14365873329629478;-0.06994829921040559;0.6492648706972626;0.004421581823600172;0.12517271461818844;-0.008600500100306514;-0.0013854081225463586;9.488012673525626e-06;-1.3241383198313048;1.5906078468534504;-0.36644130574670425;9.478042615285696e-06;-0.0014985630915726525;-9.507952790004623e-06;-1.3241276427956148;1.5905984012786585;-0.36645265681113054;9.497982731764693e-06;-2.3010017027411123e-05;0.10002454401816258;0.22997745018331314;0.1298636380370921;-9.386246145814958e-05;0.99999141879765;9.130919118318449e-06;-2.739275735495535e-05;2.739275735495535e-05;0.22999279019466476;0.13009373820736625;-4.784242740352162e-05;1.0000843025663841;0.0;-4.108913603243303e-05;-2.2827297795796123e-05;-0.005313147336269974;0.04217450113839005
0.6999495029449463;-0.14366854319028055;-0.0699386793443571;0.6492598679734125;0.00455044826193468;0.1251440115707594;-0.008592085448337386;-0.001534976101192653;9.488012673525626e-06;-1.3241383198313048;1.5906078468534504;-0.36644130574670425;9.478042615285696e-06;-0.0014985630915726525;-9.507952790004623e-06;-1.3241276427956148;1.5905984012786585;-0.36645265681113054;9.497982731764693e-06;-2.3010017027411123e-05;0.10002454401816258;0.22997745018331314;0.1298636380370921;-9.386246145814958e-05;0.99999141879765;9.130919118318449e-06;-3.195821691411457e-05;3.195821691411457e-05;0.22999279019466476;0.13010907821871787;-4.784242740352162e-05;1.0000843025663841;0.0;-3.6523676473273796e-05;-1.8261838236636895e-05;-0.005313147336269974;0.04217450113839005
0.7199604511260986;-0.1436095794963089;-0.06997263465163615;0.649266278506568;0.004766548063219817;0.12521211750330055;-0.008545969472072751;-0.0016500283924590336;9.488012673525626e-06;-1.3241383198313048;1.5906078468534504;-0.36644130574670425;9.478042615285696e-06;-0.0014985630915726525;-9.507952790004623e-06;-1.3241276427956148;1.5905984012786585;-0.36645265681113054;9.497982731764693e-06;-2.3010017027411123e-05;0.10002454401816258;0.22997745018331314;0.1298636380370921;-9.386246145814958e-05;1.0000067588090016;9.130919118318449e-06;-2.739275735495535e-05;2.739275735495535e-05;0.22999279019466476;0.13010907821871787;-6.318243875513829e-05;1.0000843025663841;0.0;-3.6523676473273796e-05;-2.739275735495535e-05;-0.005313147336269974;0.04217450113839005
0.7402012348175049;-0.14360983228175622;-0.06993252001515357;0.6492708421341161;0.004790019261237254;0.12520854139136428;-0.008619538743864015;-0.0016385231633323956;9.488012673525626e-06;-1.3241383198313048;1.5906078468534504;-0.36644130574670425;9.478042615285696e-06;-0.0014985630915726525;-9.507952790004623e-06;-1.3241276427956148;1.5905984012786585;-0.36645265681113054;9.497982731764693e-06;-2.3010017027411123e-05;0.10002454401816258;0.22997745018331314;0.1298636380370921;-9.386246145814958e-05;1.0000527788430564;9.130919118318449e-06;-3.195821691411457e-05;3.195821691411457e-05;0.2299314301492583;0.13010907821871787;-6.318243875513829e-05;1.0000843025663841;0.0;-3.195821691411457e-05;-3.195821691411457e-05;-0.005313147336269974;0.04217450113839005
0.7600691318511963;-0.1436533080332228;-0.06993353591217212;0.6492626027860052;0.004776049717182216;0.12514285912945294;-0.008635604322203614;-0.0015809970176992054;9.488012673525626e-06;-1.3241383198313048;1.5906078468534504;-0.36644130574670425;9.478042615285696e-06;-0.0014985630915726525;-9.507952790004623e-06;-1.3241276427956148;1.5905984012786585;-0.36645265681113054;9.497982731764693e-06;-2.3010017027411123e-05;0.10002454401816258;0.22997745018331314;0.1298636380370921;-9.386246145814958e-05;1.0000987988771108;9.130919118318449e-06;-2.739275735495535e-05;2.739275735495535e-05;0.2299160901379067;0.13010907821871787;-6.318243875513829e-05;1.0000843025663841;0.0;-4.108913603243303e-05;-2.2827297795796123e-05;-0.005313147336269974;0.04217450113839005
0.7799463272094727;-0.1437139319948466;-0.06997593529284699;0.649250867052437;0.004861868349717845;0.1250395272946491;-0.008674483611165481;-0.0013393872060398061;9.488012673525626e-06;-1.3241383198313048;1.5906078468534504;-0.36644130574670425;9.478042615285696e-06;-0.0014985630915726525;-9.507952790004623e-06;-1.3241276427956148;1.5905984012786585;-0.36645265681113054;9.497982731764693e-06;-2.3010017027411123e-05;0.10002454401816258;0.22997745018331314;0.1298636380370921;-9.386246145814958e-05;1.0000987988771108;0.0;-3.195821691411457e-05;3.195821691411457e-05;0.2299007501265551;0.13010907821871787;-6.318243875513829e-05;1.0000689625550323;0.0;-4.108913603243303e-05;-2.2827297795796123e-05;-0.005313147336269974;0.043710390880145056
0.7999255657196045;-0.1437144502150684;-0.06997380812579954;0.6492509816038968;0.004792186937915994;0.12504634857027785;-0.008661855411059441;-0.0013393872060398061;9.488012673525626e-06;-1.3241383198313048;1.5906078468534504;-0.36644130574670425;9.478042615285696e-06;-0.0014985630915726525;-9.507952790004623e-06;-1.3241276427956148;1.5905984012786585;-0.36645265681113054;9.497982731764693e-06;-2.3010017027411123e-05;0.10002454401816258;0.22997745018331314;0.1298636380370921;-9.386246145814958e-05;1.0000987988771108;9.130919118318449e-06;-2.739275735495535e-05;2.739275735495535e-05;0.2299007501265551;0.13010907821871787;-6.318243875513829e-05;1.000038282532329;0.0;-3.6523676473273796e-05;-2.739275735495535e-05;-0.005313147336269974;0.043710390880145056
0.8199462890625;-0.14373491478233968;-0.06991911868313352;0.6492517481317543;0.004756452238654768;0.12501809597448169;-0.008732895950808815;-0.0013623976642930821;9.488012673525626e-06;-1.3241383198313048;1.5906078468534504;-0.36644130574670425;9.478042615285696e-06;-0.0014985630915726525;-9.507952790004623e-06;-1.3241276427956148;1.5905984012786585;-0.36645265681113054;9.497982731764693e-06;-2.3010017027411123e-05;0.10002454401816258;0.22997745018331314;0.1298636380370921;-9.386246145814958e-05;1.0000987988771108;9.130919118318449e-06;-3.195821691411457e-05;3.195821691411457e-05;0.2299007501265551;0.13010907821871787;-6.318243875513829e-05;1.0000229425209777;0.0;-4.108913603243303e-05;-2.2827297795796123e-05;-0.005313147336269974;0.04217450113839005
0.8399672508239746;-0.14374989348276468;-0.06991343569478603;0.6492472584214638;0.004917707514527092;0.1249775817526758;-0.008754507215435222;-0.0014314290390529105;9.488012673525626e-06;-1.3241383198313048;1.5906078468534504;-0.36644130574670425;9.478042615285696e-06;-0.0014985630915726525;-9.507952790004623e-06;-1.3241276427956148;1.5905984012786585;-0.36645265681113054;9.497982731764693e-06;-2.3010017027411123e-05;0.10002454401816258;0.22997745018331314;0.1298636380370921;-9.386246145814958e-05;1.0000987988771108;9.130919118318449e-06;-2.739275735495535e-05;2.739275735495535e-05;0.2299007501265551;0.13010907821871787;-6.318243875513829e-05;0.9999615824755709;0.0;-4.108913603243303e-05;-2.2827297795796123e-05;-0.005313147336269974;0.04217450113839005
0.8600811958312988;-0.14371478450854452;-0.06983527914181385;0.6492577884244548;0.004939428003434795;0.12502922336858946;-0.008805878316686172;-0.0016500283924590336;9.488012673525626e-06;-1.3241383198313048;1.5906078468534504;-0.36644130574670425;9.478042615285696e-06;-0.0014985630915726525;-9.507952790004623e-06;-1.3241276427956148;1.5905984012786585;-0.36645265681113054;9.497982731764693e-06;-2.3010017027411123e-05;0.10002454401816258;0.22997745018331314;0.1298636380370921;-9.386246145814958e-05;1.000114138888463;9.130919118318449e-06;-3.195821691411457e-05;3.195821691411457e-05;0.2299007501265551;0.13010907821871787;-6.318243875513829e-05;0.9999309024528678;0.0;-4.108913603243303e-05;-2.2827297795796123e-05;-0.005313147336269974;0.04217450113839005
0.8799905776977539;-0.14368036560897274;-0.06986224502514451;0.6492625051452494;0.005135955462796419;0.12506107769695393;-0.008807747264100574;-0.0016500283924590336;9.488012673525626e-06;-1.3241383198313048;1.5906078468534504;-0.36644130574670425;9.478042615285696e-06;-0.0014985630915726525;-9.507952790004623e-06;-1.3241276427956148;1.5905984012786585;-0.36645265681113054;9.497982731764693e-06;-2.3010017027411123e-05;0.10002454401816258;0.22997745018331314;0.1298636380370921;-9.386246145814958e-05;1.000114138888463;9.130919118318449e-06;-2.739275735495535e-05;2.739275735495535e-05;0.2299007501265551;0.13010907821871787;-6.318243875513829e-05;0.999915562441516;0.0;-3.6523676473273796e-05;-2.739275735495535e-05;-0.005313147336269974;0.04217450113839005
0.9001128673553467;-0.14362773086409664;-0.06992902080621928;0.6492678549763791;0.005206743121525006;0.12513512194040816;-0.008729300735750676;-0.0016155127050791196;9.488012673525626e-06;-1.3241383198313048;1.5906078468534504;-0.36644130574670425;9.478042615285696e-06;-0.0014985630915726525;-9.507952790004623e-06;-1.3241276427956148;1.5905984012786585;-0.36645265681113054;9.497982731764693e-06;-2.3010017027411123e-05;0.10002454401816258;0.22997745018331314;0.1298636380370921;-9.386246145814958e-05;1.000114138888463;9.130919118318449e-06;-3.195821691411457e-05;3.195821691411457e-05;0.2299007501265551;0.13010907821871787;-6.318243875513829e-05;0.999915562441516;0.0;-4.108913603243303e-05;-2.2827297795796123e-05;-0.005313147336269974;0.043710390880145056
0.9199678897857666;-0.1436287310217977;-0.06992993671119051;0.6492714034287268;0.005208580740055801;0.1251327021560273;-0.008781743264767194;-0.0014659447264328248;9.488012673525626e-06;-1.3241383198313048;1.5906078468534504;-0.36644130574670425;9.478042615285696e-06;-0.0014985630915726525;-9.507952790004623e-06;-1.3241276427956148;1.5905984012786585;-0.36645265681113054;9.497982731764693e-06;-2.3010017027411123e-05;0.10002454401816258;0.22997745018331314;0.1298636380370921;-9.386246145814958e-05;1.000114138888463;9.130919118318449e-06;-2.739275735495535e-05;2.739275735495535e-05;0.2299007501265551;0.13010907821871787;-6.318243875513829e-05;0.999915562441516;0.0;-4.108913603243303e-05;-2.2827297795796123e-05;-0.005313147336269974;0.043710390880145056
0.9401192665100098;-0.14366849644551075;-0.06986969266103131;0.6492723645084619;0.0051652331984922435;0.12507481472831916;-0.008913551334271599;-0.0013393872060398061;9.488012673525626e-06;-1.3241383198313048;1.5906078468534504;-0.36644130574670425;9.478042615285696e-06;-0.0014985630915726525;-9.507952790004623e-06;-1.3241276427956148;1.5905984012786585;-0.36645265681113054;9.497982731764693e-06;-2.3010017027411123e-05;0.10002454401816258;0.22997745018331314;0.1298636380370921;-9.386246145814958e-05;1.000114138888463;9.130919118318449e-06;-3.195821691411457e-05;3.195821691411457e-05;0.2299007501265551;0.13010907821871787;-6.318243875513829e-05;0.999915562441516;0.0;-4.108913603243303e-05;-2.2827297795796123e-05;-0.005313147336269974;0.043710390880145056
0.959954023361206;-0.14372027025540626;-0.06994607742647596;0.6492520862557273;0.005260329318493152;0.12498576211263102;-0.008805657333070744;-0.0013623976642930821;9.488012673525626e-06;-1.3241383198313048;1.5906078468534504;-0.36644130574670425;9.478042615285696e-06;-0.0014985630915726525;-9.507952790004623e-06;-1.3241276427956148;1.5905984012786585;-0.36645265681113054;9.497982731764693e-06;-2.3010017027411123e-05;0.10002454401816258;0.22997745018331314;0.1298636380370921;-9.386246145814958e-05;1.000114138888463;9.130919118318449e-06;-2.739275735495535e-05;2.739275735495535e-05;0.2299007501265551;0.13010907821871787;-6.318243875513829e-05;0.999915562441516;0.0;-3.195821691411457e-05;-2.2827297795796123e-05;-0.005313147336269974;0.043710390880145056
0.9800105094909668;-0.1437568807941492;-0.06996748879930431;0.6492404835428424;0.0053031944307944095;0.12492516441039395;-0.008765185892343376;-0.0014084185807996346;9.488012673525626e-06;-1.3241383198313048;1.5906078468534504;-0.36644130574670425;9.478042615285696e-06;-0.0014985630915726525;-9.507952790004623e-06;-1.3241276427956148;1.5905984012786585;-0.36645265681113054;9.497982731764693e-06;-2.3010017027411123e-05;0.10002454401816258;0.22997745018331314;0.1298636380370921;-9.386246145814958e-05;1.000114138888463;9.130919118318449e-06;-3.195821691411457e-05;3.195821691411457e-05;0.2299007501265551;0.13010907821871787;-6.318243875513829e-05;0.999915562441516;0.0;-4.108913603243303e-05;-2.2827297795796123e-05;-0.005313147336269974;0.043710390880145056
1.0001332759857178;-0.1436995334718697;-0.06993072845566282;0.649250890354872;0.0052707126550423184;0.12501769309637292;-0.008729547007396485;-0.0016500283924590336;9.488012673525626e-06;-1.3241383198313048;1.5906078468534504;-0.36644130574670425;9.478042615285696e-06;-0.0014985630915726525;-9.507952790004623e-06;-1.3241276427956148;1.5905984012786585;-0.36645265681113054;9.497982731764693e-06;-2.3010017027411123e-05;0.10002454401816258;0.22997745018331314;0.1298636380370921;-9.386246145814958e-05;1.000114138888463;9.130919118318449e-06;-2.739275735495535e-05;2.739275735495535e-05;0.2299007501265551;0.13010907821871787;-6.318243875513829e-05;0.999915562441516;0.0;-3.6523676473273796e-05;-1.8261838236636895e-05;-0.005313147336269974;0.04217450113839005
1.020003080368042;-0.14378618374273544;-0.0699243193544471;0.6492323961852831;0.005295973390186364;0.12488136936565483;-0.008746325675667911;-0.0016500283924590336;9.488012673525626e-06;-1.3241383198313048;1.5906078468534504;-0.36644130574670425;9.478042615285696e-06;-0.0014985630915726525;-9.507952790004623e-06;-1.3241276427956148;1.5905984012786585;-0.36645265681113054;9.497982731764693e-06;-2.3010017027411123e-05;0.10002454401816258;0.22997745018331314;0.1298636380370921;-9.386246145814958e-05;1.000114138888463;9.130919118318449e-06;-3.195821691411457e-05;3.195821691411457e-05;0.2299007501265551;0.13010907821871787;-6.318243875513829e-05;0.999915562441516;0.0;-4.108913603243303e-05;-2.2827297795796123e-05;-0.005313147336269974;0.043710390880145056
1.040151596069336;-0.14382339290296053;-0.06996300438215;0.6492205817756872;0.005339030525686963;0.12481973120023238;-0.008703006896182622;-0.0016270179342057574;9.488012673525626e-06;-1.3241383198313048;1.5906078468534504;-0.36644130574670425;9.478042615285696e-06;-0.0014985630915726525;-9.507952790004623e-06;-1.3241276427956148;1.5905984012786585;-0.36645265681113054;9.497982731764693e-06;-2.3010017027411123e-05;0.10002454401816258;0.22997745018331314;0.1298636380370921;-3.2502416051904966e-05;1.000114138888463;9.130919118318449e-06;-2.739275735495535e-05;2.739275735495535e-05;0.2299007501265551;0.13010907821871787;-6.318243875513829e-05;0.999915562441516;0.0;-3.6523676473273796e-05;-2.739275735495535e-05;-0.005313147336269974;0.04217450113839005
1.0600039958953857;-0.1438994827352024;-0.069975876537206;0.6492044165767744;0.005435939604353945;0.12469169311637208;-0.008734221361137573;-0.0015464813303192912;9.488012673525626e-06;-1.3241383198313048;1.5906078468534504;-0.36644130574670425;9.478042615285696e-06;-0.0014985630915726525;-9.507952790004623e-06;-1.3241276427956148;1.5905984012786585;-0.36645265681113054;9.497982731764693e-06;-2.3010017027411123e-05;0.10002454401816258;0.22997745018331314;0.1298636380370921;4.4197640706178376e-05;1.000114138888463;9.130919118318449e-06;-3.195821691411457e-05;3.195821691411457e-05;0.2299007501265551;0.13010907821871787;-6.318243875513829e-05;0.999915562441516;0.0;-4.108913603243303e-05;-2.2827297795796123e-05;-0.005313147336269974;0.04217450113839005
1.0800855159759521;-0.14392895888090337;-0.07000845946700351;0.6491997262294446;0.005435689986684507;0.12464577230119482;-0.008756430807882352;-0.0013393872060398061;9.488012673525626e-06;-1.3241383198313048;1.5906078468534504;-0.36644130574670425;9.478042615285696e-06;-0.0014985630915726525;-9.507952790004623e-06;-1.3241276427956148;1.5905984012786585;-0.36645265681113054;9.497982731764693e-06;-2.3010017027411123e-05;0.10002454401816258;0.22997745018331314;0.1298636380370921;0.00010555768611264504;1.000114138888463;9.130919118318449e-06;-2.739275735495535e-05;2.739275735495535e-05;0.2299007501265551;0.13010907821871787;-6.318243875513829e-05;0.999915562441516;0.0;-4.108913603243303e-05;-2.2827297795796123e-05;-0.005313147336269974;0.04217450113839005
1.1002426147460938;-0.14387337187860388;-0.0700081094166159;0.6492120852372218;0.005323451407704133;0.12474370836411386;-0.00873065352562152;-0.0013393872060398061;9.488012673525626e-06;-1.3241383198313048;1.5906078468534504;-0.36644130574670425;9.478042615285696e-06;-0.0014985630915726525;-9.507952790004623e-06;-1.3241276427956148;1.5905984012786585;-0.36645265681113054;9.497982731764693e-06;-2.3010017027411123e-05;0.10002454401816258;0.22997745018331314;0.1298636380370921;0.00010555768611264504;1.000114138888463;9.130919118318449e-06;-3.195821691411457e-05;3.195821691411457e-05;0.2299007501265551;0.13010907821871787;-6.318243875513829e-05;0.999915562441516;0.0;-4.108913603243303e-05;-2.2827297795796123e-05;-0.005313147336269974;0.043710390880145056
1.1199700832366943;-0.14386214829371974;-0.06998130893951542;0.6492159739434155;0.005253384045415785;0.12476860201511072;-0.008736649807670064;-0.0013969133516729966;9.488012673525626e-06;-1.3241383198313048;1.5906078468534504;-0.36644130574670425;9.478042615285696e-06;-0.0014985630915726525;-9.507952790004623e-06;-1.3241276427956148;1.5905984012786585;-0.36645265681113054;9.497982731764693e-06;-2.3010017027411123e-05;0.10002454401816258;0.22997745018331314;0.1298636380370921;0.00010555768611264504;1.000114138888463;9.130919118318449e-06;-3.195821691411457e-05;3.195821691411457e-05;0.2299007501265551;0.13010907821871787;-6.318243875513829e-05;0.999915562441516;0.0;-3.6523676473273796e-05;-2.739275735495535e-05;-0.005313147336269974;0.043710390880145056
1.1399567127227783;-0.1439586217511508;-0.06998410212900595;0.6491913114059977;0.0053113648093780245;0.1246141998400505;-0.008705227547557847;-0.001511965642939377;9.488012673525626e-06;-1.3241383198313048;1.5906078468534504;-0.36644130574670425;9.478042615285696e-06;-0.0014985630915726525;-9.507952790004623e-06;-1.3241276427956148;1.5905984012786585;-0.36645265681113054;9.497982731764693e-06;-2.3010017027411123e-05;0.10002454401816258;0.22997745018331314;0.1298636380370921;0.00012089769746426172;1.000114138888463;9.130919118318449e-06;-3.195821691411457e-05;3.195821691411457e-05;0.2299007501265551;0.13010907821871787;-6.318243875513829e-05;0.999915562441516;0.0;-4.108913603243303e-05;-2.2827297795796123e-05;-0.005313147336269974;0.04217450113839005
1.1599507331848145;-0.14393014694773343;-0.06996556169652046;0.6491960522870275;0.005483428741694537;0.12463959270826216;-0.008724881831761795;-0.0016500283924590336;9.488012673525626e-06;-1.3241383198313048;1.5906078468534504;-0.36644130574670425;9.478042615285696e-06;-0.0014985630915726525;-9.507952790004623e-06;-1.3241276427956148;1.5905984012786585;-0.36645265681113054;9.497982731764693e-06;-2.3010017027411123e-05;0.10002454401816258;0.22997745018331314;0.1298636380370921;0.00012089769746426172;1.000114138888463;9.130919118318449e-06;-2.739275735495535e-05;2.739275735495535e-05;0.2299007501265551;0.13010907821871787;-6.318243875513829e-05;0.999915562441516;0.0;-3.6523676473273796e-05;-1.8261838236636895e-05;-0.005313147336269974;0.04217450113839005
1.1801187992095947;-0.1438923584151407;-0.06992730996256058;0.649208847937501;0.005528758053545683;0.1246922999881254;-0.008800190167455849;-0.0016385231633323956;9.488012673525626e-06;-1.3241383198313048;1.5906078468534504;-0.36644130574670425;9.478042615285696e-06;-0.0014985630915726525;-9.507952790004623e-06;-1.3241276427956148;1.5905984012786585;-0.36645265681113054;9.497982731764693e-06;-2.3010017027411123e-05;0.10002454401816258;0.22997745018331314;0.1298636380370921;0.00012089769746426172;1.000114138888463;9.130919118318449e-06;-3.195821691411457e-05;3.195821691411457e-05;0.2299007501265551;0.13010907821871787;-6.318243875513829e-05;0.999915562441516;0.0;-3.6523676473273796e-05;-2.739275735495535e-05;-0.005313147336269974;0.04217450113839005
1.199955940246582;-0.14383528132035986;-0.07000082944672514;0.6492147634292611;0.005601539657926939;0.1247729624807344;-0.008715502038390959;-0.0015925022468258436;9.488012673525626e-06;-1.3241383198313048;1.5906078468534504;-0.36644130574670425;9.478042615285696e-06;-0.0014985630915726525;-9.507952790004623e-06;-1.3241276427956148;1.5905984012786585;-0.36645265681113054;9.497982731764693e-06;-2.3010017027411123e-05;0.10002454401816258;0.22997745018331314;0.12987897804844373;0.00012089769746426172;1.000114138888463;0.0;-3.195821691411457e-05;3.195821691411457e-05;0.2299007501265551;0.13010907821871787;-6.318243875513829e-05;0.999915562441516;0.0;-3.6523676473273796e-05;-2.739275735495535e-05;-0.005313147336269974;0.043710390880145056
1.2200543880462646;-0.14386933472109112;-0.07007803354212842;0.6492051382107482;0.005568117263212216;0.12472402711058071;-0.008671204993981137;-0.001350892435166444;9.488012673525626e-06;-1.3241383198313048;1.5906078468534504;-0.36644130574670425;9.478042615285696e-06;-0.0014985630915726525;-9.507952790004623e-06;-1.3241276427956148;1.5905984012786585;-0.36645265681113054;9.497982731764693e-06;-2.3010017027411123e-05;0.10002454401816258;0.22997745018331314;0.12989431805979534;0.00012089769746426172;1.000114138888463;9.130919118318449e-06;-3.195821691411457e-05;3.195821691411457e-05;0.2299007501265551;0.13010907821871787;-6.318243875513829e-05;0.999915562441516;0.0;-4.108913603243303e-05;-2.2827297795796123e-05;-0.005313147336269974;0.043710390880145056
1.239961862564087;-0.14389472062613107;-0.07007741657020007;0.649199876155752;0.005557992257378568;0.12468597143345585;-0.008674196546688322;-0.0013393872060398061;9.488012673525626e-06;-1.3241383198313048;1.5906078468534504;-0.36644130574670425;9.478042615285696e-06;-0.0014985630915726525;-9.507952790004623e-06;-1.3241276427956148;1.5905984012786585;-0.36645265681113054;9.497982731764693e-06;-2.3010017027411123e-05;0.10002454401816258;0.22997745018331314;0.12992499808249858;0.00012089769746426172;1.000114138888463;9.130919118318449e-06;-2.739275735495535e-05;2.739275735495535e-05;0.2299007501265551;0.13010907821871787;-6.318243875513829e-05;0.999915562441516;0.0;-4.108913603243303e-05;-2.2827297795796123e-05;-0.005313147336269974;0.04217450113839005
1.2600793838500977;-0.14387411045036969;-0.07009681373070226;0.6492017547603901;0.005663120672664429;0.124706531032525;-0.008659031079479343;-0.0013623976642930821;9.488012673525626e-06;-1.3241383198313048;1.5906078468534504;-0.36644130574670425;9.478042615285696e-06;-0.0014985630915726525;-9.507952790004623e-06;-1.3241276427956148;1.5905984012786585;-0.36645265681113054;9.497982731764693e-06;-2.3010017027411123e-05;0.10002454401816258;0.22997745018331314;0.1299403380938502;0.00012089769746426172;1.000114138888463;9.130919118318449e-06;-3.195821691411457e-05;3.195821691411457e-05;0.2299007501265551;0.13010907821871787;-6.318243875513829e-05;0.999915562441516;0.0;-3.6523676473273796e-05;-2.739275735495535e-05;-0.005313147336269974;0.043710390880145056
1.2799949645996094;-0.14381124402935686;-0.07009526281372185;0.649214065741452;0.0056497058877748915;0.1248051467880574;-0.008633169259193005;-0.0014314290390529105;9.488012673525626e-06;-1.3241383198313048;1.5906078468534504;-0.36644130574670425;9.478042615285696e-06;-0.0014985630915726525;-9.507952790004623e-06;-1.3241276427956148;1.5905984012786585;-0.36645265681113054;9.497982731764693e-06;-1.5340011351609728e-05;0.10001687401248677;0.22997745018331314;0.12997101811655346;0.00012089769746426172;1.000114138888463;9.130919118318449e-06;-2.739275735495535e-05;2.739275735495535e-05;0.2299007501265551;0.13010907821871787;-6.318243875513829e-05;0.999915562441516;0.0;-3.195821691411457e-05;-3.195821691411457e-05;-0.005313147336269974;0.04217450113839005
1.300074815750122;-0.14375954200083782;-0.0699972708114036;0.6492304348161991;0.00562538946695161;0.12488723493149168;-0.008705430091717346;-0.0016500283924590336;9.488012673525626e-06;-1.3241383198313048;1.5906078468534504;-0.36644130574670425;9.478042615285696e-06;-0.0014985630915726525;-9.507952790004623e-06;-1.3241276427956148;1.5905984012786585;-0.36645265681113054;9.497982731764693e-06;-2.301001702741806e-05;0.10000920400681096;0.22997745018331314;0.12998635812790504;0.00012089769746426172;1.000114138888463;9.130919118318449e-06;-3.195821691411457e-05;3.195821691411457e-05;0.2299007501265551;0.13010907821871787;-6.318243875513829e-05;0.999915562441516;0.0;-4.108913603243303e-05;-2.2827297795796123e-05;-0.005313147336269974;0.04217450113839005
1.3200173377990723;-0.14378582933596215;-0.07004472177247223;0.6492197932620316;0.0058787129621509825;0.12481950213939257;-0.008692334581972702;-0.0016385231633323956;9.488012673525626e-06;-1.3241383198313048;1.5906078468534504;-0.36644130574670425;9.478042615285696e-06;-0.0014985630915726525;-9.507952790004623e-06;-1.3241276427956148;1.5905984012786585;-0.36645265681113054;9.497982731764693e-06;-2.301001702741806e-05;0.10000920400681096;0.22997745018331314;0.1300477181733114;0.00012089769746426172;1.000114138888463;9.130919118318449e-06;-2.739275735495535e-05;2.739275735495535e-05;0.2299007501265551;0.13010907821871787;-6.318243875513829e-05;0.999915562441516;0.0;-4.108913603243303e-05;-2.2827297795796123e-05;-0.005313147336269974;0.04217450113839005
1.3399653434753418;-0.14379698072425648;-0.07001040767541876;0.6492216198505897;0.005868917957134527;0.12480287659482919;-0.008753205211958257;-0.0016155127050791196;9.488012673525626e-06;-1.3241383198313048;1.5906078468534504;-0.36644130574670425;9.478042615285696e-06;-0.0014985630915726525;-9.507952790004623e-06;-1.3241276427956148;1.5905984012786585;-0.36645265681113054;9.497982731764693e-06;-2.301001702741806e-05;0.10000920400681096;0.22997745018331314;0.13012441823006948;0.00012089769746426172;1.000114138888463;9.130919118318449e-06;-3.195821691411457e-05;3.195821691411457e-05;0.2299007501265551;0.13010907821871787;-6.318243875513829e-05;0.999915562441516;0.0;-3.6523676473273796e-05;-2.739275735495535e-05;-0.005313147336269974;0.04217450113839005
1.3600609302520752;-0.14381766259218645;-0.0700963711901856;0.649211036262845;0.0059076742783354735;0.12476722816012678;-0.008670301338950718;-0.0014889551846861008;9.488012673525626e-06;-1.3241383198313048;1.5906078468534504;-0.36644130574670425;9.478042615285696e-06;-0.0014985630915726525;-9.507952790004623e-06;-1.3241276427956148;1.5905984012786585;-0.36645265681113054;9.497982731764693e-06;-2.301001702741806e-05;0.10000920400681096;0.22997745018331314;0.1301397582414211;0.00012089769746426172;1.000114138888463;9.130919118318449e-06;-2.739275735495535e-05;2.739275735495535e-05;0.2299007501265551;0.13010907821871787;-6.318243875513829e-05;0.999915562441516;0.0;-3.195821691411457e-05;-3.195821691411457e-05;-0.005313147336269974;0.04217450113839005
1.3801651000976562;-0.14381051939009634;-0.07001873160656398;0.6492251630022099;0.005973644479885404;0.12476931573248548;-0.008866993498634452;-0.001327881976913168;9.488012673525626e-06;-1.3241383198313048;1.5906078468534504;-0.36644130574670425;9.478042615285696e-06;-0.0014985630915726525;-9.507952790004623e-06;-1.3241276427956148;1.5905984012786585;-0.36645265681113054;9.497982731764693e-06;-2.301001702741806e-05;0.10000920400681096;0.22997745018331314;0.1301397582414211;0.00012089769746426172;1.000114138888463;9.130919118318449e-06;-3.195821691411457e-05;3.195821691411457e-05;0.2299007501265551;0.13010907821871787;-6.318243875513829e-05;0.999915562441516;0.0;-4.108913603243303e-05;-2.2827297795796123e-05;-0.005313147336269974;0.04217450113839005
1.399965524673462;-0.14381898138750784;-0.070073996617359;0.6492167306286765;0.005988066906784674;0.12475546843504078;-0.008773920095148685;-0.001350892435166444;9.488012673525626e-06;-1.3241383198313048;1.5906078468534504;-0.36644130574670425;9.478042615285696e-06;-0.0014985630915726525;-9.507952790004623e-06;-1.3241276427956148;1.5905984012786585;-0.36645265681113054;9.497982731764693e-06;-2.301001702741806e-05;0.10000920400681096;0.22997745018331314;0.1301397582414211;0.00012089769746426172;1.000114138888463;9.130919118318449e-06;-2.739275735495535e-05;2.739275735495535e-05;0.2299007501265551;0.13010907821871787;-6.318243875513829e-05;0.999915562441516;0.0;-4.108913603243303e-05;-2.2827297795796123e-05;-0.005313147336269974;0.04217450113839005
1.4199802875518799;-0.1438272338212352;-0.07008428840279338;0.6492126011302272;0.005917649993368424;0.12475081751987649;-0.008724891346511054;-0.0013969133516729966;9.488012673525626e-06;-1.3241383198313048;1.5906078468534504;-0.36644130574670425;9.478042615285696e-06;-0.0014985630915726525;-9.507952790004623e-06;-1.3241276427956148;1.5905984012786585;-0.36645265681113054;9.497982731764693e-06;-2.301001702741806e-05;0.10000920400681096;0.22997745018331314;0.1301397582414211;0.00012089769746426172;1.000114138888463;9.130919118318449e-06;-3.195821691411457e-05;3.195821691411457e-05;0.2299007501265551;0.13010907821871787;-6.318243875513829e-05;0.999915562441516;0.0;-3.6523676473273796e-05;-2.739275735495535e-05;-0.005313147336269974;0.043710390880145056
1.4400649070739746;-0.14383313467571518;-0.07000682591976029;0.6492134020668446;0.006008859509725416;0.12473191306443072;-0.008783271409105684;-0.0016385231633323956;9.488012673525626e-06;-1.3241383198313048;1.5906078468534504;-0.36644130574670425;9.478042615285696e-06;-0.0014985630915726525;-9.507952790004623e-06;-1.3241276427956148;1.5905984012786585;-0.36645265681113054;9.497982731764693e-06;-2.301001702741806e-05;0.10000920400681096;0.22997745018331314;0.1301397582414211;0.00012089769746426172;1.000114138888463;9.130919118318449e-06;-2.739275735495535e-05;2.739275735495535e-05;0.22997745018331314;0.13010907821871787;-6.318243875513829e-05;0.999915562441516;0.0;-4.108913603243303e-05;-2.2827297795796123e-05;-0.005313147336269974;0.04217450113839005
1.4601385593414307;-0.1438003851326451;-0.07001631810047554;0.649219633224816;0.006173818157771354;0.12476440316781487;-0.008805790869288331;-0.0016385231633323956;9.488012673525626e-06;-1.3241383198313048;1.5906078468534504;-0.36644130574670425;9.478042615285696e-06;-0.0014985630915726525;-9.507952790004623e-06;-1.3241276427956148;1.5905984012786585;-0.36645265681113054;9.497982731764693e-06;-2.301001702741806e-05;0.10000920400681096;0.22997745018331314;0.1301397582414211;0.00012089769746426172;1.000114138888463;9.130919118318449e-06;-3.195821691411457e-05;3.195821691411457e-05;0.22999279019466476;0.13010907821871787;-6.318243875513829e-05;0.999915562441516;0.0;-3.6523676473273796e-05;-1.8261838236636895e-05;-0.005313147336269974;0.04217450113839005
1.4799432754516602;-0.14382668347298738;-0.07004930968423792;0.6492108439202452;0.006265716908834627;0.12471410241149165;-0.008782764753945883;-0.0016155127050791196;9.488012673525626e-06;-1.3241383198313048;1.5906078468534504;-0.36644130574670425;9.478042615285696e-06;-0.0014985630915726525;-9.507952790004623e-06;-1.3241276427956148;1.5905984012786585;-0.36645265681113054;9.497982731764693e-06;-2.301001702741806e-05;0.10000920400681096;0.22997745018331314;0.1301397582414211;0.00012089769746426172;1.000114138888463;9.130919118318449e-06;-2.739275735495535e-05;2.739275735495535e-05;0.23000813020601635;0.13010907821871787;-6.318243875513829e-05;0.999915562441516;0.0;-4.108913603243303e-05;-2.2827297795796123e-05;-0.005313147336269974;0.043710390880145056
1.5000004768371582;-0.14383061558617813;-0.07004204741924042;0.6492119467047966;0.006387612875450409;0.12469439915228787;-0.00883893685001952;-0.0015694917885725672;9.488012673525626e-06;-1.3241383198313048;1.5906078468534504;-0.36644130574670425;9.478042615285696e-06;-0.0014985630915726525;-9.507952790004623e-06;-1.3241276427956148;1.5905984012786585;-0.36645265681113054;9.497982731764693e-06;-1.5340011351609728e-05;0.10000153400113516;0.22997745018331314;0.1301397582414211;0.00012089769746426172;1.000114138888463;9.130919118318449e-06;-3.195821691411457e-05;3.195821691411457e-05;0.23000813020601635;0.13010907821871787;-6.318243875513829e-05;0.999915562441516;0.0;-3.6523676473273796e-05;-2.739275735495535e-05;-0.005313147336269974;0.04217450113839005
1.5200610160827637;-0.14382521310902166;-0.07003068915460282;0.6492203206836222;0.0061510027137948635;0.1247274440208332;-0.008884779203036064;-0.0013393872060398061;9.488012673525626e-06;-1.3241383198313048;1.5906078468534504;-0.36644130574670425;9.478042615285696e-06;-0.0014985630915726525;-9.507952790004623e-06;-1.3241276427956148;1.5905984012786585;-0.36645265681113054;9.497982731764693e-06;-1.5340011351609728e-05;0.10000153400113516;0.22997745018331314;0.1301397582414211;0.00012089769746426172;1.000114138888463;9.130919118318449e-06;-2.739275735495535e-05;2.739275735495535e-05;0.23000813020601635;0.13010907821871787;-6.318243875513829e-05;0.999915562441516;0.0;-4.108913603243303e-05;-2.2827297795796123e-05;-0.005313147336269974;0.04217450113839005
1.5399963855743408;-0.1438567907207138;-0.07000849960425871;0.6492157175273614;0.005927628594664588;0.12470301220934053;-0.008869059152987304;-0.0013393872060398061;9.488012673525626e-06;-1.3241383198313048;1.5906078468534504;-0.36644130574670425;9.478042615285696e-06;-0.0014985630915726525;-9.507952790004623e-06;-1.3241276427956148;1.5905984012786585;-0.36645265681113054;9.497982731764693e-06;-1.5340011351609728e-05;0.10000153400113516;0.22997745018331314;0.1301397582414211;0.00012089769746426172;1.000114138888463;9.130919118318449e-06;-3.195821691411457e-05;3.195821691411457e-05;0.23000813020601635;0.13010907821871787;-6.318243875513829e-05;0.999915562441516;0.0;-4.108913603243303e-05;-2.2827297795796123e-05;-0.005313147336269974;0.043710390880145056
1.5600576400756836;-0.14378751367493425;-0.07002579720557156;0.6492283062017216;0.006060674359357945;0.12479551629190118;-0.008859079066158314;-0.0013739028934197206;9.488012673525626e-06;-1.3241383198313048;1.5906078468534504;-0.36644130574670425;9.478042615285696e-06;-0.0014985630915726525;-9.507952790004623e-06;-1.3241276427956148;1.5905984012786585;-0.36645265681113054;9.497982731764693e-06;-1.5340011351609728e-05;0.10000153400113516;0.22997745018331314;0.1301397582414211;0.00012089769746426172;1.000114138888463;9.130919118318449e-06;-3.195821691411457e-05;3.195821691411457e-05;0.23000813020601635;0.13010907821871787;-6.318243875513829e-05;0.999915562441516;0.0;-4.108913603243303e-05;-2.2827297795796123e-05;-0.005313147336269974;0.04217450113839005
1.5799930095672607;-0.1437136010614799;-0.06995162606667131;0.6492505841465162;0.006165753811537471;0.12489736547690079;-0.008972194306851306;-0.0014544394973061868;9.488012673525626e-06;-1.3241383198313048;1.5906078468534504;-0.36644130574670425;9.478042615285696e-06;-0.0014985630915726525;-9.507952790004623e-06;-1.3241276427956148;1.5905984012786585;-0.36645265681113054;9.497982731764693e-06;-1.5340011351609728e-05;0.10000153400113516;0.22997745018331314;0.1301397582414211;0.00012089769746426172;1.000114138888463;9.130919118318449e-06;-3.195821691411457e-05;3.195821691411457e-05;0.23000813020601635;0.13010907821871787;-6.318243875513829e-05;0.999915562441516;0.0;-3.6523676473273796e-05;-2.739275735495535e-05;-0.005313147336269974;0.04217450113839005
1.6001255512237549;-0.14371208734746416;-0.0699259523048306;0.649248328510154;0.006211507702700871;0.12489534525220618;-0.008949667381865044;-0.0016615336215856716;9.488012673525626e-06;-1.3241383198313048;1.5906078468534504;-0.36644130574670425;9.478042615285696e-06;-0.0014985630915726525;-9.507952790004623e-06;-1.3241276427956148;1.5905984012786585;-0.36645265681113054;9.497982731764693e-06;-1.5340011351609728e-05;0.10000153400113516;0.22997745018331314;0.1301397582414211;0.00012089769746426172;1.000114138888463;9.130919118318449e-06;-2.739275735495535e-05;2.739275735495535e-05;0.230023470217368;0.13010907821871787;-6.318243875513829e-05;0.999915562441516;0.0;-4.108913603243303e-05;-2.2827297795796123e-05;-0.005313147336269974;0.04217450113839005
1.6201317310333252;-0.1437222611986147;-0.06999470005101585;0.6492389659668403;0.006400149956257366;0.12485976896497003;-0.008887529936904818;-0.0016500283924590336;9.488012673525626e-06;-1.3241383198313048;1.5906078468534504;-0.36644130574670425;9.478042615285696e-06;-0.0014985630915726525;-9.507952790004623e-06;-1.3241276427956148;1.5905984012786585;-0.36645265681113054;9.497982731764693e-06;-7.670005675808333e-06;0.09999386399545936;0.22997745018331314;0.1301397582414211;0.00012089769746426172;1.000114138888463;9.130919118318449e-06;-3.195821691411457e-05;3.195821691411457e-05;0.230023470217368;0.13010907821871787;-6.318243875513829e-05;0.999915562441516;0.0;-3.6523676473273796e-05;-1.8261838236636895e-05;-0.005313147336269974;0.04217450113839005
1.6399710178375244;-0.1437345850515896;-0.07002467437522043;0.6492338981972564;0.006390129517296594;0.12484206385031978;-0.008849825107317437;-0.0016155127050791196;9.488012673525626e-06;-1.3241383198313048;1.5906078468534504;-0.36644130574670425;9.478042615285696e-06;-0.0014985630915726525;-9.507952790004623e-06;-1.3241276427956148;1.5905984012786585;-0.36645265681113054;9.497982731764693e-06;-7.670005675808333e-06;0.09999386399545936;0.22997745018331314;0.1301397582414211;0.00012089769746426172;1.000114138888463;9.130919118318449e-06;-3.195821691411457e-05;3.195821691411457e-05;0.230023470217368;0.13010907821871787;-6.318243875513829e-05;0.999915562441516;0.0;-4.108913603243303e-05;-2.2827297795796123e-05;-0.005313147336269974;0.043710390880145056
1.6599905490875244;-0.14367132123899345;-0.07011558460752863;0.6492422555430355;0.006431139727817331;0.12493530705819167;-0.008771036090497949;-0.0014544394973061868;9.488012673525626e-06;-1.3241383198313048;1.5906078468534504;-0.36644130574670425;9.478042615285696e-06;-0.0014985630915726525;-9.507952790004623e-06;-1.3241276427956148;1.5905984012786585;-0.36645265681113054;9.497982731764693e-06;-7.670005675808333e-06;0.09999386399545936;0.22997745018331314;0.1301397582414211;0.00012089769746426172;1.000114138888463;9.130919118318449e-06;-3.195821691411457e-05;3.195821691411457e-05;0.230023470217368;0.13010907821871787;-6.318243875513829e-05;0.999915562441516;0.0;-3.6523676473273796e-05;-2.739275735495535e-05;-0.005313147336269974;0.04217450113839005
1.6803200244903564;-0.14366668629300425;-0.07006151222802272;0.6492523918263198;0.006408470667771571;0.12494372954698725;-0.008897363097762314;-0.001327881976913168;9.488012673525626e-06;-1.3241383198313048;1.5906078468534504;-0.36644130574670425;9.478042615285696e-06;-0.0014985630915726525;-9.507952790004623e-06;-1.3241276427956148;1.5905984012786585;-0.36645265681113054;9.497982731764693e-06;-7.670005675808333e-06;0.09999386399545936;0.22997745018331314;0.1301397582414211;0.00012089769746426172;1.000114138888463;9.130919118318449e-06;-2.739275735495535e-05;2.739275735495535e-05;0.230023470217368;0.13010907821871787;-6.318243875513829e-05;0.999915562441516;0.0;-4.108913603243303e-05;-2.2827297795796123e-05;-0.005313147336269974;0.043710390880145056
1.6999266147613525;-0.14375886706123328;-0.07000119522178104;0.6492376006870245;0.006443483056653327;0.1247973862656867;-0.008990343789897232;-0.0013623976642930821;9.488012673525626e-06;-1.3241383198313048;1.5906078468534504;-0.36644130574670425;9.478042615285696e-06;-0.0014985630915726525;-9.507952790004623e-06;-1.3241276427956148;1.5905984012786585;-0.36645265681113054;9.497982731764693e-06;-7.670005675808333e-06;0.09999386399545936;0.22997745018331314;0.1301397582414211;0.00012089769746426172;1.000114138888463;9.130919118318449e-06;-3.195821691411457e-05;3.195821691411457e-05;0.230023470217368;0.13010907821871787;-6.318243875513829e-05;0.999915562441516;0.0;-4.108913603243303e-05;-2.2827297795796123e-05;-0.005313147336269974;0.04217450113839005
1.720139503479004;-0.143756088295727;-0.06996417638478229;0.649241015984201;0.006538358777821929;0.12479108893268441;-0.009054821135813516;-0.0014084185807996346;9.488012673525626e-06;-1.3241383198313048;1.5906078468534504;-0.36644130574670425;9.478042615285696e-06;-0.0014985630915726525;-9.507952790004623e-06;-1.3241276427956148;1.5905984012786585;-0.36645265681113054;9.497982731764693e-06;-7.670005675808333e-06;0.09999386399545936;0.22999279019466476;0.1301397582414211;0.00012089769746426172;1.0000220988203532;9.130919118318449e-06;-2.739275735495535e-05;2.739275735495535e-05;0.230023470217368;0.13009373820736625;-6.318243875513829e-05;0.999915562441516;0.0;-4.108913603243303e-05;-2.2827297795796123e-05;-0.005313147336269974;0.04217450113839005
1.739931583404541;-0.14372808464579453;-0.06989371073987158;0.6492485565729267;0.006583374574202694;0.12482964046426022;-0.009091033489642629;-0.0016500283924590336;9.488012673525626e-06;-1.3241383198313048;1.5906078468534504;-0.36644130574670425;9.478042615285696e-06;-0.0014985630915726525;-9.507952790004623e-06;-1.3241276427956148;1.5905984012786585;-0.36645265681113054;9.497982731764693e-06;-7.670005675808333e-06;0.09999386399545936;0.22999279019466476;0.1301397582414211;0.00012089769746426172;1.0000220988203532;9.130919118318449e-06;-3.195821691411457e-05;3.195821691411457e-05;0.230023470217368;0.13007839819601466;-6.318243875513829e-05;0.999915562441516;0.0;-3.6523676473273796e-05;-2.739275735495535e-05;-0.005313147336269974;0.04217450113839005
1.7602732181549072;-0.14369650471090173;-0.06992340430548967;0.649252349547668;0.006627417482670137;0.12487379746864538;-0.009053425424278868;-0.0016500283924590336;9.488012673525626e-06;-1.3241383198313048;1.5906078468534504;-0.36644130574670425;9.478042615285696e-06;-0.0014985630915726525;-9.507952790004623e-06;-1.3241276427956148;1.5905984012786585;-0.36645265681113054;9.497982731764693e-06;-7.670005675808333e-06;0.09999386399545936;0.22999279019466476;0.1301397582414211;0.00012089769746426172;1.0000067588090016;9.130919118318449e-06;-3.195821691411457e-05;3.195821691411457e-05;0.230023470217368;0.1299403380938502;-6.318243875513829e-05;0.999915562441516;0.0;-4.108913603243303e-05;-2.2827297795796123e-05;-0.005313147336269974;0.043710390880145056
1.7801978588104248;-0.1436563284553838;-0.06989974203957021;0.6492643833500941;0.006697642830536687;0.12492764784132132;-0.009115171400281159;-0.0016270179342057574;9.488012673525626e-06;-1.3241383198313048;1.5906078468534504;-0.36644130574670425;9.478042615285696e-06;-0.0014985630915726525;-9.507952790004623e-06;-1.3241276427956148;1.5905984012786585;-0.36645265681113054;9.497982731764693e-06;-7.670005675808333e-06;0.09999386399545936;0.22999279019466476;0.1301397582414211;0.00012089769746426172;0.99999141879765;9.130919118318449e-06;-3.195821691411457e-05;3.195821691411457e-05;0.230023470217368;0.12992499808249858;-6.318243875513829e-05;0.999915562441516;0.0;-4.108913603243303e-05;-2.2827297795796123e-05;-0.005313147336269974;0.043710390880145056
1.8001420497894287;-0.14364233701098347;-0.07000310387503662;0.6492581281716729;0.00685704089175844;0.12493256874588247;-0.00901133560391596;-0.0015579865594459294;9.488012673525626e-06;-1.3241383198313048;1.5906078468534504;-0.36644130574670425;9.478042615285696e-06;-0.0014985630915726525;-9.507952790004623e-06;-1.3241276427956148;1.5905984012786585;-0.36645265681113054;9.497982731764693e-06;-1.5340011351609728e-05;0.09998619398978356;0.22999279019466476;0.1301397582414211;0.00012089769746426172;0.99999141879765;9.130919118318449e-06;-2.739275735495535e-05;2.739275735495535e-05;0.230023470217368;0.12992499808249858;-6.318243875513829e-05;0.999915562441516;0.0;-4.108913603243303e-05;-2.2827297795796123e-05;-0.005313147336269974;0.043710390880145056
1.8199427127838135;-0.14363721664139187;-0.06999137278760179;0.6492664770871108;0.006457135688640877;0.12498300350811316;-0.009020257627258383;-0.001327881976913168;9.488012673525626e-06;-1.3241383198313048;1.5906078468534504;-0.36644130574670425;9.478042615285696e-06;-0.0014985630915726525;-9.507952790004623e-06;-1.3241276427956148;1.5905984012786585;-0.36645265681113054;9.497982731764693e-06;-1.5340011351609728e-05;0.09998619398978356;0.23000813020601635;0.1301397582414211;0.00012089769746426172;0.99999141879765;9.130919118318449e-06;-3.195821691411457e-05;3.195821691411457e-05;0.230023470217368;0.12992499808249858;-6.318243875513829e-05;0.999915562441516;0.0;-3.6523676473273796e-05;-2.739275735495535e-05;-0.005313147336269974;0.043710390880145056
1.8401381969451904;-0.14361848440151131;-0.06999113429232534;0.649270051516427;0.006253135511869966;0.12503428830610555;-0.008965290394352995;-0.001350892435166444;9.488012673525626e-06;-1.3241383198313048;1.5906078468534504;-0.36644130574670425;9.478042615285696e-06;-0.0014985630915726525;-9.507952790004623e-06;-1.3241276427956148;1.5905984012786585;-0.36645265681113054;9.497982731764693e-06;-1.5340011351609728e-05;0.09998619398978356;0.23000813020601635;0.1301397582414211;0.00010555768611264504;0.99999141879765;9.130919118318449e-06;-3.195821691411457e-05;3.195821691411457e-05;0.230023470217368;0.12992499808249858;-6.318243875513829e-05;0.999915562441516;0.0;-4.108913603243303e-05;-2.2827297795796123e-05;-0.005313147336269974;0.04217450113839005
1.8600616455078125;-0.14369083528770357;-0.06996301448724185;0.6492561813294019;0.006191910415071478;0.12492938182741169;-0.008984484404691021;-0.0013854081225463586;9.488012673525626e-06;-1.3241383198313048;1.5906078468534504;-0.36644130574670425;9.478042615285696e-06;-0.0014985630915726525;-9.507952790004623e-06;-1.3241276427956148;1.5905984012786585;-0.36645265681113054;9.497982731764693e-06;-1.5340011351609728e-05;0.09998619398978356;0.23000813020601635;0.1301397582414211;0.00010555768611264504;0.99999141879765;9.130919118318449e-06;-3.195821691411457e-05;3.195821691411457e-05;0.230023470217368;0.12992499808249858;-6.318243875513829e-05;0.999915562441516;0.0;-4.108913603243303e-05;-2.2827297795796123e-05;-0.005313147336269974;0.043710390880145056
1.8801722526550293;-0.14370609381254795;-0.06997534657579113;0.649248201849701;0.006188374676452106;0.12490699588202389;-0.008918883067524721;-0.001511965642939377;9.488012673525626e-06;-1.3241383198313048;1.5906078468534504;-0.36644130574670425;9.478042615285696e-06;-0.0014985630915726525;-9.507952790004623e-06;-1.3241276427956148;1.5905984012786585;-0.36645265681113054;9.497982731764693e-06;-7.670005675801395e-06;0.09997852398410777;0.23000813020601635;0.1301397582414211;9.021767476102838e-05;0.9999760787862984;9.130919118318449e-06;-2.739275735495535e-05;2.739275735495535e-05;0.230023470217368;0.12992499808249858;-6.318243875513829e-05;0.999915562441516;0.0;-3.6523676473273796e-05;-2.739275735495535e-05;-0.005313147336269974;0.04217450113839005
1.899921178817749;-0.14362922180569268;-0.07000520061172864;0.6492587205883422;0.006451343720488729;0.12499754477370575;-0.008885702957843012;-0.0016385231633323956;9.488012673525626e-06;-1.3241383198313048;1.5906078468534504;-0.36644130574670425;9.478042615285696e-06;-0.0014985630915726525;-9.507952790004623e-06;-1.3241276427956148;1.5905984012786585;-0.36645265681113054;9.497982731764693e-06;-7.670005675801395e-06;0.09997852398410777;0.23000813020601635;0.1301397582414211;1.3517618002945042e-05;0.9999760787862984;9.130919118318449e-06;-3.195821691411457e-05;3.195821691411457e-05;0.230023470217368;0.12992499808249858;-6.318243875513829e-05;0.999915562441516;0.0;-3.6523676473273796e-05;-2.739275735495535e-05;-0.005313147336269974;0.043710390880145056
1.9199714660644531;-0.14364002502897244;-0.06998705837684399;0.649258286507489;0.006533958130379015;0.12497166178811984;-0.008933793061728854;-0.0016385231633323956;9.488012673525626e-06;-1.3241383198313048;1.5906078468534504;-0.36644130574670425;9.478042615285696e-06;-0.0014985630915726525;-9.507952790004623e-06;-1.3241276427956148;1.5905984012786585;-0.36645265681113054;9.497982731764693e-06;-7.670005675801395e-06;0.09997852398410777;0.23000813020601635;0.1301397582414211;-1.7162404700288292e-05;0.9999760787862984;9.130919118318449e-06;-3.195821691411457e-05;3.195821691411457e-05;0.230023470217368;0.12992499808249858;-6.318243875513829e-05;0.999915562441516;0.0;-4.108913603243303e-05;-2.2827297795796123e-05;-0.005313147336269974;0.04217450113839005
1.9401235580444336;-0.14371321500267584;-0.07004322603946925;0.6492369253589599;0.006592057011030951;0.12485302856070275;-0.008870582537080724;-0.0016040074759524814;9.488012673525626e-06;-1.3241383198313048;1.5906078468534504;-0.36644130574670425;9.478042615285696e-06;-0.0014985630915726525;-9.507952790004623e-06;-1.3241276427956148;1.5905984012786585;-0.36645265681113054;9.497982731764693e-06;-7.670005675801395e-06;0.09997852398410777;0.23000813020601635;0.1301397582414211;-1.7162404700288292e-05;0.9999607387749468;9.130919118318449e-06;-3.195821691411457e-05;3.195821691411457e-05;0.230023470217368;0.12992499808249858;-6.318243875513829e-05;0.999915562441516;0.0;-4.108913603243303e-05;-2.2827297795796123e-05;-0.005313147336269974;0.04217450113839005
1.9599909782409668;-0.1437156147091435;-0.07004424998958722;0.6492416401217953;0.006229695814630922;0.12488807231964487;-0.008859595353422277;-0.0013969133516729966;9.488012673525626e-06;-1.3241383198313048;1.5906078468534504;-0.36644130574670425;9.478042615285696e-06;-0.0014985630915726525;-9.507952790004623e-06;-1.3241276427956148;1.5905984012786585;-0.36645265681113054;9.497982731764693e-06;-7.670005675801395e-06;0.09997852398410777;0.23000813020601635;0.1301397582414211;-7.852245010653293e-05;0.9999607387749468;9.130919118318449e-06;-2.739275735495535e-05;2.739275735495535e-05;0.230023470217368;0.12992499808249858;-6.318243875513829e-05;0.999915562441516;0.0;-3.6523676473273796e-05;-2.739275735495535e-05;-0.005313147336269974;0.043710390880145056
1.9800515174865723;-0.1438081700049798;-0.07002280698464165;0.6492249462857076;0.005667128133509321;0.12480663739331008;-0.008785762636390065;-0.0013393872060398061;9.488012673525626e-06;-1.3241383198313048;1.5906078468534504;-0.36644130574670425;9.478042615285696e-06;-0.0014985630915726525;-9.507952790004623e-06;-1.3241276427956148;1.5905984012786585;-0.36645265681113054;9.497982731764693e-06;-7.670005675801395e-06;0.09997852398410777;0.230023470217368;0.1301397582414211;-9.386246145814958e-05;0.9999607387749468;9.130919118318449e-06;-3.195821691411457e-05;3.195821691411457e-05;0.230023470217368;0.12992499808249858;-6.318243875513829e-05;0.999915562441516;0.0;-3.195821691411457e-05;-3.195821691411457e-05;-0.005313147336269974;0.04217450113839005
2.0001144409179688;-0.14384832284067767;-0.06997876718277837;0.6492199065772353;0.005246855937478759;0.12479047442442327;-0.008747316097436925;-0.0013739028934197206;9.488012673525626e-06;-1.3241383198313048;1.5906078468534504;-0.36644130574670425;9.478042615285696e-06;-0.0014985630915726525;-9.507952790004623e-06;-1.3241276427956148;1.5905984012786585;-0.36645265681113054;9.497982731764693e-06;-7.670005675801395e-06;0.09997852398410777;0.230023470217368;0.13009373820736625;-9.386246145814958e-05;0.9999607387749468;9.130919118318449e-06;-3.195821691411457e-05;3.195821691411457e-05;0.230023470217368;0.12992499808249858;-6.318243875513829e-05;0.999915562441516;0.0;-4.108913603243303e-05;-2.2827297795796123e-05;-0.005313147336269974;0.04217450113839005
2.020019769668579;-0.1438222769431523;-0.06997342537570049;0.6492253600496255;0.005258646231808987;0.12482939287636949;-0.008746002472995682;-0.0014084185807996346;9.488012673525626e-06;-1.3241383198313048;1.5906078468534504;-0.36644130574670425;9.478042615285696e-06;-0.0014985630915726525;-9.507952790004623e-06;-1.3241276427956148;1.5905984012786585;-0.36645265681113054;9.497982731764693e-06;-7.670005675801395e-06;0.09997852398410777;0.230023470217368;0.13007839819601466;-9.386246145814958e-05;0.9999607387749468;9.130919118318449e-06;-3.195821691411457e-05;3.195821691411457e-05;0.230023470217368;0.12992499808249858;-6.318243875513829e-05;0.9999309024528678;0.0;-4.108913603243303e-05;-2.2827297795796123e-05;-0.005313147336269974;0.043710390880145056
2.040095329284668;-0.1438781260239184;-0.06997400074316483;0.6492066738726638;0.00526057219513437;0.12474427092037528;-0.008659614289270985;-0.0016500283924590336;9.488012673525626e-06;-1.3241383198313048;1.5906078468534504;-0.36644130574670425;9.478042615285696e-06;-0.0014985630915726525;-9.507952790004623e-06;-1.3241276427956148;1.5905984012786585;-0.36645265681113054;9.497982731764693e-06;-7.670005675801395e-06;0.09997852398410777;0.230023470217368;0.13006305818466302;-9.386246145814958e-05;0.9999607387749468;9.130919118318449e-06;-2.739275735495535e-05;2.739275735495535e-05;0.230023470217368;0.12992499808249858;-6.318243875513829e-05;0.9999462424642194;0.0;-3.195821691411457e-05;-2.2827297795796123e-05;-0.005313147336269974;0.04217450113839005
2.060126304626465;-0.14385196114200743;-0.06995312237888468;0.6492150196000177;0.0052630894767277244;0.12478397431488995;-0.008697427700663242;-0.0016385231633323956;9.488012673525626e-06;-1.3241383198313048;1.5906078468534504;-0.36644130574670425;9.478042615285696e-06;-0.0014985630915726525;-9.507952790004623e-06;-1.3241276427956148;1.5905984012786585;-0.36645265681113054;9.497982731764693e-06;-7.670005675801395e-06;0.09997852398410777;0.230023470217368;0.13006305818466302;-9.386246145814958e-05;0.9999607387749468;9.130919118318449e-06;-3.195821691411457e-05;3.195821691411457e-05;0.230023470217368;0.12992499808249858;-6.318243875513829e-05;0.9999462424642194;0.0;-4.108913603243303e-05;-2.2827297795796123e-05;-0.005313147336269974;0.043710390880145056
2.080152750015259;-0.14390505887467228;-0.06995067625258732;0.6492041107785721;0.005297632986729188;0.1246982571889358;-0.008717965316979348;-0.0016155127050791196;9.488012673525626e-06;-1.3241383198313048;1.5906078468534504;-0.36644130574670425;9.478042615285696e-06;-0.0014985630915726525;-9.507952790004623e-06;-1.3241276427956148;1.5905984012786585;-0.36645265681113054;9.497982731764693e-06;-7.670005675801395e-06;0.09997852398410777;0.230023470217368;0.13006305818466302;-9.386246145814958e-05;0.9999607387749468;9.130919118318449e-06;-2.739275735495535e-05;2.739275735495535e-05;0.230023470217368;0.12992499808249858;-6.318243875513829e-05;0.9999615824755709;0.0;-4.108913603243303e-05;-2.2827297795796123e-05;-0.005313147336269974;0.043710390880145056
2.0999841690063477;-0.14388324545540215;-0.06988580499052975;0.6492183127962896;0.00537434434431921;0.12472219282709243;-0.008871948328097618;-0.001523470872066015;9.488012673525626e-06;-1.3241383198313048;1.5906078468534504;-0.36644130574670425;9.478042615285696e-06;-0.0014985630915726525;-9.507952790004623e-06;-1.3241276427956148;1.5905984012786585;-0.36645265681113054;9.497982731764693e-06;-7.670005675801395e-06;0.09997852398410777;0.230023470217368;0.13006305818466302;-9.386246145814958e-05;0.9999453987635952;9.130919118318449e-06;-3.195821691411457e-05;3.195821691411457e-05;0.230023470217368;0.12992499808249858;-6.318243875513829e-05;0.9999922624982742;0.0;-4.108913603243303e-05;-2.2827297795796123e-05;-0.005313147336269974;0.04217450113839005
2.12007212638855;-0.14384413882849048;-0.06990691893973973;0.6492294667888323;0.005334750452736009;0.12478618786832206;-0.00889459254519528;-0.0013393872060398061;9.488012673525626e-06;-1.3241383198313048;1.5906078468534504;-0.36644130574670425;9.478042615285696e-06;-0.0014985630915726525;-9.507952790004623e-06;-1.3241276427956148;1.5905984012786585;-0.36645265681113054;9.497982731764693e-06;-7.670005675801395e-06;0.09997852398410777;0.230023470217368;0.1300477181733114;-9.386246145814958e-05;0.9999453987635952;9.130919118318449e-06;-2.739275735495535e-05;2.739275735495535e-05;0.230023470217368;0.12992499808249858;-6.318243875513829e-05;1.0000229425209777;0.0;-3.6523676473273796e-05;-2.739275735495535e-05;-0.005313147336269974;0.04217450113839005
2.1399853229522705;-0.1438390430962501;-0.06983893262071578;0.6492373175569973;0.00529247370083067;0.12479789178373817;-0.008985149155099282;-0.0013623976642930821;9.488012673525626e-06;-1.3241383198313048;1.5906078468534504;-0.36644130574670425;9.478042615285696e-06;-0.0014985630915726525;-9.507952790004623e-06;-1.3241276427956148;1.5905984012786585;-0.36645265681113054;9.497982731764693e-06;-7.670005675801395e-06;0.09997852398410777;0.230023470217368;0.1300477181733114;-9.386246145814958e-05;0.9999453987635952;9.130919118318449e-06;-3.195821691411457e-05;3.195821691411457e-05;0.230023470217368;0.12992499808249858;-6.318243875513829e-05;1.000038282532329;0.0;-4.108913603243303e-05;-2.2827297795796123e-05;-0.005313147336269974;0.04217450113839005
2.1600003242492676;-0.14380651835225947;-0.06977456817874914;0.6492508478632335;0.005391864817823895;0.1248363956120158;-0.009102307587971488;-0.0013854081225463586;9.488012673525626e-06;-1.3241383198313048;1.5906078468534504;-0.36644130574670425;9.478042615285696e-06;-0.0014985630915726525;-9.507952790004623e-06;-1.3241276427956148;1.5905984012786585;-0.36645265681113054;9.497982731764693e-06;-7.670005675801395e-06;0.09997852398410777;0.230023470217368;0.1300477181733114;-9.386246145814958e-05;0.9999453987635952;9.130919118318449e-06;-2.739275735495535e-05;2.739275735495535e-05;0.230023470217368;0.12992499808249858;-6.318243875513829e-05;1.000053622543681;0.0;-4.108913603243303e-05;-2.2827297795796123e-05;-0.005313147336269974;0.043710390880145056
2.1802175045013428;-0.1437055222772106;-0.06967327603917405;0.6492796238941309;0.0056086312134455115;0.12496780307494536;-0.009251354562574997;-0.0015579865594459294;9.488012673525626e-06;-1.3241383198313048;1.5906078468534504;-0.36644130574670425;9.478042615285696e-06;-0.0014985630915726525;-9.507952790004623e-06;-1.3241276427956148;1.5905984012786585;-0.36645265681113054;9.497982731764693e-06;0.0;0.09997085397843193;0.230023470217368;0.1300477181733114;-9.386246145814958e-05;0.9999453987635952;9.130919118318449e-06;-3.195821691411457e-05;3.195821691411457e-05;0.230023470217368;0.12992499808249858;-6.318243875513829e-05;1.0000689625550323;0.0;-4.108913603243303e-05;-2.2827297795796123e-05;-0.005313147336269974;0.04217450113839005
2.2001211643218994;-0.14365163577734452;-0.06970364937279727;0.6492859078492106;0.0057822330211725935;0.12503265700512906;-0.00920939794229529;-0.0016500283924590336;9.488012673525626e-06;-1.3241383198313048;1.5906078468534504;-0.36644130574670425;9.478042615285696e-06;-0.0014985630915726525;-9.507952790004623e-06;-1.3241276427956148;1.5905984012786585;-0.36645265681113054;9.497982731764693e-06;0.0;0.09997085397843193;0.230023470217368;0.1300477181733114;-9.386246145814958e-05;0.9999453987635952;9.130919118318449e-06;-2.739275735495535e-05;2.739275735495535e-05;0.230023470217368;0.12992499808249858;-6.318243875513829e-05;1.0000689625550323;0.0;-3.6523676473273796e-05;-2.739275735495535e-05;-0.005313147336269974;0.04217450113839005
2.219970941543579;-0.14362690677515955;-0.06966409247409083;0.6492962189936259;0.005812345938079209;0.12506687338218175;-0.009287484492805398;-0.0016270179342057574;9.488012673525626e-06;-1.3241383198313048;1.5906078468534504;-0.36644130574670425;9.478042615285696e-06;-0.0014985630915726525;-9.507952790004623e-06;-1.3241276427956148;1.5905984012786585;-0.36645265681113054;9.497982731764693e-06;0.0;0.09997085397843193;0.230023470217368;0.1300477181733114;-9.386246145814958e-05;0.9999453987635952;9.130919118318449e-06;-3.195821691411457e-05;3.195821691411457e-05;0.230023470217368;0.12992499808249858;-6.318243875513829e-05;1.0000689625550323;0.0;-4.108913603243303e-05;-2.2827297795796123e-05;-0.005313147336269974;0.04217450113839005
2.2401278018951416;-0.14354792081650927;-0.0696489840263782;0.6493164969287903;0.005880920948476334;0.12518065711467713;-0.00934309110644344;-0.0015809970176992054;9.488012673525626e-06;-1.3241383198313048;1.5906078468534504;-0.36644130574670425;9.478042615285696e-06;-0.0014985630915726525;-9.507952790004623e-06;-1.3241276427956148;1.5905984012786585;-0.36645265681113054;9.497982731764693e-06;0.0;0.09997085397843193;0.230023470217368;0.1300477181733114;-9.386246145814958e-05;0.9999453987635952;9.130919118318449e-06;-2.739275735495535e-05;2.739275735495535e-05;0.230023470217368;0.12992499808249858;-6.318243875513829e-05;1.0000843025663841;0.0;-4.108913603243303e-05;-2.2827297795796123e-05;-0.005313147336269974;0.043710390880145056
2.2599728107452393;-0.1436296785754289;-0.0697346398165413;0.649295471707485;0.005922879610639232;0.12505006703034965;-0.009303113968899322;-0.0013393872060398061;9.488012673525626e-06;-1.3241383198313048;1.5906078468534504;-0.36644130574670425;9.478042615285696e-06;-0.0014985630915726525;-9.507952790004623e-06;-1.3241276427956148;1.5905984012786585;-0.36645265681113054;9.497982731764693e-06;0.0;0.09997085397843193;0.230023470217368;0.1300323781619599;-9.386246145814958e-05;0.9999300587522436;9.130919118318449e-06;-3.195821691411457e-05;3.195821691411457e-05;0.230023470217368;0.12992499808249858;-6.318243875513829e-05;1.0000843025663841;0.0;-4.108913603243303e-05;-2.2827297795796123e-05;-0.005313147336269974;0.043710390880145056
2.2799222469329834;-0.14362529186324655;-0.06974205370526938;0.6492956457732009;0.0059804804283669485;0.12505062621668203;-0.009304482339881792;-0.0013393872060398061;9.488012673525626e-06;-1.3241383198313048;1.5906078468534504;-0.36644130574670425;9.478042615285696e-06;-0.0014985630915726525;-9.507952790004623e-06;-1.3241276427956148;1.5905984012786585;-0.36645265681113054;9.497982731764693e-06;0.0;0.09997085397843193;0.230023470217368;0.1300323781619599;-9.386246145814958e-05;0.9999300587522436;9.130919118318449e-06;-3.195821691411457e-05;3.195821691411457e-05;0.230023470217368;0.12992499808249858;-6.318243875513829e-05;1.0000843025663841;0.0;-3.6523676473273796e-05;-2.739275735495535e-05;-0.005313147336269974;0.04217450113839005
2.3000833988189697;-0.14363849220791672;-0.06969073048070472;0.6492976412850684;0.006098921106269548;0.12501687702735834;-0.009405576593514573;-0.0013623976642930821;9.488012673525626e-06;-1.3241383198313048;1.5906078468534504;-0.36644130574670425;9.478042615285696e-06;-0.0014985630915726525;-9.507952790004623e-06;-1.3241276427956148;1.5905984012786585;-0.36645265681113054;9.497982731764693e-06;0.0;0.09997085397843193;0.230023470217368;0.1300323781619599;-9.386246145814958e-05;0.9999300587522436;9.130919118318449e-06;-3.195821691411457e-05;3.195821691411457e-05;0.230023470217368;0.12992499808249858;-6.318243875513829e-05;1.0000843025663841;0.0;-4.108913603243303e-05;-2.2827297795796123e-05;-0.005313147336269974;0.04217450113839005
2.320131540298462;-0.14365869638900064;-0.06975189610137324;0.6492845204349593;0.006151388156079466;0.12498112438782151;-0.009291386771868406;-0.0014429342681795483;9.488012673525626e-06;-1.3241383198313048;1.5906078468534504;-0.36644130574670425;9.478042615285696e-06;-0.0014985630915726525;-9.507952790004623e-06;-1.3241276427956148;1.5905984012786585;-0.36645265681113054;9.497982731764693e-06;0.0;0.09997085397843193;0.230023470217368;0.13001703815060828;-9.386246145814958e-05;0.999914718740892;9.130919118318449e-06;-2.739275735495535e-05;2.739275735495535e-05;0.230023470217368;0.12992499808249858;-6.318243875513829e-05;1.0000843025663841;0.0;-4.108913603243303e-05;-2.2827297795796123e-05;-0.005313147336269974;0.043710390880145056
2.3400869369506836;-0.1436750601438671;-0.06972431838700466;0.6492788031711278;0.006299578275332273;0.12494034016833765;-0.009299758458291748;-0.0016385231633323956;9.488012673525626e-06;-1.3241383198313048;1.5906078468534504;-0.36644130574670425;9.478042615285696e-06;-0.0014985630915726525;-9.507952790004623e-06;-1.3241276427956148;1.5905984012786585;-0.36645265681113054;9.497982731764693e-06;0.0;0.09997085397843193;0.230023470217368;0.13001703815060828;-9.386246145814958e-05;0.999914718740892;9.130919118318449e-06;-3.195821691411457e-05;3.195821691411457e-05;0.230023470217368;0.12992499808249858;-6.318243875513829e-05;1.0000843025663841;0.0;-4.108913603243303e-05;-2.2827297795796123e-05;-0.005313147336269974;0.04217450113839005
2.3600003719329834;-0.14382310492682931;-0.06977772968161014;0.6492402873042421;0.006278871362525056;0.12471517128841285;-0.009211192812586724;-0.0016385231633323956;9.488012673525626e-06;-1.3241383198313048;1.5906078468534504;-0.36644130574670425;9.478042615285696e-06;-0.0014985630915726525;-9.507952790004623e-06;-1.3241276427956148;1.5905984012786585;-0.36645265681113054;9.497982731764693e-06;0.0;0.09997085397843193;0.230023470217368;0.13000169813925666;-9.386246145814958e-05;0.999914718740892;0.0;-2.739275735495535e-05;2.739275735495535e-05;0.230023470217368;0.12992499808249858;-6.318243875513829e-05;1.0000843025663841;0.0;-3.6523676473273796e-05;-2.739275735495535e-05;-0.005313147336269974;0.04217450113839005
2.3800361156463623;-0.14392730706642973;-0.0697929410514202;0.6492161552131251;0.006392103628573702;0.12454236978099717;-0.009222277681117462;-0.0016155127050791196;9.488012673525626e-06;-1.3241383198313048;1.5906078468534504;-0.36644130574670425;9.478042615285696e-06;-0.0014985630915726525;-9.507952790004623e-06;-1.3241276427956148;1.5905984012786585;-0.36645265681113054;9.497982731764693e-06;-7.670005675801395e-06;0.09996318397275614;0.230023470217368;0.12998635812790504;-9.386246145814958e-05;0.999914718740892;9.130919118318449e-06;-3.195821691411457e-05;3.195821691411457e-05;0.230023470217368;0.12992499808249858;-6.318243875513829e-05;1.0000843025663841;0.0;-4.108913603243303e-05;-2.2827297795796123e-05;-0.005313147336269974;0.04217450113839005
2.400123119354248;-0.1438850388658463;-0.06981741405198469;0.6492252737052701;0.00646854835619545;0.1245989888190232;-0.00923329205663735;-0.001523470872066015;9.488012673525626e-06;-1.3241383198313048;1.5906078468534504;-0.36644130574670425;9.478042615285696e-06;-0.0014985630915726525;-9.507952790004623e-06;-1.3241276427956148;1.5905984012786585;-0.36645265681113054;9.497982731764693e-06;-7.670005675801395e-06;0.09996318397275614;0.230023470217368;0.12992499808249858;-9.386246145814958e-05;0.999914718740892;9.130919118318449e-06;-2.739275735495535e-05;2.739275735495535e-05;0.230023470217368;0.12992499808249858;-6.318243875513829e-05;1.0000843025663841;0.0;-4.108913603243303e-05;-2.2827297795796123e-05;-0.005313147336269974;0.04217450113839005
2.4199490547180176;-0.1439318223528482;-0.06983012727500455;0.6492182976293986;0.006461110540839202;0.1245270239168113;-0.00927757113063442;-0.0013393872060398061;9.488012673525626e-06;-1.3241383198313048;1.5906078468534504;-0.36644130574670425;9.478042615285696e-06;-0.0014985630915726525;-9.507952790004623e-06;-1.3241276427956148;1.5905984012786585;-0.36645265681113054;9.497982731764693e-06;-7.670005675801395e-06;0.09996318397275614;0.230023470217368;0.1298636380370921;-9.386246145814958e-05;0.999914718740892;9.130919118318449e-06;-3.195821691411457e-05;3.195821691411457e-05;0.230023470217368;0.12992499808249858;-6.318243875513829e-05;1.0000843025663841;0.0;-4.108913603243303e-05;-2.2827297795796123e-05;-0.005313147336269974;0.043710390880145056
2.440160036087036;-0.14399359315815574;-0.0698336853190866;0.6492039196289683;0.006602911036740827;0.12441648485876787;-0.00930112025480996;-0.001350892435166444;9.488012673525626e-06;-1.3241383198313048;1.5906078468534504;-0.36644130574670425;9.478042615285696e-06;-0.0014985630915726525;-9.507952790004623e-06;-1.3241276427956148;1.5905984012786585;-0.36645265681113054;9.497982731764693e-06;0.0;0.09995551396708034;0.230023470217368;0.1298636380370921;-9.386246145814958e-05;0.999914718740892;9.130919118318449e-06;-2.739275735495535e-05;2.739275735495535e-05;0.230023470217368;0.12992499808249858;-6.318243875513829e-05;1.0000843025663841;0.0;-3.6523676473273796e-05;-2.739275735495535e-05;-0.005313147336269974;0.04217450113839005
2.4601051807403564;-0.14403988826236305;-0.06978195245937593;0.6491983196501518;0.006678413810944251;0.12433653528077336;-0.009389293927191959;-0.0013854081225463586;9.488012673525626e-06;-1.3241383198313048;1.5906078468534504;-0.36644130574670425;9.478042615285696e-06;-0.0014985630915726525;-9.507952790004623e-06;-1.3241276427956148;1.5905984012786585;-0.36645265681113054;9.497982731764693e-06;0.0;0.09995551396708034;0.230023470217368;0.1298636380370921;-9.386246145814958e-05;0.999914718740892;9.130919118318449e-06;-3.195821691411457e-05;3.195821691411457e-05;0.230023470217368;0.12992499808249858;-4.784242740352162e-05;1.0000843025663841;0.0;-4.108913603243303e-05;-2.2827297795796123e-05;-0.005313147336269974;0.04217450113839005
2.4800069332122803;-0.14405966165984577;-0.0697290267547133;0.64919396457474;0.0067413611948994095;0.1242996557246554;-0.009410390579605828;-0.0016040074759524814;9.488012673525626e-06;-1.3241383198313048;1.5906078468534504;-0.36644130574670425;9.478042615285696e-06;-0.0014985630915726525;-9.507952790004623e-06;-1.3241276427956148;1.5905984012786585;-0.36645265681113054;9.497982731764693e-06;0.0;0.09995551396708034;0.230023470217368;0.1298636380370921;-9.386246145814958e-05;0.999914718740892;9.130919118318449e-06;-2.739275735495535e-05;2.739275735495535e-05;0.230023470217368;0.12992499808249858;-4.784242740352162e-05;1.0000843025663841;0.0;-4.108913603243303e-05;-2.2827297795796123e-05;-0.005313147336269974;0.043710390880145056
2.4999608993530273;-0.14405611062986465;-0.0698382690289857;0.6491818192911735;0.006783458179771413;0.12430190006476234;-0.009229182922701458;-0.0016500283924590336;9.488012673525626e-06;-1.3241383198313048;1.5906078468534504;-0.36644130574670425;9.478042615285696e-06;-0.0014985630915726525;-9.507952790004623e-06;-1.3241276427956148;1.5905984012786585;-0.36645265681113054;9.497982731764693e-06;0.0;0.09995551396708034;0.230023470217368;0.1298636380370921;-9.386246145814958e-05;0.999914718740892;9.130919118318449e-06;-3.195821691411457e-05;3.195821691411457e-05;0.230023470217368;0.12992499808249858;-4.784242740352162e-05;1.0000843025663841;0.0;-3.195821691411457e-05;-2.2827297795796123e-05;-0.005313147336269974;0.04217450113839005
2.5203375816345215;-0.14398427206285144;-0.06988883219889463;0.6491932078065201;0.006794571619659793;0.12441173082475912;-0.009162570382205722;-0.0016155127050791196;9.488012673525626e-06;-1.3241383198313048;1.5906078468534504;-0.36644130574670425;9.478042615285696e-06;-0.0014985630915726525;-9.507952790004623e-06;-1.3241276427956148;1.5905984012786585;-0.36645265681113054;9.497982731764693e-06;0.0;0.09995551396708034;0.230023470217368;0.1298636380370921;-9.386246145814958e-05;0.999914718740892;9.130919118318449e-06;-2.739275735495535e-05;2.739275735495535e-05;0.230023470217368;0.12992499808249858;-4.784242740352162e-05;1.0000843025663841;0.0;-3.6523676473273796e-05;-2.739275735495535e-05;-0.005313147336269974;0.043710390880145056
2.540024518966675;-0.1440359192390921;-0.06979965551677224;0.6491925355312548;0.006841425284701923;0.12432591015911318;-0.009332788161496504;-0.0015694917885725672;9.488012673525626e-06;-1.3241383198313048;1.5906078468534504;-0.36644130574670425;9.478042615285696e-06;-0.0014985630915726525;-9.507952790004623e-06;-1.3241276427956148;1.5905984012786585;-0.36645265681113054;9.497982731764693e-06;0.0;0.09995551396708034;0.230023470217368;0.1298636380370921;-9.386246145814958e-05;0.999914718740892;9.130919118318449e-06;-3.195821691411457e-05;3.195821691411457e-05;0.230023470217368;0.12992499808249858;-4.784242740352162e-05;1.0000843025663841;0.0;-4.108913603243303e-05;-2.2827297795796123e-05;-0.005313147336269974;0.04217450113839005
2.56011700630188;-0.14412613502871544;-0.06993632463699917;0.6491637557934224;0.006845208857182753;0.12418688693058576;-0.009198683883982438;-0.0013393872060398061;9.488012673525626e-06;-1.3241383198313048;1.5906078468534504;-0.36644130574670425;9.478042615285696e-06;-0.0014985630915726525;-9.507952790004623e-06;-1.3241276427956148;1.5905984012786585;-0.36645265681113054;9.497982731764693e-06;0.0;0.09995551396708034;0.230023470217368;0.1298636380370921;-9.386246145814958e-05;0.999914718740892;9.130919118318449e-06;-2.739275735495535e-05;2.739275735495535e-05;0.230023470217368;0.12992499808249858;-4.784242740352162e-05;1.0000843025663841;0.0;-4.108913603243303e-05;-2.2827297795796123e-05;-0.005313147336269974;0.04217450113839005
2.58012056350708;-0.1441960447540485;-0.06987641810698887;0.6491546818807482;0.0067550973901411545;0.12408839788425916;-0.009274287908624059;-0.0013393872060398061;9.488012673525626e-06;-1.3241383198313048;1.5906078468534504;-0.36644130574670425;9.478042615285696e-06;-0.0014985630915726525;-9.507952790004623e-06;-1.3241276427956148;1.5905984012786585;-0.36645265681113054;9.497982731764693e-06;0.0;0.09995551396708034;0.230023470217368;0.1298636380370921;-9.386246145814958e-05;0.999914718740892;9.130919118318449e-06;-3.195821691411457e-05;3.195821691411457e-05;0.230023470217368;0.12992499808249858;-4.784242740352162e-05;1.0000843025663841;0.0;-3.6523676473273796e-05;-2.739275735495535e-05;-0.005313147336269974;0.043710390880145056
2.599972724914551;-0.1442616360443288;-0.06990287110588465;0.6491360701064341;0.006724640003884019;0.123991167639949;-0.009209264996110087;-0.0013854081225463586;9.488012673525626e-06;-1.3241383198313048;1.5906078468534504;-0.36644130574670425;9.478042615285696e-06;-0.0014985630915726525;-9.507952790004623e-06;-1.3241276427956148;1.5905984012786585;-0.36645265681113054;9.497982731764693e-06;0.0;0.09995551396708034;0.230023470217368;0.1298636380370921;-9.386246145814958e-05;0.999914718740892;9.130919118318449e-06;-2.739275735495535e-05;2.739275735495535e-05;0.230023470217368;0.12992499808249858;-3.2502416051904966e-05;1.0000843025663841;0.0;-3.195821691411457e-05;-3.195821691411457e-05;-0.005313147336269974;0.043710390880145056
