flxalr/sts-optimization-reemc/input/415_104/trq.csv
time;base_link_tx;base_link_ty;base_link_tz;base_link_rz;base_link_ry;base_link_rx;leg_left_1_joint;leg_left_2_joint;leg_left_3_joint;leg_left_4_joint;leg_left_5_joint;leg_left_6_joint;leg_right_1_joint;leg_right_2_joint;leg_right_3_joint;leg_right_4_joint;leg_right_5_joint;leg_right_6_joint;torso_1_joint;torso_2_joint;arm_left_1_joint;arm_left_2_joint;arm_left_3_joint;arm_left_4_joint;arm_left_5_joint;arm_left_6_joint;arm_left_7_joint;arm_right_1_joint;arm_right_2_joint;arm_right_3_joint;arm_right_4_joint;arm_right_5_joint;arm_right_6_joint;arm_right_7_joint;head_1_joint;head_2_joint
0.0;-15.507349961330048;35.04132084191728;587.8930928800843;5.912270251658115;-22.087188382593624;46.4579787722991;4.7815027157035725;10.208661724946023;-15.300395282049926;13.125832568457067;2.379939279716895;2.4269421610110324;3.809912085537542;9.369043156543965;20.942418003555524;-9.002722232431157;6.516487227473527;4.308909695496761;-0.15244872102308843;-28.63239547309321;6.104991596604654;3.672309164204262;0.8550377634896175;5.406889089227606;-0.01884893721884799;0.12585363250171175;0.05981201659939854;6.147298861081333;3.953307152677331;0.9613139164342566;5.399858676643356;-0.019552089596003935;0.14617279532773686;0.06035537662321887;-0.0009661275576247309;-0.5164758871478251
0.020132780075073242;-15.178657793693848;35.05542478178067;587.1887912021134;5.934262674145728;-22.117729546392418;46.48404294887306;4.772074174898263;10.210882819262544;-15.341773870972645;13.070240105498431;2.366501106140748;2.4276360598414874;3.82970016775118;9.357171431370354;21.001916867684823;-9.091806224235885;6.551845066390318;4.297547922283628;-0.15134855799064972;-28.62830572867654;6.1062016059306865;3.6726979532449513;0.8552232679883721;5.407146500334903;-0.01883298582607447;0.1258933182845216;0.059827448696638426;6.148746142581173;3.9527503292107076;0.9610837537758762;5.400320663944393;-0.0195717178397469;0.14612760310786302;0.06034301768398464;-0.0009213070369966346;-0.5163607643847065
0.04002714157104492;-15.32476985711509;35.16727406437326;586.0032280296927;5.988544823528873;-21.753863473160628;46.63461608684896;4.782874867623177;10.207191929843455;-15.396621893333204;13.101532185436426;2.366230863044828;2.4262161625460297;3.8880701339730397;9.375685637521403;21.405348043265597;-9.125601489669549;6.638552596313719;4.286069294801156;-0.1466512796388431;-28.622657217909868;6.108184820849276;3.6756690133274255;0.85638770698352;5.407411759217234;-0.018824732133795978;0.12612456158469368;0.059857131220583344;6.15041268083677;3.949749998261991;0.9599626999636922;5.40102290684311;-0.01960038818863448;0.14591778728706048;0.06031812258983467;-0.0006941975385263456;-0.5162054592794215
0.0603947639465332;-15.001691150065051;35.39061816421002;586.2299985808282;6.057219595375731;-21.963551335278332;46.702556347372735;4.749734805761916;10.158082599486793;-15.42541261450906;13.054288142648124;2.354931150323477;2.4140953968634964;3.9943537157756666;9.498624539140453;21.268301346242772;-9.148215035454697;6.640970900892387;4.301398789104584;-0.14567265633726603;-28.625158503137396;6.106743009291948;3.675947800752647;0.8565118297324517;5.406882766259816;-0.018801466034694972;0.12614650603799415;0.05987183892293422;6.149425596914322;3.949214663369566;0.959870696476613;5.400726698841967;-0.019607996211160238;0.14588409371679298;0.060293455235807314;-0.000650442818594498;-0.5162791343557404
0.08011293411254883;-15.176459218336989;35.21099534792032;586.3237188974551;6.000770360217029;-21.869058203239696;46.616888397536144;4.7469403994094765;10.153247318846754;-15.396086681070233;13.102402383709663;2.3663498414437334;2.4131346489957237;3.9274123472961304;9.43685745724006;21.292013776941733;-9.140386602828253;6.616248943512806;4.302139982375183;-0.14561273579907472;-28.620415498585388;6.10841010385072;3.6755244546484054;0.8563863830173458;5.40726243571193;-0.018792140318538965;0.12612958958674392;0.05988810317936812;6.151620738900458;3.949406381805992;0.9599334248551528;5.40131534149531;-0.01963033109234954;0.14589714208109827;0.06027886631952752;-0.0006670650362370634;-0.5179242919807618
0.1000223159790039;-15.15409871948032;35.43205452641533;586.933723834427;5.998368661962265;-21.965988039192958;46.74021067717439;4.767878014535628;10.198532996785657;-15.485053130648083;13.083586682515481;2.354196846700621;2.4245242739962074;3.934099405829532;9.50301688778821;21.254532023733624;-9.079770865136611;6.594196419667259;4.326987647517296;-0.14447895660812818;-28.61073016134741;6.1105815386059374;3.6753594595042247;0.8563649538214916;5.407731306496403;-0.01877393593147402;0.12612604757748658;0.059905759748852476;6.154107662121436;3.948654917190834;0.9596794685838586;5.4020269957155245;-0.01965785787441216;0.14585469165276396;0.060261358581188994;-0.0005939416826640804;-0.5159058130420777
0.11999821662902832;-15.436316287062944;34.96645899715225;587.8358114151281;5.8771852745482365;-21.93851715546144;46.4093269836537;4.723683818324245;10.104191769004736;-15.390894446595278;13.156540184347387;2.3767966713835866;2.4011333396369325;3.815469377853866;9.412314047980193;21.11358891522669;-8.984600154709396;6.545340269801664;4.336524508071819;-0.1429905583284665;-28.602247386086194;6.112984087472737;3.675634303421677;0.856517395999672;5.408242951163513;-0.01875968036540395;0.1261622480233871;0.05992675741322893;6.156860713215143;3.947824657161135;0.9593529232968607;5.402844363550597;-0.01968755977922923;0.14579637175675297;0.060241873198296776;-0.0005257211324925654;-0.5156898510143082
0.13999128341674805;-15.302894069017697;35.3862355073188;587.6453830643391;5.922612915140401;-21.99302538842379;46.68947375824558;4.767243013944903;10.197935374249363;-15.453609096154874;13.106782974171022;2.3545835807604867;2.424561386908087;3.85602360342512;9.527459780165424;21.13395624880873;-9.018839848735565;6.534685644981527;4.3731515004019315;-0.14146420232835102;-28.59897789757766;6.113509800872092;3.6757620591508933;0.8566261731754369;5.4082531561867775;-0.018738902004410272;0.1261989732235288;0.05994845402871759;6.158018187859704;3.947364068601912;0.9591322475736943;5.403209303434582;-0.019706850770688837;0.1457360129078553;0.06021544315540264;-0.0004723338452342872;-0.5156254345807249
0.16007137298583984;-15.487473836109858;35.191966576741464;588.0336598604605;5.928880647409342;-21.88523019628434;46.566008511644824;4.765222879653798;10.194084235461398;-15.406256238995809;13.240147252707327;2.3819089136473393;2.4236682274797143;3.8283452143026246;9.40747183467484;21.157838208127068;-8.995964486923409;6.5631561641107155;4.327316969097102;-0.14067759156041976;-28.5995419551875;6.112544436724333;3.675329661646769;0.8565427371800783;5.407905871873895;-0.018714454029283623;0.1262135896823845;0.05997227604543044;6.158187115055954;3.9479178920435114;0.9592500108085473;5.403250939746619;-0.019741765475417193;0.1457318590367287;0.06018456087725018;-0.00047773582253324374;-0.5156766266832
0.18014883995056152;-15.430869355239855;35.21166310105049;586.431412649556;5.9651734126100475;-21.575353173431104;46.599544360037015;4.72553626745437;10.105537860556902;-15.34852785289298;13.190055241861849;2.387244370484623;2.4012455632757854;3.8987024795397542;9.481292115746893;21.42844524067712;-9.062874780740207;6.6313968393725045;4.336749759809458;-0.13557492733724355;-28.591924522618502;6.115171692205053;3.6779964706436865;0.8576608494018823;5.408377189200321;-0.018686977729311077;0.12645534268902675;0.06001178692805524;6.1610263073965505;3.9449831273146594;0.9580795090655099;5.404316690545131;-0.01977654582269958;0.14549205164149745;0.060152066670829805;-0.000271056848938662;-0.5155132238834697
0.20000576972961426;-15.525510521843842;35.41136141816883;586.3458176394015;6.042709238929653;-21.47901685310343;46.712023034538646;4.7683578027062685;10.19550027370366;-15.339112691655242;13.244561255752593;2.390003333910985;2.423533148606233;3.9343668160364733;9.446235898477841;21.505675522126595;-9.064744232927085;6.667015527584766;4.305244240280679;-0.13285139311004773;-28.594857800091837;6.114838686058633;3.679165073497034;0.8581608417629603;5.408168568117374;-0.018673866159981213;0.12657477151769306;0.06003282786605107;6.160945958152391;3.9436624599049117;0.957523250796159;5.404445407696726;-0.019794912022881424;0.14536954712567046;0.0601290547182233;-0.0001803395140394107;-0.5174188834396579
0.22012066841125488;-15.232653025456955;35.41506608620536;585.8614217595722;6.033088095719213;-21.606463731835447;46.745808892291684;4.767059282514411;10.193734299038653;-15.347756113191986;13.191669091436992;2.387269312970334;2.423229699103325;3.92040495816381;9.468667618519234;21.443437651184244;-9.183305519523328;6.640206841753747;4.318771005697603;-0.13389010515692326;-28.5963186110137;6.113779662908427;3.6780406576118576;0.8578113783329443;5.407972496878309;-0.01866001423788597;0.12652233005608318;0.06003463069308306;6.160420430646197;3.9448526626174782;0.9579423076313691;5.404254933357532;-0.01979575663619334;0.14543416223897568;0.060126761595769046;-0.00023973934808841062;-0.5157633255109777
0.23996615409851074;-15.392621009120091;35.703377191315056;586.9500903853643;6.0862107789722355;-21.747265060383015;46.80518578654282;4.799397643461555;10.239871995540042;-15.330779526249902;13.154473592862647;2.375387921701584;2.434568137938853;3.9727947180969165;9.551978587881441;21.25340611835327;-9.027560289782395;6.610407196003456;4.332817412730341;-0.1333522332749785;-28.59885644852774;6.113688962246187;3.6785002759341547;0.8579846383774302;5.408014041358975;-0.018673533122628587;0.126565738931268;0.060028064056984125;6.15984875224743;3.944256097248971;0.9577347921663725;5.40416321911367;-0.019779567808164103;0.1453964912301753;0.060138298592488655;-0.0002166015752916436;-0.5159082893114408
0.25994300842285156;-15.171269287728192;35.385776039561186;588.1624139272596;5.999153917546229;-22.14687568246042;46.61740509536352;4.761566681151731;10.192794401123864;-15.396298382038239;13.154983448694434;2.3757002863432555;2.431144685239955;3.899668587566952;9.493635110347014;20.95187682721039;-9.02429794803058;6.550263653378179;4.327502903330617;-0.13977267797024068;-28.607864611446814;6.111544460809292;3.67411875048278;0.8564200609335447;5.407829534745242;-0.01868076857532023;0.12626942872041444;0.05999449020224226;6.158194202880074;3.9486411144412985;0.9594175421882825;5.403385466426707;-0.01975999447899373;0.14572238695173514;0.06017421648603551;-0.0005502198943607116;-0.5180042054041316
0.2799499034881592;-15.63837279884104;35.25772889922535;588.9405063823776;5.9340696175508425;-22.06541734691124;46.50779911956279;4.782071912047211;10.230524794890652;-15.336638346537075;13.200318135244935;2.3891573460137114;2.4329848867914308;3.8271671002780936;9.41277798202605;20.9213249878009;-8.867255952276073;6.537210102552411;4.315957064520309;-0.1417942221666812;-28.61779371313759;6.109076832094978;3.673244115217271;0.8561604315745479;5.40734106027746;-0.018706094207499593;0.1262250996928767;0.05996600348377438;6.1551190221141425;3.9496526976035993;0.9598349344515049;5.4024492857657584;-0.019718607386049067;0.14580317039002844;0.06020462793477668;-0.0006443897690551004;-0.5183634897637717
0.29999327659606934;-15.263720440955037;35.228394836430596;587.9410455703685;5.960303691743585;-22.166900684004816;46.601146153296135;4.779075608166447;10.225855320025524;-15.387640242831393;13.161375802673783;2.377117229688611;2.4320782325934482;3.8433111689862782;9.42426323511239;20.957247737207474;-9.074218319498957;6.53490417301964;4.318771440510592;-0.145532276247808;-28.622997037823765;6.108138673808558;3.6711826044256655;0.8554338696435674;5.407380716547063;-0.01872270522226787;0.12608929843026137;0.059935677003162637;6.153794855036636;3.9519929785551597;0.9607716894592779;5.401899851141345;-0.019682451090094907;0.1459889684508708;0.060244651517266344;-0.0008242957043643351;-0.5185865511781316
0.3201334476470947;-15.398600145671182;35.09967417662426;587.5325030003388;5.969966232294923;-22.047654583562597;46.574475939552606;4.752672624613879;10.170561847954154;-15.332505156008216;13.203854133004782;2.3896894958782773;2.4185507731898763;3.868003810841135;9.42394068419104;21.02839700182524;-9.1124078202572;6.549988454794629;4.3110739419764625;-0.14958770645395109;-28.63034295816577;6.10635784955222;3.66925234774983;0.8546581409855623;5.40719455410806;-0.018750431601582768;0.12594426454483487;0.059901560396150605;6.151525206665689;3.9542577675167143;0.9616841381329063;5.4010617440336315;-0.019643189723075764;0.14617361839146775;0.06028472402227521;-0.0010121306385028773;-0.5188551549684702
0.3399641513824463;-15.208409645472164;35.469953790489726;586.3517571013314;6.095847624936935;-21.96379900873948;46.879405263522116;4.776935225144003;10.201492648133236;-15.357475629467498;13.138112825126358;2.375515886994157;2.4265665680911264;4.0031864283289575;9.563539593319161;21.191456273275584;-9.210127577529676;6.600074343899326;4.330608046537641;-0.15434403488248313;-28.632327101544043;6.105643210054455;3.6663985345093333;0.8537203855752602;5.4072610486062676;-0.018768326514471828;0.1257550941533278;0.05986823715486771;6.150340902289062;3.95678989657655;0.9627174848785169;5.400493853440517;-0.019612042131801267;0.1463939131119883;0.06032575829332046;-0.001199279010742689;-0.5171888079562962
0.3601703643798828;-15.237194051959463;35.363890081948895;586.5497756570752;6.075422495827894;-21.965411117212916;46.83523707733676;4.750983519633299;10.14709049470962;-15.443782138974298;13.120801668750001;2.3636725918292876;2.4132859775605064;4.0170435550076125;9.562945494846563;21.2700166213276;-9.144855007744292;6.633926339068914;4.323121790883744;-0.15737829737463024;-28.631871366229248;6.106422704846601;3.6652360138282885;0.8532353134359872;5.407662123094083;-0.0187925089908254;0.12566317963990398;0.059847821231972645;6.150377173284543;3.957978452723175;0.9632600649801439;5.400369825345514;-0.019579069716013357;0.14652289796956572;0.060357428852324424;-0.001308141485305051;-0.5171999079495339
0.38001489639282227;-15.143419380518612;35.47230715403539;586.1601227202232;6.076879992243858;-21.99268992453778;46.89076920304004;4.737503097497915;10.143165652072641;-15.38529618934031;13.069823011109023;2.361115272894965;2.4128247137049175;4.037477931203237;9.62925187636234;21.207869845595102;-9.193087548384636;6.6118166725442435;4.3405420627564695;-0.16106768063511928;-28.6327824804682;6.106380651113807;3.6632219255631413;0.8524294349101921;5.407829321866215;-0.018794003284184894;0.12547805708373003;0.05983293424317986;6.149971745941042;3.959835304400822;0.9640378855011293;5.400098475031059;-0.01956537162470827;0.1467027878708185;0.060376919676971064;-0.0014339663206252183;-0.517231148520483
0.400099515914917;-15.28360569047448;35.29206465780437;587.7724499153657;6.009215243690463;-22.200572422240555;46.661716725514964;4.740972347639395;10.147655402693147;-15.420818411309334;13.090821407747558;2.3612414444693446;2.413567899961562;3.956890562432373;9.533128044655768;20.98516759983095;-9.038868531166209;6.56342928572516;4.325410888757024;-0.15823821138484356;-28.63025937482908;6.108056305203837;3.6661282092722853;0.853487964758107;5.408104068759854;-0.018802444012477562;0.12565883132502678;0.05984543523698717;6.150259434808548;3.956943967213124;0.9630223858096948;5.400406545139674;-0.01955963235502954;0.1465479833331644;0.06037231241713106;-0.0012256815105769784;-0.5171576485096874
0.42016124725341797;-15.189453087077474;35.23587525201344;587.9653067916886;5.971266319939274;-22.34906613864007;46.58081997387521;4.740702199345802;10.101107204139442;-15.43853068980208;13.027565534779331;2.348476163989763;2.4016117931503196;3.9229371868887113;9.563730961039209;20.872979296161606;-9.042298400238966;6.5150971071497406;4.349614743306547;-0.15776641886351558;-28.633695410239177;6.107795314170013;3.667152391935016;0.8538374009048759;5.407937812527155;-0.018791534656405616;0.12569828709797104;0.05985438096232634;6.149349585899141;3.9561363875629043;0.9627606412033085;5.40024081057531;-0.019569964874658542;0.14653356432428544;0.06036192135080541;-0.0011519124975081447;-0.5190066895550243
0.4399678707122803;-15.586547864000579;35.36063876283547;587.9585494018763;5.962970994999683;-22.0915451191742;46.6751085077519;4.773954967065001;10.195121380635596;-15.398486166169326;13.060573459747573;2.3586353240142937;2.4252470347663566;3.9085524262672298;9.55158530873651;21.0208272676103;-8.932780735861154;6.535296471940257;4.369535943267537;-0.15719775129005695;-28.62616005566671;6.110051711139922;3.667642609827118;0.8540214123791173;5.408503236040919;-0.018788972976619835;0.1257241088431369;0.05986932902989389;6.151157158827449;3.955260898566697;0.9624813398819604;5.400841506212672;-0.019576785614125645;0.14650553054808974;0.06035259202122477;-0.0010555914215252399;-0.5170153866160017
0.4600708484649658;-15.357164706205452;35.1832004021509;586.8619729255889;5.934477536151244;-22.03700949212555;46.67907350354862;4.740215589849849;10.145462121297266;-15.425424158555114;13.087962327427388;2.3604020748289676;2.4130665910118845;3.8825762796678442;9.523237151268948;21.158651369710398;-9.131318900543953;6.552630670768832;4.369670880297327;-0.15758213176090674;-28.629546877112926;6.10944231940952;3.6675224933980504;0.8539812837876972;5.408318597173706;-0.018772755677647177;0.12570981136192835;0.059877980113536663;6.150603534119362;3.9556197664157544;0.9626122221115004;5.400695539224719;-0.01959764361816682;0.14654477338688932;0.060337399114340405;-0.0010599789146116525;-0.5188483103780848
0.47994422912597656;-15.634828998673282;35.194132452603995;585.8758908623655;5.978361859944862;-21.647887029237737;46.72435396989735;4.750566288001754;10.142436216950207;-15.382539262358188;13.121859156992228;2.370691088667024;2.4119866791266986;3.920481512697584;9.506496115394091;21.474795393581353;-9.112303992203794;6.631384665265929;4.357531417619822;-0.15514278991602992;-28.624913933789564;6.110829425753719;3.6686838761711105;0.8544396746454896;5.4086088306373235;-0.018768342945928426;0.12579930905004108;0.05989031131530643;6.15143261028916;3.953693372009666;0.9618982561929292;5.401103582440961;-0.01960294803918984;0.14641689402449048;0.06032255397702108;-0.0008931808205205347;-0.5169219497356431
0.499950647354126;-15.43956137459745;35.70269631619069;585.2739191289231;6.083093031127276;-21.648740547997463;47.03775147311339;4.772045432854687;10.187817047234933;-15.43605765702348;13.081244520218362;2.3582025417261008;2.423262517165715;4.037253317806505;9.659599373838345;21.567774650939477;-9.17603423677987;6.666683164300606;4.364764655639755;-0.15488173416455733;-28.62566086469351;6.110918963566561;3.6679316716512718;0.8541598351594807;5.408694586266815;-0.01876999886365542;0.12574949436377503;0.05988559755675727;6.1511918158710195;3.9533259305800432;0.961764586016199;5.401086940783554;-0.019614840937859916;0.14640521447781152;0.060318433370852256;-0.0008507432755654118;-0.516901453654015
0.5199916362762451;-15.578932365028788;35.79614026124351;585.7747703136398;6.091311097806209;-21.668028293821827;47.06931559859588;4.735236652271364;10.133840475687418;-15.376482317359589;13.126830997650313;2.3717427342439974;2.410300349005145;4.086278921870447;9.757783400141731;21.477027955488953;-9.12296188369263;6.665773274978645;4.38191157910557;-0.15860049629726242;-28.63273981429156;6.108522393290324;3.665543925228751;0.8532217199333021;5.408272554652539;-0.018786862039437607;0.12557298752234147;0.059858007019860805;6.1489587501901;3.955940148513793;0.9627643011266409;5.400268048209835;-0.019597620283953045;0.14659447690063337;0.06032977608421502;-0.0010089677943827197;-0.5170549817306731
0.5401003360748291;-15.71993502849751;35.67977817075135;586.3717840358951;6.080583925577713;-21.740051711614065;46.95710379423248;4.766942062489144;10.179497531084577;-15.334767546437622;13.156940112289027;2.373738308421765;2.421564475250113;4.030339737764561;9.662345694433485;21.343617297396115;-9.089900091109728;6.627673263856836;4.359304904739964;-0.15981695085932682;-28.635930697597207;6.108055922600646;3.665425661939165;0.8531291409443018;5.408264017054405;-0.01881093057859696;0.12554589686196016;0.059828391605752;6.147707280336784;3.9560960871242337;0.9628709222617609;5.39987944909357;-0.01957515623633657;0.14662924848133754;0.06034844441150939;-0.0014126304504270349;-0.5170819095894245
0.5603044033050537;-15.878203223112342;35.17855458406534;587.6660258287003;5.923230279121334;-21.94642548166825;46.73059336148217;4.730130288044302;10.125478996882595;-15.426399500660887;13.232181473959983;2.3770462479633645;2.408578035773711;3.888505466301575;9.557954632882387;21.19277954687406;-9.059517274387053;6.545092803606608;4.3810831608773215;-0.16293688375885595;-28.636863847064134;6.108219104794432;3.6640372736748437;0.852539617808492;5.408545398070671;-0.018849133956685027;0.1254234870229959;0.05978658929715681;6.147223848851027;3.9579409595397834;0.9636391060647469;5.399554990264426;-0.019549793226599055;0.1467971982600018;0.060383227595822306;-0.0011484521443048332;-0.5170862166356789
0.5801060199737549;-15.902835387453838;35.1521180177941;587.4641383816379;5.899113196260043;-21.94511410343255;46.69999615230378;4.748027155795682;10.167290673724331;-15.32661633452939;13.1671780231543;2.383502387059257;2.4194792432681558;3.855571204095836;9.538748847415055;21.102384711543888;-9.038635384041925;6.518248399894892;4.384343326729112;-0.16836486710550205;-28.63955795975555;6.10742724331539;3.6608989693282745;0.851300108738043;5.408678536347234;-0.01888388368848099;0.1251850112455021;0.05973863296639203;6.14636844499496;3.9612906387897513;0.9649544689092784;5.398990614737286;-0.019520408541093;0.1470543512436439;0.06042185906575097;-0.001403839957394147;-0.5171238527080877
0.5999429225921631;-15.921865484925602;35.02640977319962;587.4585149966329;5.901841792918496;-21.919358846402673;46.62414628949877;4.7235129186871525;10.115060670868425;-15.333360413168844;13.159332256107058;2.373930713796177;2.4065712790006066;3.8756569415554054;9.521739877630573;21.143601370727204;-8.996634405855167;6.565102507738648;4.365160141521941;-0.17033272294683965;-28.643880024195937;6.106258217061986;3.660161342465387;0.8509743325027896;5.4085267272488;-0.018921979051094058;0.12512788203812866;0.05970070539240932;6.144675291994254;3.962287046830216;0.9653581021310665;5.398360953463819;-0.019485742906247695;0.14712594482177813;0.06044934474418938;-0.001502758640934328;-0.5172121324823908
0.619992733001709;-15.827691031400825;35.10193187650987;587.0544817550866;5.9677994273512915;-21.894743044792463;46.75053128845292;4.729887646468474;10.114937104197939;-15.300787232981676;13.235892492674699;2.397305362078632;2.4142649112431;3.9215715808899243;9.560427736599348;21.15931083910898;-9.123868644426436;6.567140987273519;4.3591621180444715;-0.1742098617095229;-28.645820232566315;6.105467556035833;3.657652019177226;0.8500106795479319;5.408567390703363;-0.018940743248714816;0.12495040935891569;0.059665988091191544;6.144061566731307;3.9648961982403508;0.9663515702713708;5.397913690268018;-0.019465629082547217;0.14730504441087372;0.06047674196685511;-0.0017130242282348915;-0.5172393952086839
0.6402590274810791;-15.80842795529562;35.27698458792087;586.4435158019718;6.019705186595467;-21.751112892700476;46.85536360018725;4.731218996403516;10.154479146168654;-15.337863701740346;13.183480142211671;2.3845846706817344;2.4166412200137435;3.997973570447099;9.565263233767954;21.35309977709833;-9.083084277234875;6.644783191836299;4.336460138204333;-0.17330281060379618;-28.64636184824955;6.10546235884684;3.6586188409327405;0.8503560467875585;5.408544923718966;-0.018968742768002596;0.12502401277801845;0.05964762555084519;6.143408956974376;3.9639638417112675;0.9660026468770061;5.397710390806319;-0.019450348599643702;0.14723310515504048;0.06049027654640661;-0.0016828122566368842;-0.5172341624675139
0.6599512100219727;-15.495600702077457;35.175026835252666;585.9716735052643;6.040457567724542;-21.837479447644604;46.852138704811125;4.71359572298711;10.096699006097426;-15.367404168823285;13.186993148603165;2.3824616711253803;2.402627719282393;4.00465256528028;9.574569079766022;21.33065955318026;-9.236280911260575;6.63069536241504;4.332081631040793;-0.17623193831336367;-28.63923134927137;6.108318326163972;3.656655485428986;0.8496201719899512;5.409487582989779;-0.01898150004673732;0.12488402083788751;0.059630574748047095;6.1463640898407;3.96653960240194;0.967011741257938;5.39828687220274;-0.019445819928901556;0.1474285052045824;0.0605174218135959;-0.0018502686480413484;-0.5187907014479514
0.6800892353057861;-15.41261410817405;35.37027584898615;587.1880636569234;6.0784583978116995;-22.071959432369155;46.84274333373046;4.72582152955729;10.099635032633747;-15.390445499127303;13.120498412818005;2.3688543052951596;2.403111278576038;4.053745134052978;9.658447708164712;21.101803036480266;-9.074266783445234;6.61928049126176;4.353056647589072;-0.17568947466755958;-28.634858150260616;6.109201205364373;3.657334990352629;0.8498502335537415;5.409674257571686;-0.019002067029270382;0.12492420992524515;0.059620465778215184;6.146721378440089;3.966198674062225;0.9669087338035557;5.398345245929421;-0.019422482674765047;0.14740337076075635;0.06053018146028608;-0.0018013464360505868;-0.5168993068507511
0.6999495029449463;-15.626403776328077;35.172766867061384;588.1785222894553;5.977592033499832;-22.19571139721515;46.68440647289508;4.71544983971674;10.101179639223515;-15.351409920242483;13.14866314418648;2.3706372326198;2.4037463115625206;3.953278226841159;9.602442343872644;20.88772145959459;-9.025544907590179;6.518556472966216;4.363606671242718;-0.1763663478568677;-28.63239724202118;6.110004436992646;3.657148775919083;0.8497488653111787;5.409894804515325;-0.019010526916490293;0.12488962731432163;0.05960894327986155;6.147199912020542;3.966431565048296;0.9670282278416751;5.398407678462597;-0.019412300848686115;0.14743536718264108;0.06054692922106635;-0.0018235939041216353;-0.5168290783605803
0.7199604511260986;-15.62289228759048;34.985047412629015;588.578630025971;5.897289616446667;-22.292959235657733;46.57307614565825;4.716443160747987;10.108776938750745;-15.388643914216345;13.12187114922554;2.3692663667944593;2.413051834664593;3.877537562209812;9.541624428549003;20.828094927983603;-8.984805406507427;6.4904537036919105;4.365167241149658;-0.17608141359285354;-28.634611890048788;6.1093422833832784;3.657721690943665;0.84992850646204;5.4097016487330825;-0.019028641339227312;0.12491140097032181;0.05959707614374795;6.145988297533779;3.965729439537981;0.966822766579241;5.398045564320625;-0.019392119933303836;0.1473997620392566;0.06056063393123509;-0.001800194679686085;-0.5168910481755986
0.7402012348175049;-15.498303277810432;35.0767423887297;588.1679052957651;5.950174732141574;-22.272205542589887;46.66693350001664;4.7221140138872215;10.093373787801722;-15.38931146319834;13.121843772747312;2.3690441031445975;2.401814766097662;3.9249248293336274;9.596537959914336;20.86795317142102;-9.047073001277841;6.5063816704930035;4.378526770066722;-0.17814408499998988;-28.63231287070964;6.109651492976077;3.656066624225811;0.8493432455484384;5.4100170981505995;-0.019030608027646813;0.12479755901863174;0.05958630089056108;6.14552371343189;3.9671454318414847;0.9673509701818666;5.397749708312068;-0.019383710857345693;0.14749295192833128;0.06057752562759812;-0.0019252198360210516;-0.516856704731785
0.7600691318511963;-15.25795976475085;34.96869981098047;587.0755764306043;5.973943660889266;-22.185248510182674;46.69290832918541;4.698679417985806;10.043505846268356;-15.395070582557159;13.117899287070895;2.3679789975119405;2.389505384582312;3.9487033959380073;9.600670432814194;21.00114844069352;-9.196898336992684;6.538492470752332;4.378889489940747;-0.1784631603457204;-28.627495002576367;6.111146592591395;3.6554493155837;0.8491768655650845;5.410578205751844;-0.01904120814647408;0.12478075079465463;0.05958399057253562;6.146877351265157;3.9673816398707196;0.9674380994667177;5.398053074971361;-0.01936373410198757;0.1474879350802649;0.0605917501920242;-0.0019821485271462073;-0.516738802132406
0.7799463272094727;-15.309680382017094;35.44768504969379;585.5995558125996;6.083351937306551;-21.844751659236493;47.03860999031669;4.739285216766108;10.131355827607928;-15.39855768218558;13.021006475167376;2.351359860347049;2.411662223047001;4.0778710921352115;9.721008594290437;21.34683728995244;-9.175502464610359;6.628017004856435;4.385737160078076;-0.17917094809321019;-28.622529314302263;6.1129705893997714;3.65444288913525;0.84884485084615;5.411104004329772;-0.01904053992216525;0.12474409999251095;0.059581501471204834;6.1489014857186985;3.967983001029347;0.9676433181064344;5.398479672916575;-0.019355252999540967;0.14751070309148243;0.06060694962653558;-0.0020857461267858035;-0.518398355673508
0.7999255657196045;-15.103291482985059;35.53023072453697;585.9017849770266;6.1022363166685585;-21.9809084353192;47.07886966435491;4.685205561288362;10.037711450129596;-15.543956003894415;12.980499453949985;2.3294956066414687;2.3884111914684816;4.16620528629166;9.8157554464397;21.376093279713356;-9.145710384504776;6.657639301729172;4.378358011742212;-0.17857689888627312;-28.621496121605688;6.112950911160273;3.654376905683992;0.8488616494215493;5.411057555894017;-0.01904546172775435;0.12476376824020853;0.059580716514093614;6.149176507574746;3.967948068478918;0.9675654211129144;5.398440597424524;-0.019351714387991485;0.14747714696686498;0.06061430278201939;-0.0021122833017623334;-0.5184038392449327
0.8199462890625;-15.210834669156522;35.40439015541929;586.3938403866381;6.077417398178603;-21.98848056943047;47.02301789430701;4.705557891830835;10.083880575703509;-15.458036462080212;13.071852491819612;2.3540119762295038;2.400168692310636;4.094162526750065;9.743977593917768;21.25121764232593;-9.150477691856846;6.629983374973564;4.375783200841439;-0.18030099203818742;-28.617781883241967;6.113175384613327;3.6526190627615907;0.8482437551003698;5.411214363340362;-0.019040134545107876;0.1246654365842433;0.05957492099966574;6.150153284955865;3.969534850595815;0.9681318376075007;5.398549008636114;-0.019339999403338262;0.14756350719894515;0.06062901998289625;-0.0022309785012001064;-0.5165675474547196
0.8399672508239746;-15.534097778093694;35.28665938421112;587.1948130409569;6.0065357752335995;-21.953501274743715;46.89601947464278;4.703431197223494;10.080635926310038;-15.432426734298986;13.043957834240759;2.3520243207756573;2.3995993086084457;4.044963496448394;9.715494127495663;21.198436998840062;-8.960233363002583;6.613025380446739;4.377824064382574;-0.1813883732986706;-28.615913605472713;6.113663596384525;3.6516707773581025;0.8479021241766843;5.411413475358657;-0.01904914701946455;0.12461448230755157;0.05956858902427282;6.150759986683202;3.9703996822185017;0.968407917207895;5.398482341468763;-0.01932734759544781;0.1476144087554351;0.06064405428196091;-0.0023137843742347206;-0.516551520465205
0.8600811958312988;-15.442517621098293;34.98656754480705;587.2891349040932;5.923168649145548;-22.079877257896428;46.78187357945808;4.723731137552813;10.081003537829128;-15.425876042285822;13.048092109651638;2.3531325538404904;2.399576483349125;3.919643037831937;9.645846969032084;21.086742749039516;-9.032528623478722;6.5609174173087155;4.406685344193439;-0.1831440626378505;-28.619170918311106;6.1125117875539665;3.650339426216264;0.8474151464603923;5.411239034112672;-0.019044672900116494;0.12452319303832905;0.05956039711176766;6.149923598779818;3.9718490885152895;0.9689244832247322;5.398099950850142;-0.01931733365351257;0.14771116799800146;0.06065612125698901;-0.002418039636755522;-0.5166728056718776
0.8799905776977539;-15.67275279941277;35.18443251831968;587.9875527311281;5.956423481754541;-22.080567215466907;46.86694549200304;4.70026165330714;10.075807453191704;-15.45544343805615;13.074350796693139;2.354453396437982;2.3986383196765018;4.0062472744434325;9.726421021492817;21.077671973629833;-8.924624354203466;6.555691808319548;4.412093084610158;-0.183494278709887;-28.621812942539677;6.111766713086849;3.6501904291393146;0.8473478534077887;5.411048247584566;-0.019049463593730234;0.12451143207437022;0.05955787396891375;6.149260706762812;3.9721323086779887;0.9690272220348448;5.3979234941322405;-0.019313529096742756;0.14774017631565184;0.0606634802342289;-0.0024358782740370568;-0.516780653443788
0.9001128673553467;-15.64230641977419;34.8959461918175;586.8741345635618;5.898584518383946;-21.917389661062394;46.77517745552971;4.701276105448873;10.07539914151357;-15.451315471033023;13.076927021467634;2.35503858622541;2.39824866405217;3.9248543091505184;9.600780127221086;21.27297850442194;-9.03655346556994;6.586409955480878;4.388983914336612;-0.18128878702284737;-28.62781817519482;6.110603303433754;3.651807273055883;0.8479602632001889;5.410596448377714;-0.019041022232679;0.12462570709061745;0.05956458699423335;6.147960079072905;3.970719902208092;0.9684858517869562;5.397748579005611;-0.019306378660522767;0.14763488193242325;0.06065689452691065;-0.0023490527605987774;-0.5187504765160957
0.9199678897857666;-15.806821643547003;34.99578073933018;585.6920699053462;5.964285625013587;-21.56505257957025;46.910048087216296;4.6856207810544515;10.019200289854336;-15.40235131566514;13.115170594383285;2.366414369889041;2.384279896333191;4.012529515532658;9.68299123715279;21.569090761161412;-9.07809033036197;6.660101805366025;4.393637812726331;-0.1816164455318915;-28.62726839925232;6.110539436269357;3.651160747386898;0.8477525405090451;5.41057584204217;-0.0190345108976731;0.12460245636359904;0.059572791397137406;6.148563371557922;3.971386594334009;0.9687126287586929;5.397932454878279;-0.01931709709990713;0.14767037346365025;0.060650970825452115;-0.00238806417734998;-0.5187760067911604
0.9401192665100098;-15.694825750926755;35.495719360116766;585.8028976457432;6.090227815355853;-21.585900022753655;47.262925697691486;4.724162783267371;10.105046418720203;-15.44110553671998;13.20636771518846;2.3706542446161656;2.4061021384040076;4.110508829011749;9.804069439996551;21.584728841679958;-9.14942486977876;6.686364765096207;4.400080468997226;-0.18340280468481207;-28.622700800747218;6.111418565760252;3.6491339810393084;0.8470539350159709;5.410869103805982;-0.019012055934821845;0.12448623827126323;0.05958397909878813;6.1506454463459885;3.9732648050788333;0.96938647586502;5.398421588022337;-0.019340509655359883;0.14778685125196792;0.060641553611259426;-0.0025085909794431245;-0.518687551306456
0.959954023361206;-15.563498203282355;35.522301961390156;585.9099396268439;6.076383148980982;-21.65916352173663;47.170376434565895;4.695635871979216;10.06367669433591;-15.41587702655229;13.107087495561164;2.364168179545039;2.395670184241018;4.130502625584489;9.84662424204861;21.486666664707283;-9.0842165232934;6.672731279812546;4.411329930963038;-0.17932902779296767;-28.615739762592156;6.1136344376527445;3.6515124017030764;0.8480073971116915;5.411199235480517;-0.01900243520211163;0.1246820688602531;0.05961320763597562;6.152893391452911;3.970700380562299;0.9683881709676903;5.399282264599161;-0.0193751026632817;0.14759999571994875;0.060613919134054596;-0.00232067186591935;-0.5185267825208609
0.9800105094909668;-15.6370295868918;35.444647866716664;586.5240832700096;6.06227999571092;-21.729904613906527;47.100412344838574;4.728230868734213;10.110561799150657;-15.409983623035412;13.158629386466767;2.366394681681783;2.407169659107307;4.066802588994257;9.770299873270723;21.371934922808208;-9.08717208043333;6.616631274471965;4.4081567200932215;-0.17652830329534652;-28.60941977067303;6.1152765221113725;3.6527758458381756;0.8485503140829941;5.411417462422069;-0.01897581950389734;0.12479450187755664;0.05964336946939217;6.155032209913722;3.9692644783744875;0.9678059938321976;5.400029136475277;-0.019401208826140146;0.14747646833280675;0.060579957466721276;-0.002197341890076111;-0.5183750037478989
1.0001332759857178;-15.51991303994477;35.277381400410235;587.8179271610735;5.996654538002062;-22.04590424313836;46.85927189432583;4.7011966043291755;10.07448168004034;-15.318571090354975;13.178557452023739;2.3793055038900772;2.398048349452869;3.990697960192187;9.735878191571977;20.954678811066383;-9.066224826976699;6.518953629089537;4.415533678073998;-0.17360605645053942;-28.607698617821065;6.114436990296748;3.6541075529739384;0.8491011009493372;5.4109211169047216;-0.01895535635929437;0.12491390271064703;0.059670496685009684;6.154829184865725;3.9681010822964247;0.9672831657402203;5.400089676133001;-0.019445690660419547;0.14736454845322827;0.06053697275652852;-0.0020530363866151716;-0.5165722094619936
1.020003080368042;-15.753597104287776;35.40222415338164;587.1209724908549;5.989524830676682;-21.75319597658413;47.0430700404702;4.754391601557142;10.166782992836927;-15.308774045695742;13.236746992101542;2.3905500257415975;2.4210481736212035;3.947424016221383;9.730641522881987;21.189575437237377;-9.10642591658514;6.5232970464322335;4.437088411223336;-0.17193627272084078;-28.598442655647133;6.117368409181885;3.654308557566849;0.8492597236879684;5.411550888072463;-0.01892956030886564;0.12495819490183106;0.05969910058387511;6.158602135864507;3.967521291991187;0.9670180002160005;5.401193927787193;-0.019483928878934652;0.14729954084211416;0.06050364687684286;-0.002016132062597531;-0.5180795230499062
1.040151596069336;-15.509197572146713;35.22792016511257;587.7307610324938;5.958964464845021;-21.913595489528447;46.80111954415156;4.701159280200964;10.073484860584772;-15.386897892053899;13.127846713686422;2.3643125037833017;2.3978335192884925;3.961378539501827;9.691890003666128;21.10707759539936;-8.969378076016786;6.560195800266855;4.404393026370868;-0.16863918277423598;-28.588566890424588;6.119321175374357;3.656160180644894;0.8498663990283903;5.411852116685903;-0.018918246109980573;0.12508946156842077;0.05972572921382178;6.16103870899458;3.965860986955656;0.9663298255423891;5.401984751998876;-0.019528736996574196;0.14715787578917464;0.06046540987690868;-0.0018618605609952953;-0.5160289164068049
1.0600039958953857;-15.243020014464564;35.3607601696012;586.7479289604823;6.038577913553071;-21.81760389138681;46.99319976894263;4.729281374478053;10.111171423891955;-15.449313899173154;13.181260479335243;2.3743640240751547;2.407267816682552;4.000129580486008;9.697328548252438;21.29185971608147;-9.151645805155553;6.592063845276018;4.398165161135372;-0.16711687320436416;-28.57797580190325;6.12206665970879;3.6567101037792575;0.8499537658708376;5.412501177501281;-0.01889927614961167;0.1251178995302783;0.0597470378449086;6.164598649682446;3.965433074424279;0.9661183871129719;5.402998083385129;-0.019564385031581553;0.14709974838003045;0.060434447213944635;-0.0018209300455146044;-0.5157174444235021
1.0800855159759521;-15.30733846920561;35.56446632512888;586.8623843639332;6.099342330966546;-21.715362870997566;47.036746141012145;4.707461172627223;10.108922240643313;-15.425436223890612;13.15246174536067;2.3722284745302633;2.4070218147904203;4.099441238388569;9.752746866178969;21.340223187062463;-9.02967030865845;6.646319723058743;4.388370660345251;-0.16510829568100438;-28.572287882456394;6.123200367615145;3.65746759180021;0.8501490311823177;5.412698599742983;-0.018887269425616263;0.12517499853679212;0.05976785972418258;6.166610918784605;3.964914891480343;0.9658432320066993;5.403610405116714;-0.019604824361157666;0.14702402397998623;0.06039898083115632;-0.0017634431824741208;-0.5155421512451844
1.1002426147460938;-14.963282743124537;35.190720354532615;586.2634224262852;6.094763443956379;-21.83464737396436;46.82997359112491;4.709259401972678;10.072358868883164;-15.36572578722953;13.19682167082932;2.385555596084176;2.4049189002806126;4.021021720282126;9.607195088698433;21.224337611173304;-9.265475298237373;6.601292676868964;4.351910205715233;-0.1619933976881033;-28.576392903657663;6.121762371105129;3.6587421638911053;0.850677016731029;5.412109373214201;-0.018863074930102905;0.12528695866759146;0.059787475638519084;6.165925109560145;3.963814104506955;0.9653180985521623;5.4035432820366465;-0.019643236394381355;0.146894317524392;0.06035592130594731;-0.0016663856078489754;-0.5174085225835006
1.1199700832366943;-15.067380554888615;35.702378523976705;586.8748973632179;6.127820255280922;-21.876961311905106;47.05182436060137;4.710377341658023;10.068016954034896;-15.434286705083906;13.0946014379822;2.361091437938193;2.396238650229833;4.127549419524533;9.837388231098569;21.22297895158671;-9.074668718168477;6.611596875185678;4.408874413283107;-0.16015888878922635;-28.576177097738977;6.121329885750216;3.6592096465268344;0.850890408143561;5.411883924619556;-0.018846467528786916;0.12533685744689702;0.059803986807612085;6.166262483375821;3.963395172469819;0.9650779697682179;5.403722448878778;-0.01968231044981142;0.14683101613638053;0.0603224225944844;-0.0016035767896981279;-0.5173922972259973
1.1399567127227783;-14.894044013062226;35.322146527883305;588.3733895313737;6.0569493892907715;-22.234183191189622;46.67963571234283;4.711607832626874;10.070889723953037;-15.445778751082525;13.086758699494386;2.3591228404641673;2.39701043891117;4.003833882015811;9.641197134344402;20.858454682335346;-9.007901419533702;6.5422530927494735;4.360865375052818;-0.1581964580074131;-28.566644491515042;6.123923926071425;3.6601123593332963;0.851220722850089;5.412519475522054;-0.018839318416266154;0.1253993524736691;0.05982097106194817;6.169147488265744;3.962269888935769;0.9646384421395962;5.4046675635595784;-0.019703438432556064;0.14674301801038303;0.06030109625125568;-0.001495851332931235;-0.5153497391360669
1.1599507331848145;-14.99894918665373;35.153508704378325;588.3726311736924;5.9696851215622955;-22.21777467537786;46.5789184181792;4.678312621007161;10.022412683131972;-15.479975045945832;13.035806829464516;2.3469134972948473;2.3851685756647134;3.960856558027875;9.629911341423437;20.900990676579614;-8.959779970967437;6.525823325029442;4.374495937931715;-0.15800066394629236;-28.568381120754452;6.123292960508993;3.6601339155109622;0.8511993918839158;5.412334864691737;-0.01883889568348189;0.1253824839978235;0.059824230882489046;6.168780429918636;3.962359594069453;0.9646564550860198;5.404625113516561;-0.019724422963859907;0.14675505441580516;0.060285294167109475;-0.001468550284018517;-0.5153823804737309
1.1801187992095947;-15.1089798489407;35.1725846881791;588.0665245780955;5.989834599310584;-22.10483259913825;46.64291987020587;4.707573270543346;10.063535400656015;-15.440251164271901;13.091157719024313;2.3600591103608526;2.3954610636935776;3.9473043679008537;9.612455927084472;20.973767211872076;-8.997295100557368;6.541742415206857;4.385241183745005;-0.15901753111029446;-28.57258654362434;6.121860158500221;3.6593163127609145;0.8508606258737003;5.4120101776304805;-0.01882475951742403;0.12529738141255586;0.059825862756132366;6.167806529656706;3.9633560790820397;0.9650195436741662;5.404373119783949;-0.019738867410421468;0.14683076440587595;0.06027312156965329;-0.0014965957046642322;-0.5154856332627776
1.199955940246582;-14.891439880013053;35.313825083572695;586.5744720101413;6.013036496914708;-22.01609853678047;46.777492938044844;4.699723928325503;10.066112838861873;-15.456628341375513;13.029276150697985;2.347650537448082;2.3958789717413955;3.9840500453997856;9.657764647803356;21.15424980480113;-9.162390593548576;6.568270216661292;4.388992790674179;-0.1560318794721566;-28.58048181094894;6.120304238596768;3.6618542685347872;0.8517765602747865;5.411436526205056;-0.018817071169535272;0.1254583639362152;0.05983961813835688;6.165852185576466;3.9613494916657848;0.9642521787586353;5.404086468532541;-0.01974784763731184;0.14669585370559995;0.06025188360596135;-0.0013342641856678404;-0.5174630850602074
1.2200543880462646;-14.794560521876566;35.73115658853639;585.5885977858768;6.1528133822650855;-21.86982141263907;47.08109327372502;4.730703304691854;10.107604284133036;-15.49322675206443;13.050691950534684;2.347387536162798;2.405945667091529;4.108789206874838;9.766361013243287;21.36843781960927;-9.267715608544844;6.630359916552505;4.39220709060241;-0.1538661402132354;-28.58073056678548;6.1207478163725035;3.663583778227872;0.8524155077759343;5.41147831975869;-0.018804749918698883;0.12555324719458025;0.05985900072953734;6.166114410206394;3.9598365644014497;0.9636886658716672;5.404387319008608;-0.019754512313701955;0.14659796890619262;0.06023613468788639;-0.0012015381352601254;-0.5174668842462024
1.239961862564087;-14.929482971745388;35.5464643281117;585.9852883482115;6.110017131451338;-21.82301706663455;46.88539815984909;4.6541702003213254;9.96540417014325;-15.531801620362167;12.9958963545434;2.334289837218141;2.370682302269126;4.145955691883772;9.78722425765578;21.430354078665587;-9.090990098953512;6.688146154819958;4.382074007263092;-0.15325974183953092;-28.579780540112484;6.120864371211188;3.6644788891207094;0.8527315921068903;5.411504723749087;-0.018797643897559703;0.12559821071652932;0.05987451049605961;6.166233949295613;3.959425679657283;0.963545459823861;5.404555333973565;-0.019761901979005563;0.14658345958876837;0.06022823401798362;-0.0011299152470336474;-0.5156708200838919
1.2600793838500977;-15.061949820335863;35.664819968990436;585.9913021921568;6.105386659894275;-21.81206207001678;47.02693030194371;4.6971081966318255;10.057234682393103;-15.525100816520006;13.074626817829866;2.3481675115242884;2.3935334953969565;4.102373398963665;9.782346083567841;21.430341295154793;-9.17145166476608;6.645086200875028;4.404529602029243;-0.1529677650377738;-28.585624885686684;6.120005857365488;3.665167932529784;0.8529505724668709;5.411285217051221;-0.018783710431748576;0.12561187185448985;0.05988373782414813;6.16515694451035;3.959044415826909;0.9634206277877919;5.404375388316205;-0.019764677571959335;0.14657864281405084;0.06022628424852499;-0.0010967070932445195;-0.5175926666744635
1.2799949645996094;-15.323770170959246;35.75994882380725;587.2750801908776;6.079370456868601;-21.9367841449059;46.98313748492673;4.698777250081238;10.06047499630851;-15.526244711853291;13.07016350886251;2.3397300418712783;2.394206502662337;4.0986899981967815;9.821230114630549;21.26547426337763;-8.998682030811237;6.6137734179187975;4.414527005694601;-0.15281883567865343;-28.59113439522396;6.117985782299024;3.666102102240381;0.8532450019013808;5.4107449342551615;-0.018781662315671813;0.12564494409961866;0.05988886422537641;6.162829446082725;3.9588080545472537;0.963344891430316;5.403814123445374;-0.01976032071826265;0.14657969218170397;0.060228247339869846;-0.0010402611624250168;-0.5159710884705924
1.300074815750122;-15.441180952646514;35.36494997445866;586.9602537739036;5.97893280451225;-21.876667607911628;46.81799933224971;4.709487345078069;10.062895234886884;-15.455382833416973;13.125923738542618;2.363532951103965;2.394803894725272;3.9575261264064765;9.682423374845456;21.26132691334851;-9.085734069064976;6.57013014808125;4.410835996934324;-0.15572267010519716;-28.597047713965054;6.116132188220379;3.664629881452151;0.8526287030576659;5.410406172810066;-0.018771964409508228;0.1254971906933625;0.05988281780822532;6.161036452666008;3.960564651825145;0.9640430545826174;5.4032123510623755;-0.01973750676543827;0.14672005227334076;0.060243044119729805;-0.0011505147392236945;-0.5161180972329161
1.3200173377990723;-15.475675076238394;35.46538917093835;587.5735930262067;5.9788014434342225;-21.983436344715372;46.845340261022976;4.6955799145272135;10.056085379904555;-15.524938640652945;13.071479716960413;2.3399615447991677;2.393450199888683;3.9963667330096464;9.742028339668144;21.20804478628653;-8.982940079213115;6.567112135084888;4.426741664256664;-0.15703696985110072;-28.59529277919981;6.117167547129531;3.665280382807413;0.8528009975740507;5.41074191092134;-0.01878563235548396;0.1254985732595198;0.05988009142032945;6.161422563079795;3.960649795416573;0.9641557191182731;5.403292404883573;-0.019714208755771977;0.14676757228264817;0.06026691957596882;-0.0011746654821953072;-0.5160485927202189
1.3399653434753418;-15.379914008355149;35.353353050532576;587.3665534980099;5.959058514172325;-21.997507044655286;46.77995499557643;4.694341969886055;10.054691185943101;-15.48622846066999;13.055577443161699;2.348586701101518;2.393287109002351;3.9652174486312015;9.698285573623963;21.171826468459983;-9.010498596625169;6.566266668053041;4.41596032655574;-0.15983634666166444;-28.594837791812285;6.117326479531543;3.6649220044734414;0.8526047890872754;5.4108844287751925;-0.018786227593440882;0.1254292376947787;0.059874294820110655;6.161366756288839;3.9620359263171947;0.9647354468069474;5.403122755392854;-0.01969851184970741;0.14689727144427797;0.06029189377496275;-0.001287095300207276;-0.5160111174746704
1.3600609302520752;-15.654236394870408;35.34670687118053;586.3563687861747;6.007051212997881;-21.64054573631637;46.849018158452154;4.694243962603797;10.05271104833702;-15.399501156954262;13.120869035510633;2.3614607024494534;2.392631707056892;4.008109130487008;9.69707938808744;21.41698227780818;-9.056212840611954;6.612812211504364;4.415143047322128;-0.1593331507598105;-28.593025982661338;6.118287939564542;3.6660611252689863;0.8529742730419947;5.411109564934635;-0.018799015291554123;0.12547461750917613;0.05987399607353633;6.161369765850962;3.9607801765072144;0.9643207056951386;5.403139766216579;-0.019677123820493622;0.1468369104516869;0.06031205597117636;-0.0012309564513000113;-0.5159337670385672
1.3801651000976562;-15.440887840109484;36.02580618259408;585.3763041166425;6.17197622886215;-21.549525417749088;47.37530175630809;4.739693825663073;10.131516058254165;-15.421607134786505;13.15697262175652;2.372212661862044;2.4127765566928363;4.166629138123249;9.91858241344251;21.572519690766057;-9.204711376736855;6.661637937229196;4.43961036848189;-0.16551970668610375;-28.592556703499753;6.117956075747363;3.6618751537580856;0.8513455918049468;5.411322146660795;-0.01879386876046389;0.12513955623654735;0.05985684397336744;6.161479894832628;3.964593341657555;0.9658108542620011;5.402796111433846;-0.019649305530357916;0.14712249068115676;0.060344427881898095;-0.0015156992235498467;-0.5158939937577801
1.399965524673462;-15.443604852361998;35.51441903753504;585.8773180428423;6.0962980856979385;-21.614469412942803;46.9719964071553;4.688012891441997;10.041764858818738;-15.402855241223588;13.119669452900542;2.3607906641111867;2.390339302467065;4.102597449136898;9.751220398828417;21.478392006073758;-9.105721170187657;6.675212911228678;4.3905747270855;-0.16476984192659178;-28.59129638055371;6.118634380685954;3.6628814031143975;0.8516747530402199;5.41145270931192;-0.018804828441566862;0.12518216770499607;0.05985692433180776;6.1612351343774305;3.9632428960075137;0.9653475431489166;5.402739760945111;-0.019626103908097464;0.14704470688708016;0.06036057292076893;-0.0014515610427304534;-0.5158384170139899
1.4199802875518799;-15.351906560960064;35.6997615843525;586.3759358561063;6.129849020059323;-21.772876481743204;47.079775088495396;4.722462927901598;10.092489920683748;-15.422134323818394;13.155316289321679;2.372092883080429;2.402672677793828;4.109424626489463;9.791507489916972;21.343736035531702;-9.146416363328072;6.625265928560435;4.400611626176918;-0.16517764183260203;-28.59222962597088;6.119041519289644;3.6630244400790026;0.8516849407153984;5.4115627808537905;-0.018805635542986213;0.1251601432845113;0.0598532236222239;6.1609547028512015;3.962783173720325;0.9652131397168255;5.402604685149402;-0.019609763597507136;0.14703061473724396;0.06037817160251696;-0.0014641155621792912;-0.5176154849721459
1.4400649070739746;-15.395900445151229;35.487825094824075;588.0784990872899;6.03608012985883;-22.07627408364361;46.90101149518204;4.690190426564967;10.055812039572402;-15.461196754937935;13.171109393395906;2.3636951604451157;2.4014947550170653;4.038779906827987;9.770020863492435;21.042210655675937;-9.031509227066529;6.555525115232338;4.411666559674309;-0.1686890279360519;-28.590225239779016;6.11943787964296;3.6610686983904133;0.8508864780236173;5.411829205257998;-0.018820864784034746;0.12498800205984556;0.05983660404982021;6.1622051638809285;3.9644095961595873;0.9658981707854841;5.40272940123367;-0.019581663952761355;0.1471722571600145;0.06041001785764394;-0.0015877763156651502;-0.5157504571724301
1.4601385593414307;-15.715139687031867;35.46702458070571;588.8626879398811;5.987598121970355;-22.05143435408069;46.83512303943636;4.740669930627857;10.135404015902335;-15.421081587614056;13.156983699224888;2.372410795147838;2.4138025419782303;3.9693570352884215;9.703405883471802;20.97157722310613;-8.862174322723865;6.526309370037486;4.411584145513979;-0.17141769077444616;-28.591622149447854;6.119098736583618;3.6598871154619075;0.8503669874350397;5.411847345474765;-0.01883344049621151;0.12485997331636435;0.05981423048862028;6.161427438447753;3.965410137821088;0.966334715198426;5.402316962756152;-0.019557066515369897;0.14727234081934598;0.06043982903949769;-0.0016855398475946592;-0.5157745826429543
1.4799432754516602;-15.388496339523552;35.16476038474857;587.7727484574067;5.96088122722429;-22.063194025403362;46.72323240383908;4.685203482895123;10.03903399615741;-15.406431663809855;13.117606608305874;2.360220244170593;2.390010126784623;3.955156853801368;9.676979855681175;21.009086560765084;-9.039799813642325;6.536509761966043;4.412685021936461;-0.1727356085280704;-28.59128485275478;6.1201661101570375;3.659594516410023;0.850205528090269;5.412205589434073;-0.018857567122398756;0.12481594411871641;0.059797495398080054;6.161897456230094;3.9653840955615314;0.9663860200304758;5.402332521719732;-0.019523801071680072;0.14728854711497372;0.06046794986425579;-0.0017450136073337901;-0.5175216621970521
1.5000004768371582;-15.381587355258317;35.254849664480176;587.0708275372076;6.031359708805671;-21.909662722406843;46.82328060789667;4.690837537036367;10.02975181926329;-15.359002998692878;13.155306584988725;2.3713708924084655;2.387848655321557;4.012737354948959;9.708963429759041;21.125297189012585;-9.106501974974572;6.580799225227147;4.397898922183601;-0.1753974694063192;-28.588593346742602;6.120484999635494;3.6580247775209047;0.8495895103637915;5.412451719418827;-0.018867857447584457;0.12469193245083812;0.059777674225060834;6.161927125957749;3.9667172030848823;0.9669152698089527;5.402136905163512;-0.019504658845311336;0.1473891405226471;0.06049585356277927;-0.001856410158346527;-0.5156821597199045
1.5200610160827637;-15.173711759513196;35.61437708068591;586.0735303100354;6.139590790899923;-21.821896673295576;47.10131400428241;4.690685819697479;10.029468003853387;-15.448061693399401;13.088469872965703;2.3579154365319295;2.3877709886238607;4.162060663786401;9.844858008870947;21.351700955877124;-9.155263497551303;6.653454865901761;4.399565781614307;-0.17704498333675775;-28.59111870745938;6.11957491471975;3.656870388647396;0.8491575526527019;5.412332600976786;-0.018879886344139445;0.12462471819060321;0.05976397208891575;6.161008584669001;3.9678133791736196;0.9673107986012204;5.401724192040899;-0.01948296396768203;0.14744092963188357;0.060513309499157474;-0.001962590413760741;-0.5157539921810985
1.5399963855743408;-15.084630236347955;35.58917117167137;585.6661725953907;6.11819243090279;-21.820641069043212;47.09917048973911;4.685155739981816;10.04068188796052;-15.46801353514674;13.023760125283562;2.3451946856963786;2.39056278386308;4.153566393556572;9.829131614771624;21.39794270790665;-9.166393327275472;6.663923113370266;4.394591084323582;-0.17750246144884435;-28.593692572979275;6.119634707234698;3.65670816592655;0.8490994056853804;5.412435564823172;-0.018886554721361762;0.12461860481030215;0.059752607616767574;6.160710747327416;3.9678524798212704;0.9673260993756463;5.401590936651955;-0.019462982494584356;0.14743172001974442;0.06053147483590313;-0.0020182951752745646;-0.5175970221205112
1.5600576400756836;-15.21725626727822;35.27571239245482;585.8690671371654;6.08005090288769;-21.833879119845896;46.91027262664582;4.670897857431237;9.98738125896316;-15.421038090870507;13.056946831361987;2.347947021984464;2.37719622144133;4.103440573903065;9.750456820570175;21.332858506787012;-9.1717462510276;6.640821594747873;4.383464939435641;-0.1791260817390055;-28.598861906103103;6.117787110385525;3.656420146378838;0.848913733418854;5.412044397500183;-0.01890958212375813;0.1245644244257146;0.05972436074115773;6.158076104136211;3.9683323728458975;0.9675484901524002;5.400776386395924;-0.01942933688693766;0.1474834146866297;0.06055840542837386;-0.00204958985062886;-0.5159816760783462
1.5799930095672607;-15.486424132580535;35.35550746027574;587.2552110028909;6.031854417267763;-21.973697957363704;46.92865653217609;4.701074220994919;10.0777269850125;-15.432660284003985;13.099275107689142;2.360849888607008;2.400156516826912;4.0549981586961446;9.72416768448904;21.161875714570552;-9.032283286586935;6.588551332678675;4.385638481712485;-0.18437910461780857;-28.606429319074728;6.11556038844232;3.653834533984874;0.8478224196744231;5.41171413453193;-0.018937108409722014;0.12432295957521233;0.05968149231235194;6.155393670253188;3.971157453035009;0.9686892642774623;5.399776572826452;-0.019397017900254672;0.14772804822248375;0.06059794173068324;-0.002253498764710377;-0.5161943820776754
1.6001255512237549;-15.314217314384505;35.062996872014715;587.3478162195945;5.949457214015729;-22.161153479663497;46.78432378954602;4.645850965121021;9.93692780676592;-15.481743412090434;13.059624843402608;2.3490124426629126;2.3649668333644245;4.01150434676896;9.771740803839709;21.0579811876246;-9.09852031979331;6.538266766381744;4.428400835191331;-0.18673213922065374;-28.60908595183366;6.115585071702344;3.6536473459343304;0.8476165897254704;5.411838088967572;-0.018978454417140245;0.12424017811166252;0.05964551414480427;6.154336635764476;3.9713783411497117;0.9688988187367003;5.399424587033731;-0.01935094616767357;0.147808149396468;0.06063576267909999;-0.002288166134967136;-0.5162628843024086
1.6201317310333252;-15.654053555389732;35.3627268222083;587.8496421476608;5.960651909322435;-22.06266191842502;46.903689696223225;4.68983976779192;10.030468803024297;-15.508514968558556;12.991886490252305;2.334766605093159;2.3882226297789324;4.044842119478347;9.82019637493;21.130614644979026;-8.877812678547102;6.56087950299369;4.441359199849861;-0.18812248355794475;-28.60909384942337;6.116605273473071;3.6543487930440675;0.8477317164600092;5.41216369064678;-0.019015571767616757;0.1242017265533339;0.05961034426264706;6.1536491029951526;3.9706321192239242;0.9687658259307605;5.39924445971258;-0.01931285869145511;0.14784191530036297;0.060672580902947776;-0.002256015586211293;-0.5162658660707201
1.6399710178375244;-15.441586126253844;34.97573191975924;586.7555559681607;5.9251073537808825;-22.00524820553715;46.73978412779721;4.68061515715257;10.032658826113781;-15.459176241141106;13.030105670359891;2.346532006324523;2.38879508219152;3.958833741910804;9.634088662391237;21.19409641034994;-9.085158032122113;6.568433731393845;4.394965124065092;-0.18980693008133181;-28.611737787518724;6.117195619302355;3.654745316188415;0.8477362368132361;5.412382290056199;-0.019055780316680163;0.12414930540348663;0.059574515380925216;6.152735170668118;3.970243124996921;0.9687583793607533;5.39897117812564;-0.019268317150417956;0.1478884389663463;0.060707016240883246;-0.002265966538610508;-0.5181111603335412
1.6599905490875244;-15.526128444224417;35.277107561386416;585.5425477266463;6.007991145068609;-21.73258749404716;47.063288397987;4.679048624314772;10.026502060675085;-15.463548303201378;13.123364052900682;2.361461925802666;2.38697577828505;4.061131112332245;9.774572361913735;21.49158145069502;-9.230944365998353;6.62521475488541;4.4219643194932265;-0.19052440487957778;-28.615569841471235;6.116130283582659;3.655932683140184;0.8480242098499985;5.412090337532761;-0.0191010096830726;0.12415152648436505;0.05953255397620793;6.14996013267418;3.9693215136038833;0.9685280603385644;5.3981965734017106;-0.019228409183532247;0.14789295060788307;0.06073904023054958;-0.0021955120814167563;-0.5164616865065904
1.6803200244903564;-15.542694400447887;35.542405104529806;585.5566514954148;6.092730085974971;-21.70537832540922;47.24435220346419;4.685389752649106;10.026927498232268;-15.463799426265638;13.123987784391616;2.361313083653809;2.394895442463499;4.166350646974506;9.898171069026574;21.518171067774922;-9.199299660522072;6.654230575494984;4.4372058159224;-0.19644980640790355;-28.618416142201212;6.116031666273228;3.6530658842922543;0.8468065927762529;5.412351378903736;-0.01915071558930874;0.12388292052408176;0.05947754865874832;6.149248888382217;3.972239982024955;0.9697540844850725;5.397681144160564;-0.019183815852461962;0.14816151477068987;0.060786603789022044;-0.002445428663420926;-0.5183146421260529
1.6999266147613525;-15.565522377857517;35.1213795723143;586.1448021824408;5.998939273911269;-21.8030702031798;46.96155454073834;4.671181252235983;10.01618874263421;-15.444896863397235;13.091817319120993;2.358376357596367;2.3853161178650493;4.062071136507806;9.74277008132179;21.37274578682499;-9.131104065974945;6.615373235997523;4.421513328549701;-0.2017443739721348;-28.610087737587598;6.118620633659521;3.650425545346148;0.8457081946340429;5.413346190919432;-0.01919311862594636;0.12363832829554128;0.05942843255293183;6.1511802252686705;3.974606371456012;0.9707877920025814;5.397939743872505;-0.019147076648184644;0.14839856230094056;0.060836211670518614;-0.002635108702327105;-0.5163274010248073
1.720139503479004;-15.591570364053972;35.40258242700239;586.6563554515424;6.046252514919613;-21.86884250642249;47.08318557979413;4.690299891734102;10.059711314192258;-15.445851486745049;13.092032998141399;2.3582806411006434;2.3964663721604813;4.1139050586441295;9.805363502245566;21.29638461851729;-9.065363522643723;6.61802974460687;4.407199284800673;-0.20620354799016127;-28.610203397149924;6.118721500938198;3.6485395438016;0.8447968103276677;5.413299299806317;-0.01923948678714591;0.12343609725480191;0.05937797761613092;6.150748314160152;3.9763853901565662;0.9715768615356658;5.397601164604954;-0.0191135230988698;0.14858835996437322;0.06087407984806176;-0.002797983054173097;-0.5163439662887173
1.739931583404541;-15.637830236167975;35.4979761118324;587.8514243105162;6.0111422192640624;-22.07955173721298;47.10403629261033;4.690391587895478;10.06198758403506;-15.419035633613682;13.16050779004929;2.372630864713983;2.397150460831141;4.0759176680348785;9.869590157202616;21.041508615670423;-9.030585797116318;6.561316474941418;4.432111615829415;-0.20918795081968483;-28.613290557109277;6.118089584992796;3.6474028632136144;0.8442673085828879;5.413286793505435;-0.019262622345478243;0.12329906743199935;0.05934467135711793;6.149585804455533;3.9775201156841433;0.9720885945254414;5.397171545342153;-0.019098677011063547;0.1487243834728319;0.06089432090899878;-0.002890658417789996;-0.5164438002374322
1.7602732181549072;-15.959261198751298;34.99693330745153;588.1363429119981;5.909066729220992;-21.994112947295726;46.80753265324894;4.700693154383825;10.060237285522804;-15.365361334595317;13.201551037225443;2.3848864466532187;2.396457948235235;3.938456299418463;9.669610823753228;21.03533211606416;-8.979415197258794;6.525812850123867;4.413335756621765;-0.20896006161829445;-28.61909036066194;6.117295891479912;3.648122294554276;0.8444531045096323;5.413036261339232;-0.019275953396545573;0.12330803610824147;0.05933191873308184;6.148276521544874;3.97475415740727;0.9711053199619651;5.39699638531993;-0.019084660182631816;0.14856702576511496;0.0608884088723213;-0.0028630715751224167;-0.5183925981241359
1.7801978588104248;-15.958597461193056;34.92589323263465;587.7273243409825;5.884672584955395;-21.94682188696399;46.81191024807029;4.667265367917903;10.018185997790264;-15.41268857609108;13.164767516900328;2.3735844791270315;2.3937828330377653;3.957980614653381;9.693213631476821;21.14737811192159;-8.989931073156532;6.5434650168723865;4.42649903067003;-0.20986726846932477;-28.62337393331986;6.115936014462303;3.6475887676214023;0.8442156122624865;5.412676233185613;-0.019266458783749316;0.1232506050594304;0.059334633213834725;6.147331374138237;3.9754544132872423;0.9713762019795615;5.396785976626121;-0.019104659724821504;0.1486385954731468;0.06086969247408607;-0.002878245869269368;-0.5185444710004766
1.8001420497894287;-15.450861060526552;35.274800352308326;586.9613348942537;6.00327562939251;-22.10140368437014;47.031334559537655;4.675394742344798;10.002389864876971;-15.49661104172495;13.148718803015619;2.3618639126196572;2.38188410105446;4.0582436826757595;9.814510018403995;21.167325107467715;-9.195321169413873;6.567887014747926;4.4342317201513;-0.20519178007191533;-28.624820586009893;6.115861102016412;3.6504823303842233;0.8453506021054406;5.412444447706418;-0.019244375504713557;0.12347529716089291;0.059371843384552946;6.1473533871392965;3.972896673036157;0.9703667709925285;5.397150702926449;-0.01914435307436639;0.14845196120364923;0.06082207911931701;-0.0026417151705724106;-0.5186185436674723
1.8199427127838135;-15.445614859121974;35.57961046805248;586.6544799024196;6.0778842292728035;-22.001089932714578;47.09840516939705;4.693405523500239;10.062103704187258;-15.481538332309409;13.062417550182634;2.3488604780852116;2.3965653726063234;4.141211051372425;9.82360792168401;21.26035500055428;-9.086940520052972;6.639204488925751;4.39601159077593;-0.2010488732613112;-28.628113207304107;6.114653460002361;3.651837981189779;0.8460081198385102;5.411938161990005;-0.019181083974083635;0.1236393753581833;0.05943029519379302;6.147434239026524;3.971947481404306;0.9698556320258466;5.397459901015982;-0.01921962130649199;0.14832532776080676;0.06075128908532346;-0.0024923471519226626;-0.5187322323755132
1.8401381969451904;-15.609040645583768;35.220689941539256;585.9400424916948;6.04731992153569;-21.77426419728321;46.919192195085856;4.663512460991255;9.972461331661773;-15.351606812913573;13.208989671086542;2.387075102691759;2.373696786471969;4.073011983174266;9.729492301566378;21.34776467029924;-9.23828699163218;6.6301524251748125;4.3795682236642905;-0.19465298845659132;-28.628442484483863;6.113397239330673;3.6543620926343308;0.8471756409743627;5.411273922728914;-0.019111070612915435;0.12391318948909152;0.05950472504467453;6.147750851799189;3.969697338552102;0.968824825731333;5.397945591275447;-0.019296976498309526;0.14808413955049812;0.060664756245728806;-0.0022255826886207874;-0.5169976258721359
1.8600616455078125;-15.403490454278945;35.564473044281904;586.2615798815956;6.092524454400806;-21.94467295855059;47.04364573835889;4.687998752735018;10.025184410958852;-15.43073470517676;13.100275652722823;2.360828045904698;2.386865116433676;4.124615127158588;9.818045638930554;21.266463941421215;-9.180131850830353;6.617499393405916;4.400962259799076;-0.19007649754591183;-28.624252217883736;6.114698295752897;3.6554731397205167;0.8477997141316072;5.411403687905238;-0.019036741000996144;0.12408700140924851;0.05958423839635833;6.151022323852519;3.96857799824314;0.9682424716004546;5.399167326015688;-0.019385286672366976;0.14793637933507564;0.06058487511464629;-0.0020892354109099042;-0.5186600639997222
1.8801722526550293;-15.406420300730701;35.614367315540136;587.4797360400606;6.083053647988931;-22.1545787969011;46.92877934193548;4.714246560985531;10.079980001375864;-15.390181379337246;13.129143643631604;2.36285644062673;2.400255787014106;4.065749960724375;9.761069046788096;20.9851640837981;-9.114434714272694;6.562907172338539;4.387423295739527;-0.18334511277702709;-28.619328658441667;6.115006638118721;3.6581550496522275;0.8490299194700637;5.411059457065314;-0.018964940259410562;0.12437610370419054;0.05966930121017054;6.152964397620045;3.9659509214093855;0.9670797671913496;5.400129314609639;-0.019476979471006226;0.14768182682949704;0.060497005944508665;-0.0017984897454639054;-0.5167691463423937
1.899921178817749;-15.386441792644417;35.48295922945693;587.9754911699289;6.021954566674446;-22.288042262935377;46.78399159481665;4.659267236641206;9.982122361580988;-15.42079705102949;13.080181708193969;2.3511267130946285;2.3758800833819476;4.058200804437341;9.806099674643047;20.882792347211513;-9.062128337769046;6.525111051798009;4.422617191002526;-0.1773689875768049;-28.62326641782233;6.113362366597664;3.659968521623695;0.8500925135121437;5.410202341689074;-0.01887996721076305;0.124626993612016;0.059750725221741324;6.153068389596585;3.9639843834039215;0.9661460813261552;5.400517311549209;-0.019562955466355947;0.14746153259661784;0.06040755456313694;-0.0015819842149284368;-0.5186460880785501
1.9199714660644531;-15.544308019325236;35.433566411629855;587.7820532721901;5.994554378763146;-22.123606371480598;46.81572374977708;4.688893269448913;10.022417551771802;-15.458747330402744;13.12703272589751;2.3622884478719994;2.3858705103702738;4.004993577895134;9.755365465006191;21.051248101539752;-9.054729491611598;6.537133285192132;4.433122854452601;-0.17192656797017578;-28.617292778922703;6.113373635967113;3.660731119355553;0.8507399452085258;5.4098891150936375;-0.018782486234596288;0.12483667918778968;0.05984838539115348;6.155776929454225;3.9630690960695754;0.9655590141765791;5.401561003213397;-0.019661857259402046;0.1472773283272636;0.060311974430527326;-0.0014115089327853547;-0.5167127420404993
1.9401235580444336;-15.27920748264603;35.390135438224476;587.1871315995186;5.996769116453752;-22.125499897426003;46.74901116055585;4.68115135052223;10.025698889379505;-15.490521853428103;13.055035736323681;2.347275447614394;2.386628378493081;3.9941189778770685;9.69835573769879;21.105401217151332;-9.105004696561029;6.556903512411868;4.411279213309963;-0.16209153259950188;-28.60805558328941;6.114963067773827;3.663883059579998;0.852311725040216;5.409795788452343;-0.01866840338784042;0.12526406965490944;0.05997486821170772;6.160330530094839;3.959747495408746;0.9639848007576469;5.403314753262505;-0.019782023736958948;0.14687333300167665;0.06019594147254626;-0.0011101850302321402;-0.5164503600617477
1.9599909782409668;-15.287496700437364;35.51055041700576;585.5958283690609;6.079334458860746;-21.7699293000627;46.89344744135746;4.695674904579613;10.03135910099503;-15.435011756710182;13.096792742112411;2.3600150765860914;2.387525509241337;4.048477201503831;9.716499930950686;21.419460236446387;-9.230607947215523;6.626282849007521;4.405807174178461;-0.151657953064483;-28.607554268212866;6.113591264643959;3.6660452849177636;0.8537632082999498;5.408904858065984;-0.018534093919038194;0.12571388540583422;0.06011562906017819;6.163007327656615;3.957303884301438;0.9626083424033046;5.404502108142893;-0.019926735414791272;0.14645913794328916;0.06005898682175673;-0.0008726724334890265;-0.5181919630789129
1.9800515174865723;-15.129724124430505;35.81695618752805;585.2908490043462;6.142197089851534;-21.723361507802345;47.015647281879026;4.674813693541734;10.006522733202292;-15.471097780690464;13.042627046871562;2.3478045324468115;2.380886321120651;4.142099904451595;9.831825621961242;21.504364865462154;-9.204129480040741;6.669616031610291;4.408619033562204;-0.13893146340134546;-28.59854253716948;6.114261332168389;3.669415575486929;0.8556448592052808;5.4085504625690515;-0.018382972432650725;0.12627094067507927;0.060272810698150894;6.167688411654361;3.9536877647598136;0.9607468916742401;5.406347844880871;-0.020078806001283436;0.14592838943510533;0.05991556191764585;-0.0005397185169506956;-0.5161612202576122
2.0001144409179688;-15.101197785762599;35.71513472564371;585.8816798187121;6.158216000991033;-21.803501216055793;46.884747202399666;4.693035142454136;10.021391356289696;-15.430774575706225;13.096205457612689;2.361314147465932;2.3840365857008132;4.101731499659939;9.748094969221187;21.363895630001032;-9.19702969963544;6.642475731058;4.385776086990663;-0.1283333678539897;-28.59496886549684;6.113471971143161;3.6710913908283214;0.8568001831286274;5.407941884998822;-0.018247622112361812;0.12668158438821894;0.06040827726734985;6.170986314235051;3.9511945874821794;0.9593417931732653;5.407693424666761;-0.020200282912260024;0.14548259238822658;0.059788097099976886;-0.0003105772006885459;-0.5160524052603639
2.020019769668579;-15.290552568416187;35.7162133696224;586.4821809506093;6.129423850790701;-21.80754918519851;46.847230382933105;4.71618854470044;10.070293626669763;-15.427397148030137;13.098701452713996;2.361964955021784;2.3961309928912278;4.05883514320051;9.709179419193392;21.318971973764075;-9.096793670202313;6.618490903373346;4.384181410260556;-0.12111625770919418;-28.5970033262965;6.111817325826938;3.6720782425883205;0.8575746184237176;5.407233257842366;-0.01814568539365781;0.12698080788601837;0.060506510085129216;6.17269202993892;3.950066736255822;0.9585614378097965;5.408482892781668;-0.02029635178863809;0.14519522347499772;0.0596959996478059;-0.00020738229244676807;-0.5178686323347882
2.040095329284668;-15.502637816874733;35.41887568514899;587.570598673901;6.01394024231008;-21.88503242295564;46.68648235188091;4.711663776718356;10.089451924143695;-15.449919983852546;13.175689974737754;2.3659506348532138;2.4083588610880846;3.9229631300834713;9.604657278649144;21.20673778998573;-9.030367152224251;6.568358153555581;4.3894525488761165;-0.11426487340078739;-28.590972428965053;6.112501588219775;3.6738114989114727;0.8585492611216237;5.407213767206926;-0.018084104930442574;0.12729358115585246;0.06057985193423705;6.175460722840002;3.947962607899534;0.9575199738848872;5.409578857932677;-0.020366420593057516;0.14489686656788564;0.05963722182160094;-4.490393639936755e-05;-0.5159357556504287
2.060126304626465;-15.71126707181993;35.58809442002898;587.5632296431588;6.033566177329363;-21.783550052758166;46.802727038729245;4.73193384602067;10.126750131117905;-15.355806120996547;13.202309000127297;2.38731701221715;2.410185602274135;3.939455978927722;9.67608417732956;21.19254423371077;-8.999244672335834;6.550784694732473;4.422247375854821;-0.11255086629886302;-28.595596338125326;6.110853352848246;3.6731238433587623;0.8585069706763687;5.406808871066189;-0.018042828508899184;0.12737884907653654;0.06060840913601077;6.175567961051975;3.948793822880568;0.9576462509215158;5.4095890632389745;-0.02038334031066972;0.144828733144475;0.05961441426032091;-0.00013430216894268817;-0.5178358007297023
2.080152750015259;-15.53025274888532;35.54332991143392;587.351881316162;6.054386826539089;-21.860095489958375;46.78026631429937;4.740567458409506;10.12414625754661;-15.394198246784129;13.12279850499942;2.362699024031069;2.4096447459389503;3.948001452348638;9.657988131326494;21.183697061259117;-9.001627097711518;6.571949855091398;4.402563140171844;-0.1126254681897763;-28.59437748907476;6.111288761468789;3.6720158938513974;0.8582353759297937;5.407121609122973;-0.01804515664582538;0.127406527595359;0.06060839758009214;6.176917362939497;3.949798388854754;0.9579482473846049;5.4099172525486;-0.02037449398839187;0.1448239587689758;0.05963007204748932;-0.00026740390411446845;-0.5178127394646742
2.0999841690063477;-15.360470671902608;35.48055566793501;586.3659488952713;6.0887038738160175;-21.79092231094358;46.91855392202177;4.702155497686201;10.074367803733306;-15.41329747317926;13.159625718295647;2.3740400680072478;2.4054411623591756;4.009618168961705;9.715676191549907;21.326106390116436;-9.162942928328645;6.609152663946883;4.409417101663258;-0.11768071491262526;-28.598165179969993;6.109399002659645;3.668123520537935;0.8568160083216032;5.407019777522146;-0.018059820413149977;0.12718802759346254;0.060569290143072385;6.176027139891817;3.9538208753543893;0.9594556538615636;5.409399325833465;-0.020338013769296774;0.14506244459592493;0.05967842034045589;-0.000602233388702321;-0.5161632215477749
2.12007212638855;-15.720041907034101;35.491666858292035;586.0402533725999;6.136059741064685;-21.535114496515902;46.97063483408991;4.699268966804129;10.068803730994157;-15.35866392558743;13.201786286453965;2.38649240985742;2.4041563067325047;4.075936612484172;9.717068530394885;21.50622809141836;-9.089925795950485;6.668802072942528;4.378603730821418;-0.12113359494174505;-28.607564799340796;6.107081716572684;3.6659595123274515;0.8559899679099711;5.406807087220287;-0.01810658403555576;0.12706772159077648;0.06051486433438271;6.173444898426001;3.9559769696412523;0.960307337279197;5.4085205224735;-0.020278135565953773;0.1451954008635967;0.059741974657690655;-0.0008438424643943563;-0.5164336764119729
2.1399853229522705;-15.287698218648858;35.31425232201955;585.3367544949565;6.1438493435689665;-21.771514485472387;46.949518033877425;4.673225887276352;10.01015466608161;-15.336222681626374;13.167944891928066;2.3756967494367243;2.3824317761399736;4.068431002728415;9.726005736631272;21.346706115614754;-9.330256650520958;6.625963164704648;4.380827088027672;-0.1277333354900712;-28.61581898149302;6.105379844137171;3.662344022674434;0.8545637446980765;5.406935078747318;-0.018160330949909535;0.12680651771794682;0.06044028857172972;6.1712195739747875;3.9597455263699635;0.9618249379364825;5.407553914631148;-0.02019123897137077;0.14547180814213423;0.05982895039620907;-0.0012103763630421267;-0.5166776757085206
2.1600003242492676;-15.716486374692881;35.42036817475719;586.4147538718042;6.131356265857468;-21.777780169285023;47.06276546985197;4.690927930432833;10.058978113523498;-15.404119202871634;13.167060771776068;2.3754614828715046;2.402619619058747;4.102842042952393;9.78072763882774;21.362339600584225;-9.111147686229835;6.628011318253694;4.395004578841648;-0.13651776627371104;-28.628279264628517;6.103180940154599;3.6579653664445577;0.8527652978726836;5.407027316571065;-0.018239367954847457;0.12645095851659024;0.06034624013509212;6.168019260327114;3.964368793366588;0.9637302966535133;5.406237651737435;-0.020090299260924135;0.14585160408507564;0.059934961307425524;-0.0016551669202716415;-0.5188077710011767
2.1802175045013428;-15.75005697270439;35.24504428533881;587.6249654249539;6.060789207315739;-22.10771094072848;46.920837608304055;4.683321420491346;10.041458708356062;-15.373445436058354;13.139647894819632;2.3661143641076565;2.3913669413668597;4.036703610492542;9.763931739612225;21.018816698204;-9.045703451509938;6.558491696243394;4.400664844180361;-0.14694586038261964;-28.641628134370126;6.099574553868688;3.6530278231635247;0.8506841887035304;5.406780119292656;-0.018316535154408946;0.12600571578807027;0.060238406508001795;6.163093097333092;3.969731133929246;0.9659599995860241;5.404386794089905;-0.01997924521077246;0.1463167831702947;0.0600491790994062;-0.002095875521989291;-0.5174325357456239
2.2001211643218994;-15.957934797780677;34.99317266433977;588.1852928054914;6.002439480325332;-22.193444392560494;46.799454729104866;4.704473435306228;10.087158573611134;-15.308199887131236;13.192224245582779;2.388746472733348;2.402738567941426;3.9470437269664753;9.65915747737968;20.866005331068216;-9.039285102358258;6.500507359192869;4.398597340179465;-0.15266690061377966;-28.653321309463873;6.097658462665346;3.651780371961456;0.8499718187419463;5.406717087357456;-0.018405998767781505;0.12581050007564676;0.06014718044940878;6.158711219895393;3.9713004339990885;0.9667719448957561;5.402932616829312;-0.019872993068196128;0.14653410111690765;0.060149841748634164;-0.002289631308876069;-0.5177729670756248
2.219970941543579;-15.725128897289334;34.85010182698217;587.5849381384289;5.985297544804766;-22.28752598231737;46.80834307001166;4.678584543181677;10.034162024256295;-15.407527922420135;13.115299131371671;2.3651409703936968;2.389869874309211;3.962787713869465;9.670038622758542;20.94139618299314;-9.117160876959844;6.523966455240793;4.401021870046675;-0.16052186230140894;-28.662083778085847;6.096234300403269;3.64873323016329;0.8485947484525961;5.406853820765416;-0.018475241892877678;0.12548006002370155;0.060060069064510384;6.1554793385930004;3.974523370933547;0.9682098504794723;5.401681676729508;-0.01977231791018603;0.14686744658185866;0.0602455443563147;-0.0025830168321783224;-0.5180260553800432
2.2401278018951416;-15.773713369827975;34.92147427089891;587.171285256223;6.023132558613232;-22.213651829367308;46.896276571411434;4.675076945277844;10.02793936427607;-15.399638246893792;13.121036853445524;2.3664280812229777;2.3884878197118544;4.018258402299378;9.705614897820173;21.03675945856365;-9.131436150150932;6.567083882784595;4.394579299071319;-0.1671991389931021;-28.67425542794949;6.094006970363918;3.6465896051003543;0.8475383593763468;5.406627588203472;-0.018547943180115732;0.12520644339442696;0.05998019444268583;6.151412391194455;3.9769572846505783;0.9693521860321384;5.400293815985568;-0.019686189329111224;0.14715115410699237;0.06032728076457323;-0.0028207820243762944;-0.5201300364131052
2.2599728107452393;-15.56575039047161;35.20523628302702;585.4889598640654;6.115577711753442;-22.042089463592553;47.192753759334835;4.68218339840256;10.019770196347816;-15.464736204170892;13.07262603593608;2.3516082415936337;2.3864056542273953;4.127831231542524;9.8360200616234;21.326146683553915;-9.30139606368251;6.618733708963488;4.4115591828059735;-0.17082116255251556;-28.670564456312853;6.096518456004856;3.6460728838716956;0.8471298898333041;5.407464827459347;-0.018606381527253482;0.1250520236005395;0.059923213092519696;6.151737972260421;3.976918603717585;0.9695750158252503;5.400258593690807;-0.019615324480266157;0.14727177285349735;0.060396230906826553;-0.002879825467833803;-0.5200266398463965
2.2799222469329834;-15.774984422936875;35.20295099298635;585.685512505482;6.113340041971433;-21.9163001903381;47.14433460538223;4.649002664898499;9.971655536590015;-15.450396663167016;13.059367360596045;2.3509471012460557;2.374625011704466;4.177880923753166;9.861385130397203;21.40285687703888;-9.16435951098109;6.663864147172545;4.402681922540637;-0.1749254957979728;-28.66854249901275;6.097312307166381;3.6453896482809904;0.8466538468916978;5.407803482103471;-0.018661602762525535;0.12487943551056417;0.0598690665865547;6.150605217118074;3.9775316897686857;0.9700173481098345;5.399748972755923;-0.019562078920552423;0.14743719693710094;0.060451644955477224;-0.0029325673381703555;-0.5181894808906067
2.3000833988189697;-15.663910898189458;35.11128245649482;586.0005191907211;6.083021010185073;-22.031998318515768;47.11084045209152;4.666210696366654;10.011721538791138;-15.469041398066626;13.070809008938884;2.3509966458028058;2.385043477891547;4.122240634806954;9.801530231069618;21.304820322426124;-9.194171054045182;6.634125451020472;4.403716725511613;-0.18103452562814942;-28.66431881766955;6.098865559815024;3.643040962080626;0.8455609229444361;5.408388039397647;-0.018708024349420788;0.1245875773307999;0.05981863038937476;6.15084615706962;3.9796636194806827;0.9710370998581112;5.3994962399136694;-0.019515132387936708;0.14771011650619634;0.06050146429854187;-0.0030987457819224573;-0.518041394564528
2.320131540298462;-15.645801122598694;35.03269590245151;587.2024129792907;6.058647769013471;-22.225334344083407;46.93614449082688;4.669241477105967;10.0164823323538;-15.421363957884525;13.107493949145287;2.362421350617142;2.385955181093809;4.073396821447083;9.743641854011088;21.030362586995373;-9.127669734019031;6.580520810112575;4.390132698424699;-0.18139924478732053;-28.659396252466866;6.1013579370289035;3.64455061350445;0.8459220046164662;5.408829170328076;-0.01875554527668337;0.12457497522814603;0.05978895761757441;6.1512538220046435;3.977658968365263;0.9704797113596524;5.399588440395812;-0.019482354203015494;0.14768759518262276;0.06052673045385778;-0.002992965587899791;-0.519631577532681
2.3400869369506836;-15.759703174987349;34.7804962364758;586.5040131137386;5.95124171595228;-22.035942353305572;46.81650244540076;4.667533954450178;9.968554854973814;-15.364940604700893;13.05403013537794;2.3592812811615635;2.3739038036012947;3.972708078092369;9.720820675945973;21.134045157561356;-9.131946172757461;6.554875124953073;4.424091570391045;-0.1840285590534045;-28.648249299044235;6.1040955134694;3.644283112749301;0.84565140364135;5.409440629458535;-0.01878511388484956;0.12444078639029373;0.05976124721096925;6.152640101510851;3.9776135872167493;0.9706444210281515;5.399788246905838;-0.019465655887038087;0.147798017582279;0.06054687348591279;-0.0029686925336316426;-0.517509460667611
2.3600003719329834;-15.794093343665924;35.005355256969835;587.5154861862421;5.945940125258806;-22.089868704483436;46.915761404666426;4.671378351380347;10.021565070074132;-15.493808428338141;13.053608328837855;2.34690762229092;2.387260926878061;4.000112809302637;9.764795477078458;21.136064481644986;-8.992084243240331;6.550772524104043;4.442049420878828;-0.18363586728513503;-28.628576907115725;6.110408185940738;3.6455414525571066;0.8460126070829072;5.410886421536667;-0.018822796391615326;0.12445934163323724;0.059751324167160266;6.157378429632491;3.9753724025789956;0.9699763440827714;5.401068174796884;-0.019463384503603263;0.1477472989455861;0.0605582029467182;-0.0028363440896955203;-0.5169073077246108
2.3800361156463623;-15.794061899293286;34.84044487262618;587.3294386006772;5.935104683540982;-21.936961453408436;46.79672024617187;4.65632581523344;9.967202995352624;-15.458748713430241;13.082561091126433;2.3559484403936173;2.3738309205521166;3.9815535166559237;9.716845244721359;21.20873905678031;-8.978466965268021;6.575699674705598;4.4229632123919815;-0.18522975044604756;-28.610255019936943;6.115816621072446;3.645148166251511;0.8457703914330154;5.412173562692555;-0.018847085384815387;0.1243474975764827;0.05973481030152379;6.16181591604659;3.9748616047690306;0.9699418609761529;5.402121987947502;-0.019457352253039108;0.14780137007846553;0.06056964167612948;-0.0028188207864105535;-0.5163408396043868
2.400123119354248;-15.759786773691516;35.07859995862272;585.7314136784748;5.995642698460966;-21.588811649905054;47.04092450378006;4.621553971336554;9.91480000636443;-15.415809238610443;13.113482807255053;2.358323462521497;2.360921083660907;4.0884289868208095;9.86615296703367;21.520782837402848;-9.108928707630232;6.644259737513849;4.452187972046578;-0.18639772451164738;-28.603044741037;6.117209422338687;3.6443137474169767;0.8453527103586858;5.412348259635319;-0.018875680823541033;0.12422661971663504;0.059711278303826484;6.1624109680188734;3.9745532095386125;0.9699207889355128;5.402088812115365;-0.01945645418529634;0.14784273291972183;0.060571050236585045;-0.0027925819337487334;-0.5160847833946246
2.4199490547180176;-15.57247816567224;35.48516234554272;585.7648587303722;6.089328560540195;-21.57008146756457;47.30879186067;4.684043543694931;10.049854535154477;-15.484247602400632;13.160381634636034;2.3593561209841227;2.3947241168380087;4.138326854804207;9.884200661912395;21.595848832291367;-9.129894772488418;6.6915458282161;4.4335800517136095;-0.1879918923645009;-28.592046237392147;6.120477595708056;3.6427523123309697;0.8447177965056148;5.413104079783777;-0.01889180124487417;0.1240777821191699;0.05969268289688458;6.165283630619846;3.9747216392276434;0.9700696204100526;5.402668905978239;-0.01946167734560182;0.14790620802953475;0.06057448408627532;-0.0028358112175130143;-0.5174972562532981
2.440160036087036;-15.277102804995973;35.31564733859811;585.5839738435117;6.077458033069705;-21.64171510591285;47.137539130664116;4.66016823783607;9.999479420866786;-15.435041283131783;13.102683155435088;2.3550985775691204;2.3824169452909327;4.119908107503648;9.837069074773323;21.478063592677792;-9.171370720828069;6.672461943750641;4.415052872971627;-0.18884071566448707;-28.57532824596388;6.124481574941324;3.64253455956573;0.8446059089015417;5.414004623718341;-0.018918976436195285;0.12404247856750902;0.05968047958723682;6.168935026265962;3.9745726105637673;0.9700901925903815;5.403498993359094;-0.019474302920208242;0.14794411485904915;0.06057630809871059;-0.0028208613468469063;-0.5152263839122463
2.4601051807403564;-15.319764763526885;35.428500838718435;586.5096184971509;6.102108506936977;-21.70748884682093;47.163844641558725;4.688437882264755;10.039752180490684;-15.462226370236383;13.13425902837444;2.3650605249419656;2.3926829490083783;4.131787192986399;9.841918579934775;21.381363440866405;-9.082515566689722;6.640798022201156;4.416603362536086;-0.19080085748579037;-28.56297393991391;6.127398790281465;3.6411815485476424;0.8440969717725113;5.414683539582816;-0.01892457749547554;0.12393665167698995;0.05967229077944653;6.1721311266437215;3.9757438917169763;0.9705380098708981;5.404160828199589;-0.019487161703763946;0.14804471834697577;0.06057221792610305;-0.002897513781748671;-0.514846661625949
2.4800069332122803;-15.177018680426006;35.259902778676086;587.9051230589844;6.020499701728549;-22.025044567542892;46.92677754454031;4.657715938193769;9.99813805376377;-15.443261241470916;13.097802633977247;2.354003699869491;2.382560477255239;4.05932299754236;9.815069070282156;21.017573848846844;-8.99584156390317;6.560718296892763;4.425980296925569;-0.1904425027773624;-28.55553540152845;6.129442722332666;3.641261896660609;0.8441475834882158;5.4150239071905215;-0.018927120795962663;0.12395007970713409;0.05967981976212944;6.174438094099015;3.975530052166369;0.9704608925331603;5.404721385754454;-0.019513425938137284;0.14803927281644386;0.06055252431269054;-0.00288882820712877;-0.5163779964640072
2.4999608993530273;-15.309512149690123;35.196845142244;588.2091729300116;5.986090627626884;-21.977472123622945;46.87719704582715;4.716968225536384;10.098416550687062;-15.372565575794814;13.201035289919718;2.378864686838279;2.4068149253310662;3.942634918728574;9.697399821209459;20.95068732957831;-9.035943612373082;6.511043283574875;4.4202245580577;-0.18433995241258877;-28.54732640015853;6.131069451753827;3.6453164609617206;0.8457213351875872;5.4149792590553005;-0.018913101000414254;0.1242525844149397;0.05970867758056573;6.175590750497448;3.9714668718832478;0.9688915166733014;5.4052993698295575;-0.01955273785057178;0.1477479194100972;0.06051153604769586;-0.002563247657129209;-0.514363281745068
2.5203375816345215;-15.025697655700364;35.132677902927746;587.7000090065303;5.9685746671474025;-21.991607602100267;46.80603402948876;4.6751652375081;10.00516043158848;-15.477980741647917;13.07143426044659;2.352920164810409;2.383215801314818;3.9855460814417247;9.731558803905086;21.084148788781356;-8.999453415020941;6.568043447846201;4.420647357285568;-0.18038821085627343;-28.547886231003314;6.130476889645014;3.647510453456092;0.8466074338442605;5.414444098966046;-0.018898129975526513;0.12444255263330992;0.059734521440656115;6.175328156189563;3.969459231501194;0.9680537644366973;5.405335719863588;-0.019584471548424673;0.1475672763017569;0.06046790490880546;-0.002407627598731211;-0.5161268122420419
2.540024518966675;-14.946064705411933;35.25374195506403;586.8280974568767;6.032889427690176;-21.789668835346497;46.965926179750056;4.658611416848951;9.995852764460672;-15.46433371465276;13.132529883725887;2.3650150786939266;2.3815952465441237;4.056210692420425;9.777969613384075;21.26551865159444;-9.106965451747802;6.611505103402967;4.4166860511468435;-0.1819670297440039;-28.53562759628644;6.132448693057876;3.6450884349238812;0.8458107092111138;5.414949804618889;-0.018868489493543923;0.124325047673443;0.05975383219982663;6.178938717120109;3.971562316323595;0.968772545074362;5.406132936074413;-0.019624246691752036;0.1476725040089015;0.06044285987612181;-0.002520459882409765;-0.5140039664559477
2.56011700630188;-14.769296168049081;35.660691500359846;586.5514911228353;6.156693023874505;-21.748845569424297;47.136716465934924;4.6705092300657824;9.994834445169142;-15.500246665266046;13.057626123431412;2.3489199200018955;2.3809085344790173;4.195597017856219;9.913134316353382;21.335592679705925;-9.064987042523908;6.6544729993734135;4.419548823276155;-0.1760757665387304;-28.522499655101697;6.136080580164787;3.648072348705597;0.8470679623413775;5.415547116812249;-0.018855600018477296;0.1246102191894006;0.05979247823482671;6.182846609512826;3.968141343449454;0.9673949243246375;5.407411058397864;-0.01966262388843497;0.14737612655150695;0.06040287398232625;-0.002292217558237198;-0.5136248589556507
2.58012056350708;-14.508580524247863;35.4620133532058;586.5540148316825;6.136160744203352;-21.82984987023174;47.07489725537874;4.668332737398807;9.992221890007595;-15.56689824831897;13.104136354584355;2.3502564586125065;2.3805060658015464;4.141156902922472;9.820013348303618;21.32962503548691;-9.163359569139843;6.6524511619750735;4.3961181749139175;-0.1753676997503802;-28.513730719289917;6.138291292595252;3.6470526781814554;0.846825837272608;5.416043038359395;-0.018826009162263777;0.12461048675962698;0.05981814872274652;6.186494463983441;3.9687681418855187;0.9675205270870368;5.408324893867283;-0.01971034999071801;0.14735745114438928;0.06037360128142883;-0.0023540287523619316;-0.5151404713732085
2.599972724914551;-14.45357579292725;35.567145462035214;586.1592284992771;6.1286968340894346;-21.77588225461502;47.11770837533164;4.662616574232968;10.001900849227487;-15.564769686800869;13.009006345684186;2.3349260655881876;2.382896784223801;4.161747041547234;9.871517969830885;21.373946906158316;-9.132570537038877;6.64832041641978;4.416243799158951;-0.17203527207378197;-28.504901799456512;6.140562445679237;3.6482676126334113;0.847395857369384;5.4164593688666205;-0.018815865127527656;0.12476269003955945;0.05984360112757599;6.189365461661913;3.967301965483927;0.9668351996703233;5.409207962949149;-0.019744775908554224;0.14718981197552458;0.060346520515633974;-0.0022527270921829396;-0.5148982849885253
2.619986057281494;-14.362199825062817;35.56052213369206;587.362637223193;6.1150184574447035;-22.05212214575223;47.02725124352973;4.690393322826027;10.042607679932853;-15.533833586480224;12.985482835376889;2.333942852297324;2.3934371881803993;4.115334832420482;9.847295417604984;21.05056607423332;-9.056127979762591;6.584578286095006;4.418647426964113;-0.1744779617138155;-28.501396306757343;6.140132867404695;3.645564817583634;0.8464427554339992;5.416450740859296;-0.018796638041832243;0.12460546287538125;0.059845550288717984;6.190326752522135;3.9700785820326097;0.9677267648445297;5.409284873278239;-0.01975931455529862;0.1473173080551519;0.06033575059611777;-0.0023992030826114766;-0.5130411152956214
2.6401164531707764;-14.476622553800613;35.161576099655775;587.9690297661864;5.9848080217993465;-22.108441090820584;46.81251641446296;4.611326392644642;9.897930673920929;-15.61581923556305;12.96987868877883;2.3230412598824723;2.3578526827489075;4.059209886498857;9.841212205298536;21.046866342197294;-8.969794883816974;6.562570908165658;4.440911077769913;-0.17563944486980237;-28.499439867275534;6.140397992035733;3.6441157488551523;0.8458988280868212;5.416619672657388;-0.018790199463699184;0.12452012882569224;0.059851116458199044;6.1914991032352535;3.971552604010264;0.9681853980301621;5.409554392824326;-0.019777484488301064;0.14737927825924943;0.06032681493082217;-0.0024791931410174826;-0.5130004032639907
2.6599841117858887;-14.492400502279555;35.27514112620949;587.9674387540233;6.023386046490817;-22.109867518557188;46.86654265831088;4.666066504890236;9.991320518088324;-15.617019788686669;12.969754332389073;2.3226850848446445;2.3808549743933964;4.049034812784865;9.794190555510905;21.054048592301356;-8.96334942058345;6.571688287222409;4.429306832153261;-0.1737205677654123;-28.503801922302348;6.139872781029588;3.645781686131213;0.8463433049926268;5.416455491358504;-0.01877579342422385;0.12459864269739848;0.05986389372692291;6.1910566402929845;3.9705777881249027;0.967690446823762;5.409639576748945;-0.019795247627999453;0.14727462964117025;0.0603090049743579;-0.002774185225445776;-0.514892153965273
2.680213212966919;-14.50294346628511;35.30323439069174;586.8414900253348;6.034737886463172;-21.936464406766916;46.96043526632015;4.654991675464135;9.98911252310565;-15.558756109719743;13.014314533486067;2.335962061512616;2.380347668214817;4.057052942604677;9.807334249052989;21.2081120699723;-9.106444476177296;6.600037976780066;4.4327498874902895;-0.172479067841431;-28.510763652911223;6.137281020647009;3.6468553971926374;0.846486711827356;5.41580316316291;-0.018765103358851662;0.12461148411772793;0.05987414010683479;6.188740966884238;3.9703443765348307;0.967547595326577;5.409176655569161;-0.019809958143089453;0.14723927888299002;0.06028818130804292;-0.002287164655385472;-0.5133721641810453
2.7002696990966797;-14.621674587123204;35.33825232626397;585.4675397869266;6.075075624249192;-21.646387109447737;47.047012187607365;4.6543827861530245;9.984209000573749;-15.563440137412174;13.011297000725412;2.3348191879928923;2.3788838102323093;4.102729001176057;9.803508474210462;21.526396638580344;-9.181039257574687;6.662909533736611;4.423891297021905;-0.1692766901230656;-28.517377776781682;6.13666767911618;3.6491901829628675;0.8472950226828063;5.415568463044271;-0.018748217029820637;0.12473652035781588;0.05989294678427308;6.187825658365654;3.9682155893136617;0.9666853170532634;5.409302038208469;-0.019817085420162958;0.14707636032804688;0.06026623438099179;-0.0021053159112844914;-0.5153615187605869
2.7199840545654297;-14.797057526460689;35.75511058770294;585.6725797973917;6.149437837953542;-21.597283259757866;47.25656615996732;4.607189213328101;9.884063733496943;-15.629138146426428;12.958335790408567;2.3118297003140396;2.354218084549242;4.273864255577571;10.068157787605283;21.624961684190154;-9.047140271183341;6.70988764569251;4.474114323303985;-0.17003424720124172;-28.521041751912545;6.136254850791428;3.648499676703526;0.8469955740917502;5.415609363547109;-0.018735785698611805;0.1246546718773894;0.05990566855466203;6.1878447647003565;3.9688484988375317;0.9669170520475213;5.409500007199706;-0.019832062267676413;0.14712990781299637;0.06025518374747311;-0.002100253706416754;-0.5155059299798513
2.739976167678833;-14.97521273569712;35.59012397559404;585.8605700154205;6.136567267452019;-21.59237313901427;47.09899052086075;4.644591680638133;9.937117223036495;-15.51364517194801;13.048996274365544;2.3461783965970473;2.366741312472573;4.18373310009006;9.925508644188568;21.51722294738805;-9.089294164873985;6.676787988053627;4.446620369962805;-0.16579516536241817;-28.52987999258841;6.134318548555244;3.6521076308184153;0.8482335603425891;5.414990200026905;-0.01872348693105603;0.1248421285189208;0.059921541595129316;6.1849784696092875;3.9656181467110345;0.9657031556793878;5.4092094346729676;-0.019836504893864668;0.14692385610824568;0.06023619613459594;-0.001802982068331591;-0.514028320454913
2.7599730491638184;-15.290492302701177;35.708689511611624;586.7525560928552;6.105032454654193;-21.66066925180251;47.118285119808064;4.643531767638835;9.933598718050696;-15.544243940909505;13.070561268300601;2.3388176101666462;2.365737530923076;4.176845877270307;9.978406747088155;21.46511894764174;-8.966278078755526;6.669905185131583;4.460798552520426;-0.16558817730364517;-28.5472486512885;6.130582555536381;3.6530941411676636;0.8484786566765019;5.414082184100976;-0.018725366998893142;0.12483795769767665;0.059918182445136504;6.180684657065709;3.9651289228940034;0.9655483725103282;5.408315429408031;-0.019821747015407613;0.14692076246599414;0.060233200792172786;-0.0017285094885093437;-0.5163190535258064
2.7802274227142334;-15.499190537609783;35.33063804664228;587.0407536520022;5.993402278345361;-21.72196429516613;46.87061781862435;4.664944820532191;9.982303418988751;-15.45482692857335;13.090814010832492;2.351232505532567;2.3781460322994312;4.013422958589713;9.78676506992462;21.319951621689214;-8.971883432255407;6.6098433907545795;4.43755127751638;-0.16918907474457187;-28.55912550547772;6.127338482993747;3.651455952848373;0.8477290097273467;5.4135274624403475;-0.01872556924628878;0.12464803965636975;0.059898554353342404;6.17727277713764;3.9671740932818302;0.9663807087578558;5.407455899127177;-0.01980314572228227;0.14711461518102142;0.06025076809235365;-0.0018074360852240899;-0.5149229080324138
2.799971580505371;-15.60507642331217;35.54163409788839;587.2352464170976;5.999841142854077;-21.785712190292045;47.03284286530476;4.653690652336928;9.980348110894333;-15.541465791875737;13.073044171427213;2.339382836035592;2.3778095306261653;4.064052969636616;9.907941859352597;21.350262564105538;-8.954422469909106;6.594797208153913;4.482738204005535;-0.17022438391051276;-28.566043053981964;6.126875213828653;3.6518511629196446;0.8477550756813143;5.41362444981591;-0.01874698927948807;0.1245962456042702;0.059882450145207856;6.175849767068637;3.966919476752392;0.9663839656799388;5.407287537268028;-0.019773966891069895;0.1471586014084422;0.060274756069563215;-0.001778936342744771;-0.515152487786152
