flxalr/sts-optimization-reemc/input/415_104/vel.csv
time;base_link_tx;base_link_ty;base_link_tz;base_link_rz;base_link_ry;base_link_rx;leg_left_1_joint;leg_left_2_joint;leg_left_3_joint;leg_left_4_joint;leg_left_5_joint;leg_left_6_joint;leg_right_1_joint;leg_right_2_joint;leg_right_3_joint;leg_right_4_joint;leg_right_5_joint;leg_right_6_joint;torso_1_joint;torso_2_joint;arm_left_1_joint;arm_left_2_joint;arm_left_3_joint;arm_left_4_joint;arm_left_5_joint;arm_left_6_joint;arm_left_7_joint;arm_right_1_joint;arm_right_2_joint;arm_right_3_joint;arm_right_4_joint;arm_right_5_joint;arm_right_6_joint;arm_right_7_joint;head_1_joint;head_2_joint
0.0;-0.0002740579631794697;-0.00030593648625069334;-9.166764316265435e-05;0.0032907187541403966;-0.0007798044369005976;-0.00029515423885292545;-0.00123253977174636;2.220446049250313e-16;2.220446049250313e-16;2.220446049250313e-16;2.220446049250313e-16;2.220446049250313e-16;2.220446049250313e-16;2.220446049250313e-16;2.220446049250313e-16;2.220446049250313e-16;2.220446049250313e-16;-3.7953824667446334e-16;-2.272351535361486e-09;2.272351757406091e-09;-3.9246802396548293e-07;1.1046828346203796e-05;5.4890205162414575e-06;3.0445822219277284e-12;7.229083143773848e-06;4.2780734444958884e-05;-4.2780734445180935e-05;-9.495780249755993e-07;-2.219094018633384e-14;-0.00012187632560911409;2.303248903808296e-05;2.220446049250313e-16;-2.5759486462215188e-05;1.363383061067961e-05;1.878739331105787e-09;-0.0116314736561397
0.020132780075073242;-0.00027223134375758967;-0.0003042648954609273;-9.115624541978133e-05;0.0032938195904298;-0.0007773499965270454;-0.00029752382614289336;-0.0005770564985357575;2.220446049250313e-16;2.220446049250313e-16;2.220446049250313e-16;2.220446049250313e-16;2.220446049250313e-16;2.220446049250313e-16;2.220446049250313e-16;2.220446049250313e-16;2.220446049250313e-16;2.220446049250313e-16;-3.091362740303921e-16;-1.8508445071550823e-09;1.8508447291996874e-09;-3.196676584450356e-07;8.997710730660154e-06;4.470841516856893e-06;2.479831248399021e-12;5.888133402373448e-06;-3.479269508923609e-06;3.4792695087015646e-06;-7.734372362052816e-07;-1.807465947514507e-14;-9.926902893565849e-05;1.8760106274575054e-05;2.220446049250313e-16;2.344928029730223e-05;-3.3325702773727034e-05;1.5302449273064825e-09;-0.009473907989636135
0.04002714157104492;-0.0002657991045330578;-0.00029773757910944135;-8.92934182489393e-05;0.0033041967001405706;-0.0007686573688202985;-0.00030666867308613073;0.00184067727699027;2.220446049250313e-16;2.220446049250313e-16;2.220446049250313e-16;2.220446049250313e-16;2.220446049250313e-16;2.220446049250313e-16;2.220446049250313e-16;2.220446049250313e-16;2.220446049250313e-16;2.220446049250313e-16;-2.51793427299467e-16;-1.5075243982620411e-09;1.507524620306646e-09;-2.6037130572634676e-07;7.328691625814761e-06;3.641528358239419e-06;2.0198380507663046e-12;4.795921457066937e-06;4.233279127497323e-05;-4.233279127519528e-05;-6.29969462871928e-07;0.00015176070332751987;-0.0002196955692919269;1.52802238113056e-05;2.220446049250313e-16;0.0001094329414310476;-2.7143993194842996e-05;1.2463940573219254e-09;-0.009010185834640956
0.0603947639465332;-0.0002533363967320355;-0.00028532719141921917;-8.563965006768702e-05;0.003323095870984655;-0.0007516890357699734;-0.0003246954239853953;0.0016056088682008525;2.220446049250313e-16;2.220446049250313e-16;2.220446049250313e-16;2.220446049250313e-16;2.220446049250313e-16;2.220446049250313e-16;2.220446049250313e-16;2.220446049250313e-16;2.220446049250313e-16;2.220446049250313e-16;2.220446049250313e-16;-1.2278880238179781e-09;1.227888245862583e-09;-2.1207405583477014e-07;5.9692651335487835e-06;2.966047607338245e-06;1.645170716336972e-12;1.1162425373039427e-05;-4.045054507665161e-06;4.045054507443117e-06;-5.131140648183282e-07;0.00012361004136466068;-0.0007539639364643137;1.2445837795707228e-05;2.220446049250313e-16;-2.644231799169499e-05;1.6416425473898647e-05;1.0151957496515664e-09;-0.007338852675976525
0.08011293411254883;-0.00023403514602127852;-0.0002693851788549393;-8.009323868128592e-05;0.003348154876691181;-0.0007249272750609752;-0.00034973466036785863;0.0009700985951135867;2.220446049250313e-16;2.220446049250313e-16;2.220446049250313e-16;2.220446049250313e-16;2.220446049250313e-16;2.220446049250313e-16;2.220446049250313e-16;2.220446049250313e-16;2.220446049250313e-16;2.220446049250313e-16;2.220446049250313e-16;-1.0001224491059487e-09;1.0001226711505536e-09;-1.7273564394026925e-07;4.862003759182569e-06;2.415864313974546e-06;1.3400018307734406e-12;9.091865231499196e-06;4.116812678028618e-05;-4.116812678050823e-05;-4.1793461275743326e-07;0.00010068115125427468;-0.0006141083385247864;1.0137212671089757e-05;2.220446049250313e-16;-2.153743326872301e-05;1.3371281151149655e-05;8.268832830646358e-10;0.008980434428160034
0.1000223159790039;-0.00020487803303838656;-0.0002503202418529625;-7.190824543032102e-05;0.003379513269308235;-0.0006837530832752334;-0.00038284115204120794;0.0004501188348948697;2.220446049250313e-16;2.220446049250313e-16;2.220446049250313e-16;2.220446049250313e-16;2.220446049250313e-16;2.220446049250313e-16;2.220446049250313e-16;2.220446049250313e-16;2.220446049250313e-16;2.220446049250313e-16;2.220446049250313e-16;-8.146059649681588e-10;8.146061870127636e-10;-1.406942615871239e-07;-0.00028186125283660723;1.96773658288423e-06;1.0914398661764094e-12;7.405381055213789e-06;-6.6249417900832905e-06;6.624941789861245e-06;-3.4041035418225907e-07;8.200542695380204e-05;-0.0006351219761362014;8.256823078181798e-06;2.220446049250313e-16;2.7387069820721054e-05;-3.4322521759064584e-05;6.735016020766648e-10;-0.006139979745661062
0.11999821662902832;-0.00016507638538142396;-0.00022880150506053508;-6.0873365094266375e-05;0.003417977974363889;-0.0006270471116632218;-0.00042462850443368723;-0.0018784074632402965;2.220446049250313e-16;2.220446049250313e-16;2.220446049250313e-16;2.220446049250313e-16;2.220446049250313e-16;2.220446049250313e-16;2.220446049250313e-16;2.220446049250313e-16;2.220446049250313e-16;2.220446049250313e-16;2.220446049250313e-16;-6.635016291599029e-10;6.635018512045078e-10;-1.1459635540184734e-07;-0.0003728519293687811;1.6027337451128481e-06;8.889845924998488e-13;6.031729153103227e-06;-5.396056493929621e-06;5.396056493707575e-06;-2.7726636104616364e-07;6.679393278779021e-05;-0.0005173108190752869;6.725234002323312e-06;2.220446049250313e-16;6.879258693974239e-05;-7.44415558900978e-05;5.485712642764565e-10;-0.005001051877714345
0.13999128341674805;-0.00011589734283876594;-0.00020512908351041226;-4.7336570551024376e-05;0.003466913873654111;-0.0005571198018479905;-0.00047490501657049614;-0.0015297389771901974;2.220446049250313e-16;2.220446049250313e-16;2.220446049250313e-16;2.220446049250313e-16;2.220446049250313e-16;2.220446049250313e-16;2.220446049250313e-16;2.220446049250313e-16;2.220446049250313e-16;2.220446049250313e-16;2.220446049250313e-16;-5.4042620324198e-10;5.40426425286585e-10;-9.333944770202588e-08;-0.00045681864214642306;1.3054366524803215e-06;7.2408350674483e-13;4.912881093509783e-06;-4.395121739679355e-06;4.3951217394573095e-06;-2.258351839868568e-07;5.440407571773504e-05;-0.00042135289532944025;5.477745127604852e-06;2.220446049250313e-16;-2.2848670446915466e-05;1.8247549930795044e-05;4.468147233235754e-10;-0.004073388010972569
0.16007137298583984;-5.938666741522347e-05;-0.00017908757199687597;-3.188753632477627e-05;0.003532129893701903;-0.00047773750976845943;-0.0005331416427112948;-0.0008139455588161454;2.220446049250313e-16;2.220446049250313e-16;2.220446049250313e-16;2.220446049250313e-16;2.220446049250313e-16;2.220446049250313e-16;2.220446049250313e-16;2.220446049250313e-16;2.220446049250313e-16;2.220446049250313e-16;2.220446049250313e-16;-4.4018049961041967e-10;4.401807216550246e-10;-7.60255635248482e-08;-0.00037208163914477483;1.0632863124242997e-06;5.897705417655809e-13;6.250997581688052e-06;4.131948077288245e-05;-4.131948077310449e-05;-1.8394416882719477e-07;4.431245969756842e-05;-0.00034319456670142484;4.461657642341198e-06;2.220446049250313e-16;-2.2385589052866214e-05;1.1087539296156347e-05;3.639333847390728e-10;-0.003317799993612225
0.18014883995056152;2.6882552662273236e-06;-0.00014989642344947885;-1.4972244785286933e-05;0.0036165537967337157;-0.00039193406877672046;-0.0005993413459061324;0.00013621504663257386;2.220446049250313e-16;2.220446049250313e-16;2.220446049250313e-16;2.220446049250313e-16;2.220446049250313e-16;2.220446049250313e-16;2.220446049250313e-16;2.220446049250313e-16;2.220446049250313e-16;2.220446049250313e-16;2.220446049250313e-16;-3.585297474668661e-10;3.585299695114711e-10;-6.192329665076087e-08;-0.00030306282059366365;8.660533470090444e-07;4.803717923339514e-13;5.091476599019803e-06;-5.9241530692608555e-06;5.92415306903881e-06;-1.4982367516080525e-07;3.609277537654258e-05;-0.00027953411954435235;3.6340480350471693e-06;2.220446049250313e-16;2.1915620518168545e-05;-3.111795265781971e-05;2.964260164536293e-10;-0.002702368831047117
0.20000576972961426;6.674080722878975e-05;-0.00011763462028952507;2.5356034504353617e-06;0.0037159699848850133;-0.00030475488531546765;-0.0006714374920696845;0.001768669784495628;2.220446049250313e-16;2.220446049250313e-16;2.220446049250313e-16;2.220446049250313e-16;2.220446049250313e-16;2.220446049250313e-16;2.220446049250313e-16;2.220446049250313e-16;2.220446049250313e-16;2.220446049250313e-16;2.220446049250313e-16;-2.9202469952874087e-10;2.9202492157334585e-10;-5.04369121426488e-08;-0.00038200543346759676;7.054058639722854e-07;3.9126582717970565e-13;4.147039511630373e-06;4.147996128979797e-05;-4.147996129002002e-05;-1.2203231981644562e-07;2.9397791124040034e-05;-0.00022768228745712206;2.959954837346138e-06;2.220446049250313e-16;1.4126665847092794e-05;7.098841909196189e-05;2.4144084306408385e-10;0.013376681353143592
0.22012066841125488;0.0001296909863032017;-8.423376779487842e-05;1.980406520761374e-05;0.003826059756779962;-0.00022044312241534087;-0.0007461711782745738;0.0013164072757172519;2.220446049250313e-16;2.220446049250313e-16;2.220446049250313e-16;2.220446049250313e-16;2.220446049250313e-16;2.220446049250313e-16;2.220446049250313e-16;2.220446049250313e-16;2.220446049250313e-16;2.220446049250313e-16;2.220446049250313e-16;-2.378559223265883e-10;2.3785614437119315e-10;-4.108118017088833e-08;-0.0003111458130933167;-0.00012780224928376916;3.1868846164929e-13;3.3777896012198863e-06;-4.421527789703396e-06;4.4215277894813526e-06;-9.939608719249377e-08;2.394468460672512e-05;-0.0001854486461481225;2.410901714736163e-06;2.220446049250313e-16;-2.670095788586269e-05;1.961329551804097e-05;1.9665507568096543e-10;-0.003469801643754913
0.23996615409851074;0.00018600183271694286;-5.390097489436366e-05;3.530833907391038e-05;0.00393596881491351;-0.00014628448801880562;-0.0008164865509312228;0.0007451619547241332;2.220446049250313e-16;2.220446049250313e-16;2.220446049250313e-16;2.220446049250313e-16;2.220446049250313e-16;2.220446049250313e-16;2.220446049250313e-16;2.220446049250313e-16;2.220446049250313e-16;2.220446049250313e-16;2.220446049250313e-16;-1.9373511474057737e-10;1.9373533678518232e-10;-3.3460878006564596e-08;-0.0003908104339840086;-0.000104095730805688;2.595737438162319e-13;2.7512307413786043e-06;4.304994814421471e-05;-4.3049948144436763e-05;-8.095873424383112e-08;1.95030952664564e-05;-0.00015104908134168423;1.963694514788321e-06;2.220446049250313e-16;-2.1748097079021944e-05;1.5975151782541355e-05;1.601767882363693e-10;-0.0028261751250986487
0.25994300842285156;0.00023319569162900277;-2.9539389882070533e-05;4.830785856192178e-05;0.004040043644538312;-8.544224913930047e-05;-0.0008781314590997454;-0.0010520324856763334;2.220446049250313e-16;2.220446049250313e-16;2.220446049250313e-16;2.220446049250313e-16;2.220446049250313e-16;2.220446049250313e-16;2.220446049250313e-16;2.220446049250313e-16;2.220446049250313e-16;2.220446049250313e-16;2.220446049250313e-16;-1.5779844120672413e-10;1.5779866325132908e-10;-2.7254094266834407e-08;-0.0003183175410451873;-0.000520390209698008;2.1142443667421968e-13;4.068327454999262e-06;-4.096310741488474e-06;4.096310741266428e-06;-6.594139503368945e-08;1.5885392988874147e-05;-0.00012303042080956015;1.5994414553858047e-06;2.220446049250313e-16;1.7548055694189707e-05;-3.177257769095215e-05;1.3046499512344926e-10;0.01116248265821542
0.2799499034881592;0.0002681231401625707;-1.3345513228289625e-05;5.789075304096399e-05;0.004133511903708055;-4.2207370544744733e-05;-0.0009268204389370096;-0.0016237544151779613;2.220446049250313e-16;2.220446049250313e-16;2.220446049250313e-16;2.220446049250313e-16;2.220446049250313e-16;2.220446049250313e-16;2.220446049250313e-16;2.220446049250313e-16;2.220446049250313e-16;2.220446049250313e-16;2.220446049250313e-16;-1.285277960091911e-10;1.2852801805379605e-10;-2.219863011842579e-08;-0.00025927162666593653;-0.0008353087246719266;1.7220652507388112e-13;3.3136781391434918e-06;4.374947161682697e-05;-4.3749471617049014e-05;-5.3709678388659e-08;1.2938751873144176e-05;-0.00010020904668951678;1.3027550619208338e-06;2.220446049250313e-16;-3.763735874860926e-05;2.605139667898378e-05;1.0626455393426893e-10;0.00909191189063307
0.29999327659606934;0.00029027841544864856;-4.761353837593148e-06;6.389048212265528e-05;0.004214615542353763;-1.7154768163420763e-05;-0.0009614547249434191;-0.0010955113075959725;2.220446049250313e-16;2.220446049250313e-16;2.220446049250313e-16;2.220446049250313e-16;2.220446049250313e-16;2.220446049250313e-16;2.220446049250313e-16;2.220446049250313e-16;2.220446049250313e-16;2.220446049250313e-16;2.220446049250313e-16;-1.0468667255426799e-10;1.046868945988729e-10;-1.808092297289604e-08;-0.00021117836036707192;-0.0009673803818523656;1.4026329096345784e-13;2.699011554820744e-06;-3.1610524339554894e-06;3.161052433733445e-06;-4.374686873305267e-08;0.00014565431783830182;-8.162089483515321e-05;1.0611021401536558e-06;2.220446049250313e-16;-3.065586393423442e-05;2.1219025416261528e-05;8.655314333292412e-11;0.009085981341200623
0.3201334476470947;0.00030057528901016115;-2.681655358778813e-06;6.647716638034084e-05;0.004281152585426868;-8.626662858029304e-06;-0.0009811966384945384;-0.0004669454143228827;2.220446049250313e-16;2.220446049250313e-16;2.220446049250313e-16;2.220446049250313e-16;2.220446049250313e-16;2.220446049250313e-16;2.220446049250313e-16;2.220446049250313e-16;2.220446049250313e-16;2.220446049250313e-16;2.220446049250313e-16;-8.52679284932115e-11;8.526815053781643e-11;-1.4727024767192402e-08;-0.00017200609438373232;-0.0007879373671461381;1.1424532713530493e-13;2.198361780223713e-06;4.1561857157760654e-05;-4.156185715798269e-05;-3.5632098001000984e-08;0.0001186363522187833;-6.648072897382499e-05;8.642743250435283e-07;2.220446049250313e-16;-2.867205941061537e-05;1.3580362183422016e-05;7.04980762018125e-11;0.008082788669179147
0.3399641513824463;0.0003008367091048007;-4.966754874211182e-06;6.617070604667681e-05;0.004328880886623504;-1.3365593919525651e-05;-0.0009869015769254595;0.0018937385028306207;2.220446049250313e-16;2.220446049250313e-16;2.220446049250313e-16;2.220446049250313e-16;2.220446049250313e-16;2.220446049250313e-16;2.220446049250313e-16;2.220446049250313e-16;2.220446049250313e-16;2.220446049250313e-16;2.220446049250313e-16;-6.945124008833063e-11;6.945146213293557e-11;-1.1995253716783004e-08;-0.00014010003891363985;-0.0013329366799252663;9.305353298500045e-14;1.790579409753341e-06;-6.8631592263178736e-06;6.86315922609583e-06;-2.9022566522427798e-08;9.663005035940034e-05;-5.414896925373653e-05;7.039568394624852e-07;2.220446049250313e-16;1.7464500782115826e-05;-2.9756782496772484e-05;5.742112367935253e-11;-0.007148335866707644
0.3601703643798828;0.0002941345534171914;-9.39294623099036e-06;6.391782698610955e-05;0.00435767244864672;-2.6667139758085768e-05;-0.0009824555893369056;0.0015386839642627793;2.220446049250313e-16;2.220446049250313e-16;2.220446049250313e-16;2.220446049250313e-16;2.220446049250313e-16;2.220446049250313e-16;2.220446049250313e-16;2.220446049250313e-16;2.220446049250313e-16;2.220446049250313e-16;2.220446049250313e-16;-5.656844852825261e-11;5.656867057285755e-11;-9.770209122655486e-09;-0.00011411235732040283;-0.0010856852566533787;7.5792684200864e-14;-8.711931628143261e-05;3.8698791116297344e-05;-3.869879111651939e-05;-2.36390618235582e-08;7.870577995554631e-05;-4.410467388822624e-05;5.733772454724407e-07;2.220446049250313e-16;-3.3885527636196784e-05;2.3447269625050603e-05;4.6769864118855614e-11;-0.007179683067049805
0.38001489639282227;0.00028339484207528376;-1.3697234641793033e-05;6.077330164769482e-05;0.004367064760359551;-4.40437354629089e-05;-0.0009736106524196526;0.0009264924805123824;2.220446049250313e-16;2.220446049250313e-16;2.220446049250313e-16;2.220446049250313e-16;2.220446049250313e-16;2.220446049250313e-16;2.220446049250313e-16;2.220446049250313e-16;2.220446049250313e-16;2.220446049250313e-16;2.220446049250313e-16;-4.607533428512184e-11;4.607555632972677e-11;-7.957896394209907e-09;-0.00023628598893890985;-0.000884297427077031;6.173361498587995e-14;1.0228206919028262e-05;-9.073310031342873e-06;9.073310031120826e-06;-1.925416359942455e-08;6.410634968491717e-05;-3.592353253617207e-05;4.6701935004508707e-07;2.220446049250313e-16;-2.759997404423e-05;1.909794765503887e-05;3.809434663645864e-11;-0.0076800135523163926
0.400099515914917;0.0002705153357291843;-1.4823747644317992e-05;5.7616431777876344e-05;0.004359850503897892;-6.295183714040103e-05;-0.0009676790264524881;9.397744648316263e-05;2.220446049250313e-16;2.220446049250313e-16;2.220446049250313e-16;2.220446049250313e-16;2.220446049250313e-16;2.220446049250313e-16;2.220446049250313e-16;2.220446049250313e-16;2.220446049250313e-16;2.220446049250313e-16;2.220446049250313e-16;-3.7528627152127795e-11;3.752884919673272e-11;-6.481756349936432e-09;-0.0001924564147781729;-0.0007202657812131608;5.028241524109288e-14;8.33093846184176e-06;3.681140132053791e-05;-3.6811401320759946e-05;-1.568263659025379e-08;5.2215022483050565e-05;-2.9259941772790492e-05;3.80390179482661e-07;2.220446049250313e-16;-2.2480351358863104e-05;1.5555397727201995e-05;3.1028083425062035e-11;-0.0062554190384464005
0.42016124725341797;0.00025701605313249205;-1.0503920233845252e-05;5.511776658027123e-05;0.004339059766777827;-8.143866077809728e-05;-0.0009702130058051314;-0.001726947909108316;2.220446049250313e-16;2.220446049250313e-16;2.220446049250313e-16;2.220446049250313e-16;2.220446049250313e-16;2.220446049250313e-16;2.220446049250313e-16;2.220446049250313e-16;2.220446049250313e-16;2.220446049250313e-16;2.220446049250313e-16;-3.0567280775384564e-11;3.056750281998949e-11;-5.279431058000409e-09;-0.00015675695268941418;-0.0005866609804592518;4.09553414789654e-14;6.7856014455354976e-06;-1.01187642530503e-05;1.0118764252828256e-05;-1.27736055192404e-08;4.252946215633521e-05;-2.383240544857393e-05;3.098301786272491e-07;2.220446049250313e-16;1.3818032922806295e-05;-3.283222809033761e-05;2.5272567875234432e-11;0.009924788095080432
0.4399678707122803;0.00024409201702689726;-3.5748286681050705e-07;5.3523746113369115e-05;0.00430863082117869;-9.809482251663678e-05;-0.0009819017918278614;-0.0012990097539700444;2.220446049250313e-16;2.220446049250313e-16;2.220446049250313e-16;2.220446049250313e-16;2.220446049250313e-16;2.220446049250313e-16;2.220446049250313e-16;2.220446049250313e-16;2.220446049250313e-16;2.220446049250313e-16;2.220446049250313e-16;-2.489722064311235e-11;2.4897442687717282e-11;-4.300129593185444e-09;-0.00027114358194915656;-0.00047783903521518827;3.3358381605501564e-14;5.526914787397696e-06;3.8570782922939626e-05;-3.857078292316167e-05;-1.0404181530455798e-08;3.464051273547349e-05;-1.941164319039752e-05;2.5235861693051077e-07;2.220446049250313e-16;-3.3086919427284376e-05;1.759973862461033e-05;2.0584664487927664e-11;-0.007664658859428531
0.4600708484649658;0.000231483777611171;1.5953954132804613e-05;5.266182315098985e-05;0.004272668100009736;-0.00011374856158358929;-0.0010021350222927745;-0.0006016003948045171;2.220446049250313e-16;2.220446049250313e-16;2.220446049250313e-16;2.220446049250313e-16;2.220446049250313e-16;2.220446049250313e-16;2.220446049250313e-16;2.220446049250313e-16;2.220446049250313e-16;2.220446049250313e-16;2.220446049250313e-16;-2.027892122750081e-11;2.0279143272105734e-11;-3.502482429459501e-09;-0.0002208481421449752;-0.00038920288067674085;2.7170610307566044e-14;4.501706637552844e-06;-7.79301688926096e-06;7.793016889038916e-06;-8.474270882690811e-09;2.8214914126247748e-05;-1.5810904701348714e-05;2.055476707312568e-07;2.220446049250313e-16;2.375105587342373e-05;6.503565564830479e-05;1.6766337879570125e-11;0.007360324696549155
0.47994422912597656;0.0002185088568722603;3.783269849246079e-05;5.218829367416467e-05;0.004235496231522757;-0.00012989832709503068;-0.0010291814225190242;0.0009599535324699939;2.220446049250313e-16;2.220446049250313e-16;2.220446049250313e-16;2.220446049250313e-16;2.220446049250313e-16;2.220446049250313e-16;2.220446049250313e-16;2.220446049250313e-16;2.220446049250313e-16;2.220446049250313e-16;2.220446049250313e-16;-1.651728748911386e-11;1.6517509533718785e-11;-2.8527938293099472e-09;-0.000639082023933648;-0.0003170081788292096;2.213063191182696e-14;5.718034349238252e-06;-6.347460962679202e-06;6.3474609624571575e-06;-6.90234659814468e-09;2.298122389904208e-05;-1.2878080697402907e-05;1.674198624835507e-07;2.220446049250313e-16;-2.0679939597831218e-05;1.2946624947557989e-05;1.365628699252161e-11;-0.009892068507208971
0.499950647354126;0.00020322278288866733;6.418870881420739e-05;5.1531707718402116e-05;0.004196068312296088;-0.00014940210107486224;-0.0010607446626345384;0.0016638737070849017;2.220446049250313e-16;2.220446049250313e-16;2.220446049250313e-16;2.220446049250313e-16;2.220446049250313e-16;2.220446049250313e-16;2.220446049250313e-16;2.220446049250313e-16;2.220446049250313e-16;2.220446049250313e-16;2.220446049250313e-16;-1.3453413298986824e-11;1.3453635343591749e-11;-2.3236184039343847e-09;-0.0012388756116131932;-0.0002582051429575089;1.8025538008632504e-14;4.6573747151692376e-06;-5.17004662575382e-06;5.170046625531776e-06;-5.622004443855079e-09;1.871835049841914e-05;-1.0489277216039026e-05;1.3636452436699257e-07;2.220446049250313e-16;6.76291804254705e-05;1.7095255349609667e-05;1.1123131107202552e-11;-0.008057151624549877
0.5199916362762451;0.00018271130327277777;9.11293985192231e-05;4.9730991248625445e-05;0.0041513408359991075;-0.0001763731275249843;-0.0010913583087596985;0.0011299332677172662;2.220446049250313e-16;2.220446049250313e-16;2.220446049250313e-16;2.220446049250313e-16;2.220446049250313e-16;2.220446049250313e-16;2.220446049250313e-16;2.220446049250313e-16;2.220446049250313e-16;2.220446049250313e-16;2.220446049250313e-16;-1.0957868621914668e-11;1.0958090666519591e-11;-1.892601712619581e-09;-0.001136710384896336;-0.00021030970272103446;1.4681913367643727e-14;3.7934608140973136e-06;4.212738564755592e-05;-4.212738564777796e-05;-4.579157757047736e-09;1.5246213470653004e-05;-8.543581850446385e-06;1.110697573751927e-07;2.220446049250313e-16;-2.9480174953404773e-05;2.2513818821319867e-05;9.059859806385898e-12;-0.006562600355393525
0.5401003360748291;0.00015515559034841843;0.00011556320965364569;4.6197223517689944e-05;0.0040965172120976;-0.0002130645343549572;-0.001117024920480874;0.0004935444208132807;2.220446049250313e-16;2.220446049250313e-16;2.220446049250313e-16;2.220446049250313e-16;2.220446049250313e-16;2.220446049250313e-16;2.220446049250313e-16;2.220446049250313e-16;2.220446049250313e-16;2.220446049250313e-16;2.220446049250313e-16;-8.925231885285165e-12;8.92545392989009e-12;-1.5415359236893526e-09;-0.001054850920002708;-0.00017129856730192455;1.1958510199904362e-14;3.0897975422123493e-06;-4.077648268904704e-06;4.0776482686826585e-06;-3.7297526128513616e-09;1.241813616068106e-05;-6.958800814575145e-06;9.046701156807804e-08;2.220446049250313e-16;-2.4011786750641646e-05;1.8337646141332666e-05;-0.014224814790489631;-0.006037825628192932
0.5603044033050537;0.00012042139721039193;0.00013528693162935936;4.077757109601318e-05;0.00402667533955791;-0.0002591294843590141;-0.001134676357304972;-0.0018540824599633005;2.220446049250313e-16;2.220446049250313e-16;2.220446049250313e-16;2.220446049250313e-16;2.220446049250313e-16;2.220446049250313e-16;2.220446049250313e-16;2.220446049250313e-16;2.220446049250313e-16;2.220446049250313e-16;2.220446049250313e-16;-7.269636559320832e-12;7.269858603925758e-12;-1.2555906444445005e-09;-0.0008591826671604557;-0.00013952375368346317;9.740281298510851e-15;2.516659409366597e-06;-3.321270000345156e-06;3.3212700001231115e-06;-3.0379068141212644e-09;0.00014499138280212715;-5.667986755976546e-06;7.368594634102185e-08;2.220446049250313e-16;2.4807170956199265e-05;-2.674418745639513e-05;0.0019180783111466253;-0.005887028172133328
0.5801060199737549;7.974621999923827e-05;0.00014806484495080255;3.346210097776838e-05;0.003943079703233316;-0.0003127623932241795;-0.0011404320767408793;-0.001509990286196994;2.220446049250313e-16;2.220446049250313e-16;2.220446049250313e-16;2.220446049250313e-16;2.220446049250313e-16;2.220446049250313e-16;2.220446049250313e-16;2.220446049250313e-16;2.220446049250313e-16;2.220446049250313e-16;2.220446049250313e-16;-5.9211438188520966e-12;5.9213658634570216e-12;-1.022686427341573e-09;-0.0006998096522938608;-0.00011364296939864126;7.933519994395201e-15;5.1947347907245086e-06;-2.7051951732392247e-06;2.70519517301718e-06;-2.4743940870193576e-09;0.00011809638748847505;-4.616610637660121e-06;6.001766383192692e-08;2.220446049250313e-16;2.0205595788642777e-05;-2.1783307834405435e-05;0.0015622867724183708;-0.00479502124012867
0.5999429225921631;3.294313938194831e-05;0.0001544687593471082;2.4116005723298555e-05;0.0038480781760233925;-0.00037448961568499993;-0.0011336030723344754;-0.000902480647365842;2.220446049250313e-16;2.220446049250313e-16;2.220446049250313e-16;2.220446049250313e-16;2.220446049250313e-16;2.220446049250313e-16;2.220446049250313e-16;2.220446049250313e-16;2.220446049250313e-16;2.220446049250313e-16;2.220446049250313e-16;-4.822788053660682e-12;4.823010098265606e-12;-8.32984486859882e-10;-0.0005699993356036763;-9.256290884375203e-05;6.461901619934855e-15;4.231143954137553e-06;4.471924409003155e-05;-4.47192440902536e-05;-2.0154094488403106e-09;9.619024571178471e-05;-3.760258218190655e-06;4.888476230150341e-08;2.220446049250313e-16;-2.4979378692586372e-05;2.3694322370612396e-05;0.0012724923404270902;-0.003905574768967552
0.619992733001709;-1.8818544469382704e-05;0.00015558819419600256;1.2976937409935068e-05;0.0037451874487739534;-0.00044288863897230254;-0.0011148170678592717;-8.119059509876896e-05;2.220446049250313e-16;2.220446049250313e-16;2.220446049250313e-16;2.220446049250313e-16;2.220446049250313e-16;2.220446049250313e-16;2.220446049250313e-16;2.220446049250313e-16;2.220446049250313e-16;2.220446049250313e-16;2.220446049250313e-16;-3.928170418188744e-12;3.928392462793668e-12;-6.784710707004166e-10;-0.0004642680213450416;-7.539306777141629e-05;5.263259256322064e-15;3.44629319529475e-06;-2.299182705704106e-06;2.299182705482062e-06;-1.641563592389488e-09;7.834755632128434e-05;-3.0627538203301518e-06;3.98169444243389e-08;2.220446049250313e-16;-2.2124148194389913e-05;1.7520885532217116e-05;0.0010364529643549926;-0.003181115059166377
0.6402590274810791;-7.277680810485813e-05;0.00015327734223867336;7.612906125182072e-07;0.0036373546483627873;-0.0005140407735205633;-0.0010863913076913458;0.00179709317969552;2.220446049250313e-16;2.220446049250313e-16;2.220446049250313e-16;2.220446049250313e-16;2.220446049250313e-16;2.220446049250313e-16;2.220446049250313e-16;2.220446049250313e-16;2.220446049250313e-16;2.220446049250313e-16;2.220446049250313e-16;-3.1994987627366265e-12;3.1997208073415515e-12;-5.526189275296811e-10;-0.00037814920506066966;-6.140812490649211e-05;4.286957559644671e-15;2.807027346900044e-06;4.131446728001213e-05;-4.1314467280234164e-05;-1.33706380577369e-09;6.381457429591308e-05;-2.4946321288702847e-06;3.243115008952668e-08;2.220446049250313e-16;2.516690898346383e-05;-2.8916295192195207e-05;0.0008441974172981684;-0.0029085563616267004
0.6599512100219727;-0.00012347712620916758;0.0001490465973936464;-1.1103818670924365e-05;0.0035286961699230327;-0.0005800334217942319;-0.0010524434280484362;0.0014712964323937154;2.220446049250313e-16;2.220446049250313e-16;2.220446049250313e-16;2.220446049250313e-16;2.220446049250313e-16;2.220446049250313e-16;2.220446049250313e-16;2.220446049250313e-16;2.220446049250313e-16;2.220446049250313e-16;2.220446049250313e-16;-2.6059911451730317e-12;2.6062131897779567e-12;-4.5011157034122226e-10;-0.000308004890954447;-5.001730153711849e-05;3.491753725815331e-15;2.286341317971003e-06;-7.986540790551459e-06;7.986540790329414e-06;-1.0890468264514562e-09;0.0006496819393554004;-2.0318934604156517e-06;2.6415374442607536e-08;2.220446049250313e-16;6.802284957264565e-05;-6.957215704761182e-05;0.0006876040726232162;0.013365754826388632
0.6800892353057861;-0.00017185355439127025;0.00014298311169859477;-2.266307474727346e-05;0.003412509339610687;-0.0006415953905602076;-0.0010136932308819476;0.0007742392569702393;2.220446049250313e-16;2.220446049250313e-16;2.220446049250313e-16;2.220446049250313e-16;2.220446049250313e-16;2.220446049250313e-16;2.220446049250313e-16;2.220446049250313e-16;2.220446049250313e-16;2.220446049250313e-16;2.220446049250313e-16;-2.1225754812448738e-12;2.1227975258497992e-12;-3.6661868724024013e-10;-0.00025087190871296556;-4.073940471011761e-05;2.844055233137373e-15;1.0760199704270494e-05;4.019163904564755e-05;-4.0191639045869595e-05;-8.870354466873763e-10;0.0007901932556363377;-1.654989922842676e-06;2.1515487579594107e-08;2.220446049250313e-16;-2.2280116111112614e-05;2.101819548958096e-05;0.0005600578146770634;-0.002744667456229609
0.6999495029449463;-0.0002166017254826434;0.0001356429022175698;-3.342803687038941e-05;0.0032917716536673544;-0.000697081329953824;-0.0009736334493806223;-0.0008134222066185634;2.220446049250313e-16;2.220446049250313e-16;2.220446049250313e-16;2.220446049250313e-16;2.220446049250313e-16;2.220446049250313e-16;2.220446049250313e-16;2.220446049250313e-16;2.220446049250313e-16;2.220446049250313e-16;2.220446049250313e-16;-1.7288304016274898e-12;1.7290524462324148e-12;-2.986132121239707e-10;-0.00020433673759613985;-3.3182499757670226e-05;2.3165007627355964e-15;8.764249910376467e-06;-7.482616777043134e-06;7.482616776821089e-06;-7.224959152984098e-10;0.0007787536365088388;-1.3479996358423773e-06;1.7524499105376767e-08;2.220446049250313e-16;2.8547569943357286e-05;6.381431535656971e-05;0.00045617059041580977;-0.002235548797270617
0.7199604511260986;-0.0002595591784936974;0.00012684174819718258;-4.379287644286729e-05;0.0031628227919040823;-0.0007489222850308697;-0.0009315876093111546;-0.0016492466346146636;2.220446049250313e-16;2.220446049250313e-16;2.220446049250313e-16;2.220446049250313e-16;2.220446049250313e-16;2.220446049250313e-16;2.220446049250313e-16;2.220446049250313e-16;2.220446049250313e-16;2.220446049250313e-16;2.220446049250313e-16;-1.408122573372383e-12;1.4083446179773082e-12;-2.4322232760754986e-10;-0.00016643354987666586;-2.702735344324588e-05;0.00014955574376885898;7.138536328563571e-06;3.931205507806943e-05;-3.931205507829147e-05;-5.884774386100252e-10;0.0006342997041466772;-0.00013639286517101888;1.4273814049448785e-08;2.220446049250313e-16;2.952863230251256e-05;-3.2559769559960107e-05;0.00037155379695986713;-0.0018208684675569003
0.7402012348175049;-0.00030052042493846666;0.00011586155273709707;-5.3887396504008054e-05;0.00302814172397347;-0.000797047062644436;-0.0008856230592922295;-0.0012358618563153806;2.220446049250313e-16;2.220446049250313e-16;2.220446049250313e-16;2.220446049250313e-16;2.220446049250313e-16;2.220446049250313e-16;2.220446049250313e-16;2.220446049250313e-16;2.220446049250313e-16;2.220446049250313e-16;2.220446049250313e-16;-1.1469040428346721e-12;1.147126087439597e-12;-1.9810610597589685e-10;-0.00013556116658423103;-2.2013948300482784e-05;0.0005626647215860577;5.8143824554670796e-06;-6.2040755571356944e-06;6.204075556913649e-06;-0.0005699046257265728;0.0005166410734006193;-0.0001110928411372022;1.162611075461384e-08;2.220446049250313e-16;6.833284726728115e-05;-7.080172750808004e-05;0.00030263288983504267;-0.0014831087472530176
0.7600691318511963;-0.00033663964920520903;0.00010245063188925579;-6.326618249024911e-05;0.0028970714123655876;-0.0008380684561573511;-0.0008352866533380015;-0.0004662208895832841;2.220446049250313e-16;2.220446049250313e-16;2.220446049250313e-16;2.220446049250313e-16;2.220446049250313e-16;2.220446049250313e-16;2.220446049250313e-16;2.220446049250313e-16;2.220446049250313e-16;2.220446049250313e-16;2.220446049250313e-16;-9.341399170958905e-13;9.343619617008155e-13;-1.613586614805303e-10;-0.00011041541744014731;-1.7930498477920104e-05;0.0008532876365173515;4.735850849868283e-06;4.1031203921680324e-05;-4.103120392190236e-05;-0.000611687405796796;0.0004208073832915132;-9.04858134365083e-05;9.469539872825188e-09;2.220446049250313e-16;-2.528732135523013e-05;1.812954430312186e-05;0.00024649638022620373;-0.0012080013440672528
0.7799463272094727;-0.00036768475402606404;8.649901974658706e-05;-7.200373826250115e-05;0.002770171042277032;-0.0008716676795556381;-0.0007789535371134872;0.0019314745209757008;2.220446049250313e-16;2.220446049250313e-16;2.220446049250313e-16;2.220446049250313e-16;2.220446049250313e-16;2.220446049250313e-16;2.220446049250313e-16;2.220446049250313e-16;2.220446049250313e-16;2.220446049250313e-16;2.220446049250313e-16;-7.608422069058671e-13;7.61064251510792e-13;-1.3142763826752613e-10;-8.993404760135898e-05;-1.4604503075881406e-05;0.000695008112991111;-8.965302735673232e-05;-6.7741221544582725e-06;6.774122154236227e-06;-0.0006345125465688125;0.00034275024373708294;-7.370126058036996e-05;-0.00015709046009168546;2.220446049250313e-16;-2.0596681289593413e-05;1.4766627144544643e-05;0.00020077284229661927;0.014745234021982022
0.7999255657196045;-0.00039450993730662676;6.704907375126618e-05;-8.035998632239836e-05;0.0026491485539125595;-0.0008993406759151952;-0.0007159381343401397;0.0015585320312428352;2.220446049250313e-16;2.220446049250313e-16;2.220446049250313e-16;2.220446049250313e-16;2.220446049250313e-16;2.220446049250313e-16;2.220446049250313e-16;2.220446049250313e-16;2.220446049250313e-16;2.220446049250313e-16;2.220446049250313e-16;-6.196901388454045e-13;6.199121834503293e-13;-1.0704863279163919e-10;-7.32518438591044e-05;-1.1895459033449627e-05;0.000566088451831966;4.737852479486406e-06;4.015095052198216e-05;-4.015095052220421e-05;-0.0005168144348837138;0.00027917221571287736;-6.003013737558997e-05;-0.0004087829488849762;2.220446049250313e-16;2.792399532687635e-05;-3.2672610865856984e-05;0.0001635307348808607;0.012010085268616992
0.8199462890625;-0.0004186611326609372;4.2393602558430125e-05;-8.87034475119627e-05;0.0025348412363910677;-0.0009235656526403796;-0.0006458929739576565;0.001057015742951298;2.220446049250313e-16;2.220446049250313e-16;2.220446049250313e-16;2.220446049250313e-16;2.220446049250313e-16;2.220446049250313e-16;2.220446049250313e-16;2.220446049250313e-16;2.220446049250313e-16;2.220446049250313e-16;2.220446049250313e-16;-5.047208972097321e-13;5.049429418146571e-13;-8.719178046274504e-11;-5.966408464726464e-05;-9.688925729363679e-06;0.0004610825820699601;3.8590104561196735e-06;-5.498340108556399e-06;5.498340108334353e-06;-0.00042094858730300276;0.00022738751452448683;-4.889492208077661e-05;-0.00046131400457905165;2.220446049250313e-16;-3.199747222198996e-05;2.103367835913388e-05;0.00013319680562755404;-0.004262890973630086
0.8399672508239746;-0.00044186062368706844;1.1910512678972381e-05;-9.733461760067713e-05;0.0024237176204407406;-0.000946626096150534;-0.0005690637141177444;0.00021934839149138967;2.220446049250313e-16;2.220446049250313e-16;2.220446049250313e-16;2.220446049250313e-16;2.220446049250313e-16;2.220446049250313e-16;2.220446049250313e-16;2.220446049250313e-16;2.220446049250313e-16;2.220446049250313e-16;2.220446049250313e-16;-4.1107773133971694e-13;4.1129977594464197e-13;-7.10182501355337e-11;-4.859676984572608e-05;-7.891690562352525e-06;0.0003755546448621204;3.143188135324825e-06;4.0902958161172375e-05;-4.090295816139442e-05;-0.0003428652552869663;0.00018520855175216023;-3.982521962805554e-05;-0.0009439331172885726;2.220446049250313e-16;-2.606214110901221e-05;1.713206248400429e-05;0.00010848963066367792;-0.0034721513410902907
0.8600811958312988;-0.0004663790178563664;-2.4070581336383527e-05;-0.00010661950023114785;0.0023119472123180043;-0.0009716217250241097;-0.000486507505937227;-0.0017921167945409726;2.220446049250313e-16;2.220446049250313e-16;2.220446049250313e-16;2.220446049250313e-16;2.220446049250313e-16;2.220446049250313e-16;2.220446049250313e-16;2.220446049250313e-16;2.220446049250313e-16;2.220446049250313e-16;2.220446049250313e-16;-3.3480478746880284e-13;3.350268320737279e-13;-5.7844808599455535e-11;-3.958237276915542e-05;-6.4278312861021444e-06;0.00045043839545544026;2.5601463811479147e-06;-5.046575441080816e-06;5.046575440858772e-06;-0.00027926589333907947;0.00015085352295558297;-3.243789029467391e-05;-0.0010422840746540881;2.220446049250313e-16;-2.2920459176230937e-05;1.2261489614053446e-05;8.83654822357573e-05;-0.0036462646219707798
0.8799905776977539;-0.0004932317981017389;-6.283401401521228e-05;-0.00011653866735089677;0.002199587945556702;-0.001000151496320052;-0.00040190954361836234;-0.0014686643471407766;2.220446049250313e-16;2.220446049250313e-16;2.220446049250313e-16;2.220446049250313e-16;2.220446049250313e-16;2.220446049250313e-16;2.220446049250313e-16;2.220446049250313e-16;2.220446049250313e-16;2.220446049250313e-16;2.220446049250313e-16;-2.7267999798004413e-13;2.729020425849692e-13;-4.711495813431029e-11;-3.224009001030689e-05;-5.2355087564757345e-06;0.00036688488833842766;2.085255228359859e-06;4.20513917902026e-05;-4.205139179042464e-05;-0.00022746381553651363;0.00012287113728184077;-2.6420864381826235e-05;-0.0009844780312356714;2.220446049250313e-16;2.393196770897072e-05;-3.261376503592406e-05;7.19742375652883e-05;-0.00471485670002708
0.9001128673553467;-0.00052263055371453;-0.00010196531388596944;-0.00012703453813591264;0.0020851730833349163;-0.0010323843583732609;-0.00031663970554507203;-0.0008927288422208754;2.220446049250313e-16;2.220446049250313e-16;2.220446049250313e-16;2.220446049250313e-16;2.220446049250313e-16;2.220446049250313e-16;2.220446049250313e-16;2.220446049250313e-16;2.220446049250313e-16;2.220446049250313e-16;2.220446049250313e-16;-2.2207896866151592e-13;2.223010132664409e-13;-3.8375427868884065e-11;-2.625975481395752e-05;-4.264354604079212e-06;0.00029883003458220134;9.275148550892197e-06;-4.318237393000177e-06;4.3182373927781324e-06;-0.00018527069940333735;0.0001000793092606673;-2.151995916939985e-05;-0.0008018635094291495;2.220446049250313e-16;-2.558630605392012e-05;1.8514927869883333e-05;5.862346633591208e-05;0.011008694466377464
0.9199678897857666;-0.0005514355851136252;-0.00013916467366234167;-0.0001373078753925646;0.001975804321520498;-0.0010642678502697704;-0.00023398878740204742;0.0007190776661039003;2.220446049250313e-16;2.220446049250313e-16;2.220446049250313e-16;2.220446049250313e-16;2.220446049250313e-16;2.220446049250313e-16;2.220446049250313e-16;2.220446049250313e-16;2.220446049250313e-16;2.220446049250313e-16;2.220446049250313e-16;-1.8086411402514144e-13;1.8108615863006645e-13;-3.125702584563024e-11;-2.1388734419435974e-05;-3.4733434772387933e-06;0.00024339893085491908;7.554666464380133e-06;4.194286775798452e-05;-4.1942867758206565e-05;-0.00015090414260588954;8.151522288849638e-05;-1.7528141243220986e-05;-0.000653122840076976;2.220446049250313e-16;-2.608134042447555e-05;9.839390239174393e-06;4.774917972726498e-05;0.008966650447204858
0.9401192665100098;-0.0005765065555670067;-0.0001753586759399721;-0.00014680646216584447;0.0018726627710487634;-0.0010910730722782315;-0.00015212890406346197;0.0016571742262037846;2.220446049250313e-16;2.220446049250313e-16;2.220446049250313e-16;2.220446049250313e-16;2.220446049250313e-16;2.220446049250313e-16;2.220446049250313e-16;2.220446049250313e-16;2.220446049250313e-16;2.220446049250313e-16;2.220446049250313e-16;-1.4729435733097288e-13;1.4751640193589794e-13;-2.545904290767736e-11;-1.742125786422072e-05;-2.8290599706077288e-06;0.00019824995042464944;6.153323051903021e-06;-4.120074513880236e-06;4.120074513658191e-06;-0.00012291236730338828;6.639465851282335e-05;-1.4276780593486258e-05;-0.0005319726352604472;2.220446049250313e-16;-2.124341478411298e-05;8.014244845996534e-06;3.8892005320230625e-05;0.007846937437561879
0.959954023361206;-0.0005936152150849145;-0.0002080624889633357;-0.0001542301796659325;0.0017806731447570646;-0.001106877005989542;-7.74523021755928e-05;0.0011224230726065909;2.220446049250313e-16;2.220446049250313e-16;2.220446049250313e-16;2.220446049250313e-16;2.220446049250313e-16;2.220446049250313e-16;2.220446049250313e-16;2.220446049250313e-16;2.220446049250313e-16;2.220446049250313e-16;2.220446049250313e-16;-1.1995158069259332e-13;1.2017362529751835e-13;-2.073654956732138e-11;-1.4189723413269425e-05;-2.304287027684811e-06;0.0001614758236830671;5.011920084044084e-06;4.195300836933789e-05;-4.1953008369559945e-05;-0.00010011289137090541;5.407886432531031e-05;-1.1628527023273265e-05;-0.00043329503624860464;2.220446049250313e-16;6.810159483174738e-05;1.1740833194103974e-05;3.167778140836109e-05;0.00814517252243342
0.9800105094909668;-0.0006010927572874119;-0.0002369466354339464;-0.0001590260153241623;0.0016986466448781793;-0.0011090085253432943;-1.224387583585889e-05;0.00048735490791980174;2.220446049250313e-16;2.220446049250313e-16;2.220446049250313e-16;2.220446049250313e-16;2.220446049250313e-16;2.220446049250313e-16;2.220446049250313e-16;2.220446049250313e-16;2.220446049250313e-16;2.220446049250313e-16;2.220446049250313e-16;-9.768071822827916e-14;9.790276283320419e-14;-1.6890049226018057e-11;-1.1557618405879278e-05;-1.8768561858432011e-06;0.00013152306761375615;4.0822402329544315e-06;-4.1390091975485605e-06;4.139009197326516e-06;-8.15425757271735e-05;4.404757298586728e-05;-9.47150793874997e-06;-0.000352921515118465;2.220446049250313e-16;-2.9087785795465888e-05;1.7499948996384998e-05;2.5801750943243907e-05;0.008063090154445928
1.0001332759857178;-0.000597773718964836;-0.00026224720171209013;-0.00016084368336990372;0.0016301729703824441;-0.0010960831088026423;4.1437774723421486e-05;-0.001891766563456925;2.220446049250313e-16;2.220446049250313e-16;2.220446049250313e-16;2.220446049250313e-16;2.220446049250313e-16;2.220446049250313e-16;2.220446049250313e-16;2.220446049250313e-16;2.220446049250313e-16;2.220446049250313e-16;2.220446049250313e-16;-7.954096155820489e-14;7.976300616312993e-14;-1.3757050657399368e-11;-9.413752426703708e-06;-1.5287110937204487e-06;0.00010712636059057696;4.7281715603216905e-06;4.086149405684019e-05;-4.0861494057062237e-05;-6.64169375708811e-05;3.5877023494320044e-05;-7.714602413036465e-06;-0.0002874567798234592;2.220446049250313e-16;2.0540559588003383e-05;5.848656074930837e-05;2.1015687404215548e-05;-0.007764780965061347
1.020003080368042;-0.0005821061869951247;-0.0002836676403537355;-0.00015934486349914622;0.0015776784082251376;-0.0010659725205506073;8.309616455467049e-05;-0.0015408556894766867;2.220446049250313e-16;2.220446049250313e-16;2.220446049250313e-16;2.220446049250313e-16;2.220446049250313e-16;2.220446049250313e-16;2.220446049250313e-16;2.220446049250313e-16;2.220446049250313e-16;2.220446049250313e-16;2.220446049250313e-16;-6.47660163769502e-14;6.498806098187522e-14;-1.1205203742018393e-11;-7.667560187502835e-06;-1.245144740279641e-06;8.725509024077859e-05;3.851125286954268e-06;-7.079109781352392e-06;7.0791097811303485e-06;-5.409701075734246e-05;2.9222059867520506e-05;-6.28359188168328e-06;-0.00023413534377108135;2.220446049250313e-16;-2.363063791203981e-05;7.276617196350354e-06;1.711740873877984e-05;0.007164385698241301
1.040151596069336;-0.0005519546526835346;-0.00030075001989937573;-0.00015415622497334813;0.0015398982486880338;-0.0010152269955181203;0.00011437003807069933;-0.001049447577271433;2.220446049250313e-16;2.220446049250313e-16;2.220446049250313e-16;2.220446049250313e-16;2.220446049250313e-16;2.220446049250313e-16;2.220446049250313e-16;2.220446049250313e-16;2.220446049250313e-16;2.220446049250313e-16;2.220446049250313e-16;-5.2731731183410884e-14;5.2953775788335915e-14;-9.126708480397367e-12;-6.24527569497223e-06;0.0005691862198339731;7.106981634542818e-05;3.1367656157572937e-06;3.829438894317108e-05;-3.829438894339313e-05;-4.4062353368172654e-05;2.380155039996962e-05;-5.118024860080291e-06;-0.00019070470084744432;2.220446049250313e-16;1.887109268396489e-05;-3.219154476952342e-05;1.3942236401540795e-05;-0.008987138216944648
1.0600039958953857;-0.0005085178347005928;-0.0003124268946980334;-0.00014558044191955244;0.0015180970312431348;-0.0009458173356824918;0.0001353660084003123;-8.354999419470902e-05;2.220446049250313e-16;2.220446049250313e-16;2.220446049250313e-16;2.220446049250313e-16;2.220446049250313e-16;2.220446049250313e-16;2.220446049250313e-16;2.220446049250313e-16;2.220446049250313e-16;2.220446049250313e-16;2.220446049250313e-16;-4.2929730678990635e-14;4.315177528391567e-14;-7.433761099211655e-12;-5.086816086527974e-06;0.0011889092753571452;5.788680959970339e-05;2.5549151988194143e-06;-9.132221994686915e-06;9.132221994464872e-06;-3.588906220808517e-05;1.9386511560465253e-05;-4.168663236190773e-06;-0.00015533017074462367;2.220446049250313e-16;-3.467058699369935e-05;2.399738715437997e-05;1.1356038688032488e-05;-0.00732008024731527
1.0800855159759521;-0.00045286689323402365;-0.00031922375712013193;-0.0001339976908799637;0.001513393742389708;-0.0008594930511630416;0.00014785010641722084;0.0018167454543455207;2.220446049250313e-16;2.220446049250313e-16;2.220446049250313e-16;2.220446049250313e-16;2.220446049250313e-16;2.220446049250313e-16;2.220446049250313e-16;2.220446049250313e-16;2.220446049250313e-16;2.220446049250313e-16;2.220446049250313e-16;-3.494594000563721e-14;3.516798461056224e-14;-6.054844876314763e-12;-4.143243495077573e-06;0.0015111553845733384;4.714916821151841e-05;2.080994397658405e-06;3.728590239474929e-05;-3.728590239497135e-05;-2.9231865475124156e-05;1.57904348316962e-05;-3.3954022600226084e-06;-0.00012651739488506308;2.220446049250313e-16;-2.823940979753683e-05;1.95460218209122e-05;9.249564486644259e-06;-0.005962251111939832
1.1002426147460938;-0.00038902950048666745;-0.000321828615231801;-0.00012032351961962931;0.0015287180725125872;-0.0007627788884059204;0.00015151103041046197;0.0014792789145059233;2.220446049250313e-16;2.220446049250313e-16;2.220446049250313e-16;2.220446049250313e-16;2.220446049250313e-16;2.220446049250313e-16;2.220446049250313e-16;2.220446049250313e-16;2.220446049250313e-16;2.220446049250313e-16;2.220446049250313e-16;-2.844309260349913e-14;2.866513720842416e-14;-4.93170899453885e-12;-3.374697722012528e-06;0.0012308455054561376;3.840329219058306e-05;1.5688639380049464e-05;-9.56651175246599e-06;9.566511752243947e-06;-2.3809537128647846e-05;1.2861407860634253e-05;-2.76557636205254e-06;-0.00010304920886760192;2.220446049250313e-16;-2.300117577640498e-05;1.5920356935769366e-05;7.53382808414979e-06;0.008712189628137041
1.1199700832366943;-0.00032169904372851343;-0.0003214861923699863;-0.00010556579354397181;0.0015622303450643213;-0.0006627153087813712;0.00014642871591272888;0.0006578706050078605;2.220446049250313e-16;2.220446049250313e-16;2.220446049250313e-16;2.220446049250313e-16;2.220446049250313e-16;2.220446049250313e-16;2.220446049250313e-16;2.220446049250313e-16;2.220446049250313e-16;2.220446049250313e-16;2.220446049250313e-16;-2.3146482751661396e-14;2.3368527356586428e-14;-4.016907799233108e-12;-2.748712386439966e-06;0.0010025313569784328;3.1279721509806094e-05;1.2778494829046413e-05;-7.791983613102594e-06;7.79198361288055e-06;-1.9393016800890718e-05;1.0475697086285727e-05;-2.2525792317440557e-06;-8.393422468021715e-05;2.220446049250313e-16;2.296604188881717e-05;-2.7896464987767158e-05;6.1363500609655285e-06;0.007096132903302795
1.1399567127227783;-0.0002499052987159323;-0.0003186592847426024;-8.943524442939045e-05;0.001609075906037997;-0.0005572908813399302;0.0001327519272119215;-0.0005978700068119843;2.220446049250313e-16;2.220446049250313e-16;2.220446049250313e-16;2.220446049250313e-16;2.220446049250313e-16;2.220446049250313e-16;2.220446049250313e-16;2.220446049250313e-16;2.220446049250313e-16;2.220446049250313e-16;2.220446049250313e-16;-1.8832360923528e-14;1.905440552845303e-14;-3.271796508149112e-12;-2.2388434182077672e-06;0.0009509095934221256;2.547752866799649e-05;1.0408163903850982e-05;-6.346619352790237e-06;6.3466193525681925e-06;-1.579573339068049e-05;8.532520749886513e-06;-1.834739862875732e-06;-6.83649505909411e-05;2.220446049250313e-16;-2.223855369435324e-05;1.8222693265114108e-05;4.9980954768443035e-06;-0.007670848776768431
1.1599507331848145;-0.0001772277570678487;-0.0003130424054387646;-7.264711372628338e-05;0.0016616995926775598;-0.0004512019252988105;0.00011108420885352013;-0.0016352522102578053;2.220446049250313e-16;2.220446049250313e-16;2.220446049250313e-16;2.220446049250313e-16;2.220446049250313e-16;2.220446049250313e-16;2.220446049250313e-16;2.220446049250313e-16;2.220446049250313e-16;2.220446049250313e-16;2.220446049250313e-16;-1.5318481731251918e-14;1.554052633617695e-14;-2.6648987046156268e-12;-1.82355195690159e-06;0.0007745218070272799;2.075160633463731e-05;8.477514550711023e-06;4.202068531762246e-05;-4.2020685317844514e-05;-1.286572357004295e-05;6.94979147903725e-06;-1.494407085436426e-06;-5.5683679537262705e-05;2.220446049250313e-16;2.9076605471850348e-05;6.203254400313001e-05;4.0709800039864165e-06;-0.007957482278869086
1.1801187992095947;-0.00010700473711612826;-0.00030368107757279756;-5.592486697245773e-05;0.0017165933953155507;-0.0003492021925074633;8.187730631389862e-05;-0.0012117181468388216;2.220446049250313e-16;2.220446049250313e-16;2.220446049250313e-16;2.220446049250313e-16;2.220446049250313e-16;2.220446049250313e-16;2.220446049250313e-16;2.220446049250313e-16;2.220446049250313e-16;2.220446049250313e-16;2.220446049250313e-16;-1.2456405167398095e-14;1.2678449772323128e-14;-2.1705766505263307e-12;-1.4852944660960752e-06;0.0006308528525850133;1.6902313057101674e-05;6.904988586020067e-06;-4.6074326001435406e-06;4.607432599921497e-06;-1.0479212258572297e-05;5.660648595872582e-06;-1.2172039111322528e-06;-4.535470500609758e-05;2.220446049250313e-16;3.254880607634703e-05;-3.6006921238010674e-05;3.31583865687196e-06;-0.00899265313310871
1.199955940246582;-4.337255040321938e-05;-0.0002886572780374553;-4.01338586289625e-05;0.0017713844594844641;-0.00025739889749460125;4.473270678355801e-05;-0.0005614316724209811;2.220446049250313e-16;2.220446049250313e-16;2.220446049250313e-16;2.220446049250313e-16;2.220446049250313e-16;2.220446049250313e-16;2.220446049250313e-16;2.220446049250313e-16;2.220446049250313e-16;2.220446049250313e-16;2.220446049250313e-16;-1.0125225918160636e-14;1.0347270523085671e-14;-1.767948247957762e-12;0.00013463801257155742;0.0005138335912608219;1.3767039624465918e-05;-8.760025579181129e-05;-3.752782649291258e-06;3.752782649069214e-06;-8.535383879683748e-06;4.610633660391943e-06;-9.914201931416644e-07;-3.694169069437276e-05;2.220446049250313e-16;2.651120597922263e-05;-2.9327862391617433e-05;2.700771310013816e-06;0.006436552669330457
1.2200543880462646;1.5107993487060986e-05;-0.0002657625476235933;-2.4839836863153466e-05;0.0018276916325218084;-0.00017375817406040857;-2.5416118105616055e-06;0.0018303749653114426;2.220446049250313e-16;2.220446049250313e-16;2.220446049250313e-16;2.220446049250313e-16;2.220446049250313e-16;2.220446049250313e-16;2.220446049250313e-16;2.220446049250313e-16;2.220446049250313e-16;2.220446049250313e-16;2.220446049250313e-16;-8.226465849786421e-15;8.448510454711452e-15;-1.4400048976381464e-12;0.00026101746206696336;0.0004185206715418847;1.1213339818125142e-05;7.043807335752541e-06;-3.0566649227598804e-06;3.056664922537837e-06;-6.9521235161516605e-06;3.755389932849614e-06;-8.075179436900926e-07;-3.0089237956133448e-05;2.220446049250313e-16;-2.3480186675323385e-05;1.3811135531465906e-05;2.1997951118269403e-06;0.006841857620080542
1.239961862564087;6.709643712163301e-05;-0.00023644988197152436;-1.0471797412993613e-05;0.0018836234929374477;-0.00010012291329350982;-5.753988152179562e-05;0.0015763206302815474;2.220446049250313e-16;2.220446049250313e-16;2.220446049250313e-16;2.220446049250313e-16;2.220446049250313e-16;2.220446049250313e-16;2.220446049250313e-16;2.220446049250313e-16;2.220446049250313e-16;2.220446049250313e-16;2.220446049250313e-16;-6.679913906845196e-15;6.901958511770225e-15;-1.1728929891568803e-12;0.0005125731690326778;0.00034088770272506217;9.13333536523679e-06;5.737225098766292e-06;4.451693639960568e-05;-4.451693639982772e-05;-5.662548054677501e-06;3.0587885714930905e-06;-6.577284121227284e-07;-2.450787237300792e-05;2.220446049250313e-16;-1.912475879821761e-05;1.124925620997605e-05;1.7917468673024914e-06;-0.008145749941786445
1.2600793838500977;0.0001124374956108252;-0.00020243915097309075;2.8976885435440703e-06;0.0019373292784984203;-3.653360089648582e-05;-0.00011912936390744681;0.0010725212881338058;2.220446049250313e-16;2.220446049250313e-16;2.220446049250313e-16;2.220446049250313e-16;2.220446049250313e-16;2.220446049250313e-16;2.220446049250313e-16;2.220446049250313e-16;2.220446049250313e-16;2.220446049250313e-16;2.220446049250313e-16;-5.420237683369922e-15;5.642282288294953e-15;-9.553286702494611e-13;0.0005478684175377336;0.00027765516441770517;7.439158738331398e-06;4.673005700602011e-06;-2.8286406679890263e-06;2.8286406677669817e-06;-4.612180781460166e-06;2.4914024089096933e-06;-5.357239024765379e-07;-1.996181522201728e-05;2.220446049250313e-16;2.922239491262796e-05;-3.563704099264189e-05;1.4593890218357996e-06;0.008436509967819177
1.2799949645996094;0.0001488823993874744;-0.0001668817292935033;1.4582340722306875e-05;0.0019851743297269347;1.395694977361516e-05;-0.0001835594189731412;0.00021278764701041278;2.220446049250313e-16;2.220446049250313e-16;2.220446049250313e-16;2.220446049250313e-16;2.220446049250313e-16;2.220446049250313e-16;2.220446049250313e-16;2.220446049250313e-16;2.220446049250313e-16;2.220446049250313e-16;2.220446049250313e-16;7.742773812207995e-05;-7.742773812185791e-05;-7.781211727223749e-13;0.0007183723539725041;0.00022615186676299838;6.059241287113038e-06;3.806192349425966e-06;4.3783791861793175e-05;-4.378379186201522e-05;-3.7566500726291885e-06;2.029262833322e-06;-4.3635046684153063e-07;-1.6259023259678205e-05;2.220446049250313e-16;6.988956066119868e-05;-7.511432998490805e-05;1.188681479466645e-06;-0.006775619143885714
1.300074815750122;0.00017736448807617648;-0.0001318234445778322;2.4663729781715863e-05;0.00202576094070069;5.294842387076303e-05;-0.0002485549064231637;-0.0018248263979173808;2.220446049250313e-16;2.220446049250313e-16;2.220446049250313e-16;2.220446049250313e-16;2.220446049250313e-16;2.220446049250313e-16;2.220446049250313e-16;2.220446049250313e-16;2.220446049250313e-16;2.220446049250313e-16;2.220446049250313e-16;-9.353893238805733e-06;-0.00013548464648621963;-6.337845584397037e-13;0.0007151931173729987;0.00018420210892762943;4.935289898611613e-06;3.1001674573096333e-06;-3.0502609572467436e-06;3.0502609570246995e-06;-3.059814963219428e-06;1.6528472606334773e-06;-3.554101824328443e-07;-1.3243076063903267e-05;2.220446049250313e-16;-2.394322322565691e-05;1.9687615956687375e-05;9.681884942848287e-07;-0.0055187841403145635
1.3200173377990723;0.00019981444154768948;-9.835686277266693e-05;3.3404650827258474e-05;0.0020538994612842626;8.400597652739452e-05;-0.00031050797787515906;-0.0013566277318753743;2.220446049250313e-16;2.220446049250313e-16;2.220446049250313e-16;2.220446049250313e-16;2.220446049250313e-16;2.220446049250313e-16;2.220446049250313e-16;2.220446049250313e-16;2.220446049250313e-16;2.220446049250313e-16;2.220446049250313e-16;-7.618804504840013e-06;-0.0001103530913420664;-5.162214840026287e-13;0.0011702599682648716;0.00015003376898473496;4.019824467981025e-06;5.338198275534641e-06;4.2283447952755606e-05;-4.228344795297765e-05;-2.492238411385744e-06;1.3462544240813459e-06;-2.8948381490519186e-07;-1.0786568223274609e-05;2.220446049250313e-16;-2.0908451215197378e-05;1.4629139991566924e-05;7.885955797730821e-07;-0.004495084174687087
1.3399653434753418;0.00021919484020084163;-6.569245206454944e-05;4.139296766367594e-05;0.0020682495965628576;0.00011185755190901229;-0.0003682213769117774;-0.0008829136797456125;2.220446049250313e-16;2.220446049250313e-16;2.220446049250313e-16;2.220446049250313e-16;2.220446049250313e-16;2.220446049250313e-16;2.220446049250313e-16;2.220446049250313e-16;2.220446049250313e-16;2.220446049250313e-16;2.220446049250313e-16;-6.205563886720336e-06;-8.988328260493394e-05;-4.204656251044162e-13;0.0016524256540928002;0.00012220344254912274;3.2741721530734687e-06;4.3479958591621865e-06;-3.683630706967144e-06;3.6836307067450997e-06;-2.0299437625637593e-06;1.0965326425044063e-06;-2.3578637651412193e-07;-8.785727233908565e-06;2.220446049250313e-16;2.986897874369116e-05;-3.4983516981033314e-05;6.423160284475489e-07;-0.005571407449586507
1.3600609302520752;0.00023747595459439746;-3.324820883854348e-05;4.8992626652748756e-05;0.0020703042994558193;0.00013939138546033864;-0.00042107976396666693;0.0004841849393312153;2.220446049250313e-16;2.220446049250313e-16;2.220446049250313e-16;2.220446049250313e-16;2.220446049250313e-16;2.220446049250313e-16;2.220446049250313e-16;2.220446049250313e-16;2.220446049250313e-16;2.220446049250313e-16;2.220446049250313e-16;-5.054470570508012e-06;-7.321049545223497e-05;-3.4247187955770376e-13;0.001497135823394647;9.953546772777638e-05;2.6668336822542967e-06;3.5414698022617203e-06;4.1627258284401096e-05;-4.162725828462314e-05;-1.6534018817566974e-06;8.931326906488544e-07;-1.9204947733560548e-07;-7.156029742813736e-06;2.220446049250313e-16;6.933565370159157e-05;-7.274230643017148e-05;5.231704196457063e-07;-0.006108362259342664
1.3801651000976562;0.00025557485472887335;-1.8784768161118656e-06;5.625343769137562e-05;0.0020603837842819574;0.00016800602523218703;-0.00046693829840956645;0.001803973589762359;2.220446049250313e-16;2.220446049250313e-16;2.220446049250313e-16;2.220446049250313e-16;2.220446049250313e-16;2.220446049250313e-16;2.220446049250313e-16;2.220446049250313e-16;2.220446049250313e-16;2.220446049250313e-16;2.220446049250313e-16;-4.116897870119843e-06;-5.9630406111441944e-05;-2.7894548634899687e-13;0.001219426485253836;8.107226056094714e-05;2.1721527019066382e-06;2.8845492881284345e-06;-4.467790514409307e-06;4.467790514187264e-06;-1.3467061664525905e-06;7.274621586128084e-07;-1.5642549959908394e-07;-5.828630950707679e-06;2.220446049250313e-16;-2.0272581827013386e-05;1.7497841888005495e-05;4.261255766165504e-07;-0.0054599238790838224
1.399965524673462;0.00027379780610092364;2.7205610851937495e-05;6.320525446482835e-05;0.0020397907848930157;0.00019802806828934035;-0.0005054404389786506;0.0012484584861069325;2.220446049250313e-16;2.220446049250313e-16;2.220446049250313e-16;2.220446049250313e-16;2.220446049250313e-16;2.220446049250313e-16;2.220446049250313e-16;2.220446049250313e-16;2.220446049250313e-16;2.220446049250313e-16;2.220446049250313e-16;-3.3532390458242994e-06;-4.856933846780766e-05;-2.2720284204054761e-13;0.000993230493654782;6.603386292851994e-05;1.7692319516573436e-06;2.34948342361366e-06;4.325750418147601e-05;-4.325750418169807e-05;-1.0969005894891752e-06;5.925224748286237e-07;-1.2740954708282635e-07;-4.747456338294845e-06;2.220446049250313e-16;-1.651214460173882e-05;1.4252101579292273e-05;3.4708194543903425e-07;-0.004447142124038017
1.4199802875518799;0.00029298522427450565;5.446845519815448e-05;7.023878618651349e-05;0.0020089304363148167;0.0002306740288765833;-0.0005395489622163498;0.0005889640370357236;2.220446049250313e-16;2.220446049250313e-16;2.220446049250313e-16;2.220446049250313e-16;2.220446049250313e-16;2.220446049250313e-16;2.220446049250313e-16;2.220446049250313e-16;2.220446049250313e-16;2.220446049250313e-16;2.220446049250313e-16;-2.731234160567931e-06;-3.956002974039475e-05;-1.8505813485978878e-13;0.0008089924447724051;5.378499406692278e-05;1.441050482324604e-06;1.1808826976098202e-05;-3.705119076465217e-06;3.7051190762431726e-06;-8.934323857676174e-07;4.826132590133815e-07;-1.0377587240863131e-07;-3.8668328591432645e-06;2.220446049250313e-16;2.657825962223472e-05;-3.83142368325798e-05;2.8270041382225234e-07;0.009843633728767063
1.4400649070739746;0.0003128311955548639;7.803025463117422e-05;7.721069285808512e-05;0.001965946462357017;0.00026567543752213933;-0.0005675956491866151;-0.0018008954647549516;2.220446049250313e-16;2.220446049250313e-16;2.220446049250313e-16;2.220446049250313e-16;2.220446049250313e-16;2.220446049250313e-16;2.220446049250313e-16;2.220446049250313e-16;2.220446049250313e-16;2.220446049250313e-16;2.220446049250313e-16;-2.2246072939960827e-06;-3.2221891473737395e-05;-1.5073100745664074e-13;0.0006589294024699037;4.3808213823721503e-05;1.1737446244189043e-06;9.618363377200585e-06;4.1399360728346175e-05;-4.139936072856822e-05;0.0007011673754615483;3.9309151579926794e-07;-8.452609667603272e-08;-3.149559531477558e-06;2.220446049250313e-16;-2.3625459216146163e-05;1.4066432428462533e-05;2.302612539358108e-07;-0.0063554094608657755
1.4601385593414307;0.0003325587949034714;9.743693002346759e-05;8.38775733418048e-05;0.0019079103557605353;0.0003021653308921458;-0.0005878797708425628;-0.0014668406116395626;2.220446049250313e-16;2.220446049250313e-16;2.220446049250313e-16;2.220446049250313e-16;2.220446049250313e-16;2.220446049250313e-16;2.220446049250313e-16;2.220446049250313e-16;2.220446049250313e-16;2.220446049250313e-16;2.220446049250313e-16;-1.8119565447553964e-06;-2.624493199218082e-05;-1.227713476422305e-13;0.0005367021166205019;3.568206396075756e-05;9.560223324931002e-07;7.834217085500983e-06;-6.459337100873514e-06;6.4593371006514704e-06;0.0007051926399597434;3.2017549644047753e-07;-6.884703403073287e-08;-2.565335923135543e-06;2.220446049250313e-16;3.031951221498805e-05;6.1019793533844604e-05;1.8754923046355492e-07;-0.0051765207271843045
1.4799432754516602;0.00035150952139042797;0.00011345395440864542;9.002621796421781e-05;0.0018363471613969016;0.0003389790811571412;-0.0005999080503568252;-0.0009595549784582313;2.220446049250313e-16;2.220446049250313e-16;2.220446049250313e-16;2.220446049250313e-16;2.220446049250313e-16;2.220446049250313e-16;2.220446049250313e-16;2.220446049250313e-16;2.220446049250313e-16;2.220446049250313e-16;2.220446049250313e-16;-1.4758499304316749e-06;-2.1376661138456224e-05;-9.999802997551947e-14;0.00043714722837562747;2.906326410893678e-05;7.78686164955208e-07;6.381018779997335e-06;4.1403576938546724e-05;-4.140357693876877e-05;0.000723616806921709;2.6078494294762157e-07;-5.6076339511994615e-08;-2.089482142743419e-06;2.220446049250313e-16;-1.452659141077925e-05;1.047897960018765e-05;1.527600203952559e-07;0.009519305679271345
1.5000004768371582;0.0003696331662482367;0.00012653253303091777;9.55651458703031e-05;0.001753477019662977;0.0003758132724846552;-0.0006031294919374731;-0.00032443182670953424;2.220446049250313e-16;2.220446049250313e-16;2.220446049250313e-16;2.220446049250313e-16;2.220446049250313e-16;2.220446049250313e-16;2.220446049250313e-16;2.220446049250313e-16;2.220446049250313e-16;2.220446049250313e-16;2.220446049250313e-16;7.482972019307932e-05;-9.34432332868827e-05;-8.144902040274796e-14;0.0003560591496821259;2.3672210262129684e-05;6.342447481445479e-07;5.1973796776752024e-06;-5.0491334416762975e-06;5.049133441454254e-06;0.0005893904118427751;2.124109659367312e-07;-4.5674529009641553e-08;-1.7018962645279063e-06;2.220446049250313e-16;3.342483142739838e-05;-3.6721636544699054e-05;1.2442399136206338e-07;-0.005712662325743287
1.5200610160827637;0.000385256735089029;0.00013587529376053408;9.993533208386442e-05;0.0016670029772726132;0.0004092736407166869;-0.0005966444729171612;0.001903990673236634;2.220446049250313e-16;2.220446049250313e-16;2.220446049250313e-16;2.220446049250313e-16;2.220446049250313e-16;2.220446049250313e-16;2.220446049250313e-16;2.220446049250313e-16;2.220446049250313e-16;2.220446049250313e-16;2.220446049250313e-16;6.09492747830143e-05;-7.611009753237397e-05;-6.634073617441571e-14;0.00029001240278577704;1.9281163209818765e-05;5.1659631139341e-07;4.233298231089437e-06;4.048571703456785e-05;-4.048571703478989e-05;0.0004800621741360144;1.7301005932400462e-07;-3.7202189344159335e-08;-1.3862051443096329e-06;2.220446049250313e-16;-1.945755549725008e-05;1.4688265304031994e-05;1.0134411861434662e-07;-0.005356859182702133
1.5399963855743408;0.0003966244927866638;0.00014115294160836462;0.00010275727024893601;0.0015806883951824504;0.0004362383482587596;-0.0005814309696070422;0.0015489337988428768;2.220446049250313e-16;2.220446049250313e-16;2.220446049250313e-16;2.220446049250313e-16;2.220446049250313e-16;2.220446049250313e-16;2.220446049250313e-16;2.220446049250313e-16;2.220446049250313e-16;2.220446049250313e-16;2.220446049250313e-16;4.964356524373253e-05;-6.199215012822818e-05;-5.4034944243662685e-14;0.0002362169146465328;1.570462794166744e-05;4.2077092435687864e-07;3.44804786733629e-06;-6.779988422899508e-06;6.7799884226774654e-06;0.0003910136412223719;1.409177746322725e-07;-3.0301415734501184e-08;-1.1290727538223477e-06;2.220446049250313e-16;-1.5848300562232046e-05;1.1963683891792207e-05;8.254541801212665e-08;0.01088366515300108
1.5600576400756836;0.0004013544231715024;0.00014268579872695744;0.0001036961459104639;0.0014861581942246078;0.00045392291570484734;-0.0005582813825529712;0.0009370375346616072;2.220446049250313e-16;2.220446049250313e-16;2.220446049250313e-16;2.220446049250313e-16;2.220446049250313e-16;2.220446049250313e-16;2.220446049250313e-16;2.220446049250313e-16;2.220446049250313e-16;2.220446049250313e-16;2.220446049250313e-16;4.043499416330291e-05;-5.0492993730380125e-05;-4.401179980486477e-14;0.0001924001533353175;1.2791517612412765e-05;3.4272054770695483e-07;2.8084565382445786e-06;-5.522342945399887e-06;5.522342945177841e-06;0.0003184830546108795;1.1477840817407739e-07;-2.4680692499599543e-08;-9.196368146930134e-07;2.220446049250313e-16;-1.2908539859816513e-05;9.744495302889076e-06;6.723375887973972e-08;-0.0054083495398950295
1.5799930095672607;0.000397324203082601;0.0001406911809314383;0.0001024510209126833;0.0013743823731725354;0.00046001781068372605;-0.000527496410802228;-2.2964033549857004e-05;2.220446049250313e-16;2.220446049250313e-16;2.220446049250313e-16;2.220446049250313e-16;2.220446049250313e-16;2.220446049250313e-16;2.220446049250313e-16;2.220446049250313e-16;2.220446049250313e-16;2.220446049250313e-16;2.220446049250313e-16;3.2934555464723744e-05;-4.112685897460543e-05;-3.584788601481113e-14;0.00015671112739257438;1.041877104229527e-05;2.791480281107378e-07;2.287505403253573e-06;-4.4979828436922085e-06;4.497982843470164e-06;0.0002594064384996526;9.348773082283706e-08;-2.0102578295251948e-08;-7.490499332975513e-07;2.220446049250313e-16;3.0180013411626934e-05;-3.275714747852281e-05;5.476231681854099e-08;-0.006467476563254155
1.6001255512237549;0.0003848703454289462;0.00013638629512431765;9.931179812945647e-05;0.0012366287362538056;0.00045596808622981263;-0.0004901682984383816;-0.001901219934215163;2.220446049250313e-16;2.220446049250313e-16;2.220446049250313e-16;2.220446049250313e-16;2.220446049250313e-16;2.220446049250313e-16;2.220446049250313e-16;2.220446049250313e-16;2.220446049250313e-16;2.220446049250313e-16;2.220446049250313e-16;2.682540126698913e-05;-3.3498083677684705e-05;-2.919832720835125e-14;0.000127642192705798;8.48615413126851e-06;2.273678135713716e-07;1.8631874478588055e-06;4.056501977291337e-05;-4.056501977313543e-05;0.0003399459737402892;7.614634105351843e-08;-1.6373675662597052e-08;-6.101058522329384e-07;2.220446049250313e-16;-1.96468453626601e-05;1.754775355808549e-05;4.460424931318174e-08;-0.005267800082499029
1.6201317310333252;0.00036576969086934177;0.00013294507923552145;9.495166731158779e-05;0.0010701387446295078;0.00044478611432526645;-0.00044984989894160583;-0.0014556536513182074;2.220446049250313e-16;2.220446049250313e-16;2.220446049250313e-16;2.220446049250313e-16;2.220446049250313e-16;2.220446049250313e-16;2.220446049250313e-16;2.220446049250313e-16;2.220446049250313e-16;2.220446049250313e-16;2.220446049250313e-16;9.95296356347578e-05;-0.0001049645771625344;-2.3782220000747138e-14;0.00010396536372257685;6.9120255783815234e-06;1.8519250520271686e-07;1.517577821202546e-06;-7.265016456078707e-06;7.265016455856662e-06;0.00027688812027380137;6.202167070272236e-08;-1.3336461162658188e-08;-4.969350298053047e-07;2.220446049250313e-16;3.0235520578484638e-05;6.053075386567517e-05;3.6330439842144726e-08;-0.0042906560909459724
1.6399710178375244;0.0003413403045061902;0.00013249051349405736;8.972753409363461e-05;0.0008747198240676264;0.0004285273082338232;-0.0004076089336527859;-0.0008726667565864802;2.220446049250313e-16;2.220446049250313e-16;2.220446049250313e-16;2.220446049250313e-16;2.220446049250313e-16;2.220446049250313e-16;2.220446049250313e-16;2.220446049250313e-16;2.220446049250313e-16;2.220446049250313e-16;2.220446049250313e-16;8.106751028473294e-05;-8.549430412749153e-05;-1.9370766829483542e-14;8.468043853556211e-05;5.629888033751613e-06;1.5084045294077045e-07;1.2360766202308559e-06;-5.917401309849549e-06;5.917401309627505e-06;0.0002255271045137629;5.0517038422809235e-08;-1.0862630969867358e-08;-4.0475668762035706e-07;2.220446049250313e-16;-1.5862619993792317e-05;8.813036863832411e-06;2.959137031667589e-08;0.00988442845852284
1.6599905490875244;0.0003115614611920076;0.00013511362025951716;8.351056304230402e-05;0.0006484394604169304;0.0004073937604857025;-0.0003612914034441919;0.0008216983846757482;2.220446049250313e-16;2.220446049250313e-16;2.220446049250313e-16;2.220446049250313e-16;2.220446049250313e-16;2.220446049250313e-16;2.220446049250313e-16;2.220446049250313e-16;2.220446049250313e-16;2.220446049250313e-16;2.220446049250313e-16;6.602999379885426e-05;-6.963564505124265e-05;-1.5777610649907034e-14;6.897274643995617e-05;4.585578990290899e-06;1.2286049167308836e-07;1.0067921326569084e-06;-4.819760350651238e-06;4.819760350429194e-06;0.00018369323617086305;4.1146443526868266e-08;-8.847680816400523e-09;-3.2967685179607834e-07;2.220446049250313e-16;2.6477517478201376e-05;-3.2219446997448276e-05;2.4102356068996985e-08;-0.005348076491078021
1.6803200244903564;0.0002772403217315728;0.00013846640574767972;7.618324730439739e-05;0.0003902410095171485;0.00038277791685597525;-0.00030630356193578844;0.0017391565248061726;2.220446049250313e-16;2.220446049250313e-16;2.220446049250313e-16;2.220446049250313e-16;2.220446049250313e-16;2.220446049250313e-16;2.220446049250313e-16;2.220446049250313e-16;2.220446049250313e-16;2.220446049250313e-16;2.220446049250313e-16;5.378184263662802e-05;-5.671866811701869e-05;-1.2850962484415837e-14;5.617873305500955e-05;3.7349827474606263e-06;1.000706383458034e-07;8.20038484499881e-07;3.8414911397792294e-05;-3.841491139801434e-05;0.000149619288943894;3.3514035417906236e-08;-7.2064913229633275e-09;-2.685238562682295e-07;2.220446049250313e-16;-2.4043725087332322e-05;1.7313700846882114e-05;1.9631519657923474e-08;0.00995171069809595
1.6999266147613525;0.00024241559491090548;0.0001392222399772974;6.83965413840954e-05;0.00011535238405458709;0.00035924981232213145;-0.00024239798909334931;0.0010940929198663644;2.220446049250313e-16;2.220446049250313e-16;2.220446049250313e-16;2.220446049250313e-16;2.220446049250313e-16;2.220446049250313e-16;2.220446049250313e-16;2.220446049250313e-16;2.220446049250313e-16;2.220446049250313e-16;2.220446049250313e-16;4.3805646964049985e-05;-4.619770967298744e-05;-1.0467189262072224e-14;4.5757929190386854e-05;3.0421667914488514e-06;8.150816037414651e-08;6.67926470865681e-07;-1.13379686530634e-05;1.1337968652841355e-05;0.00012186584596535754;2.729739131060599e-08;-5.869732223124397e-09;-2.1871435920457454e-07;2.220446049250313e-16;-1.958376435691396e-05;1.4102117550415772e-05;1.5989995458376533e-08;-0.007752370357848727
1.720139503479004;0.0002050463047169746;0.00013634390817542856;5.97371294382838e-05;-0.00019337442708183258;0.0003355271861286262;-0.00016607071980266977;0.00045491441622049465;2.220446049250313e-16;2.220446049250313e-16;2.220446049250313e-16;2.220446049250313e-16;2.220446049250313e-16;2.220446049250313e-16;2.220446049250313e-16;2.220446049250313e-16;2.220446049250313e-16;2.220446049250313e-16;2.220446049250313e-16;3.567997323751223e-05;-3.762832326433373e-05;0.00013090212176102567;3.7270119312627534e-05;2.477863865177536e-06;-0.0007847860981754186;5.440302850605397e-07;3.496351063570473e-05;-3.4963510635926776e-05;9.926049320032098e-05;-0.00014848489639300496;-4.7809335815612155e-09;-1.7814421253687101e-07;2.220446049250313e-16;-1.5951098467233648e-05;1.1486262883048332e-05;1.3023951238319298e-08;-0.0063143541087825215
1.739931583404541;0.0001653837000027138;0.00013064586217069221;5.046671190336549e-05;-0.000516964699096793;0.0003098893168078501;-8.462152412737526e-05;-0.0019314940062169364;2.220446049250313e-16;2.220446049250313e-16;2.220446049250313e-16;2.220446049250313e-16;2.220446049250313e-16;2.220446049250313e-16;2.220446049250313e-16;2.220446049250313e-16;2.220446049250313e-16;2.220446049250313e-16;2.220446049250313e-16;2.906156120178645e-05;-3.0648504475820223e-05;0.00010662059631261641;3.0356745118380823e-05;2.01823560483626e-06;-0.0006392131818769919;4.4311606737109137e-07;-1.2525299347794604e-05;1.252529934757256e-05;8.084829208974392e-05;-0.00027871725879520824;-3.894100283016493e-09;-1.4509957451260974e-07;2.220446049250313e-16;2.8377770045409273e-05;-3.1280922216271595e-05;1.0608089683306306e-08;-0.005143080886316543
1.7602732181549072;0.00012019526002560806;0.00012466738416118937;4.011898972600132e-05;-0.0008646332529483296;0.00027834131354966376;3.1857449535823324e-07;-0.0015768885780542425;2.220446049250313e-16;2.220446049250313e-16;2.220446049250313e-16;2.220446049250313e-16;2.220446049250313e-16;2.220446049250313e-16;2.220446049250313e-16;2.220446049250313e-16;2.220446049250313e-16;2.220446049250313e-16;2.220446049250313e-16;2.367082323361257e-05;-2.496339844870853e-05;8.6843142075353e-05;2.4725758628578164e-05;1.643865514111663e-06;-0.000651845129662931;3.6092080634917476e-07;-1.020193460192022e-05;1.0201934601698176e-05;6.585143920892196e-05;-0.0015232397070774795;-3.1717690186437016e-09;-1.1818451031286135e-07;2.220446049250313e-16;-1.7936156995545615e-05;1.557152140767718e-05;8.640355347613504e-09;0.00928403050867341
1.7801978588104248;7.141830113098496e-05;0.00012211633052442513;2.9356500930082728e-05;-0.0012112675402028016;0.00024110752337408098;7.936222790486512e-05;-0.0010689519332296065;2.220446049250313e-16;2.220446049250313e-16;2.220446049250313e-16;2.220446049250313e-16;2.220446049250313e-16;2.220446049250313e-16;2.220446049250313e-16;2.220446049250313e-16;2.220446049250313e-16;2.220446049250313e-16;2.220446049250313e-16;1.928003346642264e-05;-2.0332844057713406e-05;7.073428199001298e-05;2.013928493896834e-05;1.3389387354034126e-06;-0.0006683241270808747;2.9397225252644246e-07;-8.309539495375873e-06;8.309539495153827e-06;5.363640880716199e-05;-0.0013871903534858707;-2.583425689241661e-09;-9.6262022303015e-08;2.220446049250313e-16;-1.3613551601026352e-05;1.3678661881388636e-05;7.0376234328521205e-09;0.008474012140561489
1.8001420497894287;1.9270265034003872e-05;0.00012607254953000843;1.842252842087672e-05;-0.0015525282570253377;0.00019803857224042802;0.00014848387733766363;-0.00022097415922601137;2.220446049250313e-16;2.220446049250313e-16;2.220446049250313e-16;2.220446049250313e-16;2.220446049250313e-16;2.220446049250313e-16;2.220446049250313e-16;2.220446049250313e-16;2.220446049250313e-16;2.220446049250313e-16;2.220446049250313e-16;-5.8291769893917087e-05;-9.05567062178104e-05;5.761351477012799e-05;1.6403573453320578e-05;1.0905739683531759e-06;-0.0005443541785331666;2.394422370093657e-07;3.727656227859309e-05;-3.727656227881513e-05;4.368719020098848e-05;-0.0011298752128539506;-2.10421637029789e-09;-7.84060188034451e-08;2.220446049250313e-16;-1.1088322863733468e-05;1.1141355594027797e-05;5.732188271204506e-09;0.007473376915743283
1.8199427127838135;-3.3659128694878055e-05;0.00013798097875295022;7.951123946397366e-06;-0.0018687288271037445;0.0001509705918813003;0.0002021826267003456;0.001937760362515617;2.220446049250313e-16;2.220446049250313e-16;2.220446049250313e-16;2.220446049250313e-16;2.220446049250313e-16;2.220446049250313e-16;2.220446049250313e-16;2.220446049250313e-16;2.220446049250313e-16;2.220446049250313e-16;2.220446049250313e-16;-4.74790109021573e-05;-7.375900319382042e-05;0.00019913229897638624;1.3360813100063693e-05;8.882793133109639e-07;-0.00044337988062887986;1.9502719855810963e-07;-9.877414452078978e-06;9.877414451856934e-06;3.5583489463643845e-05;-0.0009202904225896231;-1.7138973849599455e-09;-6.386219235302355e-08;2.220446049250313e-16;3.120789913195788e-05;-3.116470364167859e-05;4.668903173072764e-09;0.006087112206478627
1.8401381969451904;-8.625315018658066e-05;0.00015796163080012088;-1.7450565512186328e-06;-0.002154103370550988;0.00010098118854141917;0.00023822196577911306;0.0013628254570887965;2.220446049250313e-16;2.220446049250313e-16;2.220446049250313e-16;2.220446049250313e-16;2.220446049250313e-16;2.220446049250313e-16;2.220446049250313e-16;2.220446049250313e-16;2.220446049250313e-16;2.220446049250313e-16;2.220446049250313e-16;-3.8671951123625236e-05;-6.00771690951367e-05;0.0001621945020931352;1.088246577508375e-05;-0.00015130120645756706;-0.00036113568389647656;1.5885087214557125e-07;-8.045215805079244e-06;8.045215804857201e-06;2.898297456494705e-05;-0.0007495823010143889;-1.3959801319085314e-09;-5.2016154810239884e-08;2.220446049250313e-16;-2.1297442955202648e-05;1.9554935903114772e-05;3.802850815112598e-09;-0.009126564037905287
1.8600616455078125;-0.00013375476049947555;0.0001852033751524661;-9.534530236958804e-06;-0.002395678462691478;5.395748106538087e-05;0.00025266563059661915;0.0007854369605038924;2.220446049250313e-16;2.220446049250313e-16;2.220446049250313e-16;2.220446049250313e-16;2.220446049250313e-16;2.220446049250313e-16;2.220446049250313e-16;2.220446049250313e-16;2.220446049250313e-16;2.220446049250313e-16;2.220446049250313e-16;-3.149854588988728e-05;-4.8933229710295674e-05;0.00013210843567049667;8.863836389216808e-06;-0.0001232357782922287;-0.0002941472716317045;1.2938502818051867e-07;-6.55287855585642e-06;6.552878555634375e-06;2.3606813926740412e-05;-0.0006105394690656009;-1.1370345423153231e-09;-4.236748319390794e-08;2.220446049250313e-16;-1.7346900396031032e-05;1.592761751143638e-05;3.097445756726805e-09;0.00761586614931039
1.8801722526550293;-0.00017521955238333255;0.00022049838532822754;-1.4993598160854195e-05;-0.002599580907394738;1.1991483547452595e-05;0.00024387773027867934;-0.0005769581467147242;2.220446049250313e-16;2.220446049250313e-16;2.220446049250313e-16;2.220446049250313e-16;2.220446049250313e-16;2.220446049250313e-16;2.220446049250313e-16;2.220446049250313e-16;2.220446049250313e-16;2.220446049250313e-16;2.220446049250313e-16;5.1862775791297006e-05;-0.00011737495971624348;0.00010760314653134245;7.21965013799452e-06;-0.00025541338821167864;-0.0003695030533148892;1.0538491410945855e-07;3.884415271017828e-05;-3.884415271040032e-05;1.92278974859171e-05;-0.0004972882134256135;-9.261217411817196e-10;-3.450857985820797e-08;2.220446049250313e-16;3.0052354458740154e-05;-3.120836923876053e-05;2.5228889278899613e-09;-0.006804650702869151
1.899921178817749;-0.00020919712411743204;0.00026314961328113736;-1.7826661556167596e-05;-0.002760460561529742;-2.3268898982673013e-05;0.0002110718471911;-0.001611662110536097;2.220446049250313e-16;2.220446049250313e-16;2.220446049250313e-16;2.220446049250313e-16;2.220446049250313e-16;2.220446049250313e-16;2.220446049250313e-16;2.220446049250313e-16;2.220446049250313e-16;2.220446049250313e-16;2.220446049250313e-16;4.224255502436011e-05;-9.560263828237851e-05;8.764343536944423e-05;5.8804501602098985e-06;-0.0009268357636477472;-0.00030096254631906035;8.583667119786715e-08;-9.626295514930982e-06;9.626295514708938e-06;1.566124267663876e-05;-0.000405044357886496;-7.543319464533928e-10;-2.8107453973134504e-08;2.220446049250313e-16;2.4477830533859225e-05;-2.541941179727819e-05;2.0549087998221722e-09;0.010517744049985551
1.9199714660644531;-0.00023508141229538606;0.0003139141611534549;-1.7895880009274802e-05;-0.002876366695286073;-5.10996674641732e-05;0.00015366855658754432;-0.0013127088619198414;2.220446049250313e-16;2.220446049250313e-16;2.220446049250313e-16;2.220446049250313e-16;2.220446049250313e-16;2.220446049250313e-16;2.220446049250313e-16;2.220446049250313e-16;2.220446049250313e-16;2.220446049250313e-16;2.220446049250313e-16;3.4406825083310196e-05;-7.786894639748656e-05;7.138612587988336e-05;4.789663408304464e-06;-0.0010375162275039172;-0.0002451358749927892;6.991450516985779e-08;-7.840677861278847e-06;7.840677861056802e-06;1.2756180042889e-05;-0.0003299111610257877;-6.144080849609537e-10;-2.2893696932705385e-08;2.220446049250313e-16;-2.011337884732485e-05;1.934645502338721e-05;1.6737360606351575e-09;-0.006714694922673868
1.9401235580444336;-0.0002490808990628363;0.00037142762593807933;-1.4654230424087589e-05;-0.0029280209333080597;-6.772910431800682e-05;7.14544866515078e-05;-0.0007545816328064482;2.220446049250313e-16;2.220446049250313e-16;2.220446049250313e-16;2.220446049250313e-16;2.220446049250313e-16;2.220446049250313e-16;2.220446049250313e-16;2.220446049250313e-16;2.220446049250313e-16;2.220446049250313e-16;2.220446049250313e-16;2.8024574073012927e-05;-6.342474352166777e-05;5.814444569245175e-05;3.901210781460286e-06;-0.0008450634517783624;-0.0003482531359837833;5.694580142650647e-08;-6.3862811222688475e-06;6.386281122046803e-06;1.0389988371058354e-05;-0.00026871470260026044;-5.004392252512276e-10;-1.864705923729436e-08;2.220446049250313e-16;-1.738942026346325e-05;1.4750861048193405e-05;1.3632684822377147e-09;-0.00609543702176819
1.9599909782409668;-0.0002493429253519581;0.0004324453163997002;-8.16931515146234e-06;-0.0028939791494487985;-7.259016088472905e-05;-3.3534023244400146e-05;0.001382855923217051;2.220446049250313e-16;2.220446049250313e-16;2.220446049250313e-16;2.220446049250313e-16;2.220446049250313e-16;2.220446049250313e-16;2.220446049250313e-16;2.220446049250313e-16;2.220446049250313e-16;2.220446049250313e-16;2.220446049250313e-16;2.2826190736056985e-05;-5.165985000304541e-05;4.735901441928751e-05;3.177560564066787e-06;-0.0012593382673268215;-0.00028365435584089136;4.6382711173148427e-08;4.012732251373668e-05;-4.0127322513958726e-05;8.462710465654347e-06;-0.00021886980473480333;-4.076108767122826e-10;-1.5188146292896486e-08;2.220446049250313e-16;3.116519691363481e-05;-3.331431988546719e-05;1.1103906992106324e-09;0.008522795767748115
1.9800515174865723;-0.0002355020290021852;0.0004948735119341337;1.410486397047389e-06;-0.0027560167306792745;-6.709099262914374e-05;-0.0001620988264372727;0.0015959794695366944;2.220446049250313e-16;2.220446049250313e-16;2.220446049250313e-16;2.220446049250313e-16;2.220446049250313e-16;2.220446049250313e-16;2.220446049250313e-16;2.220446049250313e-16;2.220446049250313e-16;2.220446049250313e-16;2.220446049250313e-16;1.8592075018210517e-05;-4.2077270701542986e-05;0.0001806621437639839;2.5881429391859227e-06;-0.0011782087539814804;-0.00023103824567212997;3.777900814247422e-08;-5.423789362920714e-06;5.42378936269867e-06;6.8929305662158755e-06;-0.00017827082389277688;-3.320016066501337e-10;-1.2370840081478515e-08;2.220446049250313e-16;7.076198461159214e-05;-7.25124587041682e-05;9.0442016444893e-10;-0.007284415983226845
2.0001144409179688;-0.00020871493536034398;0.0005546738416674314;1.3525101403097057e-05;-0.002512127617540037;-5.320782574077874e-05;-0.00031007574605776915;0.0009682886838055916;2.220446049250313e-16;2.220446049250313e-16;2.220446049250313e-16;2.220446049250313e-16;2.220446049250313e-16;2.220446049250313e-16;2.220446049250313e-16;2.220446049250313e-16;2.220446049250313e-16;2.220446049250313e-16;2.220446049250313e-16;1.5143361302801322e-05;-3.427219996934865e-05;0.00014715044523416334;-0.0004180984981409392;-0.000959658393922628;-0.0001881820950889853;3.077123825084613e-08;-4.4177103348030335e-06;4.417710334580989e-06;5.614335026998867e-06;-0.0001452027002533161;-2.704173836265754e-10;-1.007612656411476e-08;2.220446049250313e-16;-2.026629846920841e-05;1.884052638034214e-05;7.366558765696812e-10;-0.00593320234593816
2.020019769668579;-0.00017298110219728918;0.0006088773850553089;2.711349117864343e-05;-0.002180818217611755;-3.506293525487783e-05;-0.00047049378639998793;0.00045837952704511916;2.220446049250313e-16;2.220446049250313e-16;2.220446049250313e-16;2.220446049250313e-16;2.220446049250313e-16;2.220446049250313e-16;2.220446049250313e-16;2.220446049250313e-16;2.220446049250313e-16;2.220446049250313e-16;2.220446049250313e-16;1.2334362427139814e-05;-2.791492107628428e-05;0.00011985495733350871;-0.0004758965547723568;-0.0007816477597149424;-0.00015327549258807281;2.5063365875553243e-08;-3.5982526784072564e-06;3.598252678185212e-06;4.572910969084495e-06;-0.0001182685068732025;-2.2025664907249333e-10;0.00013534450785288634;2.220446049250313e-16;-1.6507026767535674e-05;1.5345726490078548e-05;6.000108155652338e-10;0.00871930523444987
2.040095329284668;-0.0001315114152583267;0.0006563563649974948;4.1448882240140074e-05;-0.0017782836152426358;-1.5831403518550508e-05;-0.000639314298532547;-0.0018756092742750548;2.220446049250313e-16;2.220446049250313e-16;2.220446049250313e-16;2.220446049250313e-16;2.220446049250313e-16;2.220446049250313e-16;2.220446049250313e-16;2.220446049250313e-16;2.220446049250313e-16;2.220446049250313e-16;2.220446049250313e-16;1.0046415286670548e-05;-2.2736877684890258e-05;9.762261184162616e-05;-0.0005377129490562211;-0.0006366569855863187;-0.00012484384668481397;2.041426815167483e-08;4.1739311719271585e-05;-4.173931171949362e-05;3.724664565012877e-06;-9.633043802639138e-05;-1.7940041727360244e-10;0.0002603311783900192;2.220446049250313e-16;7.472081984820373e-05;1.3673515847548938e-05;4.887125593454802e-10;-0.007925773286358509
2.060126304626465;-8.894090083745262e-05;0.0006941435859933019;5.5152661123027976e-05;-0.001327806244372907;-5.9382454368025546e-08;-0.0008060257994902964;-0.0014066036316684248;2.220446049250313e-16;2.220446049250313e-16;2.220446049250313e-16;2.220446049250313e-16;2.220446049250313e-16;2.220446049250313e-16;2.220446049250313e-16;2.220446049250313e-16;2.220446049250313e-16;2.220446049250313e-16;2.220446049250313e-16;8.182868041088701e-06;-1.8519328979828646e-05;7.95142274863285e-05;-0.0004379705577122235;-0.0005185610938662163;-0.00010168609339882272;1.6627548998715094e-08;-5.938856065045193e-06;5.938856064823147e-06;3.0337625673565195e-06;-7.846174383773344e-05;-1.4612276112195712e-10;0.0002120413718685355;2.220446049250313e-16;-2.409537988398216e-05;1.6221546110631715e-05;3.980594340403894e-10;0.007171425615232814
2.080152750015259;-4.992219168828371e-05;0.0007198360986969369;6.678332896256911e-05;-0.0008468194330022343;7.053581789553194e-06;-0.0009607105836851379;-0.0009229545687372401;2.220446049250313e-16;2.220446049250313e-16;2.220446049250313e-16;2.220446049250313e-16;2.220446049250313e-16;2.220446049250313e-16;2.220446049250313e-16;2.220446049250313e-16;2.220446049250313e-16;2.220446049250313e-16;2.220446049250313e-16;6.664997162392001e-06;-1.5084109199876553e-05;6.476483525153634e-05;-0.0003567297565725916;-0.0004223712519608698;-8.282395861142482e-05;1.3543242581634685e-08;3.966389968793422e-05;-3.966389968815627e-05;2.471018572127931e-06;-6.390758074173286e-05;-1.1901790220109105e-10;0.0003090071561739651;2.220446049250313e-16;-1.962583751162774e-05;1.3212550691772722e-05;3.242218968973598e-10;0.007165432928664805
2.0999841690063477;-1.9876897425715637e-05;0.0007308146347490212;7.472356716000533e-05;-0.00035643599606800526;-4.751917625944796e-07;-0.0010925084954100492;0.00013129811688927069;2.220446049250313e-16;2.220446049250313e-16;2.220446049250313e-16;2.220446049250313e-16;2.220446049250313e-16;2.220446049250313e-16;2.220446049250313e-16;2.220446049250313e-16;2.220446049250313e-16;2.220446049250313e-16;2.220446049250313e-16;5.4286818450005475e-06;-1.2286101218981947e-05;5.275136309259666e-05;-0.0002905586162893544;-0.00034402402454245315;-0.0002098289677909597;1.1031055728007582e-08;-7.995764071065167e-06;7.995764070843122e-06;2.012660070864276e-06;-5.205312393652104e-05;-9.69408252046774e-11;0.0005478671419679132;2.220446049250313e-16;-1.5985367314705233e-05;1.0761705116890704e-05;0.001967563605627746;-0.00800710475852921
2.12007212638855;-3.9656278275876325e-06;0.0007254219450328932;7.757778979763542e-05;0.00014102798578937342;-3.0306911915474713e-05;-0.0011972610676605087;0.0017342398383601873;2.220446049250313e-16;2.220446049250313e-16;2.220446049250313e-16;2.220446049250313e-16;2.220446049250313e-16;2.220446049250313e-16;2.220446049250313e-16;2.220446049250313e-16;2.220446049250313e-16;2.220446049250313e-16;2.220446049250313e-16;4.4216952920144765e-06;-1.0007106230993412e-05;4.2966314934939294e-05;-0.0003713627982989573;-0.0002802097181399814;-0.0001709070056967853;8.984863834560473e-09;3.8307252917044707e-05;-3.830725291726675e-05;1.6393242068443951e-06;-4.2397594778320976e-05;-7.895890800936726e-11;0.0007315375658390279;2.220446049250313e-16;3.1387856989735865e-05;-3.564256249774453e-05;0.0016025928540563342;-0.006521836870226781
2.1399853229522705;-7.108850758966651e-06;0.0007021522638372434;7.416013753478732e-05;0.0006225887660894473;-8.749935668105247e-05;-0.001268217491354368;0.0011636831985852155;2.220446049250313e-16;2.220446049250313e-16;2.220446049250313e-16;2.220446049250313e-16;2.220446049250313e-16;2.220446049250313e-16;2.220446049250313e-16;2.220446049250313e-16;2.220446049250313e-16;2.220446049250313e-16;2.220446049250313e-16;3.601498450941366e-06;-8.150850569558076e-06;3.499633205397639e-05;-0.00030247732023199;-0.00022823256673575317;-0.00013920482430881723;7.318227748648471e-09;-9.188291253869e-06;9.188291253646955e-06;1.335239812251052e-06;-3.453310593190979e-05;-6.431252406680469e-11;0.0007316800914602732;2.220446049250313e-16;-3.256133856580482e-05;2.9095854337622333e-05;0.001305321895834222;-0.005312076892280152
2.1600003242492676;-3.290921327815465e-05;0.000659598044166364;6.366734530034775e-05;0.001080808411657373;-0.00017679726816179019;-0.0013034646164536217;0.0007214670954378226;2.220446049250313e-16;2.220446049250313e-16;2.220446049250313e-16;2.220446049250313e-16;2.220446049250313e-16;2.220446049250313e-16;2.220446049250313e-16;2.220446049250313e-16;2.220446049250313e-16;2.220446049250313e-16;2.220446049250313e-16;2.9334429976570614e-06;-6.6389187317211126e-06;2.850473118503911e-05;-0.0002463696678122072;-0.00018589685205981304;-0.00011338319942968355;5.960742240197607e-09;3.724815636766013e-05;-3.724815636788218e-05;1.0875611723273085e-06;-2.8127430613452594e-05;-5.238295280568782e-11;0.000729569342243971;2.220446049250313e-16;-2.6946551598769244e-05;2.327361737852781e-05;0.0010631928424188225;0.010721828369103143
2.1802175045013428;-8.496430878619519e-05;0.000598016204655799;4.545618665506598e-05;0.0015036423122094017;-0.0003024520926107299;-0.001302405662050925;-0.00105181030625157;2.220446049250313e-16;2.220446049250313e-16;2.220446049250313e-16;2.220446049250313e-16;2.220446049250313e-16;2.220446049250313e-16;2.220446049250313e-16;2.220446049250313e-16;2.220446049250313e-16;2.220446049250313e-16;2.220446049250313e-16;7.449234630411211e-05;-7.751047944873063e-05;2.321728170478425e-05;-0.00020066963424346653;-0.00015141414785804305;-9.235132458047365e-05;4.855061809279951e-09;-6.659334430753366e-06;6.6593344305313206e-06;8.858253721179196e-07;-2.290996803109847e-05;-4.2666242453687746e-11;0.0007384448663632371;2.220446049250313e-16;-2.1948134693145035e-05;1.895650681491952e-05;0.000865977215105396;-0.0057053656411720725
2.2001211643218994;-0.00016196033579422893;0.0005227444326760559;2.041563167651998e-05;0.0018725826808996034;-0.00046048886384685906;-0.0012696121298154026;-0.0016623813858950508;2.220446049250313e-16;2.220446049250313e-16;2.220446049250313e-16;2.220446049250313e-16;2.220446049250313e-16;2.220446049250313e-16;2.220446049250313e-16;2.220446049250313e-16;2.220446049250313e-16;2.220446049250313e-16;2.220446049250313e-16;6.067448164186371e-05;-6.313276995148764e-05;1.8910621056557426e-05;-0.00016344667127651748;-0.00012332776976880014;-7.52207310665744e-05;3.954478187794827e-09;3.913269202920241e-05;-3.9132692029424465e-05;7.215103019986209e-07;-1.866031214862989e-05;-3.4751921142543996e-11;0.0006014679589332714;2.220446049250313e-16;2.438892540340676e-05;-2.682562500789569e-05;0.0007053438540609393;-0.005417763982381141
2.219970941543579;-0.0002613165291426751;0.00043773766124788924;-1.0571506754121986e-05;0.002192182812344002;-0.0006474609837577851;-0.001210853416460572;-0.0011290687458982752;2.220446049250313e-16;2.220446049250313e-16;2.220446049250313e-16;2.220446049250313e-16;2.220446049250313e-16;2.220446049250313e-16;2.220446049250313e-16;2.220446049250313e-16;2.220446049250313e-16;2.220446049250313e-16;2.220446049250313e-16;4.941974451280825e-05;-5.142203570529887e-05;1.5402819041947626e-05;-0.00013312833529641898;-0.00010045123927524875;-6.126775558329399e-05;3.2209471994475605e-09;-8.860915048199567e-06;8.860915047977525e-06;5.876746504172642e-07;-1.5198940872009976e-05;-2.8305656970109225e-11;0.0004898994117258927;2.220446049250313e-16;-2.6929731161455883e-05;2.4945024104227124e-05;0.0005745069775317229;-0.006476796718883356
2.2401278018951416;-0.0003806168540513102;0.00034566393644399165;-4.682918760643487e-05;0.00246833411133646;-0.0008602995976354337;-0.0011297180350503808;-0.0004959690753114114;2.220446049250313e-16;2.220446049250313e-16;2.220446049250313e-16;2.220446049250313e-16;2.220446049250313e-16;2.220446049250313e-16;2.220446049250313e-16;2.220446049250313e-16;2.220446049250313e-16;2.220446049250313e-16;2.220446049250313e-16;4.025269077908551e-05;-4.188356946968908e-05;1.2545692377285353e-05;-0.00010843386115102879;-8.181816220993557e-05;-4.990296984606535e-05;2.6234816248700336e-09;3.7167908771564855e-05;-3.716790877178689e-05;4.786646757314268e-07;-1.2379632333632573e-05;-2.3055134512510023e-11;0.0005318406638863074;2.220446049250313e-16;-2.1934434341825575e-05;2.031787803929364e-05;0.00046793952386819785;0.00812016948618962
2.2599728107452393;-0.0005094364606943754;0.00025435963001425166;-8.531986545078779e-05;0.002693774450517428;-0.0010822303091016917;-0.001035382357984871;0.0019033322142241094;2.220446049250313e-16;2.220446049250313e-16;2.220446049250313e-16;2.220446049250313e-16;2.220446049250313e-16;2.220446049250313e-16;2.220446049250313e-16;2.220446049250313e-16;2.220446049250313e-16;2.220446049250313e-16;2.220446049250313e-16;3.278606821888252e-05;-3.411442910537093e-05;1.0218544851876274e-05;-0.00021958852560630536;-6.664140448350634e-05;-0.0001925819583235502;2.136842180216797e-09;-8.794331202339554e-06;8.794331202117509e-06;3.898753700374703e-07;-1.0083287908445812e-05;-1.8778551155030112e-11;0.00043318754473954646;2.220446049250313e-16;-2.2017090376239183e-05;1.2397682135134795e-05;0.0003811396668126713;0.006613928797560732
2.2799222469329834;-0.0006432054038896244;0.0001653301823099652;-0.0001248360642624507;0.002875417353745246;-0.0013069957164917772;-0.0009322795657200644;0.0015372674909567346;2.220446049250313e-16;2.220446049250313e-16;2.220446049250313e-16;2.220446049250313e-16;2.220446049250313e-16;2.220446049250313e-16;2.220446049250313e-16;2.220446049250313e-16;2.220446049250313e-16;2.220446049250313e-16;2.220446049250313e-16;2.670445747720617e-05;-2.778641572150653e-05;8.323068647758549e-06;-0.00017885622653462073;-5.427984046059391e-05;-0.00015685920869177114;1.7404713110502073e-09;-7.163037728896175e-06;7.16303772867413e-06;3.175559256165822e-07;-8.212901021978543e-06;-1.529524728171674e-11;0.00035283396261251524;2.220446049250313e-16;2.4136313781974305e-05;-3.1971381915655326e-05;0.0003104406407418383;-0.00876568739062756
2.3000833988189697;-0.0007766926382856137;7.954924443339034e-05;-0.0001639603396221312;0.0030144963627230684;-0.001526714045702026;-0.0008243314056723404;0.0010386066458172355;2.220446049250313e-16;2.220446049250313e-16;2.220446049250313e-16;2.220446049250313e-16;2.220446049250313e-16;2.220446049250313e-16;2.220446049250313e-16;2.220446049250313e-16;2.220446049250313e-16;2.220446049250313e-16;2.220446049250313e-16;2.1750947518043654e-05;-2.2632209270265324e-05;6.779191432778384e-06;-0.0001456795143638644;-4.421126930415661e-05;-0.00012776280584950186;1.4176247607960873e-09;-5.834338999192332e-06;5.834338998970288e-06;2.5865128613924127e-07;-6.689459213032908e-06;-1.2458074506253794e-11;0.00028738546776015995;2.220446049250313e-16;-2.9927435210290407e-05;2.354572324623137e-05;0.0002528558421382319;-0.008736930918091966
2.320131540298462;-0.0009013980522492366;5.46780057326856e-07;-0.00020027838589447268;0.0031109768719769807;-0.0017283590007356566;-0.0007191803438203191;7.962378186742456e-05;2.220446049250313e-16;2.220446049250313e-16;2.220446049250313e-16;2.220446049250313e-16;2.220446049250313e-16;2.220446049250313e-16;2.220446049250313e-16;2.220446049250313e-16;2.220446049250313e-16;2.220446049250313e-16;2.220446049250313e-16;1.7716282696868547e-05;-1.8434075901939044e-05;5.5216937919444485e-06;-0.0002542093011002505;-3.601035516866871e-05;-0.0002408087617297956;1.1546642278231682e-09;4.223356589353853e-05;-4.2233565893760576e-05;2.1067308913095034e-07;-5.448606338135385e-06;-1.014717954830938e-11;0.00023407725964982368;2.220446049250313e-16;-2.4376083025251596e-05;1.9178138744825736e-05;0.0002059526637706032;0.008690406665234742
2.3400869369506836;-0.0010113122122150425;-7.000458864659467e-05;-0.00023218779045784414;0.0031691039221672626;-0.0019031744374747696;-0.0006216755757970444;-0.0017247360537829596;2.220446049250313e-16;2.220446049250313e-16;2.220446049250313e-16;2.220446049250313e-16;2.220446049250313e-16;2.220446049250313e-16;2.220446049250313e-16;2.220446049250313e-16;2.220446049250313e-16;2.220446049250313e-16;2.220446049250313e-16;1.443002298336628e-05;-1.5014670035103736e-05;4.497454104124952e-06;-0.0002070550645542859;-2.9330659349600463e-05;-0.00019614024148367927;9.40481230213394e-10;-4.9439581588286376e-06;4.943958158606593e-06;1.7159454780396608e-07;-4.4379239162008834e-06;-8.264941161970166e-12;0.00019065739096765425;2.220446049250313e-16;-1.9854471974586333e-05;1.5620713871027717e-05;0.0001677497318453049;-0.007906586735619444
2.3600003719329834;-0.0011006438214368195;-0.00013119245123994631;-0.0002583562258655452;0.003194396451304845;-0.0020428444559589805;-0.0005338066135408424;-0.0014048082954065564;2.220446049250313e-16;2.220446049250313e-16;2.220446049250313e-16;2.220446049250313e-16;2.220446049250313e-16;2.220446049250313e-16;2.220446049250313e-16;2.220446049250313e-16;2.220446049250313e-16;2.220446049250313e-16;2.220446049250313e-16;1.175334390759548e-05;-1.2229542585279707e-05;3.663204476897923e-06;-0.0003043168121371064;-2.3890005356870505e-05;-0.00015975745256496603;-9.336953725212848e-05;4.265826681985923e-05;-4.265826682008128e-05;1.3976483165225412e-07;-3.614716766770095e-06;-6.731846232306959e-12;0.00015529163655184788;2.220446049250313e-16;2.4425990721293013e-05;-2.7874413157629637e-05;0.0001366332050238248;-0.006439964312329134
2.3800361156463623;-0.0011662004829774962;-0.00018273948325071423;-0.0002781905654358408;0.0031919285016843452;-0.002142982872930904;-0.00045515058231460564;-0.0009327369154753801;2.220446049250313e-16;2.220446049250313e-16;2.220446049250313e-16;2.220446049250313e-16;2.220446049250313e-16;2.220446049250313e-16;2.220446049250313e-16;2.220446049250313e-16;2.220446049250313e-16;2.220446049250313e-16;2.220446049250313e-16;-6.634652608836443e-05;-8.588073702985186e-05;2.983702941461338e-06;-0.0003997073417848871;-1.9458558675704503e-05;-0.00013012344359824334;2.07218315083728e-06;-4.3157024622295e-06;4.315702462007456e-06;1.1383932891095877e-07;-2.944209398514034e-06;-5.483130830252969e-12;0.0001264860085442085;2.220446049250313e-16;-2.529497635670111e-05;2.248621472966469e-05;0.00011128859944943667;-0.005245391182169031
