flxalr/sts-optimization-reemc/input/498_145/acc.csv
time;base_link_tx;base_link_ty;base_link_tz;base_link_rz;base_link_ry;base_link_rx;leg_left_1_joint;leg_left_2_joint;leg_left_3_joint;leg_left_4_joint;leg_left_5_joint;leg_left_6_joint;leg_right_1_joint;leg_right_2_joint;leg_right_3_joint;leg_right_4_joint;leg_right_5_joint;leg_right_6_joint;torso_1_joint;torso_2_joint;arm_left_1_joint;arm_left_2_joint;arm_left_3_joint;arm_left_4_joint;arm_left_5_joint;arm_left_6_joint;arm_left_7_joint;arm_right_1_joint;arm_right_2_joint;arm_right_3_joint;arm_right_4_joint;arm_right_5_joint;arm_right_6_joint;arm_right_7_joint;head_1_joint;head_2_joint
0.0;0.0;0.0;0.0;0.0;0.0;0.0;-8.686646941872433e-37;3.277376583778117e-37;-0.005310138974469314;-1.2359425539628389e-34;1.4517144450091369e-34;1.655012705299683e-05;8.278263800924875e-13;1.0323170987855226e-07;-0.000644688125893415;-1.9875919895473694e-11;1.470583715059301e-34;4.031143781301681e-38;0.0010671448060061337;0.0010672228630466056;-0.00045710425119046107;0.002665162943719485;-0.0001517374934307461;0.0025884027828868487;-2.0474136185544383e-05;-3.226691846645396e-05;3.226691846645409e-05;7.095016753482215e-05;0.0005746559723597887;-5.62200182450197e-05;-9.331877950486814e-10;0.0;9.007131575800538e-05;-9.007131575800774e-05;-8.354477851660353e-05;0.01669937862155564
0.020179033279418945;-0.0002118615735477109;4.669627253272884e-05;-4.073762161142764e-05;0.00026781087177653784;-0.00024673827614616565;-0.00012049957833081264;-4.10409715201487e-36;1.5378563547199418e-36;-0.005304413859921684;-5.844380003897808e-34;6.95597406649314e-34;1.661525116999828e-05;8.256244680576631e-13;1.029882996103749e-07;-0.0006398966764554272;-1.9835390120704916e-11;7.044342452387741e-34;1.7942741920619567e-37;0.00106829332497107;0.001068373876696675;-0.0004560264418488705;0.0026642403154196487;-0.0001530648721085951;0.002589702015395332;-2.0486908929860898e-05;-3.2392306570959276e-05;3.239230657095915e-05;7.065598914224899e-05;0.0005758012132584321;-5.616881021239611e-05;-9.201413233389911e-10;0.0;9.132669670540559e-05;-9.132669670540422e-05;-8.361742395633901e-05;0.016758173521922066
0.03999066352844238;-0.0005944653518112662;9.79568649204633e-05;-0.00011732229796581837;0.000591184763746513;-0.0006760827410282384;-0.00026007815774081337;-9.513579131659537e-36;3.5245217740149156e-36;-0.005285113403651413;1.2224860362864343e-30;1.64951722099223e-33;1.6862179405695292e-05;8.167316385705148e-13;1.0213972925974955e-07;-0.0006214661122498188;-1.966988460562867e-11;1.6697035451882003e-33;3.73859564384915e-37;0.001072040323712369;0.001072130552376979;-0.0004522690094252308;0.002659615599564299;-0.0001581843642629221;0.0025885156227929917;-2.052926904729182e-05;-3.286014339684956e-05;3.286014339684951e-05;6.965514767197921e-05;0.0005801396955296373;-5.594745106128892e-05;-8.539725804935589e-10;0.0;9.195099516312278e-05;-9.195099516312579e-05;-8.386744598672688e-05;0.016978556598384393
0.06013369560241699;-0.0008491041739167948;0.00012932576865332625;-0.00017323922485328513;0.0007895619309494722;-0.0008784042234825048;-0.0003465865084867745;-1.6306308157343477e-35;5.960593484197989e-36;-0.005248492840494974;-2.3292058908079622e-33;2.9012249084474438e-33;1.740887199392579e-05;7.954647892937125e-13;1.0045273141458722e-07;-0.0005798172901596283;-1.9269130644065166e-11;2.9352298196586032e-33;5.568955785871728e-37;0.0010786249795209835;0.0010787372651103928;-0.0004447990496892689;0.0026461062147437498;-0.0001670085336447875;0.0025771010927449884;-2.060532208938544e-05;-3.387517825260164e-05;3.38751782526016e-05;6.77421032320019e-05;0.0005897151725942155;-5.537846155536408e-05;-6.61614905416557e-10;0.0;9.041177117768043e-05;-9.041177117767803e-05;-8.434719727127115e-05;0.017146189469800125
0.07999801635742188;-0.001075380090290335;-4.6962067972711866e-05;-0.00024391978453605973;0.0009400690761552157;-0.0010040422432055919;-0.00013762553808257966;-2.483163267157457e-35;8.936382592852052e-36;-0.0051959767576133815;-3.553669145064609e-33;4.547243928221052e-33;1.833334521049773e-05;7.565506211342197e-13;9.790306385656481e-08;-0.0005076236760992979;-1.8527253493502775e-11;4.597988745870486e-33;7.014728114021053e-37;0.0010866813093643151;0.001086832076426723;-0.0004335092094722396;0.002617142169637403;-0.00017674573275074988;0.0025497867808700657;-2.0700502758053825e-05;-3.469230825616517e-05;3.4692308256165086e-05;6.500489133038556e-05;0.0006058091157857178;-5.4268761510011925e-05;-2.565646130118157e-10;0.0;8.950191339778934e-05;-8.950191339779269e-05;-8.502045612639612e-05;0.017054658237889108
0.10018229484558105;-0.0011496613760165904;-0.0003691312039687096;-0.00029953437821684294;0.0010381036647140528;-0.000891466224998101;0.00028345756562243645;-3.3657443427637047e-35;1.1894773743796643e-35;-0.005128413240437567;-4.827118728888073e-33;6.363678468526873e-33;1.9747045439635974e-05;6.920599939347399e-13;9.442943063349486e-08;-0.0003987691166741316;-1.7284393095069038e-11;6.430849537780242e-33;7.236155836674112e-37;0.0010939918531444955;0.001094203462656364;-0.0004181280590815355;0.0025625116543277803;-0.00018588549695179878;0.0025004187836927374;-2.0789185191313816e-05;-3.4632516724100665e-05;3.4632516724100326e-05;6.155294415495446e-05;0.0006301869164273317;-5.232275562634358e-05;4.881764718573323e-10;0.0;9.146257615687584e-05;-9.146257615687447e-05;-8.58169064295531e-05;0.016816068026477664
0.12017202377319336;-0.0011987827750872242;-0.000722682115292024;-0.00035389900266181485;0.0010768773307050941;-0.0007241414742094118;0.0007596903332094094;-4.28334991909158e-35;1.482044019760927e-35;-0.005050759136414191;-6.1582597052032764e-33;8.390188099213579e-33;2.168449100065372e-05;5.962446452049355e-13;9.019142906599861e-08;-0.00026489801170937084;-1.5419427369365016e-11;8.473327851879247e-33;5.900697250751858e-37;0.001098250762988973;0.0010985487338466603;-0.00039936227457963605;0.0024722133977517114;-0.00019303516715373604;0.002428168867328865;-2.0825356668059004e-05;-3.389567040604773e-05;3.3895670406048126e-05;5.7778521694772615e-05;0.0006631624202661161;-4.9284379000501675e-05;1.683682801378352e-09;0.0;9.307757264551352e-05;-9.307757264551415e-05;-8.656069972277282e-05;0.016533991845624398
0.14006900787353516;-0.0013095784942080274;-0.0010648058296631906;-0.0004197204742066253;0.0011795836349535464;-0.0006374857058233877;0.0012066043265846187;-5.204426529913316e-35;1.7558683707365197e-35;-0.004966242367262902;-7.503896811436379e-33;1.0606809462711917e-32;2.4194238312174813e-05;4.616313856673116e-13;8.530139878872195e-08;-0.00012079252725554602;-1.2775304144292658e-11;1.0704511464409595e-32;2.490123582211885e-37;0.0010975209232507062;0.001097934971002841;-0.0003777092749895757;0.0023361699421904475;-0.0001975907874193608;0.0023336147981540796;-2.075099026190797e-05;-3.265620887809519e-05;3.265620887809495e-05;5.406926955238213e-05;0.0007051595710242756;-4.4824078943134225e-05;3.4643163743516616e-09;0.0;9.164172847674328e-05;-9.164172847674393e-05;-8.703309743742617e-05;0.015996483382441834
0.15996074676513672;-0.0015002090420556376;-0.001420726393508884;-0.0005022722071673275;0.0011606814682645137;-0.0006477173467623294;0.0016965309577546637;-6.133622732582648e-35;2.006486082679653e-35;-0.004877299289980615;-8.873607886235086e-33;1.3078467042862445e-32;2.731607526647545e-05;2.798061263296644e-13;7.988012303049137e-08;2.351630221024245e-05;-9.173515617638637e-12;1.3188966311657933e-32;-3.6224923427304474e-37;0.0010882694497805568;0.0010888336465416973;-0.0003537038655816881;0.0021440656868246164;-0.0001992608865052878;0.0022185485031578594;-2.049157914698372e-05;-3.103696018500929e-05;3.1036960185008596e-05;5.087422860933587e-05;0.0007562900040713216;-3.8557404243222755e-05;5.979758632879285e-09;0.0;8.983697650982408e-05;-8.983697650982673e-05;-8.69476155040255e-05;0.014999143662896897
0.1800527572631836;-0.0016490100947149785;-0.001694203007581668;-0.0005687155080691044;0.0010002174299556172;-0.0006007281551797265;0.002101850694310676;-6.83724976361643e-35;2.1519321022416752e-35;-0.004784555114556009;-9.931942160262335e-33;1.535760208782329e-32;3.1105577928424546e-05;3.9586899981401274e-14;7.401135895630248e-08;0.00016215046632374542;-4.377137659125349e-12;1.547451583069354e-32;-1.2874680835351403e-36;0.0010652073992215337;0.0010659616736374553;-0.00032771689774637136;0.001885808922737868;-0.0001979415374528427;0.002084597217020602;-1.994565299383892e-05;-2.9091202020251733e-05;2.9091202020252462e-05;4.869182985062504e-05;0.0008167083902506777;-2.9975897007193208e-05;9.420809906054953e-09;0.0;8.983447526276281e-05;-8.983447526276277e-05;-8.593077092670087e-05;0.013623962707151098
0.19995522499084473;-0.0017743220198367655;-0.0017957063604441266;-0.0006137473411870272;0.0007579450569311101;-0.000543740907482984;0.002287175177508352;-7.522443983267682e-35;2.2519891445460866e-35;-0.004689772367336637;-1.0982369483993484e-32;1.7959210552606441e-32;3.5482292236231454e-05;-2.630857555407275e-13;6.795185866639724e-08;0.0002877739239895953;1.711216922851805e-12;1.8079298063054535e-32;-2.6220764915219476e-36;0.0010224807938117525;0.0010234647091802733;-0.00030088524731919846;0.0015698251361804022;-0.00019375349901267207;0.0019379919986823079;-1.9010420588309974e-05;-2.6886516451952784e-05;2.6886516451952536e-05;4.811517922071791e-05;0.0008842025483263833;-1.880421335530167e-05;1.3874573346245479e-08;0.0;8.919530311909723e-05;-8.919530311909854e-05;-8.357528428480023e-05;0.011964234110436293
0.22011208534240723;-0.0018929277341103562;-0.0016853521443024211;-0.0006365915922171247;0.00046928202943250885;-0.0005117663599734077;0.0021903141865732842;-7.764006306277983e-35;2.170983050328681e-35;-0.004588780485053247;-1.1408117202566079e-32;-1.2225303801694015e-30;4.051419125333324e-05;-6.441964663824762e-13;6.170313202779946e-08;0.0004004439767648178;9.43152814164178e-12;-1.222417766904409e-30;-4.3052865656734014e-36;0.0009527822852917042;0.0009540434927679227;-0.00027321557183106936;0.0012009443592009093;-0.00018680686321428133;0.0017793918212277813;-1.753262622456617e-05;-2.436308920330597e-05;2.4363089203306292e-05;4.9725961324539737e-05;0.0009586238353063543;-4.305219936066762e-06;1.9600261691461715e-08;0.0;8.572113843668894e-05;-8.572113843668922e-05;-7.93161907710729e-05;0.010064201371450112
0.23995304107666016;-0.0020668887527240725;-0.0013329487824078985;-0.0006455992948505784;0.0001472872668054645;-0.0006083109597542504;0.0017667869650609268;-7.935300191866773e-35;2.008609939702686e-35;-0.004480270952413136;2.436736890415966e-30;2.2318002621610417e-32;4.599663706376926e-05;-1.1010580810486727e-12;5.556322103256699e-08;0.0004959432194827318;1.8748482755344612e-11;2.2417561440096713e-32;-6.593197056225246e-36;0.0008521625748209015;0.0008537425822494403;-0.0002460275895413864;0.000802772047389465;-0.00017758906495869603;0.0016172256937005995;-1.5416327916241933e-05;-2.1550471157973715e-05;2.155047115797373e-05;5.404947593631645e-05;0.0010355368566272749;1.3571364115821081e-05;2.657381034365853e-08;0.0;8.179426684938449e-05;-8.17942668493814e-05;-7.272672540818034e-05;0.00806936507102102
0.2600893974304199;-0.0021563328226018156;-0.0008195072364730121;-0.0006198169086624237;-0.0002057170838241824;-0.0006599587703703988;0.0011287107174799487;-7.492604147986762e-35;1.6105641458931313e-35;-0.004354136917599086;-1.1240275495177452e-32;2.370164869772795e-32;5.2003854574250635e-05;-1.6557782992043171e-12;4.9451150024445614e-08;0.0005772473365101085;3.0134530148729046e-11;2.3774518731519353e-32;-9.207972475608911e-36;0.0007113813920830242;0.0007133324034256561;-0.00021896270716517617;0.00038062062225257176;-0.00016613996066187702;0.0014503694411945125;-1.244004504729427e-05;-1.8287436722745332e-05;1.8287436722745044e-05;6.181377311928926e-05;0.0011141915993877545;3.5862834622440675e-05;3.5143442379312525e-08;0.0;7.913832688377699e-05;-7.913832688378e-05;-6.297200376003035e-05;0.005979630554364992
0.27991223335266113;-0.00215527940211439;-0.000259982990949431;-0.0005671480192026125;-0.0005570955188269061;-0.0006800635519013454;0.0004279953164949783;-6.774804901213671e-35;1.0491773468406279e-35;-0.0042051263588391745;-1.0357482079527242e-32;2.51728854657102e-32;5.8226759222013384e-05;-2.2984953174363373e-12;4.363971108333466e-08;0.0006426930290450478;4.3410115804528075e-11;-1.2080345120059643e-30;-1.2571438353618725e-35;0.0005287179632895142;0.0005310805783928208;-0.000193228851926645;-3.220498361902524e-05;-0.00015312560472577713;0.001287370196709087;-8.531376145954387e-06;-1.4575005134755866e-05;1.4575005134756849e-05;7.335024025044577e-05;0.001188405470132935;6.23552216604556e-05;4.5161216353437414e-08;0.0;7.583690578755752e-05;-7.583690578755677e-05;-4.967909493261595e-05;0.0038922372256695063
0.29990172386169434;-0.002200529918170523;0.00017861133797255127;-0.0005280063385154668;-0.0010450926025730725;-0.0008570395670011103;-7.82153225956195e-05;-5.444126478543579e-35;2.3103386938378517e-36;-0.004018005063072583;-8.614845426453276e-33;-1.206727159345511e-30;6.464233117525087e-05;-3.0495504937252982e-12;3.8058340337130784e-08;0.0006953150091179895;5.902026379908771e-11;2.583802740750255e-32;-1.6485510565168833e-35;0.0003097891161727419;0.00031261151557680685;-0.00016851353791155188;-0.00042734981096718034;-0.00013856154065169251;0.0011275185009956736;-3.4308955468216298e-06;-1.0207095991823147e-05;1.0207095991822132e-05;8.945405437678366e-05;0.001255274600627568;9.408522139301668e-05;5.69419404072299e-08;0.0;7.016912978064981e-05;-7.016912978064771e-05;-3.183314688458206e-05;0.0018056682612590115
0.3199019432067871;-0.0022417779965157912;0.0005901645138854161;-0.00048298624753779086;-0.001468405730036229;-0.0011642663134418694;-0.0005595362289597414;-3.4740865811520693e-35;-8.658158676786057e-36;-0.003779216574441391;-5.98038602791049e-33;2.5812111422391796e-32;7.09866509798866e-05;-3.908459591151859e-12;3.2810014776775606e-08;0.0007360787804095413;7.698427509809378e-11;2.5726729093759436e-32;-2.108719031777991e-35;7.819633685547209e-05;8.151997274387119e-05;-0.0001452727458593041;-0.0007877857229603092;-0.00012282978565381;0.0009750329134014453;3.0181860838549923e-06;-5.332392077270462e-06;5.332392077272231e-06;0.00011058013657954535;0.0013085258561962834;0.0001312664826778197;7.047163838862062e-08;0.0;6.42560000193951e-05;-6.425600001939944e-05;-8.743957737674623e-06;-0.00020266636240096286
0.33996105194091797;-0.002230935481002624;0.0008448590933765645;-0.00043279117957063204;-0.0017680669689486735;-0.0015664204156689249;-0.0008486402125010024;-7.401735372543113e-36;-2.2679227443136155e-35;-0.0034706292030008833;-2.2672119145371145e-33;-1.2073295883868621e-30;7.700588859198087e-05;-4.879443508320329e-12;2.7924281500627252e-08;0.0007666692727859681;9.742264627469603e-11;-1.2075017468487934e-30;-2.6221234652044943e-35;-0.0001495613718357842;-0.0001456996405223294;-0.00012363730573931219;-0.0011039254745604037;-0.00010614589839913274;0.0008321788949462837;1.1022981503401707e-05;-2.609699347693737e-07;2.609699347676288e-07;0.00013727650625927745;0.0013415445527240517;0.00017433854137843463;8.580399449870458e-08;0.0;5.9716801098921244e-05;-5.971680109891847e-05;2.0471816878346983e-05;-0.0020613823135368897
0.3599710464477539;-0.0020428129523720876;0.0008700635040381215;-0.0003580924775646333;-0.0019314596928825924;-0.001919831244520375;-0.0008468996451588826;2.8476384571643013e-35;-4.037756568759394e-35;-0.0030740801592420586;2.6391801335512446e-33;2.2479476234674195e-32;8.234348532905142e-05;-5.9558212962961e-12;2.3453757452811963e-08;0.0007884885675161187;1.2023037239504625e-10;2.2198626213587042e-32;-3.222669175602592e-35;-0.0003594491341767196;-0.00035502395346892745;-0.00010384021939645807;-0.0013662946698303673;-8.88249161795636e-05;0.0007019943318971967;1.8866381102749116e-05;4.63018150523989e-06;-4.630181505238475e-06;0.0001697985573992418;0.0013495855201938285;0.00022328899215370485;1.0281479407114756e-07;0.0;5.517917289387965e-05;-5.51791728938806e-05;5.646446353484864e-05;-0.00367188000482508
0.3800954818725586;-0.0017545757962110441;0.0006824366301988878;-0.00027296197877894684;-0.001984618973645395;-0.002317135791702454;-0.0005724666152249041;7.291652701146779e-35;-6.089620592363154e-35;-0.0025676257957696264;2.4899182594547784e-30;-1.222066235690509e-30;8.66506761246162e-05;-7.141438678159029e-12;1.9377482914762622e-08;0.0008030736183800365;1.4553052132412917e-10;-1.2224713455241268e-30;-3.820183080720052e-35;-0.0005448266409965452;-0.0005398197509737403;-8.578867827491868e-05;-0.0015737088121701678;-7.091845995635431e-05;0.0005854648390176785;2.494135881383587e-05;9.001520214381698e-06;-9.00152021438078e-06;0.00020874144582980463;0.0013294904372296843;0.0002786241510930107;1.2154002860715227e-07;0.0;4.9786346497032754e-05;-4.9786346497032015e-05;0.00010035624559811866;-0.00498288545644573
0.3999669551849365;-0.0014775203099970844;0.00026016801917553363;-0.00020943050535227902;-0.0021871812121108712;-0.0027388714519283684;5.618709777636606e-05;1.28535748450045e-34;-8.627166696933512e-35;-0.001963097631198902;1.648758241619325e-32;1.3242154296037894e-32;8.941487371486453e-05;-8.403541765795612e-12;1.576816380202185e-08;0.000811323071673498;1.7266864225206656e-10;1.2683778504580087e-32;-4.536224591534573e-35;-0.0006980178197940569;-0.0006924367758284131;-6.98046834154644e-05;-0.0017233742848677192;-5.292335962435772e-05;0.00048625852309116196;2.93639659482407e-05;1.250621235237858e-05;-1.2506212352378308e-05;0.00025349916025629377;0.0012767989535279235;0.0003391699502910934;1.414321362458234e-07;0.0;4.589850401185123e-05;-4.589850401185085e-05;0.00015199788948697717;-0.005931084156810857
0.41995787620544434;-0.001221936070057797;-0.00032010173277960115;-0.00017381768498521123;-0.002643061094199942;-0.0029976134534932756;0.000954046043970724;1.954073215000445e-34;-1.1568891169774558e-34;-0.001289389927537475;2.580253444438693e-32;-1.2263283566856928e-30;9.018423217270098e-05;-9.749029440759296e-12;1.2547581519876126e-08;0.0008141986180700122;2.0184586095751478e-10;-1.2270629363279472e-30;-5.283249898226523e-35;-0.0008202999397052093;-0.0008141607199967343;-5.554188444977083e-05;-0.00182152573284509;-3.465117173822081e-05;0.00040384378192015674;3.241402112426218e-05;1.5018629527782045e-05;-1.5018629527780871e-05;0.00030485998513852034;0.001186779556921479;0.00040567805666112916;1.6256274811280063e-07;0.0;4.517014137806684e-05;-4.517014137806647e-05;0.00021293314171169257;-0.006509022326763368
0.43996357917785645;-0.000943497615777041;-0.0008606947727899494;-0.00013873902225082675;-0.0033821174647678523;-0.00305385488836964;0.0018555488751695025;2.7408988157954064e-34;-1.4929027706362167e-34;-0.0006008564165644209;3.6810928716383376e-32;-3.6351856674189106e-33;8.834639916539647e-05;-1.1149168429840702e-11;9.72308107599486e-09;0.0008119609193285967;2.3250645178632674e-10;-1.237974638858269e-30;-6.056714802540633e-35;-0.0009108324698925204;-0.0009041777269648812;-4.303286366376434e-05;-0.001871644273158379;-1.63280116008476e-05;0.0003376067317355226;3.42108347714691e-05;1.6373458961899055e-05;-1.6373458961899404e-05;0.00036243718107497724;0.0010590539110883457;0.00047726508362868107;1.8443469225508272e-07;0.0;4.624115675504792e-05;-4.624115675504824e-05;0.00028347056757264705;-0.006691443919623063
0.45995044708251953;-0.000543797622383153;-0.0013848126325181074;-8.566735614677635e-05;-0.004372397340582441;-0.0028023797193509775;0.0027871967311463826;3.6586455897378006e-34;-1.8750314078718825e-34;6.534352399810737e-05;4.969771356190432e-32;-1.2486096526180527e-30;8.32463788250902e-05;-1.2571427848011991e-11;7.279905668077359e-09;0.0008044870596468713;2.640169118712572e-10;-1.6835558325859874e-32;-6.856726493306747e-35;-0.0009710281283204188;-0.0009639297665000016;-3.221234513087113e-05;-0.0018791942549953283;1.8873955444172313e-06;0.00028423039914603774;3.487942290900746e-05;1.6469504795956118e-05;-1.6469504795954285e-05;0.0004257139111023983;0.0008931692470217114;0.000552896381026734;2.0648511628686918e-07;0.0;4.628135355413382e-05;-4.6281353554133804e-05;0.00036385609486157955;-0.006767774201392519
0.47994494438171387;-0.00010891396156150664;-0.0017584692124171324;-1.8290816713547922e-05;-0.005452780827964668;-0.0023958738147077715;0.0035313032676275785;4.706638015351193e-34;-2.2999385160331486e-34;0.0006863629696271612;6.446796595170279e-32;-1.2637788102745798e-30;7.415122842491215e-05;-1.3978656633279628e-11;5.1908146879967305e-09;0.000791151497377806;2.9565206107887325e-10;-1.2651885590542751e-30;-7.650832810033589e-35;-0.0010035277141651057;-0.000996090670723103;-2.295978459999469e-05;-0.0018502787030348525;1.9885257842448432e-05;0.0002409173305973235;3.4525496354993035e-05;1.5241167448456602e-05;-1.524116744845507e-05;0.0004940672238633641;0.0006882905956886321;0.0006313767632973285;2.2807110002257448e-07;0.0;4.54775531362491e-05;-4.547755313625115e-05;0.00045432985318621445;-0.006996267514865408
0.49993348121643066;0.00039641798142699315;-0.0018983981164056815;7.880524769192474e-05;-0.006499662678428511;-0.0018191007710523079;0.003948626409839122;5.885663757622103e-34;-2.765468009189983e-34;0.0012476063793483965;8.114458606265124e-32;-4.8278357407294973e-32;6.027294519228381e-05;-1.532097209928337e-11;3.430614875038373e-09;0.0007708299004134509;3.264160319694333e-10;-4.995951034434811e-32;-8.413814042201299e-35;-0.0010114557536899857;-0.0010038244635342877;-1.5163725704152469e-05;-0.0017911075764605404;3.7502582177538065e-05;0.00020555522030255884;3.3217503887777e-05;1.2646459971357273e-05;-1.2646459971357371e-05;0.0005664160866898455;0.0004469199664071718;0.0007109247543935349;2.483435531301097e-07;0.0;4.534639208108325e-05;-4.534639208108428e-05;0.0005546844655710892;-0.007269400299409115
0.5199096202850342;0.0007877273745955919;-0.0019154657215531314;0.00016092314520947017;-0.007445212625305744;-0.0013407355020037752;0.004173572886345141;7.262825127362288e-34;-3.299097797939576e-34;0.0017421030476673892;1.0067201062113e-31;-7.000281884846621e-32;4.250779590978475e-05;-1.6538122483068647e-11;1.9709361914492233e-09;0.0007418824231419879;3.550932836733578e-10;-7.199349789454044e-32;-9.199346460175225e-35;-0.0009983242226952482;-0.0009906880550942228;-8.698663856350156e-06;-0.0017077935620092093;5.455546081596901e-05;0.00017646071331607217;3.099178315965027e-05;9.591537544539856e-06;-9.591537544541484e-06;0.000641309552650986;0.00018252055926643837;0.0007892876279340968;2.662844924805779e-07;0.0;4.352820903333104e-05;-4.352820903332468e-05;0.0006643668222166128;-0.007462783247903655
0.5400524139404297;0.0010661068399200647;-0.0017638447761778309;0.00023326377235965767;-0.008317091119413455;-0.0009736121249659228;0.004148927307587112;8.608212799404136e-34;-3.794078739461175e-34;0.0021720162430087894;1.198744334106038e-31;-1.3331733102532119e-30;2.2936335526918124e-05;-1.7566521602118535e-11;7.72376067979357e-10;0.0007017344148269925;3.804309348202269e-10;-1.3354469110257272e-30;-9.69208488674704e-35;-0.0009674231486369107;-0.0009600254493559855;-3.3902542432393534e-06;-0.0016051086539642168;7.096860363331563e-05;0.00015210796008708103;2.7820911388660973e-05;6.959361411644673e-06;-6.959361411646188e-06;0.0007175538860085844;-8.791652852552275e-05;0.0008643265477636402;2.8080112277033016e-07;0.0;3.81486109514092e-05;-3.814861095141301e-05;0.0007835084567305839;-0.007473539924262203
0.5599405765533447;0.0012831230113498444;-0.001429313718503932;0.00030786344091785015;-0.009167103079463475;-0.0006564020334891966;0.003866211956478247;1.0199356463201937e-33;-4.37271897729493e-34;0.0025311147961892123;-2.323840304250483e-30;-1.2223094152571231e-31;3.601088592794087e-06;-1.8301564204654392e-11;-1.7099270397866397e-10;0.0006486158366107362;4.001910210278734e-10;-1.2483415090126369e-31;-1.0204363875766905e-34;-0.0009230421547618112;-0.0009161763291078213;7.875668354020393e-07;-0.0014905233400242628;8.613602711141979e-05;0.00013195282547765548;2.398418945930433e-05;4.779486471849663e-06;-4.779486471852583e-06;0.0007911945664960718;-0.00034327646918658346;0.0009311132450873974;2.9020518953253255e-07;0.0;3.13891521456649e-05;-3.138915214566125e-05;0.0009080992125848877;-0.007217816388052051
0.579930305480957;0.0014878193859329827;-0.0011199403679279566;0.00037657154072770287;-0.010124549097741357;-0.0003225602395289569;0.0036389222799723363;1.1829406428096488e-33;-4.939433628940384e-34;0.002831445910536736;1.6603930085576803e-31;1.0808347437589574e-30;-1.4699512246027935e-05;-1.8660434773683206e-11;-9.077773198578424e-10;0.0005785189196021235;4.127367365393875e-10;1.0779131352098095e-30;-1.0457237743532723e-34;-0.0008679564683796322;-0.000861985118386339;4.049864000958621e-06;-0.0013668399534169829;0.00010000776019367433;0.00011478740044595512;1.97965891085547e-05;3.0005857956820546e-06;-3.000585795682168e-06;0.000860621449174031;-0.0005755776523520443;0.0009868219310844104;2.9307665080770754e-07;0.0;2.467060300273295e-05;-2.4670603002725243e-05;0.0010381900526658593;-0.006620908026336934
0.5998954772949219;0.0018446665773561208;-0.0009050932302201429;0.0004659135091981461;-0.011002771174018816;0.00022244161803605553;0.0035262217768640925;1.3759605919720023e-33;-5.598068456875303e-34;0.003077052205258554;-2.237162454751574e-30;-1.9256634197396346e-31;-3.1095300177676796e-05;-1.85256260600679e-11;-1.4597790812487023e-09;0.00048812993629981905;4.1559205291402794e-10;-1.958557909983785e-31;-1.0627021290957877e-34;-0.0008056138129911083;-0.0008009640902893722;6.4929620651491086e-06;-0.0012388757816328092;0.00011208335672810566;0.0001001210258013965;1.5555632186886424e-05;1.6420498356920172e-06;-1.64204983569423e-06;0.0009218165271906747;-0.0007754866820512278;0.0010262191031829915;2.874952469272602e-07;0.0;1.6537215019057234e-05;-1.6537215019057688e-05;0.0011701835297466406;-0.0056211540564800825
0.6201767921447754;0.002394297247061596;-0.0006643835654445536;0.000594837523711983;-0.011964013001410055;0.001040680121233642;0.003395857165023005;1.5283692905269605e-33;-6.057147179083177e-34;0.0032779892310317686;-1.0198102175819053e-30;1.0071877528119356e-30;-4.5367580342596056e-05;-1.7752549613458757e-11;-1.8592933136632293e-09;0.00037581024707287905;4.058356175026014e-10;1.0036529207381926e-30;-1.0125119965886916e-34;-0.0007377525779814727;-0.0007349585070969147;8.25958476359873e-06;-0.001107933015478266;0.00012202734745823386;8.726860362256653e-05;1.1384128786770836e-05;7.076163473805115e-07;-7.076163473794391e-07;0.0009712910680741594;-0.0009416188364177017;0.0010470853089279638;2.710245035130718e-07;0.0;5.82621210577754e-06;-5.826212105773427e-06;0.0013026477977826402;-0.004134529202978687
0.6401236057281494;0.003039624619372367;-0.00045621049871846716;0.0007393282853491775;-0.012940740431915208;0.0019940922356311177;0.0033137485626533363;1.683649536605346e-33;-6.4957773381492675e-34;0.003434573697566975;-2.255526275590127e-30;9.790194840551473e-31;-5.684946847242677e-05;-1.622467811895857e-11;-2.1180621525069056e-09;0.00025282024060522125;3.8079328003269273e-10;9.752561491348572e-31;-9.310296248887092e-35;-0.0006691234094439058;-0.0006687351089891084;9.401551455084418e-06;-0.0009810976580305957;0.00012894396806699504;7.627349611800004e-05;7.540218155322449e-06;2.5374490359721074e-07;-2.5374490359742657e-07;0.0010025203304123687;-0.0010675245159875524;0.0010480341405287757;2.41888813350833e-07;0.0;-4.227593407185541e-06;4.2275934071845374e-06;0.0014267872527702432;-0.002450121353444949
0.6598894596099854;0.003724160411833291;-0.00033856412447748964;0.0008832049364374932;-0.014024515564552118;0.003015480820665462;0.0033779842067652105;1.872247438176063e-33;-7.0187471728676166e-34;0.0035554841185686087;-3.4200706158019524e-30;2.1407499284093076e-30;-6.568896798648574e-05;-1.38055737622804e-11;-2.265331360075236e-09;0.00012778851825319745;3.37584273378881e-10;2.1367162856213706e-30;-8.2186975025047e-35;-0.0006014938320685877;-0.0006041350885196172;1.0048117624923239e-05;-0.0008596103236744251;0.0001323261025495045;6.670893640854599e-05;4.054989324099738e-06;2.6825196878833767e-07;-2.682519687880361e-07;0.0010107659239672114;-0.0011564757057077263;0.0010272448423728126;1.9786154521960636e-07;0.0;-1.1442124196567967e-05;1.1442124196570512e-05;0.0015382851562656867;-0.000781089660231701
0.6799497604370117;0.00424476226093683;-0.00029573586493654154;0.0009878880861887381;-0.015286133758081272;0.0038431550594947507;0.0035795689395803697;2.0355769194952456e-33;-7.3899583890585e-34;0.0036481658401059294;-2.1508701209228626e-30;2.075029380754726e-30;-7.216488091491155e-05;-1.0258830404465133e-11;-2.324155478943286e-09;4.178344350641771e-06;2.7135527819808826e-10;3.291760017524302e-30;-6.421391911745364e-35;-0.0005352013383441408;-0.0005416538510459884;1.0300924993249596e-05;-0.0007424070971177731;0.00013143543511361203;5.8137826075047636e-05;8.771933078743552e-07;7.50349484165142e-07;-7.503494841657152e-07;0.0009894640520994897;-0.0012126371592653294;0.0009796958514093346;1.3500701135794037e-07;0.0;-1.845206042205257e-05;1.8452060422052407e-05;0.0016329643889308257;0.0006874382254307615
0.7001407146453857;0.004559747052093696;-0.00034385711389178916;0.00104350077344767;-0.016662974667508705;0.004420662827354714;0.003927632988649041;2.121416385587432e-33;-7.424837154732673e-34;0.003714190685650137;-4.673021722747949e-30;3.325459039849556e-30;-7.632268342451535e-05;-5.395701392449368e-12;-2.3096309045416826e-09;-0.00011256754813245389;1.7797700347593654e-10;2.0768741917797343e-30;-3.8059069062098707e-35;-0.0004725395388997371;-0.0004836553634305551;1.0226505966081798e-05;-0.0006320015537918508;0.00012523687805516696;5.049647988341282e-05;-1.9587970577727922e-06;1.7208389036417917e-06;-1.720838903641599e-06;0.0009304101194939432;-0.0012377795439327225;0.0008990281062185168;5.033166485779932e-08;0.0;-2.7244367001210792e-05;2.7244367001202254e-05;0.0017014102866942592;0.0017047139954801346
0.7199509143829346;0.004624904845473739;-0.0004783588667516958;0.0010414174416625954;-0.018305788290787044;0.00470864491019779;0.0044462669417318305;2.226539853334206e-33;-7.462822833069714e-34;0.003753722235223456;-3.3846104693524064e-30;4.482877166549581e-30;-7.832864239109403e-05;8.220796285371619e-13;-2.239325972846299e-09;-0.0002171070540240923;5.626005119694201e-11;4.4787335779169155e-30;-5.535325608101183e-36;-0.0004163724122696248;-0.0004329407196179318;9.90264335142227e-06;-0.0005319588149226054;0.00011300396124852594;4.3831566722173226e-05;-4.414981205475685e-06;3.0805948527429586e-06;-3.0805948527426744e-06;0.0008278133000574123;-0.0012356064545990656;0.0007808416583766308;-5.656757790071019e-08;0.0;-3.585837941479644e-05;3.585837941479238e-05;0.001733296612306056;0.002331531301792219
0.7399072647094727;0.004543046082466732;-0.0006072583861588615;0.0010093476238676627;-0.02021458787756899;0.004853802064443235;0.005009714518096016;2.2801333319182363e-33;-7.236757033474285e-34;0.0037674966082977147;-5.8186365765820065e-30;4.41304378289148e-30;-7.853643724430552e-05;8.726384171273512e-12;-2.1263740397315296e-09;-0.00031113588101831666;-1.0074365688255503e-10;4.4091002675858985e-30;3.664195310196185e-35;-0.0003662260485559365;-0.0003892281449127092;9.386890955916745e-06;-0.00044002915201311806;9.342512236860897e-05;3.784835193769413e-05;-6.607991739507462e-06;4.728588108669479e-06;-4.728588108670352e-06;0.0006739037060652979;-0.0012106064483842598;0.0006170193942002778;-1.911349718568304e-07;0.0;-4.323380723164071e-05;4.323380723164056e-05;0.0017195357338880412;0.002656703915563439
0.7599508762359619;0.004310951211912602;-0.0006180174820151405;0.0009559279425675214;-0.022459769327655067;0.004869392009885852;0.005477324805488334;2.2562578668300282e-33;-6.657501741423843e-34;0.0037519548778862316;-5.8397367365970504e-30;6.855938448922437e-30;-7.719173748023953e-05;1.8514586357363693e-11;-1.9824546042587044e-09;-0.00039387814217803455;-2.974726130444591e-10;6.852408296927644e-30;8.876637071165821e-35;-0.00032324560351098294;-0.00035370998411924227;8.730655853098883e-06;-0.0003568911153424435;6.7789052028e-05;3.249527156356748e-05;-8.561310752567916e-06;6.4858604950792674e-06;-6.485860495078441e-06;0.00047774918278596705;-0.0011665670772129711;0.00041471136615409766;-3.564302124424239e-07;0.0;-5.100467154424721e-05;5.1004671544239604e-05;0.0016474040388650974;0.0027277202987602157
0.7799293994903564;0.004025286445620241;-0.00047471197841902267;0.000902518230277068;-0.02504958122017714;0.004897913041086629;0.005802192438236196;2.1647865983122428e-33;-5.7455361083997825e-34;0.00370169121708453;-5.847473634285055e-30;6.816030532414512e-30;-7.457859809060566e-05;3.02993050286048e-11;-1.8188195443552957e-09;-0.00046506069949740585;-5.366915379020911e-10;6.813117980976524e-30;1.5212882311456312e-34;-0.0002884386316947903;-0.0003273698627308858;7.98362052300132e-06;-0.000283185844194906;3.9612894178351195e-05;2.7747359073988497e-05;-1.0283419241562061e-05;8.120024638869087e-06;-8.120024638871391e-06;0.00026261733791240914;-0.0011077520693525415;0.0001933523480222152;-5.540642230535565e-07;0.0;-6.0155930235276506e-05;6.015593023527536e-05;0.0015040929908659894;0.002587022558448881
0.7999162673950195;0.003593432209506903;-0.0001655790909467321;0.0008310078923514106;-0.02792551140738294;0.004827868609409384;0.005955339747959644;1.9806644234429132e-33;-4.4069136579044895e-34;0.003608660976820062;-7.097655819977955e-30;9.245953756958445e-30;-7.095869515748874e-05;4.428459520519092e-11;-1.6434840041462174e-09;-0.000525808922932426;-8.23058093953802e-10;9.243917037071219e-30;2.2783115059670235e-34;-0.00026211943334980125;-0.00031055576915915006;7.180966810217089e-06;-0.00021838832908090624;1.1235992904718436e-05;2.3528707466327155e-05;-1.1816938230222938e-05;9.377783612141364e-06;-9.377783612141882e-06;4.6400238199207154e-05;-0.0010377196208908757;-3.0458415833744282e-05;-7.871596314122262e-07;0.0;-6.863440657417119e-05;6.863440657417342e-05;0.0012748009619468128;0.002269683027948245
0.8199203014373779;0.003014809365605252;0.0002127284802349798;0.0007316340512892937;-0.031064539498640555;0.004675973555538674;0.006065135556375605;1.6812131035992998e-33;-2.5621555940394006e-34;0.0034621635306550484;-7.140557356220607e-30;9.235218577733441e-30;-6.657633012931155e-05;6.062604709358071e-11;-1.4633404780202457e-09;-0.0005771908269870872;-1.1603223990589153e-09;9.234360686556026e-30;3.162912903648072e-34;-0.0002445918460945377;-0.0003035537089241778;6.35300983996298e-06;-0.00016210748747427252;-1.5648561511890854e-05;1.9790400412225012e-05;-1.3204347969032787e-05;9.963944219995861e-06;-9.963944219996162e-06;-0.00015797746589351112;-0.0009597975269933322;-0.00024250609303131036;-1.057981637241518e-06;0.0;-7.481779549001812e-05;7.481779549001731e-05;0.0009434935627735653;0.0018024734115215013
0.8399143218994141;0.00229004984773391;0.0005935942178614479;0.000597451362737086;-0.03461620506344639;0.004477128607060963;0.006253743416059107;1.2525298272905549e-33;-1.4363341093189444e-35;0.0032492454367139484;-8.407806250743307e-30;9.207061499298028e-30;-6.16617461578165e-05;7.94124622707597e-11;-1.2842323300144577e-09;-0.0006202748467227129;-1.5509262665978879e-09;1.1667114521502706e-29;4.1973700062208376e-34;-0.0002360170196843488;-0.0003064486232590015;5.5255540036887074e-06;-0.00011392081608811606;-3.987400619088207e-05;1.6495430954421736e-05;-1.4488626536319825e-05;9.640267495819968e-06;-9.640267495819758e-06;-0.00034163553411210726;-0.0008770861514288293;-0.0004330340048400962;-1.3676474916462923e-06;0.0;-8.01291587572549e-05;8.012915875725614e-05;0.0005266130416338821;0.0012069786497413784
0.8599615097045898;0.0015305291927625339;0.0011042721386874085;0.0004601872709121075;-0.03838881105328199;0.004385431188137795;0.006307847324385262;6.604621732563646e-34;2.9191638381325263e-34;0.0029533258891306265;-8.533478907591428e-30;1.4226386299352975e-29;-5.6397686952267025e-05;1.0077288751534948e-10;-1.1099904290474162e-09;-0.0006562686332573781;-1.998234219279794e-09;1.1756595802464103e-29;5.336686014167742e-34;-0.0002363688986271953;-0.0003191439961982054;4.7154322559526855e-06;-7.310676678526683e-05;-6.082484153695031e-05;1.3596414099962708e-05;-1.5718110915244997e-05;8.209998677092838e-06;-8.209998677091798e-06;-0.0004999107687337164;-0.0007919201141781654;-0.0005968617871409691;-1.7178875385200581e-06;0.0;-8.636128666482362e-05;8.636128666482553e-05;6.478595544165191e-05;0.0005335072264966462
0.8799035549163818;0.0007814320377390418;0.0016728815157018425;0.0003257284616135633;-0.042323138171744074;0.004397317495217726;0.006315046202436819;-1.0228817539560414e-34;6.735502070002416e-34;0.0025688843472350923;-8.59624272342358e-30;1.1736250785275841e-29;-5.099847291879785e-05;1.2452704926826825e-10;-9.452533324874785e-10;-0.0006858445469775375;-2.499206122949715e-09;1.4201723510981014e-29;6.669484702365491e-34;-0.00024542291338038697;-0.0003411501040178536;3.943624120993615e-06;-3.931064915554935e-05;-7.801419900567967e-05;1.1079657503660972e-05;-1.6924113906364673e-05;6.44905623663506e-06;-6.449056236634322e-06;-0.0006291489556419536;-0.0007071682348090109;-0.0007300167944347492;-2.1053176523495545e-06;0.0;-9.20555685030269e-05;9.205556850302677e-05;-0.0004077322024928267;-0.00013463609222709336
0.8999412059783936;-1.1377254179885652e-05;0.0022414793901406617;0.0001765368694081424;-0.04603437061655389;0.004437706403554466;0.006276220903932298;-1.0818875967088616e-33;1.1438056650496074e-33;0.00209019954422755;-8.677461478697643e-30;1.4176516471869285e-29;-4.555601470462864e-05;1.508300613656397e-10;-7.907388786089336e-10;-0.0007099912164283438;-3.0579645427897407e-09;1.4184302802972946e-29;8.173903987615637e-34;-0.00026290907347153086;-0.0003720950868537523;3.213164254524528e-06;-1.1501467412694884e-05;-9.153994809346315e-05;8.886599037247421e-06;-1.815405443490325e-05;5.140188521850831e-06;-5.140188521850223e-06;-0.0007301277679166844;-0.0006237945531667931;-0.0008332241722536484;-2.5319715527347297e-06;0.0;-9.537339443774757e-05;9.537339443775332e-05;-0.0008740597115541256;-0.0007408942989213246
0.9201037883758545;-0.0007155471800949986;0.002742098449756693;3.9992847480870724e-05;-0.04927209676514949;0.0045312661453545304;0.006235727784580515;-1.2344278893365977e-30;1.685806447590916e-33;0.0015261965550946524;-8.908889567073064e-30;1.6868351195782858e-29;-4.018344773205306e-05;1.7957729268854595e-10;-6.480094819740419e-10;-0.0007290168685095012;-3.673338725484551e-09;1.4415098364467007e-29;9.695225719414758e-34;-0.0002884540883329772;-0.00041132171001539557;2.5313190672591333e-06;1.0962309489538295e-05;-0.00010147219773816392;6.988259346418586e-06;-1.943746183591597e-05;4.189959103721785e-06;-4.1899591037211004e-06;-0.0008034230783951313;-0.0005431702205701746;-0.0009070789705419713;-2.9955387348436233e-06;0.0;-9.653310845576659e-05;9.653310845575983e-05;-0.0013200114224658725;-0.0012331709106889592
0.9401109218597412;-0.0013747831650328282;0.003176182789005004;-8.420702402155664e-05;-0.05162356392507304;0.004441783399139053;0.006107751410063559;-3.6784147683284975e-33;2.306626471884468e-33;0.0009222239237563199;-6.690906934588464e-30;1.4677402157420885e-29;-3.505077262445016e-05;2.1006224504322243e-10;-5.199463256755182e-10;-0.0007426437448185136;-4.33133937587132e-09;1.717671561727779e-29;1.128924530354132e-33;-0.00032095838896881304;-0.00045714572250948817;1.9122482280608806e-06;2.8466834833028263e-05;-0.00010792275502353286;5.381025506549434e-06;-2.077337705507544e-05;3.5320414643508824e-06;-3.532041464350686e-06;-0.0008499672159225838;-0.0004675163378145506;-0.0009526470521743656;-3.4839649769265473e-06;0.0;-9.712558869434012e-05;9.712558869433621e-05;-0.0017301634195247438;-0.0015627384103060124
0.9599552154541016;-0.0018341595973068105;0.0034972332253921214;-0.00017132214619307437;-0.05273685219705338;0.004369887789821034;0.005886109202150911;-5.449095030905686e-33;3.0836296064991414e-33;0.00032031785005184416;-6.8466151044722e-30;1.7102821141795048e-29;-3.0227450061190664e-05;2.417882696254814e-10;-4.0665221656456423e-10;-0.0007505390066619709;-5.022466905750787e-09;1.7122252787547408e-29;1.3247144090499764e-33;-0.0003593077375537419;-0.0005079686053256332;1.357444677115022e-06;4.177452570185203e-05;-0.00011129282337290663;4.0314791476286654e-06;-2.2027906668449667e-05;3.097649126076764e-06;-3.097649126076341e-06;-0.0008728645271903517;-0.0003975509121290252;-0.0009732654201700553;-3.98858122763322e-06;0.0;-9.652602963355465e-05;9.65260296335551e-05;-0.0020997432214642326;-0.0016984895286061672
0.9800946712493896;-0.002059371170465101;0.0037749526906005392;-0.00021028664098919614;-0.052524724390574956;0.004384577608767658;0.005457301849498241;-7.368730668109318e-33;3.882842012922989e-33;-0.00026478350641795606;-5.953915680041247e-30;1.7571056062818024e-29;-2.5658743165221762e-05;2.748847596233161e-10;-3.0559762430530816e-10;-0.0007518910452755515;-5.7512591553513585e-09;1.5116188337560646e-29;1.4919684043011892e-33;-0.00040324627609891647;-0.0005632088375933469;8.557591593615051e-07;5.1788606747738606e-05;-0.00011201104376189577;2.884363267151336e-06;-2.296528791383667e-05;2.826858179472711e-06;-2.8268581794723124e-06;-0.0008753498423292489;-0.0003322538448014589;-0.0009723401039044491;-4.5104428600599844e-06;0.0;-9.254807974999628e-05;9.254807974999382e-05;-0.0024340272471382557;-0.0016113444010659194
0.9999830722808838;-0.0023309968887019277;0.003898708998214177;-0.00026653997132085566;-0.05069377327425317;0.004098452001400247;0.00491135968388278;-9.739287751543988e-33;4.864571683331132e-33;-0.0007991808729961241;-2.5564511511912482e-30;1.526330165153741e-29;-2.150494027575024e-05;3.0766449941728485e-10;-2.191821011516456e-10;-0.0007452353706085958;-6.482584642942869e-09;1.5293251912858945e-29;1.6930690944497813e-33;-0.00045160403718392356;-0.0006206775616776862;4.2089614978102994e-07;5.8805912399309836e-05;-0.00011044299955965191;1.9470765186020428e-06;-2.3332624544934442e-05;2.685792370207782e-06;-2.6857923702074683e-06;-0.0008603161255400544;-0.0002737189544581484;-0.0009530997568054586;-5.02176702745385e-06;0.0;-8.436831679951436e-05;8.436831679951284e-05;-0.002722550581158085;-0.0012772314959232716
1.020066738128662;-0.002789806500150213;0.004010389100230211;-0.00035651491251425865;-0.04758141861627495;0.003377946951220737;0.004120330053280197;-1.2339810744996138e-32;5.903514222690801e-33;-0.001284659621564602;-4.668098192896459e-31;1.3209561790422477e-29;-1.7692059207452224e-05;3.3983397768688584e-10;-1.4475478310434149e-10;-0.000728500133540248;-7.21243184870178e-09;1.5704449344881057e-29;1.874022974051673e-33;-0.0005063415507284286;-0.0006816980922025449;4.198098743581313e-08;6.353921560727639e-05;-0.00010696623047892843;1.1743485788585267e-06;-2.293149659232829e-05;2.635398078934825e-06;-2.6353980789345296e-06;-0.0008305915194724249;-0.00022072168851595362;-0.0009185342129847083;-5.516495659995551e-06;0.0;-7.426384372949101e-05;7.426384372949827e-05;-0.002971382868119032;-0.0009691210026814695
1.0401182174682617;-0.0032120662983043946;0.0040100420009423765;-0.0004460343396165132;-0.04365590888528799;0.0025777472026812277;0.0033190043189418664;-1.52320199153451e-32;7.028339507016554e-33;-0.0017107024060276736;2.8204245947709715e-30;1.3684113352680093e-29;-1.4275701129973632e-05;3.697502723453527e-10;-8.24770187629816e-11;-0.0006992814033706685;-7.907020375795091e-09;1.12633866308326e-29;2.0433087289976564e-33;-0.0005669506079268587;-0.0007446761590542976;-2.7720644322225413e-07;6.639332510659103e-05;-0.00010198337053121911;5.553558928838773e-07;-2.156357242506431e-05;2.6478450142225273e-06;-2.6478450142223244e-06;-0.0007892924484760258;-0.0001738890095935346;-0.000872048179193553;-5.967324999738677e-06;0.0;-6.349061364230679e-05;6.349061364231704e-05;-0.0031765998044482636;-0.0009315689032701402
1.060133695602417;-0.0035585505182744804;0.004003935060433365;-0.0005188408578378064;-0.039170237171839616;0.0017865808256268796;0.0024127589839452084;-1.8267138493462438e-32;8.166901928082927e-33;-0.002077514449777568;8.645195144429083e-30;9.33660779578408e-30;-1.1251630979063689e-05;3.95882556367914e-10;-3.1336064960387343e-11;-0.0006546532306397505;-8.535268217359893e-09;9.38570954484602e-30;2.1773213369238837e-33;-0.0006326267544676864;-0.000807709140838013;-5.382328330112516e-07;6.780850540664606e-05;-9.586362555213573e-05;6.936089745683378e-08;-1.90491981717173e-05;2.724519339538856e-06;-2.7245193395386133e-06;-0.0007392409141216668;-0.00013302096302080695;-0.0008166884290046573;-6.348584563333638e-06;0.0;-4.980441983447471e-05;4.980441983447284e-05;-0.0033371819308655364;-0.0010738709670043809
1.079972505569458;-0.0037336840023574173;0.003945106318781829;-0.0005610592248222305;-0.03418944444145211;0.0011497836314087676;0.0014801076451855665;1.2131515544980928e-30;9.48441163893548e-33;-0.0023864023644218127;1.3008299016427525e-29;7.44074138540441e-30;-8.623684094461944e-06;4.1630571851046603e-10;9.505136222408725e-12;-0.0005917239088200438;-9.05698817255603e-09;7.497385126219596e-30;2.3148741686843488e-33;-0.0007013118874546404;-0.0008675987706045958;-7.413069474036399e-07;6.816614842541349e-05;-8.899109088139879e-05;-3.0047978659474203e-07;-1.5246989205574974e-05;2.8902299781293373e-06;-2.890229978129358e-06;-0.0006833924665333632;-9.803657781707e-05;-0.0007556448805513186;-6.628633371085039e-06;0.0;-3.231530567950674e-05;3.231530567951094e-05;-0.003450443671432043;-0.0013186844394425094
1.0999338626861572;-0.003843033071525975;0.0037396497438334235;-0.0006022878743358808;-0.029095183128459462;0.0005725059057727694;0.000727093755189897;-2.5626234346013446e-32;1.0837545214390065e-32;-0.0026471515458577764;1.8559896761438993e-29;7.469638195032744e-31;-6.332688400107073e-06;4.2921993362207784e-10;4.176693647262648e-11;-0.0005056553872181094;-9.436569864435795e-09;-1.64987509160789e-30;2.4084240843051036e-33;-0.0007730464399180134;-0.000922889904519442;-8.904704692739737e-07;6.779161635953164e-05;-8.155551375712856e-05;-5.769353999476511e-07;-9.92856880477418e-06;3.166707301662728e-06;-3.1667073016626676e-06;-0.0006231416049171317;-6.803294893543223e-05;-0.0006904033858880424;-6.776745762815464e-06;0.0;-1.4859586364039937e-05;1.4859586364028207e-05;-0.0035145303630146263;-0.0016066945069636454
1.119966745376587;-0.003812696643220829;0.003418399397339736;-0.000625718552202024;-0.024162803051284997;0.00018467725870113512;0.0001675952616240477;-2.9495555159953684e-32;1.2152741205966492e-32;-0.0028643061155159823;2.665827194295189e-29;-5.8702370552013106e-30;-4.366591285979851e-06;4.320137714936009e-10;6.630458455503481e-11;-0.0003965345695285442;-9.619711199634328e-09;-5.798596099358077e-30;2.4371216487969222e-33;-0.000845440822586063;-0.0009727256650802082;-9.847326708102391e-07;6.693553510568297e-05;-7.382147857946795e-05;-7.730937696616646e-07;-2.9111582547745326e-06;3.4553321336580114e-06;-3.4553321336582274e-06;-0.0005605125109862244;-4.275564137990125e-05;-0.0006231457131673476;-6.74987676667657e-06;0.0;-2.8178875420564527e-07;2.817887542162476e-07;-0.003523007723499698;-0.001884136141445982
1.139972448348999;-0.003628566526316465;0.0030944513114364173;-0.0006188431937745192;-0.019552599316674364;2.3198443919314327e-05;-0.0003215864192403995;-3.374309249546059e-32;1.3546539055746806e-32;-0.0030428495204134014;3.440270598143884e-29;-1.4692969949286325e-29;-2.709609879587558e-06;4.2183668676787293e-10;8.400893947398246e-11;-0.0002731344121101033;-9.54624823201149e-09;-1.4613645098218913e-29;2.416525644232628e-33;-0.0009134025468378683;-0.0010161170040920643;-1.0229617762374115e-06;6.580485708480877e-05;-6.604076948960108e-05;-9.013299770134775e-07;4.158011705767297e-06;3.558163109052868e-06;-3.5581631090527884e-06;-0.0004974434851814821;-2.1904423820196117e-05;-0.000555944794171936;-6.5015588134184065e-06;0.0;1.3735395634623703e-05;-1.373539563463572e-05;-0.003468104646744368;-0.0021030574594984907
1.1601145267486572;-0.0033060832290484664;0.0028514140020500936;-0.0005774279114136582;-0.015161727493549153;5.984088993144818e-05;-0.0008766664053574272;-3.723769460463533e-32;1.4558496052810436e-32;-0.003189856427473792;4.4420306657157483e-29;-2.4061346133641456e-29;-1.3215038679301425e-06;3.953147042269533e-10;9.597103188477867e-11;-0.0001447902205875877;-9.146425147208876e-09;-2.64614077506566e-29;2.2590273154020256e-33;-0.0009735011580667216;-0.0010523154276918965;-1.0037531885133503e-06;6.453941398458408e-05;-5.832889671294314e-05;-9.743849688455174e-07;9.743907431628367e-06;3.3083764906816777e-06;-3.3083764906814054e-06;-0.00043478894026621225;-4.880203494585422e-06;-0.0004897055334988965;-5.975942886471108e-06;0.0;2.9348141153326546e-05;-2.934814115332064e-05;-0.003339022875435253;-0.0022229911678247594
1.179957389831543;-0.0029322869492085357;0.002695995052999514;-0.0005179215316547688;-0.010931604772393992;0.00017343931913539246;-0.0015193328202130845;-4.191636408499729e-32;-1.2024112973332726e-30;-0.003307478463880671;5.49593717596391e-29;-3.696811793888453e-29;-1.9930781896727131e-07;3.4978892062997433e-10;1.0291640602987581e-10;-2.1502462008771042e-05;-8.36009841872472e-09;-3.687616089531145e-29;2.072990581897701e-33;-0.0010211838212913784;-0.00107917701670092;-9.262120023828598e-07;6.326249935295573e-05;-5.099141722685063e-05;-1.0018506438709653e-06;1.3981937671472047e-05;2.5793640517186045e-06;-2.5793640517192372e-06;-0.0003749745350469873;8.453625151608626e-06;-0.0004269712101333096;-5.132032180547798e-06;0.0;4.296988025601629e-05;-4.29698802560162e-05;-0.0031276695016534987;-0.0022056765987202853
1.2001912593841553;-0.002507584646376509;0.0025462261772015325;-0.00044749800911935735;-0.006681382724201492;0.0003453645351356823;-0.002173490370591476;2.4348478137319304e-30;1.6533562473203588e-32;-0.0034034547514121883;6.799385232937232e-29;-5.167104240082106e-29;7.252524715577432e-07;2.796683221705729e-10;1.0592479228978337e-10;9.604881803749771e-05;-7.074436132756754e-09;-5.15764719977227e-29;1.684008979924965e-33;-0.0010532679434732775;-0.0010940086742835086;-7.843556912984478e-07;6.197373025019416e-05;-4.388735801658426e-05;-9.938446778728805e-07;1.7226072071407535e-05;1.245770650942905e-06;-1.2457706509427077e-06;-0.0003168118714100876;1.900367994337736e-05;-0.00036647275856912923;-3.875669692356566e-06;0.0;5.223973099743169e-05;-5.2239730997426475e-05;-0.002811628337523096;-0.0020141647527401703
1.2200744152069092;-0.0020749920328600336;0.0024698723598612113;-0.00036831782132208636;-0.0027008897105674054;0.000539120696474731;-0.0028738432586613706;-4.792172084251848e-32;1.7085756820029834e-32;-0.0034763374408775336;8.001776107605054e-29;-6.55486954091484e-29;1.4470465197097934e-06;1.8344064333702373e-10;1.0563774479192385e-10;0.00020063057070206453;-5.248693757070396e-09;-6.793433490897539e-29;1.1866090518749047e-33;-0.0010627388434056417;-0.0010909890761953331;-5.79708314573172e-07;6.071257866465653e-05;-3.735830530887356e-05;-9.584369249897435e-07;1.9533106182863863e-05;-7.034913538096729e-07;7.034913538099994e-07;-0.0002630846781114127;2.6809976006251886e-05;-0.00031106652939860474;-2.1873504846173235e-06;0.0;5.9399047122543055e-05;-5.939904712254158e-05;-0.002386093701958099;-0.0016226640132245805
1.2399358749389648;-0.001656019704561595;0.002347790532255332;-0.0002946914298411287;0.0011519545721701298;0.0007072068344292705;-0.003485281404568295;-5.078994002667677e-32;1.7404430946195372e-32;-0.003528247325857674;9.614646853841516e-29;-8.473132367204262e-29;2.011671819811534e-06;5.6038086097794295e-11;1.0282626834353361e-10;0.00029281711339959913;-2.7762279860539762e-09;-8.586561631545835e-29;5.234809559177925e-34;-0.0010434221383176614;-0.0010636739972863973;-3.066091320346672e-07;5.9400724419730454e-05;-3.133853418817087e-05;-9.025449719772013e-07;2.1117021548482204e-05;-3.3343333048254985e-06;3.334333304825221e-06;-0.00021327498938514302;3.2488806873152675e-05;-0.00026014348219758005;1.5722577547227504e-08;0.0;6.6754010381668e-05;-6.675401038167162e-05;-0.0018291814298914823;-0.0009993931665929175
1.2599515914916992;-0.0013457359740432792;0.0021429717371241413;-0.00024792988028473836;0.0050454819917522195;0.0006981411324831815;-0.003991346457340037;-5.22432354349035e-32;1.7052772809096563e-32;-0.0035577009624600995;1.0847706643069592e-28;-1.0486288349163465e-28;2.4496794266505333e-06;-1.0840239960388189e-10;9.804947778006274e-11;0.0003729250175678231;4.684645655746947e-10;-1.0723791431289139e-28;-3.4766201482882166e-34;-0.0009880958165808668;-0.001004477874353632;4.2633421523165295e-08;5.791960309009567e-05;-2.581331593297938e-05;-8.311791086396557e-07;2.210948393980434e-05;-6.721892003985185e-06;6.72189200398565e-06;-0.0001673025363349697;3.646161969087335e-05;-0.00021354135195779435;2.828099993235677e-06;0.0;7.179137664013282e-05;-7.179137664013235e-05;-0.001114764083994827;-0.0001064065925071452
1.2799217700958252;-0.0011535938752756097;0.0018996060997536588;-0.00022529831978844778;0.008895500270893562;0.0004947206152757644;-0.004435777603124701;2.406430014328805e-30;-1.2134262319481299e-30;-0.0035602789012193674;1.2510958099603006e-28;-1.2792169233480302e-28;2.780704970939921e-06;-3.129737217790462e-10;9.18663583953837e-11;0.0004404610305603417;4.557884065464416e-09;-1.2906424041792103e-28;-1.231051170822695e-30;-0.0008918459715657057;-0.0009079021755688796;4.699261926630428e-07;5.6129528623063614e-05;-2.0857130381318064e-05;-7.496429896035999e-07;2.2593497231704448e-05;-9.983717298725527e-06;9.983717298725888e-06;-0.00012586130629875888;3.903508298592505e-05;-0.00017185541074245044;6.295989414970299e-06;0.0;7.221259045821304e-05;-7.221259045821392e-05;-0.00022770424012582289;0.0010782842319811297
1.2999703884124756;-0.0011048787417041262;0.0015504332518224617;-0.00023680413849093076;0.01272823860195037;4.645586538833241e-05;-0.004731269543063788;-5.17041815762936e-32;1.4519010901449283e-32;-0.0035295906763918895;1.3946005462310604e-28;-1.5221010915527765e-28;3.0296089061659745e-06;-5.63434358624541e-10;8.468984400656348e-11;0.0004967669314512484;9.618665054736795e-09;-1.5581101912408419e-28;-2.803048236206887e-33;-0.000748570809250916;-0.0007669247496195216;9.82901213486879e-07;5.381764540724232e-05;-1.6440113691870343e-05;-6.61282585659773e-07;2.264380826808048e-05;-1.2294236328885306e-05;1.2294236328884992e-05;-8.8813067016312e-05;4.0552760684968595e-05;-0.00013480446638677773;1.0510290041388916e-05;0.0;7.035250818311413e-05;-7.035250818311094e-05;0.0008598561282497055;0.002276906622331841
1.32008695602417;-0.0011437064601146994;0.0011596671085868414;-0.0002648065979612898;0.016636872146390893;-0.0005989098314028535;-0.004984983106120063;2.439599674178414e-30;1.1718665475102283e-32;-0.0034564421982175783;1.545815395351099e-28;-1.7899185034875579e-28;3.2160776218359496e-06;-8.6430269624847e-10;7.689753644264624e-11;0.0005429775122448102;1.5754526102125444e-08;-1.8142204714263568e-28;-4.358996030063732e-33;-0.0005521475245058056;-0.0005742998708771418;1.5866305265564208e-06;5.073222890636867e-05;-1.2557627933952379e-05;-5.691929485331412e-07;2.2304243684549592e-05;-1.3702994079870734e-05;1.370299407987095e-05;-5.626673038826058e-05;4.130060493386784e-05;-0.00010232368417280434;1.5539786436368543e-05;0.0;6.80655598900398e-05;-6.806555989004576e-05;0.0018567855775642958;0.0032371919970919263
1.3399085998535156;-0.0012209482201278898;0.0007217534726962391;-0.00029936391049033794;0.02049177704621393;-0.0013778909690429302;-0.0051628270493272645;-4.294180649755245e-32;-1.215098896365248e-30;-0.003331783290104977;1.6721880426551573e-28;-2.081181481200059e-28;3.355484323567335e-06;-1.2129220631467684e-09;6.894940420634444e-11;0.0005798456863959429;2.292282827813879e-08;-2.0930724728746505e-28;-6.343579912381269e-33;-0.0003191827597183983;-0.00034524107671172935;2.272251424758396e-06;4.665837395402915e-05;-9.24807154499522e-06;-4.774784514339302e-07;2.1653880443185254e-05;-1.4247924475536582e-05;1.4247924475535857e-05;-2.872549387427628e-05;4.1535137789644015e-05;-7.470874405375875e-05;2.133333836035193e-05;0.0;6.347430385817935e-05;-6.34743038581835e-05;0.0024906775557550207;0.004033484010108818
1.360060453414917;-0.0012963510177835846;0.00017871832126609342;-0.0003358687040447096;0.024405150063611283;-0.002277816398525474;-0.0052075790105362415;2.445505195224336e-30;3.1856002025587205e-33;-0.0031376023877874954;1.831483129099346e-28;-2.359000318776574e-28;3.467570392522284e-06;-1.6234417451818002e-09;6.085143587032232e-11;0.0006099879371220954;3.1428341589546785e-08;-2.3961661376250073e-28;-8.465565527364015e-33;-6.82905238063433e-05;-9.699253322592629e-05;3.0639788887782537e-06;4.113190223497328e-05;-6.377989490145861e-06;-3.851239015937393e-07;2.0752758577360595e-05;-1.3980592792063309e-05;1.3980592792063383e-05;-5.302247706205622e-06;4.1491829913312314e-05;-5.0823863179028266e-05;2.81180203425756e-05;0.0;5.479249768122173e-05;-5.479249768123238e-05;0.002857829383207701;0.00476469796114848
1.3799452781677246;-0.0011224541568470615;-0.0003233498146617272;-0.00031236685350698515;0.02835397476509105;-0.002979127737434657;-0.005315539518798316;-2.240922493218444e-32;-1.2362496685805272e-30;-0.002863373489694076;1.9109353903429101e-28;-2.6553149603632877e-28;3.561176453336302e-06;-2.0859347743040887e-09;5.304053851214079e-11;0.0006338223798798421;4.108024374371246e-08;-2.680346373339359e-28;-1.1035761930783768e-32;0.00017504671353236432;0.00014663014591124443;3.939283948369368e-06;3.394959048407849e-05;-4.000040624847872e-06;-2.9623285009615387e-07;1.967105200301231e-05;-1.3024385886374295e-05;1.3024385886373165e-05;1.3323036411756203e-05;4.1359786241548316e-05;-3.108746384679275e-05;3.5721107367685874e-05;0.0;4.433172487655767e-05;-4.433172487655027e-05;0.0030088978855225598;0.005205810912056371
1.3999366760253906;-0.0006852920219109682;-0.0008337321675854172;-0.0002285189384113807;0.032474700991294125;-0.003508451153341345;-0.00544652557333063;2.4611245237229547e-30;-1.106186291705163e-32;-0.0024864495523649363;1.9828684045882389e-28;-2.936040825487363e-28;3.6478842201165595e-06;-2.609107205675152e-09;4.5519429638526857e-11;0.000653047594939705;5.207591084355682e-08;-2.961579018561685e-28;-1.3887810073077965e-32;0.00040142674848621265;0.00037791059815455336;4.911534131774448e-06;2.4599449534414013e-05;-2.0255413322694424e-06;-2.101048414104027e-07;1.840491797222156e-05;-1.1557737702849656e-05;1.1557737702850207e-05;2.7581682754209044e-05;4.129503420796475e-05;-1.4743725381161398e-05;4.42765739246577e-05;0.0;3.356402763669349e-05;-3.356402763670234e-05;0.003002142017143129;0.005201420197618722
1.419914722442627;-6.61707412680436e-05;-0.0013942744832856472;-0.00010721152696062299;0.03663667514908195;-0.0039047841249052907;-0.0055166973407707615;1.3422720690224583e-32;-2.099575674758471e-32;-0.001997653178845433;1.99239454406949e-28;-3.2141611306597918e-28;3.7338039224913246e-06;-3.1892834235562834e-09;3.8444905821954356e-11;0.0006684321697526601;6.435698522205535e-08;-3.2278577561708754e-28;-1.7237970438245136e-32;0.0006001473768035099;0.0005851418652019439;5.970492067007571e-06;1.2699895067706064e-05;-4.2918111996434046e-07;-1.2797433270225688e-07;1.694742108801578e-05;-9.720452458938351e-06;9.720452458938082e-06;3.736252302481065e-05;4.14214052101006e-05;-1.5657983347503674e-06;5.3713294982942294e-05;0.0;2.1220920623499475e-05;-2.1220920623495105e-05;0.002879781451739132;0.004876910848029332
1.440075397491455;0.0003232524125633437;-0.001972844784938472;-4.02178727349806e-05;0.04072524903660155;-0.004466052722430624;-0.005547724721280915;2.5073226899636183e-30;-3.250824991535823e-32;-0.001417019773674388;1.996465184789103e-28;-3.4413022213786304e-28;3.823567723169164e-06;-3.829822277145904e-09;3.182804270647717e-11;0.0006806877923954912;7.801696835829273e-08;-3.468157885298675e-28;-2.0588490616854232e-32;0.0007686768826387718;0.00076265374692627;7.118564585191836e-06;-2.348026888685423e-06;8.411188928865338e-07;-4.957141599632339e-08;1.5243711141331934e-05;-7.582305102152844e-06;7.582305102151302e-06;4.2679292058353084e-05;4.183355404167247e-05;8.89260536050777e-06;6.407283995770782e-05;0.0;6.410751095164213e-06;-6.410751095171317e-06;0.0026750079379431013;0.004328123455102598
1.4600448608398438;0.0005808293271863948;-0.002573775391441827;-1.0288770500044523e-05;0.04417076017330717;-0.004983137526654619;-0.005417984972305965;6.845413072182127e-32;-1.2850600884580209e-30;-0.000805105959564597;1.8471456189885495e-28;-3.64550420577025e-28;3.916231100466927e-06;-4.513264584094169e-09;2.5834476502163512e-11;0.000689820138501763;9.270787028667345e-08;-3.6608759817970557e-28;1.214735509943408e-30;0.0009024278354871396;0.0009034823866796876;8.320728050299245e-06;-2.0715160837244636e-05;1.8019573908820451e-06;2.3319044226773033e-08;1.326681584428289e-05;-5.301563792160363e-06;5.301563792160883e-06;4.337492167867087e-05;4.257953098827527e-05;1.678380620345721e-05;7.505864487203958e-05;0.0;-8.25740201567515e-06;8.257402015681326e-06;0.002420044126881765;0.0036441395545414403
1.4799413681030273;0.0007893646501114372;-0.003173064354362456;2.59928200445557e-06;0.04691686775302481;-0.005369998984610137;-0.005149044604335799;2.5721905164120253e-30;-6.218346141586186e-32;-0.00019791734939309154;1.6930231360495599e-28;-3.7800500939331076e-28;4.009929262404464e-06;-5.2341443690773645e-09;2.043566359365317e-11;0.000695766842421242;1.0833868140506969e-07;-3.7839983532611515e-28;-2.8389385863028354e-32;0.0010032453706734217;0.001008159856199647;9.563576502572217e-06;-4.288956267801649e-05;2.503271926623175e-06;9.096460025990763e-08;1.0933923282759649e-05;-3.0084613514162025e-06;3.00846135141666e-06;3.944372424602915e-05;4.367910302022342e-05;2.2532950430450183e-05;8.656740485136519e-05;0.0;-2.102771579041438e-05;2.1027715790418e-05;0.002136816685281721;0.002883496207697088
1.4999256134033203;0.0008750648405240219;-0.003833399275961448;-2.0092944540327195e-05;0.04962252980488367;-0.005808789633348848;-0.004788207470795433;1.5038389879321517e-31;-8.179617813895536e-32;0.00038281342944920295;1.3683810217504154e-28;-3.823807196780415e-28;4.0999395278389805e-06;-5.986172488687305e-09;1.5586396056344482e-11;0.0006979581936027217;1.2480760487823405e-07;-3.8289256429695567e-28;-3.311187408979904e-32;0.0010736307017643293;0.0010784771453085404;1.0831284664920603e-05;-6.948806095917045e-05;2.98697144103841e-06;1.5365657208849617e-07;8.132875046820928e-06;-7.812937466983541e-07;7.81293746699643e-07;3.07093516227857e-05;4.512953731143814e-05;2.6496908506320736e-05;9.847855548899508e-05;0.0;-3.3216672189067024e-05;3.3216672189062924e-05;0.0018405417737298434;0.0020847045172881777
1.5202159881591797;0.0008036009427109986;-0.004629737233278003;-9.042896618644188e-05;0.052211529161343424;-0.006359073139297313;-0.0042165690769459425;1.9554051398184762e-31;-1.0005189736995284e-31;0.0009252965566424666;9.650753231209307e-29;-3.7570232866717348e-28;4.178217591525871e-06;-6.7616773505280325e-09;1.1231880547317451e-11;0.0006952011267550283;1.4199439510492967e-07;-3.7507237006180814e-28;-3.6478331874188776e-32;0.001116092246867607;0.0011166165879967565;1.2103934558749625e-05;-0.00010133930841242037;3.286716155038446e-06;2.1161809549824454e-07;4.710935894759398e-06;1.3387328448514078e-06;-1.3387328448522942e-06;1.67554534176346e-05;4.690876618744832e-05;2.896339511777365e-05;0.00011064274013413433;0.0;-4.661658329017103e-05;4.6616583290177296e-05;0.0015413183097548035;0.0012711143413472155
1.5399549007415771;0.0007792419628828098;-0.005291475679420423;-0.00014397300016319263;0.05427222966482311;-0.0067262904124003875;-0.0037234632442700094;2.55954364879807e-31;1.1005715057437426e-30;0.0013983244840823454;3.996780032040211e-29;-3.573990871853325e-28;4.229989774045152e-06;-7.50706194394798e-09;7.515853984949678e-12;0.0006861760641495931;1.587589970498498e-07;-3.544881373417189e-28;-4.145057739456517e-32;0.0011323749641037714;0.001124807431289883;1.3286817640435331e-05;-0.00013734558478881013;3.4238990331451227e-06;2.6210933501830256e-07;9.277842324294622e-07;3.230586649262832e-06;-3.2305866492609393e-06;-1.933287762644483e-06;4.8854676102770426e-05;3.0116756750695352e-05;0.0001221914092876944;0.0;-5.920200269146121e-05;5.9202002691451215e-05;0.0012614065979393004;0.0004990562923810487
1.5600707530975342;0.0007475957415676721;-0.005834693137547252;-0.00019141685096955532;0.0558024127428229;-0.007006633145519885;-0.0032860734434733674;3.158340603121067e-31;-1.4823512303910712e-31;0.0018211601555610474;-3.3481258007657176e-29;-3.192786516031123e-28;4.2424987191949935e-06;-8.230702032100461e-09;4.216344988225445e-12;0.0006684600503156886;1.7535490865686223e-07;-3.152097282641915e-28;-4.4978532812506407e-32;0.0011269279751429414;0.0011077656068719803;1.4383869113593891e-05;-0.00017940040876409332;3.4358118370144235e-06;3.070227769387756e-07;-3.1011759421783583e-06;4.971139229435766e-06;-4.971139229437584e-06;-2.638777398647659e-05;5.0933495300520286e-05;3.027193630843393e-05;0.0001332163619702109;0.0;-6.956240331472814e-05;6.95624033147332e-05;0.0009945634341969004;-0.0002532174607094974
1.5799119472503662;0.0008863361342715688;-0.006194942201748883;-0.00019166072069033805;0.05651212915491753;-0.006948856444564011;-0.0029346498821684964;-2.079182644365964e-30;1.0575005414348484e-30;0.0021801039988649834;-1.2382076764084831e-28;-2.645834403371737e-28;4.196690957507963e-06;-8.877063452762903e-09;1.3990561445131625e-12;0.0006400570777240916;1.9059928610113052e-07;-2.5947805017492124e-28;2.4185485116864682e-30;0.0011030122026650345;0.0010699725110980447;1.5297572926580404e-05;-0.00022633327321623602;3.3460799287320513e-06;3.4411915814265735e-07;-7.045232642920656e-06;6.503457173015672e-06;-6.5034571730156295e-06;-5.607002620320514e-05;5.292170130130423e-05;2.9627147754411566e-05;0.0001428185803831193;0.0;-7.745175235045967e-05;7.745175235045589e-05;0.0007541124450357192;-0.0009525152188238804
1.5998923778533936;0.0012673207598576195;-0.006371268799391221;-0.0001297658974636096;0.055902072550526136;-0.006425425826101653;-0.002569332283000803;-1.9692105093395025e-30;1.0126843558996706e-30;0.002486501803715062;-2.345451129013579e-28;-1.8563407371158854e-28;4.070194116695409e-06;-9.421467709266086e-09;-1.0482841622369808e-12;0.000597450272270234;2.0403087905440984e-07;-1.7711575248566509e-28;-5.28893429542739e-32;0.0010634661645947299;0.0010151393376855399;1.5975180159162815e-05;-0.0002790787521600397;3.176350537640073e-06;3.7326763141357457e-07;-1.084262215480863e-05;7.871256656861323e-06;-7.871256656861928e-06;-9.173926387118397e-05;5.466141994366549e-05;2.83659283737449e-05;0.0001505610097293708;0.0;-8.451596975794494e-05;8.45159697579474e-05;0.0005375298676985529;-0.0016094431619360242
1.6200952529907227;0.001557314334111905;-0.006522862271338673;-8.461364278943653e-05;0.053853522785142216;-0.005874679436635507;-0.001945620033981214;-1.9381757488059323e-30;2.2503194520075698e-30;0.0027452183866285614;-3.70796066104113e-28;-7.68098926609111e-29;3.834550299313092e-06;-9.81667953081695e-09;-3.1761867927313044e-12;0.0005365144616485965;2.146968253219738e-07;-6.702305711464159e-29;-5.44097843865686e-32;0.0010106219517106714;0.0009468775364462295;1.6325919007095145e-05;-0.00033783493475852955;2.94372241377046e-06;3.931042648036959e-07;-1.440450071893165e-05;9.090963646092257e-06;-9.090963646092372e-06;-0.00013385741804084646;5.590689193810959e-05;2.6632806763591217e-05;0.0001556479450400639;0.0;-9.00470878448041e-05;9.004708784480065e-05;0.0003458549334973749;-0.0022239194362574407
1.6399421691894531;0.0018982099600421479;-0.006568198275225333;-2.08431957102621e-05;0.05063362955019243;-0.005139688122251478;-0.0012304335146117822;-4.293135840016502e-30;2.1993722688124077e-30;0.0029551227136935493;-5.268314388826288e-28;5.857238673661523e-29;3.46939755883204e-06;-1.0000314925141203e-08;-4.9758219782446285e-12;0.00045526812790424914;2.2123248573352001e-07;7.302437112815153e-29;2.409386493791952e-30;0.0009485986523172748;0.000871278556513707;1.6246131195811125e-05;-0.0004004805604888472;2.672223065844189e-06;4.016470462657896e-07;-1.7567361290666102e-05;1.014800530833125e-05;-1.0148005308330178e-05;-0.00018123853979222433;5.634597439329803e-05;2.4620149154084986e-05;0.00015709041285135597;0.0;-9.18011623660505e-05;9.18011623660508e-05;0.00018436991120827337;-0.002779030494050233
1.6599390506744385;0.002289871339315176;-0.006601162100553799;5.353633034787815e-05;0.04633282751839221;-0.0042314705264421895;-0.0003127815266036928;-4.207056156486069e-30;2.1716282697328384e-30;0.0031282426255027553;-7.092758786623175e-28;2.322167636530536e-28;2.9358454438137e-06;-9.91902419703688e-09;-6.544551154412465e-12;0.00035195687779561815;2.225903326250382e-07;2.4775158426391986e-28;-5.609871819542018e-32;0.0008780839821568693;0.0007903941263209925;1.5629001037666856e-05;-0.00046787563422703366;2.3701733289120576e-06;3.9744531688280246e-07;-2.0374586212281915e-05;1.1091512038799364e-05;-1.109151203879934e-05;-0.00023497208455772363;5.5671593172900795e-05;2.2399703875287727e-05;0.00015397298379583307;0.0;-8.89348882790752e-05;8.893488827907871e-05;4.772875203960193e-05;-0.0032905464350329017
1.6799161434173584;0.0026052854381490606;-0.006642411691986048;0.0001118419203319835;0.041362917150350814;-0.003357333417094464;0.0007525780980274313;-6.469091611497275e-30;4.53834832299283e-30;0.0032682267392399713;-9.215573562055176e-28;4.4345487813929045e-28;2.202621725317503e-06;-9.502215787911876e-09;-7.909433893115144e-12;0.00023504247926679214;2.1726657206534348e-07;4.6343665221385925e-28;2.3792696278127385e-30;0.0008012708838526359;0.0007084259745602453;1.4351098761871523e-05;-0.0005385175171941779;2.0521401483968957e-06;3.7827191299937215e-07;-2.277037920126422e-05;1.1834170375947338e-05;-1.1834170375946645e-05;-0.00029449289240639676;5.350581182635402e-05;2.0085703704149536e-05;0.0001451530206322613;0.0;-8.376814952789326e-05;8.376814952789702e-05;-6.409459418459955e-05;-0.0037543045141825676
1.7001700401306152;0.002803974220290739;-0.006440824394708061;0.0001680763291340131;0.035641779328883655;-0.0025672225948169787;0.001636655280355791;-9.064343782681852e-30;2.143404032858375e-30;0.003381179303137764;-1.1601156548469462e-27;7.003844999865472e-28;1.2175224470290435e-06;-8.658723080989156e-09;-9.125418836367952e-12;0.0001125898935890163;2.0339421795844409e-07;7.24533931168881e-28;-4.973748805526104e-32;0.0007181692542272441;0.000627503654266351;1.2241394065944542e-05;-0.0006121419800133763;1.7236885347673445e-06;3.4104184259490994e-07;-2.476010441071439e-05;1.2219109246156371e-05;-1.2219109246156093e-05;-0.00036043541393501944;4.936005062225952e-05;1.7722904868052924e-05;0.00012911104543319055;0.0;-7.723208298462532e-05;7.723208298462404e-05;-0.00015420742691621425;-0.00417592446412784
1.7199506759643555;0.002929613559764596;-0.005897501830609069;0.0002392980500069916;0.029633561788296583;-0.001843785689568745;0.0021088302400924155;-9.999972836473096e-30;4.51514511540536e-30;0.003466480091733307;-1.4220235051506353e-27;9.968369105054262e-28;-1.7068839088114565e-08;-7.343254922284148e-09;-1.0180778259446016e-11;-4.01107671083356e-06;1.7985068168100673e-07;1.0252476189458293e-27;2.402860417021787e-30;0.0006341522537282224;0.0005521348551130622;9.245168559809682e-06;-0.0006842522555394076;1.405576822469494e-06;2.8469420215251616e-07;-2.6255398486596502e-05;1.2015838026045186e-05;-1.2015838026045248e-05;-0.000429698997455981;4.296451586619613e-05;1.5460516311161774e-05;0.00010520594423695072;0.0;-6.726900968359995e-05;6.726900968360237e-05;-0.00022172404504953026;-0.004538520269281689
1.7401010990142822;0.003026762853159953;-0.005068081370195152;0.0003290000782784616;0.023162164270740478;-0.001103794711306741;0.002281377460860477;-1.2467554213596163e-29;6.998586799798495e-30;0.003529524571170558;-1.715126340488334e-27;1.3491260652841764e-27;-1.5915523638782502e-06;-5.411057160498336e-09;-1.1146197263401165e-11;-0.00011506699726573883;1.4372525481305075e-07;1.3813836042720794e-27;-3.3684509428074474e-32;0.0005487594186017346;0.00047920353562125355;5.082415018919312e-06;-0.0007556225579449158;1.0915944975809173e-06;2.0391895601106076e-07;-2.724470146328947e-05;1.0934026689155064e-05;-1.093402668915483e-05;-0.0005043086324302456;3.355750995125482e-05;1.3250663651073985e-05;7.404392366229224e-05;0.0;-5.230642823549081e-05;5.230642823548545e-05;-0.00027202162673179743;-0.004853615238492038
1.7601122856140137;0.0031619788344397102;-0.003828458875065286;0.00046066865640615416;0.016744599165389458;-0.00029982396845524455;0.0018781460432604011;-1.4879360051635924e-29;4.53020439269347e-30;0.003567928928208073;-2.0271870005949795e-27;1.7489298172045087e-27;-3.510744282257743e-06;-2.804151002049977e-09;-1.2011577579401297e-11;-0.00021484999566021544;9.363117101564561e-08;1.7861239831165668e-27;2.4458178393280448e-30;0.00046634751611933703;0.00041097765090307615;-3.2473554214836927e-07;-0.0008216162890321965;7.959270673857315e-07;9.712462400055857e-08;-2.7565967836468193e-05;9.623947753979227e-06;-9.623947753979332e-06;-0.0005812357165601354;2.079492166346679e-05;1.1186217616097688e-05;4.019065481836474e-05;0.0;-3.665956329097628e-05;3.665956329098479e-05;-0.0003058494392183218;-0.005105361917289908
1.780106782913208;0.0032400653111732437;-0.0023649426150395194;0.000598638566013103;0.01053467051319863;0.00044226958023987233;0.0011246248071999708;-1.620689942023299e-29;7.057399151766936e-30;0.0035796963769394586;-2.3607511278230703e-27;2.2001024869480736e-27;-5.820215518885677e-06;5.865367249431699e-10;-1.2790687924578098e-11;-0.00030268245693917045;2.7217743123874122e-08;2.242626007741949e-27;-2.2085400518626262e-33;0.00038786996315231614;0.0003475174532512981;-7.1628917312319585e-06;-0.0008792884100181774;5.217689403643559e-07;-3.9430524233442014e-08;-2.71063515542892e-05;8.668109563384145e-06;-8.668109563384977e-06;-0.000659300450765996;4.078485876598724e-06;9.277683857441753e-06;6.311853514341436e-06;0.0;-2.2808201184386007e-05;2.2808201184389605e-05;-0.0003259077550910163;-0.0052858986754302515
1.7999484539031982;0.0032858026860045626;-0.0009725386128584758;0.0007211790057822526;0.00475160082050924;0.0011532456024056106;0.0003824058138624998;-1.980074336579983e-29;9.504947061435031e-30;0.0035603616655798306;-2.7040140805057883e-27;2.6987230792501604e-27;-8.533878737537738e-06;4.829661097302874e-09;-1.3477201052047398e-11;-0.00037774872733565114;-5.710303215946134e-08;2.7436038741352717e-27;2.4927988567781594e-30;0.0003146849197717169;0.0002898333440709135;-1.5532676815647763e-05;-0.0009243554381541542;2.751780813709333e-07;-2.0785580031098451e-07;-2.5758731489710468e-05;7.744104359863234e-06;-7.744104359862534e-06;-0.0007359086627787133;-1.6995073832092095e-05;7.551382482054595e-06;-2.540872396580153e-05;0.0;-8.03729211412588e-06;8.037292114123324e-06;-0.0003344074639633512;-0.005381521626094957
1.8198895454406738;0.0032129753940595596;0.0003784385013957651;0.0008129483028362661;-0.0006520657531321554;0.0017396086145233087;-0.0003796538852952054;-2.075289361912924e-29;6.965368444441541e-30;0.0035026766644837347;-3.0589268462285996e-27;3.247886912310317e-27;-1.1714817601442591e-05;1.007763584071284e-08;-1.4068035795910026e-11;-0.00044142165087699385;-1.626149250761428e-07;3.297256141737706e-27;2.4905689117301636e-30;0.0002462322085312322;0.00023790256888184665;-2.5695098929359212e-05;-0.0009527209072924117;5.69776394925749e-08;-4.135706096545902e-07;-2.3385286885257504e-05;6.5657227726310875e-06;-6.565722772631612e-06;-0.0008094556781163605;-4.325048678606123e-05;5.992579638067911e-06;-5.408623409631107e-05;0.0;9.348503991264564e-06;-9.348503991256538e-06;-0.0003335552294049108;-0.005376622579784985
1.8400838375091553;0.0030242317462410876;0.0017668300550834166;0.0008801853602807344;-0.0054909687912933275;0.0022077141574974256;-0.0013079281595752008;-2.486087994538533e-29;9.605429243770481e-30;0.0033954231324378934;-3.413462460472456e-27;3.849681696110668e-27;-1.5423655541456135e-05;1.6497236646281207e-08;-1.4541904633807986e-11;-0.0004947672692368607;-2.9296927739149146e-07;3.902646148696958e-27;8.254702419683511e-32;0.00018210968616511178;0.00019230113010638603;-3.792677351809384e-05;-0.000958598759953631;-1.2982564518390096e-07;-6.624408263863413e-07;-1.9808249527273587e-05;4.880752322859065e-06;-4.880752322859174e-06;-0.0008771926304010851;-7.559786545148072e-05;4.595755026362845e-06;-7.907026608597691e-05;0.0;2.5709670111453276e-05;-2.5709670111462516e-05;-0.0003250174030107329;-0.00524704879655617
1.8599853515625;0.0026689981012676584;0.003253148138720822;0.0009175875552537811;-0.009634568332613452;0.0024891541705048797;-0.002512305826484516;-2.5966018160727046e-29;9.593782532845905e-30;0.0032296718891492654;-3.7514398117384385e-27;4.478384673643471e-27;-1.9572829301559815e-05;2.400124852408334e-08;-1.485267924536194e-11;-0.0005375408870037105;-4.466705558018381e-07;4.536275165652082e-27;1.240133289911367e-31;0.00012370985963347265;0.00015508824443663955;-5.201874876603562e-05;-0.0009357316296231919;-2.765395635691888e-07;-9.505153703126994e-07;-1.4992346088632756e-05;2.5396013963829624e-06;-2.539601396383324e-06;-0.0009335261012479704;-0.00011366946082678144;3.395043193989143e-06;-9.932762855119633e-05;0.0;3.810029693557005e-05;-3.8100296935568416e-05;-0.0003107393224009085;-0.004971863120010545
1.8800530433654785;0.002168250166765111;0.004636259411919718;0.0009098489831368488;-0.01306298965257706;0.0026439719506692796;-0.0037200112024712885;-2.8852331955556235e-29;9.781300545845492e-30;0.002987520282875486;-4.0610847403618286e-27;5.142257899095653e-27;-2.425531798420267e-05;3.2829356490263315e-08;-1.4963112718478268e-11;-0.000572148231562935;-6.289206330557708e-07;5.198830706012603e-27;2.6488436895791338e-30;6.906017582490313e-05;0.0001262368933899662;-6.837572824118407e-05;-0.0008798437785004989;-3.8301110376529534e-07;-1.286442316436695e-06;-8.69517307574633e-06;2.2110230027571798e-07;-2.211023002746378e-07;-0.000975305382158318;-0.000158756087067399;2.35409963139663e-06;-0.0001152938221835164;0.0;4.954315168862513e-05;-4.954315168862179e-05;-0.00029197353168841324;-0.004516954836419287
1.8999459743499756;0.0014842476941131686;0.005794519065514809;0.0008380347871516958;-0.015667811328069832;0.0026283405737897465;-0.004785638450606951;-3.0102536554878174e-29;1.2302730673417022e-29;0.002656425207110369;-4.325375510322939e-27;5.813057535370804e-27;-2.9377807235939683e-05;4.288818275787355e-08;-1.4814793732590557e-11;-0.0005993150421442595;-8.381142459679872e-07;5.874971656910637e-27;2.26561335849754e-31;1.9739271430708424e-05;0.00010575499377107203;-8.677466697013648e-05;-0.0007950836794499863;-4.434367329219346e-07;-1.6661012866270376e-06;-8.800351401776987e-07;-1.3244191516297335e-06;1.3244191516308893e-06;-0.000996636766980201;-0.00021046049113888527;1.4808852031893285e-06;-0.00012684361513307834;0.0;6.206981581616024e-05;-6.206981581616505e-05;-0.0002703463592035488;-0.0038578743704458943
1.9199788570404053;0.0006976619915864179;0.006619017560161639;0.0007108967996120639;-0.017277302902813138;0.0024927177003276936;-0.005594128426837082;-3.153501170087609e-29;9.972997745713825e-30;0.0022211529092431154;-4.52517418837227e-27;6.487153981387903e-27;-3.498713158815405e-05;5.436546256214347e-08;-1.4336722113322145e-11;-0.0006207167005063519;-1.0785137962741771e-06;6.542527453536183e-27;2.9050678849418485e-31;-2.33486270945195e-05;9.168539027876022e-05;-0.00010750342100429965;-0.0006861955449211513;-4.5452256930511516e-07;-2.0959885398258423e-06;6.917026071906841e-06;-2.2984545604175318e-06;2.298454560417481e-06;-0.0009918703428769544;-0.00026983384892094426;7.494450421589628e-07;-0.0001344666596451974;0.0;7.268366475421861e-05;-7.268366475421937e-05;-0.0002466572467051344;-0.002948591207357631
1.940084457397461;-0.00023372895066264376;0.007226209694606869;0.0005358075459276746;-0.017791250576735862;0.0020761491647156203;-0.006325951069594498;-3.0840156191630815e-29;1.0214989860317627e-29;0.0016900681639852692;-4.6325464210106104e-27;7.133698191901392e-27;-4.101506092950095e-05;6.724191874103787e-08;-1.3443857862443543e-11;-0.0006372298309853424;-1.35014570180686e-06;7.190534029667223e-27;-2.101384125399455e-30;-5.8801975175947224e-05;8.306442843195575e-05;-0.00013046046843395758;-0.0005587198950466485;-4.1071029617560297e-07;-2.574697957660049e-06;1.3046220105794625e-05;-2.836200823548733e-06;2.8362008235490075e-06;-0.0009537460069149741;-0.00033687706481333603;1.5156212828095284e-07;-0.00013846733917661851;0.0;7.854507567147416e-05;-7.85450756714719e-05;-0.00022191223945243233;-0.0017490311839934494
1.9601151943206787;-0.0010611241583651564;0.007548855924071575;0.000365856365881288;-0.017285552818725347;0.0015421526335937887;-0.006872791065376043;-3.260230026864443e-29;8.004135209079902e-30;0.0011029145516566234;-4.622028899827745e-27;7.727429506984141e-27;-4.7333036208056575e-05;8.137707266054726e-08;-1.2050453226647324e-11;-0.0006495127074119255;-1.6505049926120665e-06;7.775946433266941e-27;4.3777086287048885e-31;-8.563091512315135e-05;7.924601423604749e-05;-0.0001553242824056881;-0.00041868919122802124;-3.0727731199194035e-07;-3.0963130054081864e-06;1.7668517507780228e-05;-3.0572038705850812e-06;3.0572038705848254e-06;-0.0008749393180174277;-0.00041096406548195427;-3.220308442578698e-07;-0.0001392621830558167;0.0;8.224312910115551e-05;-8.224312910115393e-05;-0.0001970769336452885;-0.00022683047583102586
1.9801406860351562;-0.001701453866584993;0.007575593722995565;0.0002148051716760804;-0.015693151953606436;0.001022284436629917;-0.007232837214047105;-2.960246519483956e-29;8.311460026960932e-30;0.0005028669224787659;-4.462637707723799e-27;8.235740067438884e-27;-5.3844131055332285e-05;9.671270224508242e-08;-1.005162537222968e-11;-0.0006580952987355882;-1.978871109847216e-06;8.273781484301404e-27;-1.944992301591244e-30;-0.00010355607671528658;7.98004181427403e-05;-0.00018191237745499798;-0.00027029966938636545;-1.388524474683294e-07;-3.6579248375489925e-06;2.0987374454668493e-05;-3.0649451470936616e-06;3.0649451470936688e-06;-0.0007500641561974777;-0.0004919064163829786;-6.87530568096107e-07;-0.00013733901972119768;0.0;8.595064298080437e-05;-8.595064298079906e-05;-0.00017269581416181666;0.0013623684313766229
2.0001296997070312;-0.0020202448529649153;0.00736792432435928;0.00011317944321996666;-0.012824426891377649;0.0006996958365701613;-0.00752953259612811;-2.8127633028536367e-29;6.222348842186739e-30;-7.793154408918408e-05;-4.120548305921646e-27;8.614419924965198e-27;-6.038350120198599e-05;1.13057348325898e-07;-7.340272571302542e-12;-0.0006630764286009005;-2.3317523428094268e-06;8.6422999274085e-27;-4.372106941228802e-30;-0.00011237564203450403;8.457825683105455e-05;-0.00020979861207690904;-0.00012103484400752334;9.96777551794837e-08;-4.251636503847709e-06;2.315173125451648e-05;-2.941504367294025e-06;2.941504367293934e-06;-0.0005812609430095129;-0.0005788291467542543;-9.582584925767216e-07;-0.00013316913663783656;0.0;8.715366560848666e-05;-8.715366560848441e-05;-0.0001492945413902612;0.0027852706089432494
2.0199368000030518;-0.0020309613605550693;0.006957634665987254;6.000341510673352e-05;-0.009525997133580346;0.0006523560419437291;-0.007634828347353656;-2.2551495454573244e-29;4.112712043177656e-30;-0.0006154109913958489;-3.560450843660531e-27;8.821168406298622e-27;-6.670937954518101e-05;1.300385927250065e-07;-3.829760235263813e-12;-0.0006641896070247918;-2.7017821634205018e-06;8.834086376779182e-27;-4.190597451004963e-30;-0.00011212541809071679;9.353240470435526e-05;-0.00023824314141974957;2.1342562621770217e-05;4.1101418907144355e-07;-4.862950620647848e-06;2.428496764601393e-05;-2.767433092742458e-06;2.7674330927421586e-06;-0.0003831759295422737;-0.0006699005071257238;-1.1466243422471688e-06;-0.00012725021554592755;0.0;8.390292942394494e-05;-8.390292942394607e-05;-0.00012738936774064845;0.0041242669110976155
2.0400524139404297;-0.001798255879587986;0.006288959008634067;3.623735757586925e-05;-0.00627067183454697;0.0008632251545093819;-0.007375981336773061;-1.7518218639350723e-29;-3.370039607275618e-31;-0.0011102794268558777;-2.7264068609439013e-27;8.810406563563252e-27;-7.273005137212608e-05;1.4775130279570436e-07;7.01757390053045e-13;-0.0006607046301137505;-3.0919502942765847e-06;8.799033851163213e-27;-6.54979224851017e-30;-0.0001027674582848163;0.00010712680737477254;-0.000267261907530081;0.00015681896014640328;8.092330597110329e-07;-5.493936599560156e-06;2.450137839743836e-05;-2.614997187235535e-06;2.614997187235118e-06;-0.0001701011606982309;-0.0007658321468872321;-1.2689812508071333e-06;-0.00011982579884339184;0.0;7.874593191222606e-05;-7.874593191222754e-05;-0.00010671418738608197;0.005186443098019899
2.060148239135742;-0.0015294666775592294;0.0054703404427244775;9.949152494417819e-06;-0.0031342079600318283;0.0010749640184836789;-0.006886775719646495;-7.674645827265636e-30;-4.887056307434344e-30;-0.0015475772452203747;-1.583069427549819e-27;8.512295360635524e-27;-7.803957941422465e-05;1.654809623284441e-07;6.33055376606967e-12;-0.0006514168113703901;-3.487701202611944e-06;8.473410422556365e-27;-7.820689784004204e-30;-8.438063770016985e-05;0.00012553370971417677;-0.00029550089892714645;0.00028213391144076087;1.2948859614429464e-06;-6.117403635698912e-06;2.38460860941472e-05;-2.613148298910923e-06;2.6131482989103687e-06;3.8434056063123766e-05;-0.0008630138520734403;-1.3333657364039418e-06;-0.00011134874564039735;0.0;7.38425241895022e-05;-7.384252418950166e-05;-8.781166658699698e-05;0.005749610520666577
2.0799429416656494;-0.0013009684554921679;0.004581941862264582;-2.763225784063769e-05;-0.0005322003114267835;0.001236538231201766;-0.0061931610377708645;1.9898578824326017e-30;-9.146782575868216e-30;-0.0019214912527074316;-1.0747170822452123e-28;7.874646862254686e-27;-8.223149281533419e-05;1.8243748260631686e-07;1.3077382840974042e-11;-0.0006350105506646357;-3.872631189517214e-06;7.802844213117271e-27;-8.849149066443193e-30;-5.7602333424652615e-05;0.00014872240622158705;-0.0003215107471376379;0.0003941475288862837;1.863599973407104e-06;-6.70377271548967e-06;2.2391333065747396e-05;-2.9200027163100654e-06;2.9200027163102577e-06;0.0002286344523680971;-0.0009573839297467111;-1.3505514977822904e-06;-0.00010226941703047987;0.0;6.751596092707761e-05;-6.751596092708213e-05;-7.099657001803555e-05;0.005938286289783157
2.0999584197998047;-0.001303604357103946;0.003544789878228303;-0.00012180815216683555;0.0017564242805818342;0.001090456841935555;-0.005231195688775336;1.623242371732047e-29;-1.5782612212018235e-29;-0.0022444969835117494;1.788427890934122e-27;6.80571684794538e-27;-8.500523625905937e-05;1.9838846306207574e-07;2.1235901767611583e-11;-0.000609022928077308;-4.243228096625473e-06;6.69653678774817e-27;-1.2362132344460192e-29;-2.1984500774508973e-05;0.0001776353306088527;-0.0003446616601591061;0.000493437800868729;2.533388457511301e-06;-7.242408259771691e-06;2.0123006856893993e-05;-3.676374277583395e-06;3.6763742775823655e-06;0.0003984243318920302;-0.0010480344742785962;-1.3307297429283588e-06;-9.261506758392647e-05;0.0;5.821424665915226e-05;-5.821424665915607e-05;-5.584479269905571e-05;0.005861093674519696
2.1200971603393555;-0.0014233522863893505;0.0022383419778065758;-0.00026131424687852057;0.0036373750927020717;0.0008088638580716676;-0.003816088908747132;3.210474506451747e-29;-2.5228066155803057e-29;-0.0025180963739206866;4.150255244180559e-27;5.2283690578783326e-27;-8.582361316176779e-05;2.1239243389270906e-07;3.091427101412723e-11;-0.0005707885710491701;-4.580328095293142e-06;5.067165966693353e-27;-1.3649220174337525e-29;2.2273702512990053e-05;0.000212611041844335;-0.00036316724085207837;0.000578775549419942;3.3055310800849325e-06;-7.697487916607957e-06;1.719916442802323e-05;-5.000232040779157e-06;5.000232040778815e-06;0.0005422913976395338;-0.001130208456792794;-1.2814937828189316e-06;-8.26342894970811e-05;0.0;4.829781049520576e-05;-4.829781049520382e-05;-4.2457081979542936e-05;0.005594995146398355
2.140052556991577;-0.00170183466030278;0.0007984141122192058;-0.0004428312658073417;0.00515929291804245;0.00033747077032640686;-0.0021448441543543014;5.35297870807649e-29;-3.432048792542183e-29;-0.002744020432401315;6.987728352716151e-27;3.075404321348971e-27;-8.413668336769495e-05;2.2326690858552793e-07;4.205340368570246e-11;-0.0005179854248187259;-4.858955362283723e-06;2.8644027001721535e-27;-1.6008871738866946e-29;7.416573189069141e-05;0.0002533574569198249;-0.0003749242035348266;0.0006500718856577652;4.1678791083209615e-06;-8.02538331340193e-06;1.3948942744000713e-05;-6.08592967927842e-06;6.085929679278288e-06;0.0006564543661995198;-0.0011977312444856507;-1.2110327829522862e-06;-7.26431438876102e-05;0.0;3.976822134391135e-05;-3.9768221343915496e-05;-3.096825241785664e-05;0.00521158588662226
2.1600563526153564;-0.0020577266258006498;-0.0007727231358826832;-0.0006504973863649151;0.006487155087978369;-0.00022459174035208785;-0.00025447196489812064;7.8532342334538e-29;-4.218194223508046e-29;-0.002931512684041591;1.0371117177739392e-26;2.4762185233074515e-28;-7.933281530061171e-05;2.3001609839672583e-07;5.483759006544858e-11;-0.00045063196780597875;-5.059154786634852e-06;-2.8024046581535844e-29;-1.8405990228778455e-29;0.0001338416671288685;0.0003004456744475955;-0.00037799436496591766;0.0007078741473615185;5.126868627156468e-06;-8.187744483432652e-06;1.0548679672546896e-05;-6.224793890048457e-06;6.2247938900481095e-06;0.0007425533807367366;-0.001245638778062282;-1.125089272302467e-06;-6.264529467961301e-05;0.0;3.138599385908208e-05;-3.138599385908756e-05;-2.1135298840144887e-05;0.0047611523328446054
2.180081844329834;-0.002335249604661762;-0.0023303238478698035;-0.0008411786874405373;0.007517436823102598;-0.0006600256675592295;0.0016763329078642898;1.059809280555807e-28;-5.562318727697199e-29;-0.003086108868256838;1.433535575318829e-26;-3.353991306383812e-27;-7.071857487417395e-05;2.312804698449196e-07;6.929528549270507e-11;-0.0003720063704999654;-5.152654331526498e-06;-3.698355603066439e-27;-2.1062467092527406e-29;0.00020078587667421143;0.0003538531698177012;-0.00036989082697025643;0.0007501958053010177;6.175803880444838e-06;-8.133744910742117e-06;7.153229532569505e-06;-5.6179150202363975e-06;5.617915020237001e-06;0.0008016072998363223;-0.0012669283438924738;-1.029082433053645e-06;-5.2731913885961814e-05;0.0;2.232180789319188e-05;-2.2321807893192952e-05;-1.2866764889387192e-05;0.004285881566709234
2.1999292373657227;-0.002351198750221527;-0.0035941454033733625;-0.0009544028828851819;0.00832058092522536;-0.0007354627195664458;0.0032469747590772573;1.3824856407851134e-28;-6.906033148237e-29;-0.0032118735529218716;1.886536656873555e-26;-7.768391997182071e-27;-5.768961887812829e-05;2.2562377528070493e-07;8.525626960194433e-11;-0.00028462290960102254;-5.108655736935508e-06;-8.191188740613356e-27;-2.3324996045505044e-29;0.0002736353387088271;0.000412785663489589;-0.0003509072338597538;0.0007763483656189006;7.293340037154006e-06;-7.811093555427138e-06;3.89828127430649e-06;-4.4610162525751254e-06;4.461016252575253e-06;0.0008354505833807827;-0.0012539969586652041;-9.285181782100296e-07;-4.3041841021681134e-05;0.0;1.4605139341161107e-05;-1.4605139341161483e-05;-6.1005981079450115e-06;0.003822435739688065
2.2199625968933105;-0.0021694983784127982;-0.004700796134087461;-0.0010147918746929233;0.008915536107273945;-0.0005369251144673821;0.0046446398910291176;1.747569608433179e-28;-8.350932588526831e-29;-0.0033152935925264662;2.4059256384469967e-26;-1.3167284952281183e-26;-4.0849591391326245e-05;2.11242995570695e-07;1.0295249470216772e-10;-0.00018715373068290187;-4.890568594208026e-06;-1.367714564276868e-26;-2.682152922115198e-29;0.0003529190908380821;0.0004778883623146755;-0.0003227899752924294;0.0007873424585440232;8.48511414887669e-06;-7.151012370814967e-06;7.900152958855407e-07;-2.897665309060903e-06;2.8976653090603736e-06;0.0008473772862780522;-0.0012007550331031478;-8.252421873154902e-07;-3.3408406778980796e-05;0.0;9.621379048178326e-06;-9.62137904817944e-06;-5.767769085963472e-07;0.003386136490202822
2.24017596244812;-0.0017285912861287975;-0.005499805436611317;-0.0009968535831906384;0.009434220358497827;-1.1424596479430589e-06;0.005635120216183646;2.1525001909757712e-28;-1.0027692388990738e-28;-0.003398461688345057;2.994023184627102e-26;-1.9659723481375706e-26;-2.2271462892063663e-05;1.8600529802598528e-07;1.2229081696853255e-10;-8.303632787189688e-05;-4.453405081365545e-06;-2.026581511113971e-26;-2.888685128612853e-29;0.00043770353231621916;0.0005485453637429931;-0.0002861825145773609;0.0007839878847501681;9.731533494534066e-06;-6.074706623448661e-06;-2.1287199519586623e-06;-1.07066526161073e-06;1.0706652616108446e-06;0.000839800205688622;-0.0011016700015245005;-7.222363930319179e-07;-2.3824266660892783e-05;0.0;5.88274654150627e-06;-5.882746541504829e-06;3.8091903795201526e-06;0.002994956232955776
2.259920597076416;-0.0011110383901872637;-0.0057980020269628695;-0.0008995966863914147;0.00980591545800949;0.0007593884166819539;0.0059668630483355545;2.6104950849670105e-28;-1.1649569201258241e-28;-0.0034601107298671057;3.6282322420563154e-26;-2.708664326371302e-26;-4.102487606118544e-06;1.489601909715539e-07;1.4241228911890158e-10;1.8086907147065178e-05;-3.7733079042823913e-06;-2.778567135073513e-26;-3.106848661166323e-29;0.0005238435180332632;0.0006213099233237057;-0.00024481056490666483;0.0007683025958633623;1.096486546411183e-05;-4.552823423683189e-06;-4.7545216682421364e-06;8.191391051719324e-07;-8.191391051716804e-07;0.0008163963132476081;-0.000954708348228241;-6.25029045608056e-07;-1.4561641845606434e-05;0.0;1.51604039033639e-06;-1.5160403903374174e-06;7.077855665385543e-06;0.002670921060749228
2.279967784881592;-0.00036193462864773257;-0.0056914986520032185;-0.0007396882455719619;0.009939705463434359;0.0016845496957435208;0.005790513120096902;3.100571970966433e-28;-1.342413640500295e-28;-0.0035018915013595867;4.329296208116879e-26;-3.5774836109814883e-26;1.3277005753731516e-05;9.66232767684132e-08;1.6377714442446608e-10;0.00011593854808824043;-2.779634492654865e-06;-3.657607214686616e-26;-3.2484254044387695e-29;0.0006129363981995188;0.0006974533982999274;-0.0002008503732464573;0.0007417179880707659;1.2197763713177414e-05;-2.4523135554204273e-06;-7.193797782898871e-06;2.733619873966939e-06;-2.7336198739662553e-06;0.0007795293964443884;-0.0007521713783581538;-5.315179600299167e-07;-5.210949017647617e-06;0.0;-2.5081262564705265e-06;2.508126256472538e-06;9.505846579148927e-06;0.002406380864145344
2.3000667095184326;0.0004084034896433142;-0.005338660514173645;-0.0005519950828008437;0.009651985330424589;0.002635744677886219;0.005361533449012891;3.6403919982851554e-28;-1.5287877254518632e-28;-0.0035195649167638937;5.0821081783598195e-26;-4.568377014437781e-26;2.8906005706417405e-05;2.6950551329553908e-08;1.857197238488955e-10;0.00020659830654682889;-1.426588608650202e-06;-4.6592470944841514e-26;-3.315726552243622e-29;0.0007017572625587046;0.0007740817657482304;-0.00015692409124748823;0.0007062607774761485;1.3370292206628424e-05;2.9828761188992566e-07;-9.421406264709625e-06;4.561550059141335e-06;-4.561550059141656e-06;0.00073225762112806;-0.0005070775168889958;-4.442515513526291e-07;4.162430732042137e-06;0.0;-4.45312844814366e-06;4.453128448144328e-06;1.1168643506783644e-05;0.0022077788083087286
2.3199827671051025;0.0012309123518548905;-0.0048161380659513045;-0.00033642839655387063;0.009242723346525712;0.003616148132936284;0.0047243498853843605;4.17272087243441e-28;-1.7145538956748246e-28;-0.0035077537804059007;5.86840158753476e-26;-5.669295732734653e-26;4.219860287792546e-05;-6.142976117271393e-08;2.0743168310913327e-10;0.00028779344315916263;3.1825016845526714e-07;-5.770274904702191e-26;-3.4831358548846667e-29;0.0007866534623912911;0.0008477829765163607;-0.00011436536898842211;0.0006643630831007906;1.4416326208104588e-05;3.7443924923478205e-06;-1.1430447732405307e-05;6.196218943407355e-06;-6.196218943406954e-06;0.0006779474167089998;-0.00024587182361922533;-3.6499278380749506e-07;1.3501654060289356e-05;0.0;-5.68327833567857e-06;5.6832783356788945e-06;1.2174288194611353e-05;0.002074534168885625
2.339916229248047;0.0018911757685873398;-0.004196397502494826;-0.00014049986210058014;0.008844192195123099;0.004313089888574175;0.003951991127236603;4.734323354727762e-28;-1.8932916859595902e-28;-0.003458899293387963;6.679857023753797e-26;-6.886524678090422e-26;5.311359471020689e-05;-1.7154271535453857e-07;2.284370924659141e-10;0.00036009386870278654;2.5202845825169734e-06;-6.99758744182627e-26;-3.2765431974644675e-29;0.0008668204280924588;0.0009176961916545148;-7.251878223291902e-05;0.0006175276955358358;1.5284129863409968e-05;7.995362073889895e-06;-1.3262498813377006e-05;7.5678510411926345e-06;-7.567851041192268e-06;0.0006186298448202616;1.2460439970766335e-05;-2.933136712223634e-07;2.294619574007124e-05;0.0;-7.108213796320778e-06;7.108213796320588e-06;1.2651793626829396e-05;0.0019990814315556157
2.359964370727539;0.002528771240036103;-0.0034888614223154346;6.353002968220287e-05;0.008385227846553978;0.004899342834015306;0.003071706150345242;5.288343791932625e-28;-2.0676543805298113e-28;-0.0033620685309226515;7.502452127402129e-26;-8.219570907260219e-26;6.164271109290943e-05;-3.064853210448553e-07;2.4796677346915057e-10;0.00042408158292795345;5.247784607843604e-06;-8.339722401774396e-26;-3.216944153159529e-29;0.0009414896828571692;0.0009830466925212476;-3.012679149257454e-05;0.0005671833085781839;1.5900552710790815e-05;1.3161178889591598e-05;-1.4942370184613518e-05;8.605299289973626e-06;-8.605299289972948e-06;0.0005562131009501072;0.00025428470686761535;-2.291133897675702e-07;3.25762997740036e-05;0.0;-6.7356159510265395e-06;6.735615951028366e-06;1.2699953817934745e-05;0.001973322427600533
2.3800764083862305;0.0030788381475993706;-0.002842587183315477;0.0002510313289744108;0.008038870538243578;0.005255352847327694;0.0022535554590858735;5.846553535025804e-28;-2.219789934269882e-28;-0.003203984705865287;8.309683454845756e-26;-9.653728660914567e-26;6.78143388155053e-05;-4.6845662588325275e-07;2.648980399788747e-10;0.00048024915120194943;8.551910426092412e-06;-9.781546873358125e-26;-2.84179011371458e-29;0.0010080664413635294;0.0010412826920363774;1.1837777843921556e-05;0.0005149463181867796;1.6172381211490923e-05;1.931588029962693e-05;-1.6477047319555495e-05;9.208415513054208e-06;-9.20841551305396e-06;0.0004928140543273297;0.0004690964014499873;-1.725994831861985e-07;4.2382162840434484e-05;0.0;-3.161221921162941e-06;3.1612219211649513e-06;1.2404759670782682e-05;0.0019870723212644424
2.399951934814453;0.0034774143906352237;-0.0022937306476728207;0.0004071263191455181;0.007773505836485236;0.005284522957174335;0.0015537427929265375;6.334822709391061e-28;-2.337602912384399e-28;-0.0029727277169481667;9.059300559481824e-26;-1.114652627707043e-25;7.172981380879331e-05;-6.566263480111881e-07;2.777859539906347e-10;0.0005288735568705958;1.242205070233225e-05;-1.128006034265362e-25;-2.3138419788379717e-29;0.0010622323523517133;0.0010881805239753351;5.034091506823741e-05;0.0004629234976715042;1.6001022753106143e-05;2.6418357287765258e-05;-1.7851965012779578e-05;9.266981199089879e-06;-9.266981199088661e-06;0.00043109353912375347;0.0006486110717859638;-1.2427493629417594e-07;5.220070582114912e-05;0.0;4.117742860861452e-07;-4.117742860838155e-07;1.1854947176252768e-05;0.0020265828199155125
2.419938564300537;0.003688739777846474;-0.0017246700708376211;0.0005368831750755097;0.007363627867214272;0.004926347761841756;0.0008562459095929876;6.792346348772011e-28;-2.410976149474913e-28;-0.0026473814838949;9.728433870912036e-26;-1.2696339925239828e-25;7.369668372940886e-05;-8.755964023510567e-07;2.8544388073139823e-10;0.0005720003392440776;1.6959848426051678e-05;-1.2832895102603667e-25;-1.6918942870945275e-29;0.0011004417772541228;0.0011200226785097317;8.490977798878628e-05;0.00041132209286942877;1.527486435236261e-05;3.4631742450947294e-05;-1.9090088968210557e-05;8.695194194450814e-06;-8.695194194449762e-06;0.00037144512277694674;0.000793914541253882;-8.28433527866711e-08;6.21525694891112e-05;0.0;1.4680681389956201e-06;-1.4680681389949954e-06;1.111406819184043e-05;0.002076915943499325
