flxalr/sts-optimization-reemc/input/498_145/augmented.txt
time, StatePelvisPosX, StatePelvisPosZ, StatePelvisRotY, StateHipRotY, StateKneeRotY, StateAnkleRotY, StateMiddleTrunkRotY, StateLShoulderRotY, StateLElbowRotY, StateRShoulderRotY, StateRElbowRotY, StateHeadRotY, StatePelvisVelX, StatePelvisVelZ, StatePelvisRotVelY, StateHipRotVelY, StateKneeRotVelY, StateAnkleRotVelY, StateMiddleTrunkRotVelY, StateLShoulderRotVelY, StateLElbowRotVelY, StateRShoulderRotVelY, StateRElbowRotVelY, StateHeadRotVelY, StateHipTorque, StateKneeTorque, StateAnkleTorque, StateMiddleTrunkTorque, StateShoulderTorque, StateElbowTorque, StateHeadTorque, ControlHipDTorque, ControlKneeDTorque, ControlAnkleDTorque, ControlMiddleTrunkDTorque, ControlShoulderDTorque, ControlElbowDTorque, ControlHeadDTorque, TauPelvisPosX, TauPelvisPosZ, TauPelvisRotY, Tauleg_3_joint, Tauleg_4_joint, Tauleg_5_joint, Tautorso_2_joint, Tauarm_1_joint, Tauarm_4_joint, Tauarm_1_joint, Tauarm_4_joint, Tauhead_2_joint, Heel_Fx, Heel_Fy, Heel_Fz, Toe_Fx, Toe_Fy, Toe_Fz, CoP, Hand_x, Hand_y, Hand_z, Box_Hand_Fx, Box_Hand_Fz, Box_Hand_Ty, Phase
0, -0.0255018, 0.743104, 0.1, -0.99612, 1.06168, -0.165561, 0.1, 0.23, 1, 0.23, 1, 0.03, 8.6392e-18, 3.44478e-18, 1.04716e-17, 7.50305e-19, 1.18633e-18, -1.15196e-19, 1.29128e-18, -2.23569e-18, -1.54418e-18, -1.19488e-18, -1.17081e-18, -1.12777e-18, 28.3841, -2.55965, 1.17925, -15.7437, 4.53232, 5.89696, -0.317811, -11.6445, 0.0921631, -0.719086, -13.5962, 0.257036, 2.19812, 0.804389, 4.63674e-310, 0, 0, 28.3841, -2.55965, 1.17925, -15.7437, 2.26616, 2.94848, 2.26616, 0, 0, 6.85877, 0, 145.646, 0, 0, 72.8125, -4.8122e-06, 0, 0, 0, 0, 0, 0, 0
0.000209294, -0.0255018, 0.743104, 0.0999999, -0.99612, 1.06168, -0.165561, 0.1, 0.23, 1, 0.23, 1, 0.0299995, -0.000115169, 1.15554e-05, -0.000806433, 0.000806433, 1.736e-18, 3.40317e-18, 0.00265503, 0.000129155, 2.52779e-05, 0.000125857, 2.97597e-05, -0.00416055, 28.3816, -2.55963, 1.1791, -15.7466, 4.53242, 5.89744, -0.317641, -11.9389, 0.0747546, -0.761659, -13.8022, 0.631752, 2.38689, 0.818982, 4.63674e-310, 0, 0, 28.3816, -2.55963, 1.1791, -15.7466, 2.26621, 2.94872, 2.26621, 0, 0, 6.85502, 0, 145.627, 0, 0, 72.8058, -3.51284e-06, 0, 0, 0, 0, 0, 0, 0
0.000418589, -0.0255018, 0.743104, 0.0999997, -0.996119, 1.06168, -0.165561, 0.100001, 0.23, 1, 0.23, 1, 0.0299982, -0.000230145, 2.30914e-05, -0.00161151, 0.00161151, 3.88398e-18, 6.85163e-18, 0.00530679, 0.000256706, 5.02739e-05, 0.00025011, 5.92356e-05, -0.00831404, 28.3791, -2.55962, 1.17893, -15.7495, 4.53259, 5.89796, -0.317468, -12.2333, 0.0573462, -0.804233, -14.0082, 1.00647, 2.57567, 0.833575, 4.63674e-310, 0, 0, 28.3791, -2.55962, 1.17893, -15.7495, 2.2663, 2.94898, 2.2663, 0, 0, 6.85121, 0, 145.607, 0, 0, 72.7988, -2.22434e-06, 0, 0, 0, 0, 0, 0, 0
0.000627883, -0.0255019, 0.743104, 0.0999992, -0.996119, 1.06168, -0.165561, 0.100003, 0.23, 1, 0.23, 1, 0.0299961, -0.000344922, 3.46073e-05, -0.0024152, 0.0024152, 9.52523e-18, 6.87938e-19, 0.00795518, 0.000382625, 7.49794e-05, 0.000372732, 8.84191e-05, -0.0124602, 28.3765, -2.55961, 1.17876, -15.7524, 4.53284, 5.89852, -0.317292, -12.5277, 0.0399377, -0.846806, -14.2142, 1.38119, 2.76445, 0.848167, 4.63674e-310, 0, 0, 28.3765, -2.55961, 1.17876, -15.7524, 2.26642, 2.94926, 2.26642, 0, 0, 6.84735, 0, 145.588, 0, 0, 72.7918, -9.46929e-07, 0, 0, 0, 0, 0, 0, 0
0.000837177, -0.025502, 0.743104, 0.0999986, -0.996118, 1.06168, -0.165561, 0.100004, 0.23, 1, 0.23, 1, 0.029993, -0.0004595, 4.61031e-05, -0.00321749, 0.00321749, 7.24277e-18, -6.48937e-18, 0.0106002, 0.00050692, 9.93938e-05, 0.000493731, 0.000117309, -0.0165991, 28.3738, -2.5596, 1.17858, -15.7554, 4.53317, 5.89912, -0.317113, -12.8221, 0.0225293, -0.889379, -14.4202, 1.7559, 2.95322, 0.86276, 4.63675e-310, 0, 0, 28.3738, -2.5596, 1.17858, -15.7554, 2.26658, 2.94956, 2.26658, 0, 0, 6.84344, 0, 145.568, 0, 0, 72.7845, 3.19403e-07, 0, 0, 0, 0, 0, 0, 0
0.00104647, -0.0255021, 0.743104, 0.0999979, -0.996118, 1.06168, -0.165561, 0.100007, 0.23, 1, 0.23, 1, 0.0299891, -0.000573878, 5.75785e-05, -0.00401839, 0.00401839, 3.4457e-18, -1.14898e-17, 0.0132419, 0.000629608, 0.000123515, 0.000613124, 0.000145905, -0.0207306, 28.3711, -2.5596, 1.17839, -15.7585, 4.53358, 5.89976, -0.316931, -13.1165, 0.00512082, -0.931952, -14.6262, 2.13062, 3.142, 0.877353, 4.63674e-310, 0, 0, 28.3711, -2.5596, 1.17839, -15.7585, 2.26679, 2.94988, 2.26679, 0, 0, 6.83947, 0, 145.547, 0, 0, 72.7771, 1.57468e-06, 0, 0, 0, 0, 0, 0, 0
0.00125577, -0.0255022, 0.743104, 0.099997, -0.996117, 1.06168, -0.165561, 0.10001, 0.23, 1, 0.23, 1, 0.0299843, -0.000688056, 6.90336e-05, -0.00481788, 0.00481788, 5.80395e-19, -1.27575e-17, 0.0158802, 0.000750698, 0.000147344, 0.000730919, 0.000174205, -0.0248548, 28.3683, -2.5596, 1.17819, -15.7615, 4.53406, 5.90044, -0.316745, -13.4108, -0.0122876, -0.974525, -14.8323, 2.50533, 3.33077, 0.891945, 4.63674e-310, 0, 0, 28.3683, -2.5596, 1.17819, -15.7615, 2.26703, 2.95022, 2.26703, 0, 0, 6.83544, 0, 145.527, 0, 0, 72.7696, 2.81893e-06, 0, 0, 0, 0, 0, 0, 0
0.00146506, -0.0255024, 0.743104, 0.0999959, -0.996116, 1.06168, -0.165561, 0.100014, 0.230001, 1, 0.230001, 1, 0.0299787, -0.000802034, 8.04682e-05, -0.00561597, 0.00561597, -2.95141e-18, -1.43528e-17, 0.0185151, 0.000870196, 0.000170878, 0.000847122, 0.000202208, -0.0289715, 28.3655, -2.5596, 1.17798, -15.7647, 4.53462, 5.90115, -0.316557, -13.7052, -0.0296961, -1.0171, -15.0383, 2.88005, 3.51955, 0.906538, 4.63674e-310, 0, 0, 28.3655, -2.5596, 1.17798, -15.7647, 2.26731, 2.95058, 2.26731, 0, 0, 6.83136, 0, 145.506, 0, 0, 72.7618, 4.05215e-06, 0, 0, 0, 0, 0, 0, 0
0.00167435, -0.0255026, 0.743104, 0.0999946, -0.996114, 1.06168, -0.165561, 0.100018, 0.230001, 1, 0.230001, 1, 0.0299722, -0.000915811, 9.18823e-05, -0.00641266, 0.00641266, -4.73199e-18, -1.49576e-17, 0.0211466, 0.000988112, 0.000194117, 0.000961746, 0.000229915, -0.0330808, 28.3626, -2.55961, 1.17776, -15.7678, 4.53527, 5.90191, -0.316366, -13.9996, -0.0471046, -1.05967, -15.2443, 3.25477, 3.70833, 0.921131, 4.63675e-310, 0, 0, 28.3626, -2.55961, 1.17776, -15.7678, 2.26763, 2.95095, 2.26763, 0, 0, 6.82722, 0, 145.485, 0, 0, 72.754, 5.27438e-06, 0, 0, 0, 0, 0, 0, 0
0.00188365, -0.0255028, 0.743104, 0.0999932, -0.996113, 1.06168, -0.165561, 0.100022, 0.230001, 1, 0.230001, 1, 0.0299649, -0.00102939, 0.000103276, -0.00720793, 0.00720793, -3.45609e-18, -1.47435e-17, 0.0237747, 0.00110446, 0.000217059, 0.0010748, 0.000257323, -0.0371826, 28.3597, -2.55962, 1.17753, -15.7711, 4.53599, 5.9027, -0.316172, -14.294, -0.064513, -1.10224, -15.4503, 3.62948, 3.8971, 0.935723, 4.63674e-310, 0, 0, 28.3597, -2.55962, 1.17753, -15.7711, 2.26799, 2.95135, 2.26799, 0, 0, 6.82303, 0, 145.464, 0, 0, 72.7459, 6.48562e-06, 0, 0, 0, 0, 0, 0, 0
0.00209294, -0.025503, 0.743104, 0.0999916, -0.996111, 1.06168, -0.165561, 0.100028, 0.230001, 1, 0.230001, 1, 0.0299567, -0.00114276, 0.000114649, -0.0080018, 0.0080018, -3.8704e-18, -1.76221e-17, 0.0263994, 0.00121925, 0.000239705, 0.00118629, 0.000284431, -0.0412769, 28.3566, -2.55964, 1.1773, -15.7743, 4.53679, 5.90354, -0.315974, -14.5884, -0.0819215, -1.14482, -15.6563, 4.0042, 4.08588, 0.950316, 4.63675e-310, 0, 0, 28.3566, -2.55964, 1.1773, -15.7743, 2.26839, 2.95177, 2.26839, 0, 0, 6.81878, 0, 145.442, 0, 0, 72.7377, 7.68591e-06, 0, 0, 0, 0, 0, 0, 0
0.00230224, -0.0255032, 0.743104, 0.0999898, -0.99611, 1.06168, -0.165561, 0.100033, 0.230002, 1, 0.230002, 1, 0.0299476, -0.00125593, 0.000126001, -0.00879425, 0.00879425, -4.67808e-18, -2.37702e-17, 0.0290208, 0.00133249, 0.000262052, 0.00129624, 0.000311239, -0.0453637, 28.3535, -2.55966, 1.17706, -15.7776, 4.53766, 5.90441, -0.315774, -14.8828, -0.0993299, -1.18739, -15.8623, 4.37892, 4.27466, 0.964909, 4.63674e-310, 0, 0, 28.3535, -2.55966, 1.17706, -15.7776, 2.26883, 2.95221, 2.26883, 0, 0, 6.81448, 0, 145.42, 0, 0, 72.7293, 8.87526e-06, 0, 0, 0, 0, 0, 0, 0
0.00251153, -0.0255035, 0.743104, 0.0999879, -0.996108, 1.06168, -0.165561, 0.10004, 0.230002, 1, 0.230002, 1, 0.0299377, -0.0013689, 0.000137332, -0.00958528, 0.00958528, -5.65651e-18, -3.40286e-17, 0.0316387, 0.00144419, 0.000284099, 0.00140466, 0.000337745, -0.0494429, 28.3504, -2.55968, 1.1768, -15.7809, 4.53862, 5.90533, -0.31557, -15.1772, -0.116738, -1.22996, -16.0683, 4.75363, 4.46343, 0.979501, 4.63674e-310, 0, 0, 28.3504, -2.55968, 1.1768, -15.7809, 2.26931, 2.95266, 2.26931, 0, 0, 6.81013, 0, 145.398, 0, 0, 72.7208, 1.00537e-05, 0, 0, 0, 0, 0, 0, 0
0.00272083, -0.0255038, 0.743104, 0.0999858, -0.996106, 1.06168, -0.165561, 0.100047, 0.230002, 1, 0.230002, 1, 0.0299269, -0.00148167, 0.000148642, -0.0103749, 0.0103749, -6.7789e-18, -4.55929e-17, 0.0342532, 0.00155437, 0.000305846, 0.00151155, 0.000363948, -0.0535145, 28.3472, -2.5597, 1.17654, -15.7843, 4.53965, 5.90628, -0.315364, -15.4715, -0.134147, -1.27254, -16.2744, 5.12835, 4.65221, 0.994094, 4.63674e-310, 0, 0, 28.3472, -2.5597, 1.17654, -15.7843, 2.26983, 2.95314, 2.26983, 0, 0, 6.80571, 0, 145.375, 0, 0, 72.7121, 1.12212e-05, 0, 0, 0, 0, 0, 0, 0
0.00293012, -0.0255041, 0.743104, 0.0999836, -0.996103, 1.06168, -0.165561, 0.100054, 0.230003, 1, 0.230002, 1, 0.0299153, -0.00159424, 0.00015993, -0.0111631, 0.0111631, -8.17424e-18, -5.87396e-17, 0.0368643, 0.00166304, 0.000327291, 0.00161693, 0.000389847, -0.0575784, 28.3439, -2.55973, 1.17627, -15.7878, 4.54077, 5.90728, -0.315154, -15.7659, -0.151555, -1.31511, -16.4804, 5.50306, 4.84098, 1.00869, 4.63674e-310, 0, 0, 28.3439, -2.55973, 1.17627, -15.7878, 2.27038, 2.95364, 2.27038, 0, 0, 6.80125, 0, 145.353, 0, 0, 72.7033, 1.23779e-05, 0, 0, 0, 0, 0, 0, 0
0.00313942, -0.0255045, 0.743104, 0.0999812, -0.996101, 1.06168, -0.165561, 0.100062, 0.230003, 1, 0.230003, 1, 0.0299028, -0.0017066, 0.000171198, -0.0119498, 0.0119498, -9.87017e-18, -7.29164e-17, 0.039472, 0.00177021, 0.000348433, 0.00172081, 0.00041544, -0.0616347, 28.3406, -2.55977, 1.17599, -15.7912, 4.54196, 5.90831, -0.314942, -16.0603, -0.168964, -1.35768, -16.6864, 5.87778, 5.02976, 1.02328, 4.63675e-310, 0, 0, 28.3406, -2.55977, 1.17599, -15.7912, 2.27098, 2.95415, 2.27098, 0, 0, 6.79672, 0, 145.329, 0, 0, 72.6942, 1.35236e-05, 0, 0, 0, 0, 0, 0, 0
0.00334871, -0.0255049, 0.743105, 0.0999786, -0.996098, 1.06168, -0.165561, 0.100071, 0.230003, 1, 0.230003, 1, 0.0298895, -0.00181875, 0.000182444, -0.0127352, 0.0127352, -1.1845e-17, -8.67743e-17, 0.0420762, 0.00187589, 0.000369271, 0.00182321, 0.000440727, -0.0656833, 28.3372, -2.5598, 1.1757, -15.7947, 4.54323, 5.90938, -0.314726, -16.3547, -0.186372, -1.40026, -16.8924, 6.2525, 5.21854, 1.03787, 4.63675e-310, 0, 0, 28.3372, -2.5598, 1.1757, -15.7947, 2.27161, 2.95469, 2.27161, 0, 0, 6.79215, 0, 145.306, 0, 0, 72.6851, 1.46586e-05, 0, 0, 0, 0, 0, 0, 0
0.003558, -0.0255052, 0.743105, 0.0999758, -0.996095, 1.06168, -0.165561, 0.10008, 0.230004, 1, 0.230004, 1, 0.0298753, -0.00193071, 0.000193669, -0.0135191, 0.0135191, -1.41858e-17, -1.0006e-16, 0.044677, 0.00198009, 0.000389804, 0.00192412, 0.000465706, -0.0697241, 28.3337, -2.55985, 1.1754, -15.7983, 4.54457, 5.91049, -0.314507, -16.6491, -0.203781, -1.44283, -17.0984, 6.62721, 5.40731, 1.05246, 0, 0, 0, 28.3337, -2.55985, 1.1754, -15.7983, 2.27229, 2.95525, 2.27229, 0, 0, 6.78751, 0, 145.283, 0, 0, 72.6757, 1.57827e-05, 0, 0, 0, 0, 0, 0, 0
0.0037673, -0.0255057, 0.743105, 0.0999729, -0.996093, 1.06168, -0.165561, 0.100089, 0.230004, 1, 0.230004, 1, 0.0298603, -0.00204245, 0.000204873, -0.0143015, 0.0143015, -1.69286e-17, -1.12128e-16, 0.0472743, 0.00208282, 0.00041003, 0.00202357, 0.000490377, -0.0737571, 28.3302, -2.55989, 1.1751, -15.8019, 4.546, 5.91165, -0.314285, -16.9435, -0.221189, -1.4854, -17.3044, 7.00193, 5.59609, 1.06706, 0, 0, 0, 28.3302, -2.55989, 1.1751, -15.8019, 2.273, 2.95582, 2.273, 0, 0, 6.78283, 0, 145.259, 0, 0, 72.6662, 1.6896e-05, 0, 0, 0, 0, 0, 0, 0
0.00397659, -0.0255061, 0.743105, 0.0999698, -0.99609, 1.06168, -0.165561, 0.1001, 0.230005, 1, 0.230004, 1, 0.0298444, -0.00215399, 0.000216054, -0.0150826, 0.0150826, -1.88752e-17, -1.23474e-16, 0.0498682, 0.0021841, 0.000429949, 0.00212156, 0.000514737, -0.0777824, 28.3267, -2.55994, 1.17478, -15.8055, 4.5475, 5.91284, -0.314061, -17.2378, -0.238598, -1.52797, -17.5104, 7.37665, 5.78487, 1.08165, 0, 0, 0, 28.3267, -2.55994, 1.17478, -15.8055, 2.27375, 2.95642, 2.27375, 0, 0, 6.77808, 0, 145.235, 0, 0, 72.6565, 1.79986e-05, 0, 0, 0, 0, 0, 0, 0
0.00418589, -0.0255066, 0.743105, 0.0999666, -0.996086, 1.06168, -0.165561, 0.10011, 0.230005, 1, 0.230005, 1, 0.0298277, -0.00226533, 0.000227214, -0.0158622, 0.0158622, -2.03302e-17, -1.33203e-16, 0.0524587, 0.00228393, 0.000449558, 0.00221811, 0.000538785, -0.0817998, 28.323, -2.55999, 1.17446, -15.8092, 4.54909, 5.91407, -0.313833, -17.5322, -0.256006, -1.57055, -17.7164, 7.75136, 5.97364, 1.09624, 0, 0, 0, 28.323, -2.55999, 1.17446, -15.8092, 2.27454, 2.95703, 2.27454, 0, 0, 6.77328, 0, 145.21, 0, 0, 72.6467, 1.90903e-05, 0, 0, 0, 0, 0, 0, 0
0.00439518, -0.0255071, 0.743105, 0.0999632, -0.996083, 1.06168, -0.165561, 0.100122, 0.230005, 1, 0.230005, 1, 0.0298102, -0.00237646, 0.000238353, -0.0166403, 0.0166403, -2.10996e-17, -1.40882e-16, 0.0550457, 0.00238232, 0.000468858, 0.00231322, 0.000562521, -0.0858093, 28.3193, -2.56005, 1.17413, -15.813, 4.55075, 5.91534, -0.313602, -17.8266, -0.273414, -1.61312, -17.9225, 8.12608, 6.16242, 1.11084, 0, 0, 0, 28.3193, -2.56005, 1.17413, -15.813, 2.27537, 2.95767, 2.27537, 0, 0, 6.76843, 0, 145.186, 0, 0, 72.6367, 2.01713e-05, 0, 0, 0, 0, 0, 0, 0
0.00460448, -0.0255076, 0.743105, 0.0999596, -0.996079, 1.06168, -0.165561, 0.100133, 0.230006, 1, 0.230006, 1, 0.0297918, -0.00248738, 0.000249469, -0.017417, 0.017417, -2.09896e-17, -1.46077e-16, 0.0576292, 0.0024793, 0.000487847, 0.00240692, 0.000585943, -0.0898109, 28.3156, -2.5601, 1.17378, -15.8167, 4.55249, 5.91665, -0.313368, -18.121, -0.290823, -1.65569, -18.1285, 8.50079, 6.35119, 1.12543, 0, 0, 0, 28.3156, -2.5601, 1.17378, -15.8167, 2.27624, 2.95832, 2.27624, 0, 0, 6.76352, 0, 145.161, 0, 0, 72.6266, 2.12416e-05, 0, 0, 0, 0, 0, 0, 0
0.00481377, -0.0255081, 0.743105, 0.0999559, -0.996076, 1.06168, -0.165561, 0.100146, 0.230007, 1, 0.230006, 1, 0.0297726, -0.0025981, 0.000260563, -0.0181922, 0.0181922, -1.98061e-17, -1.48355e-16, 0.0602093, 0.00257486, 0.000506523, 0.0024992, 0.000609051, -0.0938045, 28.3117, -2.56017, 1.17343, -15.8206, 4.55431, 5.918, -0.313131, -18.4154, -0.308231, -1.69827, -18.3345, 8.87551, 6.53997, 1.14002, 0, 0, 0, 28.3117, -2.56017, 1.17343, -15.8206, 2.27715, 2.959, 2.27715, 0, 0, 6.75855, 0, 145.135, 0, 0, 72.6162, 2.23012e-05, 0, 0, 0, 0, 0, 0, 0
0.00502306, -0.0255086, 0.743105, 0.099952, -0.996072, 1.06168, -0.165561, 0.100159, 0.230007, 1, 0.230007, 1, 0.0297525, -0.00270861, 0.000271636, -0.018966, 0.018966, -1.80909e-17, -1.48685e-16, 0.0627859, 0.00266902, 0.000524886, 0.00259008, 0.000631841, -0.0977902, 28.3078, -2.56023, 1.17307, -15.8244, 4.5562, 5.91938, -0.31289, -18.7098, -0.32564, -1.74084, -18.5405, 9.25023, 6.72875, 1.15461, 0, 0, 0, 28.3078, -2.56023, 1.17307, -15.8244, 2.2781, 2.95969, 2.2781, 0, 0, 6.75353, 0, 145.11, 0, 0, 72.6058, 2.33501e-05, 0, 0, 0, 0, 0, 0, 0
0.00523236, -0.0255092, 0.743105, 0.099948, -0.996068, 1.06168, -0.165561, 0.100172, 0.230008, 1, 0.230007, 1, 0.0297317, -0.00281891, 0.000282686, -0.0197384, 0.0197384, -1.66779e-17, -1.48593e-16, 0.0653589, 0.00276179, 0.000542933, 0.00267958, 0.000654315, -0.101768, 28.3039, -2.5603, 1.1727, -15.8283, 4.55818, 5.92081, -0.312647, -19.0042, -0.343048, -1.78341, -18.7465, 9.62494, 6.91752, 1.16921, 0, 0, 0, 28.3039, -2.5603, 1.1727, -15.8283, 2.27909, 2.96041, 2.27909, 0, 0, 6.74846, 0, 145.084, 0, 0, 72.5951, 2.43883e-05, 0, 0, 0, 0, 0, 0, 0
0.00544165, -0.0255098, 0.743105, 0.0999438, -0.996063, 1.06168, -0.165561, 0.100186, 0.230008, 1, 0.230008, 1, 0.0297099, -0.002929, 0.000293714, -0.0205092, 0.0205092, -1.47799e-17, -1.46514e-16, 0.0679286, 0.00285318, 0.000560665, 0.00276769, 0.000676469, -0.105738, 28.2999, -2.56038, 1.17233, -15.8323, 4.56023, 5.92228, -0.312401, -19.2985, -0.360457, -1.82599, -18.9525, 9.99966, 7.1063, 1.1838, 0, 0, 0, 28.2999, -2.56038, 1.17233, -15.8323, 2.28012, 2.96114, 2.28012, 0, 0, 6.74332, 0, 145.058, 0, 0, 72.5843, 2.54158e-05, 0, 0, 0, 0, 0, 0, 0
0.00565095, -0.0255105, 0.743105, 0.0999394, -0.996059, 1.06168, -0.165561, 0.1002, 0.230009, 1, 0.230009, 1, 0.0296874, -0.00303888, 0.000304719, -0.0212786, 0.0212786, -1.23873e-17, -1.42366e-16, 0.0704947, 0.0029432, 0.000578079, 0.00285444, 0.000698303, -0.109699, 28.2958, -2.56045, 1.17194, -15.8362, 4.56237, 5.92379, -0.312152, -19.5929, -0.377865, -1.86856, -19.1585, 10.3744, 7.29508, 1.19839, 0, 0, 0, 28.2958, -2.56045, 1.17194, -15.8362, 2.28118, 2.96189, 2.28118, 0, 0, 6.73814, 0, 145.032, 0, 0, 72.5734, 2.64328e-05, 0, 0, 0, 0, 0, 0, 0
0.00586024, -0.0255111, 0.743105, 0.0999349, -0.996055, 1.06168, -0.165561, 0.100215, 0.230009, 1, 0.230009, 1, 0.029664, -0.00314856, 0.000315702, -0.0220466, 0.0220466, -9.49032e-18, -1.36067e-16, 0.0730573, 0.00303186, 0.000595175, 0.00293983, 0.000719816, -0.113653, 28.2917, -2.56054, 1.17154, -15.8403, 4.56458, 5.92533, -0.311899, -19.8873, -0.395274, -1.91113, -19.3645, 10.7491, 7.48385, 1.21298, 0, 0, 0, 28.2917, -2.56054, 1.17154, -15.8403, 2.28229, 2.96267, 2.28229, 0, 0, 6.73289, 0, 145.005, 0, 0, 72.5622, 2.7439e-05, 0, 0, 0, 0, 0, 0, 0
0.00606954, -0.0255118, 0.743105, 0.0999302, -0.99605, 1.06168, -0.165561, 0.100231, 0.23001, 1, 0.23001, 1, 0.0296398, -0.00325802, 0.000326662, -0.022813, 0.022813, -6.07951e-18, -1.27535e-16, 0.0756164, 0.00311918, 0.000611951, 0.00302388, 0.000741007, -0.117598, 28.2875, -2.56062, 1.17114, -15.8444, 4.56686, 5.92692, -0.311644, -20.1817, -0.412682, -1.95371, -19.5706, 11.1238, 7.67263, 1.22758, 4.63675e-310, 0, 0, 28.2875, -2.56062, 1.17114, -15.8444, 2.28343, 2.96346, 2.28343, 0, 0, 6.72759, 0, 144.978, 0, 0, 72.5509, 2.84347e-05, 0, 0, 0, 0, 0, 0, 0
0.00627883, -0.0255125, 0.743105, 0.0999253, -0.996045, 1.06168, -0.165561, 0.100247, 0.230011, 1, 0.23001, 1, 0.0296148, -0.00336727, 0.0003376, -0.023578, 0.023578, -3.27009e-18, -1.2105e-16, 0.078172, 0.00320517, 0.000628406, 0.00310659, 0.000761872, -0.121535, 28.2832, -2.56071, 1.17073, -15.8485, 4.56923, 5.92854, -0.311386, -20.4761, -0.430091, -1.99628, -19.7766, 11.4985, 7.86141, 1.24217, 4.63674e-310, 0, 0, 28.2832, -2.56071, 1.17073, -15.8485, 2.28462, 2.96427, 2.28462, 0, 0, 6.72224, 0, 144.951, 0, 0, 72.5395, 2.94198e-05, 0, 0, 0, 0, 0, 0, 0
0.00648813, -0.0255132, 0.743105, 0.0999203, -0.99604, 1.06168, -0.165561, 0.100264, 0.230011, 1, 0.230011, 1, 0.029589, -0.00347632, 0.000348515, -0.0243416, 0.0243416, -5.6459e-19, -1.14639e-16, 0.0807241, 0.00328982, 0.000644538, 0.00318799, 0.000782413, -0.125464, 28.2789, -2.5608, 1.1703, -15.8526, 4.57168, 5.93021, -0.311124, -20.7705, -0.447499, -2.03885, -19.9826, 11.8732, 8.05018, 1.25676, 4.63674e-310, 0, 0, 28.2789, -2.5608, 1.1703, -15.8526, 2.28584, 2.9651, 2.28584, 0, 0, 6.71683, 0, 144.924, 0, 0, 72.5279, 3.03944e-05, 0, 0, 0, 0, 0, 0, 0
0.00669742, -0.0255139, 0.743105, 0.0999151, -0.996035, 1.06168, -0.165561, 0.100281, 0.230012, 1, 0.230012, 1, 0.0295623, -0.00358515, 0.000359407, -0.0251036, 0.0251036, 1.99778e-18, -1.08408e-16, 0.0832726, 0.00337317, 0.000660347, 0.00326806, 0.000802627, -0.129384, 28.2745, -2.5609, 1.16987, -15.8568, 4.5742, 5.93191, -0.310859, -21.0649, -0.464907, -2.08142, -20.1886, 12.248, 8.23896, 1.27135, 4.63674e-310, 0, 0, 28.2745, -2.5609, 1.16987, -15.8568, 2.2871, 2.96596, 2.2871, 0, 0, 6.71136, 0, 144.896, 0, 0, 72.5161, 3.13584e-05, 0, 0, 0, 0, 0, 0, 0
0.00690671, -0.0255147, 0.743105, 0.0999098, -0.996029, 1.06168, -0.165561, 0.100299, 0.230013, 1, 0.230012, 1, 0.0295348, -0.00369377, 0.000370277, -0.0258642, 0.0258642, 4.3347e-18, -1.02632e-16, 0.0858176, 0.00345521, 0.00067583, 0.00334684, 0.000822512, -0.133297, 28.2701, -2.56099, 1.16943, -15.8611, 4.5768, 5.93366, -0.310592, -21.3592, -0.482316, -2.124, -20.3946, 12.6227, 8.42773, 1.28595, 4.63674e-310, 0, 0, 28.2701, -2.56099, 1.16943, -15.8611, 2.2884, 2.96683, 2.2884, 0, 0, 6.70584, 0, 144.868, 0, 0, 72.5042, 3.23118e-05, 0, 0, 0, 0, 0, 0, 0
0.00711601, -0.0255155, 0.743106, 0.0999043, -0.996024, 1.06168, -0.165561, 0.100317, 0.230014, 1, 0.230013, 1, 0.0295065, -0.00380218, 0.000381123, -0.0266232, 0.0266232, 6.36384e-18, -9.7586e-17, 0.0883591, 0.00353596, 0.000690988, 0.00342433, 0.000842069, -0.137201, 28.2656, -2.5611, 1.16898, -15.8654, 4.57949, 5.93544, -0.310321, -21.6536, -0.499724, -2.16657, -20.6006, 12.9974, 8.61651, 1.30054, 4.63675e-310, 0, 0, 28.2656, -2.5611, 1.16898, -15.8654, 2.28974, 2.96772, 2.28974, 0, 0, 6.70026, 0, 144.84, 0, 0, 72.492, 3.32547e-05, 0, 0, 0, 0, 0, 0, 0
0.0073253, -0.0255163, 0.743106, 0.0998986, -0.996018, 1.06168, -0.165561, 0.100336, 0.230014, 1, 0.230014, 1, 0.0294774, -0.00391038, 0.000391946, -0.0273808, 0.0273808, 8.00288e-18, -9.35436e-17, 0.090897, 0.00361543, 0.000705818, 0.00350054, 0.000861295, -0.141096, 28.261, -2.5612, 1.16853, -15.8697, 4.58225, 5.93727, -0.310047, -21.948, -0.517133, -2.20914, -20.8066, 13.3721, 8.80529, 1.31513, 4.63675e-310, 0, 0, 28.261, -2.5612, 1.16853, -15.8697, 2.29112, 2.96863, 2.29112, 0, 0, 6.69463, 0, 144.811, 0, 0, 72.4798, 3.41872e-05, 0, 0, 0, 0, 0, 0, 0
0.0075346, -0.0255171, 0.743106, 0.0998928, -0.996012, 1.06168, -0.165561, 0.100355, 0.230015, 1, 0.230015, 1, 0.0294474, -0.00401836, 0.000402746, -0.0281369, 0.0281369, 9.16948e-18, -9.07796e-17, 0.0934314, 0.00369363, 0.000720319, 0.00357548, 0.000880189, -0.144984, 28.2564, -2.56131, 1.16806, -15.8741, 4.58508, 5.93913, -0.309771, -22.2424, -0.534541, -2.25172, -21.0127, 13.7468, 8.99406, 1.32972, 4.63674e-310, 0, 0, 28.2564, -2.56131, 1.16806, -15.8741, 2.29254, 2.96956, 2.29254, 0, 0, 6.68894, 0, 144.782, 0, 0, 72.4673, 3.51091e-05, 0, 0, 0, 0, 0, 0, 0
0.00774389, -0.025518, 0.743106, 0.0998869, -0.996007, 1.06168, -0.165561, 0.100375, 0.230016, 1, 0.230015, 1, 0.0294167, -0.00412613, 0.000413522, -0.0288915, 0.0288915, 1.0505e-17, -8.67075e-17, 0.0959623, 0.00377057, 0.000734489, 0.00364916, 0.000898749, -0.148863, 28.2517, -2.56143, 1.16758, -15.8785, 4.588, 5.94103, -0.309491, -22.5368, -0.55195, -2.29429, -21.2187, 14.1215, 9.18284, 1.34432, 4.63674e-310, 0, 0, 28.2517, -2.56143, 1.16758, -15.8785, 2.294, 2.97052, 2.294, 0, 0, 6.68319, 0, 144.753, 0, 0, 72.4548, 3.60206e-05, 0, 0, 0, 0, 0, 0, 0
0.00795319, -0.0255188, 0.743106, 0.0998807, -0.996, 1.06168, -0.165561, 0.100395, 0.230017, 1, 0.230016, 1, 0.0293851, -0.00423369, 0.000424276, -0.0296446, 0.0296446, 1.20179e-17, -8.12435e-17, 0.0984895, 0.00384626, 0.000748328, 0.00372159, 0.000916975, -0.152733, 28.247, -2.56154, 1.1671, -15.883, 4.59099, 5.94297, -0.309208, -22.8312, -0.569358, -2.33686, -21.4247, 14.4963, 9.37162, 1.35891, 4.63674e-310, 0, 0, 28.247, -2.56154, 1.1671, -15.883, 2.2955, 2.97149, 2.2955, 0, 0, 6.67739, 0, 144.724, 0, 0, 72.442, 3.69216e-05, 0, 0, 0, 0, 0, 0, 0
0.00816248, -0.0255197, 0.743106, 0.0998744, -0.995994, 1.06168, -0.165561, 0.100416, 0.230017, 1, 0.230017, 1, 0.0293528, -0.00434103, 0.000435005, -0.0303962, 0.0303962, 1.35078e-17, -7.51285e-17, 0.101013, 0.00392072, 0.000761833, 0.00379279, 0.000934863, -0.156595, 28.2422, -2.56167, 1.1666, -15.8875, 4.59407, 5.94495, -0.308922, -23.1256, -0.586767, -2.37944, -21.6307, 14.871, 9.56039, 1.3735, 4.63675e-310, 0, 0, 28.2422, -2.56167, 1.1666, -15.8875, 2.29703, 2.97248, 2.29703, 0, 0, 6.67153, 0, 144.694, 0, 0, 72.4291, 3.78122e-05, 0, 0, 0, 0, 0, 0, 0
0.00837177, -0.0255206, 0.743106, 0.099868, -0.995988, 1.06168, -0.165561, 0.100437, 0.230018, 1, 0.230018, 1, 0.0293196, -0.00444816, 0.000445712, -0.0311463, 0.0311463, 1.50388e-17, -6.80576e-17, 0.103533, 0.00399395, 0.000775005, 0.00386277, 0.000952415, -0.160448, 28.2373, -2.56179, 1.1661, -15.892, 4.59722, 5.94697, -0.308633, -23.4199, -0.604175, -2.42201, -21.8367, 15.2457, 9.74917, 1.3881, 4.63675e-310, 0, 0, 28.2373, -2.56179, 1.1661, -15.892, 2.29861, 2.97349, 2.29861, 0, 0, 6.66562, 0, 144.664, 0, 0, 72.416, 3.86924e-05, 0, 0, 0, 0, 0, 0, 0
0.00858107, -0.0255216, 0.743106, 0.0998614, -0.995981, 1.06168, -0.165561, 0.100459, 0.230019, 1, 0.230019, 1, 0.0292856, -0.00455507, 0.000456394, -0.0318949, 0.0318949, 1.66877e-17, -5.96768e-17, 0.10605, 0.00406596, 0.00078784, 0.00393152, 0.000969627, -0.164293, 28.2324, -2.56192, 1.16559, -15.8966, 4.60045, 5.94903, -0.308341, -23.7143, -0.621584, -2.46458, -22.0427, 15.6204, 9.93794, 1.40269, 4.63674e-310, 0, 0, 28.2324, -2.56192, 1.16559, -15.8966, 2.30022, 2.97452, 2.30022, 0, 0, 6.65965, 0, 144.634, 0, 0, 72.4028, 3.95622e-05, 0, 0, 0, 0, 0, 0, 0
0.00879036, -0.0255226, 0.743106, 0.0998547, -0.995974, 1.06168, -0.165561, 0.100482, 0.23002, 1, 0.230019, 1, 0.0292508, -0.00466177, 0.000467053, -0.032642, 0.032642, 1.85437e-17, -4.95826e-17, 0.108563, 0.00413676, 0.000800338, 0.00399908, 0.000986499, -0.168129, 28.2274, -2.56205, 1.16507, -15.9012, 4.60376, 5.95113, -0.308046, -24.0087, -0.638992, -2.50716, -22.2487, 15.9951, 10.1267, 1.41728, 4.63675e-310, 0, 0, 28.2274, -2.56205, 1.16507, -15.9012, 2.30188, 2.97557, 2.30188, 0, 0, 6.65362, 0, 144.603, 0, 0, 72.3893, 4.04216e-05, 0, 0, 0, 0, 0, 0, 0
0.00899966, -0.0255235, 0.743106, 0.0998477, -0.995967, 1.06168, -0.165561, 0.100505, 0.230021, 1, 0.23002, 1, 0.0292152, -0.00476825, 0.000477688, -0.0333876, 0.0333876, 2.07082e-17, -3.73224e-17, 0.111072, 0.00420638, 0.000812498, 0.00406544, 0.00100303, -0.171957, 28.2223, -2.56219, 1.16454, -15.9059, 4.60714, 5.95327, -0.307748, -24.3031, -0.656401, -2.54973, -22.4547, 16.3698, 10.3155, 1.43187, 4.63675e-310, 0, 0, 28.2223, -2.56219, 1.16454, -15.9059, 2.30357, 2.97664, 2.30357, 0, 0, 6.64754, 0, 144.572, 0, 0, 72.3758, 4.12706e-05, 0, 0, 0, 0, 0, 0, 0
0.00920895, -0.0255245, 0.743106, 0.0998407, -0.99596, 1.06168, -0.165561, 0.100528, 0.230022, 1, 0.230021, 1.00001, 0.0291788, -0.00487451, 0.000488299, -0.0341316, 0.0341316, 2.32955e-17, -2.23944e-17, 0.113578, 0.00427481, 0.000824318, 0.00413063, 0.00101921, -0.175776, 28.2172, -2.56233, 1.164, -15.9106, 4.61061, 5.95545, -0.307447, -24.5975, -0.673809, -2.5923, -22.6608, 16.7446, 10.5043, 1.44647, 4.63674e-310, 0, 0, 28.2172, -2.56233, 1.164, -15.9106, 2.3053, 2.97773, 2.3053, 0, 0, 6.6414, 0, 144.541, 0, 0, 72.362, 4.21093e-05, 0, 0, 0, 0, 0, 0, 0
0.00941825, -0.0255256, 0.743107, 0.0998335, -0.995953, 1.06168, -0.165561, 0.100552, 0.230023, 1, 0.230022, 1.00001, 0.0291416, -0.00498056, 0.000498886, -0.0348741, 0.0348741, 2.64321e-17, -4.24754e-18, 0.11608, 0.00434206, 0.000835796, 0.00419464, 0.00103506, -0.179586, 28.212, -2.56247, 1.16346, -15.9154, 4.61415, 5.95767, -0.307142, -24.8919, -0.691217, -2.63487, -22.8668, 17.1193, 10.693, 1.46106, 4.63675e-310, 0, 0, 28.212, -2.56247, 1.16346, -15.9154, 2.30708, 2.97883, 2.30708, 0, 0, 6.63521, 0, 144.51, 0, 0, 72.3481, 4.29377e-05, 0, 0, 0, 0, 0, 0, 0
0.00962754, -0.0255266, 0.743107, 0.0998261, -0.995946, 1.06168, -0.165561, 0.100577, 0.230024, 1, 0.230023, 1.00001, 0.0291037, -0.00508639, 0.000509448, -0.0356151, 0.0356151, 2.99192e-17, 1.63036e-17, 0.118579, 0.00440815, 0.000846931, 0.00425749, 0.00105055, -0.183388, 28.2068, -2.56261, 1.1629, -15.9202, 4.61778, 5.95993, -0.306835, -25.1862, -0.708626, -2.67745, -23.0728, 17.494, 10.8818, 1.47565, 4.63675e-310, 0, 0, 28.2068, -2.56261, 1.1629, -15.9202, 2.30889, 2.97996, 2.30889, 0, 0, 6.62896, 0, 144.478, 0, 0, 72.3341, 4.37557e-05, 0, 0, 0, 0, 0, 0, 0
0.00983684, -0.0255277, 0.743107, 0.0998186, -0.995938, 1.06168, -0.165561, 0.100602, 0.230025, 1, 0.230024, 1.00001, 0.0290649, -0.00519201, 0.000519987, -0.0363546, 0.0363546, 3.17006e-17, 3.06524e-17, 0.121074, 0.0044731, 0.000857723, 0.00431919, 0.0010657, -0.18718, 28.2015, -2.56276, 1.16234, -15.9251, 4.62148, 5.96222, -0.306525, -25.4806, -0.726034, -2.72002, -23.2788, 17.8687, 11.0706, 1.49024, 4.63675e-310, 0, 0, 28.2015, -2.56276, 1.16234, -15.9251, 2.31074, 2.98111, 2.31074, 0, 0, 6.62265, 0, 144.447, 0, 0, 72.3199, 4.45634e-05, 0, 0, 0, 0, 0, 0, 0
0.0100461, -0.0255288, 0.743107, 0.0998109, -0.995931, 1.06168, -0.165561, 0.100627, 0.230025, 1, 0.230025, 1.00001, 0.0290253, -0.0052974, 0.000530501, -0.0370926, 0.0370926, 3.33313e-17, 4.53299e-17, 0.123565, 0.0045369, 0.000868169, 0.00437975, 0.0010805, -0.190964, 28.1961, -2.56292, 1.16176, -15.93, 4.62526, 5.96456, -0.306211, -25.775, -0.743443, -2.76259, -23.4848, 18.2434, 11.2594, 1.50484, 4.63674e-310, 0, 0, 28.1961, -2.56292, 1.16176, -15.93, 2.31263, 2.98228, 2.31263, 0, 0, 6.61629, 0, 144.414, 0, 0, 72.3055, 4.53609e-05, 0, 0, 0, 0, 0, 0, 0
0.0102554, -0.0255299, 0.743107, 0.099803, -0.995923, 1.06168, -0.165561, 0.100654, 0.230026, 1.00001, 0.230026, 1.00001, 0.028985, -0.00540257, 0.000540991, -0.037829, 0.037829, 3.47805e-17, 6.02162e-17, 0.126053, 0.00459957, 0.000878268, 0.00443918, 0.00109495, -0.194739, 28.1907, -2.56308, 1.16118, -15.9349, 4.62911, 5.96694, -0.305895, -26.0694, -0.760851, -2.80517, -23.6908, 18.6181, 11.4482, 1.51943, 4.63674e-310, 0, 0, 28.1907, -2.56308, 1.16118, -15.9349, 2.31456, 2.98347, 2.31456, 0, 0, 6.60987, 0, 144.382, 0, 0, 72.2909, 4.6148e-05, 0, 0, 0, 0, 0, 0, 0
0.0104647, -0.0255311, 0.743107, 0.099795, -0.995915, 1.06168, -0.165561, 0.10068, 0.230027, 1.00001, 0.230027, 1.00001, 0.0289438, -0.00550753, 0.000551456, -0.0385638, 0.0385638, 3.6015e-17, 7.51774e-17, 0.128537, 0.00466112, 0.000888018, 0.0044975, 0.00110904, -0.198506, 28.1852, -2.56324, 1.16059, -15.9399, 4.63305, 5.96935, -0.305575, -26.3638, -0.77826, -2.84774, -23.8968, 18.9929, 11.6369, 1.53402, 4.63675e-310, 0, 0, 28.1852, -2.56324, 1.16059, -15.9399, 2.31652, 2.98468, 2.31652, 0, 0, 6.60339, 0, 144.349, 0, 0, 72.2762, 4.69249e-05, 0, 0, 0, 0, 0, 0, 0
0.010674, -0.0255322, 0.743107, 0.0997869, -0.995907, 1.06168, -0.165561, 0.100707, 0.230028, 1.00001, 0.230027, 1.00001, 0.0289019, -0.00561227, 0.000561897, -0.0392972, 0.0392972, 3.69989e-17, 9.00662e-17, 0.131017, 0.00472156, 0.000897419, 0.00455471, 0.00112278, -0.202263, 28.1797, -2.5634, 1.15999, -15.9449, 4.63706, 5.97181, -0.305253, -26.6582, -0.795668, -2.89031, -24.1028, 19.3676, 11.8257, 1.54861, 4.63675e-310, 0, 0, 28.1797, -2.5634, 1.15999, -15.9449, 2.31853, 2.9859, 2.31853, 0, 0, 6.59686, 0, 144.316, 0, 0, 72.2613, 4.76916e-05, 0, 0, 0, 0, 0, 0, 0
0.0108833, -0.0255334, 0.743107, 0.0997786, -0.995898, 1.06168, -0.165561, 0.100735, 0.230029, 1.00001, 0.230028, 1.00001, 0.0288591, -0.00571678, 0.000572313, -0.040029, 0.040029, 3.76939e-17, 1.04722e-16, 0.133494, 0.00478091, 0.000906468, 0.00461082, 0.00113617, -0.206011, 28.174, -2.56357, 1.15938, -15.95, 4.64116, 5.9743, -0.304927, -26.9526, -0.813077, -2.93289, -24.3089, 19.7423, 12.0145, 1.56321, 4.63675e-310, 0, 0, 28.174, -2.56357, 1.15938, -15.95, 2.32058, 2.98715, 2.32058, 0, 0, 6.59027, 0, 144.283, 0, 0, 72.2463, 4.84481e-05, 0, 0, 0, 0, 0, 0, 0
0.0110926, -0.0255346, 0.743107, 0.0997701, -0.99589, 1.06168, -0.165561, 0.100763, 0.23003, 1.00001, 0.230029, 1.00001, 0.0288156, -0.00582108, 0.000582705, -0.0407592, 0.0407592, 3.80592e-17, 1.18969e-16, 0.135967, 0.00483917, 0.000915165, 0.00466585, 0.0011492, -0.209751, 28.1684, -2.56374, 1.15876, -15.9551, 4.64533, 5.97684, -0.304598, -27.2469, -0.830485, -2.97546, -24.5149, 20.117, 12.2033, 1.5778, 4.63675e-310, 0, 0, 28.1684, -2.56374, 1.15876, -15.9551, 2.32266, 2.98842, 2.32266, 0, 0, 6.58363, 0, 144.249, 0, 0, 72.2311, 4.91943e-05, 0, 0, 0, 0, 0, 0, 0
0.0113019, -0.0255359, 0.743108, 0.0997615, -0.995881, 1.06168, -0.165561, 0.100792, 0.230031, 1.00001, 0.23003, 1.00001, 0.0287713, -0.00592515, 0.000593071, -0.0414879, 0.0414879, 3.80511e-17, 1.3262e-16, 0.138436, 0.00489635, 0.000923507, 0.00471981, 0.00116188, -0.213481, 28.1626, -2.56392, 1.15813, -15.9602, 4.64958, 5.97941, -0.304266, -27.5413, -0.847894, -3.01803, -24.7209, 20.4917, 12.392, 1.59239, 4.63675e-310, 0, 0, 28.1626, -2.56392, 1.15813, -15.9602, 2.32479, 2.98971, 2.32479, 0, 0, 6.57693, 0, 144.215, 0, 0, 72.2157, 4.99303e-05, 0, 0, 0, 0, 0, 0, 0
0.0115112, -0.0255371, 0.743108, 0.0997528, -0.995872, 1.06168, -0.165561, 0.100821, 0.230032, 1.00001, 0.230031, 1.00001, 0.0287263, -0.006029, 0.000603413, -0.042215, 0.042215, 3.76238e-17, 1.45473e-16, 0.140902, 0.00495247, 0.000931494, 0.0047727, 0.00117419, -0.217202, 28.1568, -2.5641, 1.1575, -15.9654, 4.6539, 5.98203, -0.303932, -27.8357, -0.865302, -3.06061, -24.9269, 20.8664, 12.5808, 1.60699, 4.63674e-310, 0, 0, 28.1568, -2.5641, 1.1575, -15.9654, 2.32695, 2.99101, 2.32695, 0, 0, 6.57017, 0, 144.181, 0, 0, 72.2002, 5.06562e-05, 0, 0, 0, 0, 0, 0, 0
0.0117205, -0.0255384, 0.743108, 0.0997439, -0.995864, 1.06168, -0.165561, 0.100851, 0.230033, 1.00001, 0.230032, 1.00001, 0.0286804, -0.00613263, 0.00061373, -0.0429406, 0.0429406, 3.67286e-17, 1.57312e-16, 0.143364, 0.00500753, 0.000939123, 0.00482454, 0.00118614, -0.220915, 28.151, -2.56428, 1.15685, -15.9707, 4.65831, 5.98468, -0.303594, -28.1301, -0.88271, -3.10318, -25.1329, 21.2411, 12.7696, 1.62158, 4.63675e-310, 0, 0, 28.151, -2.56428, 1.15685, -15.9707, 2.32916, 2.99234, 2.32916, 0, 0, 6.56335, 0, 144.147, 0, 0, 72.1845, 5.13719e-05, 0, 0, 0, 0, 0, 0, 0
0.0119298, -0.0255397, 0.743108, 0.0997348, -0.995854, 1.06168, -0.165561, 0.100881, 0.230035, 1.00001, 0.230033, 1.00001, 0.0286338, -0.00623604, 0.000624021, -0.0436646, 0.0436646, 3.53145e-17, 1.67908e-16, 0.145823, 0.00506154, 0.000946394, 0.00487533, 0.00119773, -0.224618, 28.1451, -2.56447, 1.1562, -15.9759, 4.6628, 5.98737, -0.303253, -28.4245, -0.900119, -3.14575, -25.3389, 21.6159, 12.9584, 1.63617, 4.63675e-310, 0, 0, 28.1451, -2.56447, 1.1562, -15.9759, 2.3314, 2.99369, 2.3314, 0, 0, 6.55648, 0, 144.112, 0, 0, 72.1686, 5.20774e-05, 0, 0, 0, 0, 0, 0, 0
0.0121391, -0.025541, 0.743108, 0.0997256, -0.995845, 1.06168, -0.165561, 0.100912, 0.230036, 1.00001, 0.230034, 1.00001, 0.0285864, -0.00633922, 0.000634288, -0.0443871, 0.0443871, 3.33278e-17, 1.77017e-16, 0.148277, 0.00511452, 0.000953304, 0.00492509, 0.00120896, -0.228312, 28.1391, -2.56466, 1.15553, -15.9813, 4.66736, 5.9901, -0.302909, -28.7189, -0.917527, -3.18832, -25.5449, 21.9906, 13.1471, 1.65076, 4.63674e-310, 0, 0, 28.1391, -2.56466, 1.15553, -15.9813, 2.33368, 2.99505, 2.33368, 0, 0, 6.54956, 0, 144.077, 0, 0, 72.1526, 5.27728e-05, 0, 0, 0, 0, 0, 0, 0
0.0123484, -0.0255423, 0.743108, 0.0997162, -0.995836, 1.06168, -0.165561, 0.100943, 0.230037, 1.00001, 0.230035, 1.00001, 0.0285382, -0.00644219, 0.000644529, -0.045108, 0.045108, 3.27153e-17, 1.87915e-16, 0.150728, 0.00516648, 0.000959853, 0.00497384, 0.00121982, -0.231996, 28.1331, -2.56485, 1.15486, -15.9866, 4.672, 5.99287, -0.302562, -29.0133, -0.934936, -3.2309, -25.751, 22.3653, 13.3359, 1.66536, 4.63674e-310, 0, 0, 28.1331, -2.56485, 1.15486, -15.9866, 2.336, 2.99644, 2.336, 0, 0, 6.54257, 0, 144.042, 0, 0, 72.1364, 5.34581e-05, 0, 0, 0, 0, 0, 0, 0
0.0125577, -0.0255437, 0.743108, 0.0997067, -0.995826, 1.06168, -0.165561, 0.100975, 0.230038, 1.00001, 0.230037, 1.00001, 0.0284893, -0.00654492, 0.000654744, -0.0458273, 0.0458273, 3.24653e-17, 1.98653e-16, 0.153176, 0.00521742, 0.000966038, 0.00502156, 0.00123031, -0.235672, 28.1269, -2.56505, 1.15418, -15.992, 4.67672, 5.99568, -0.302212, -29.3076, -0.952344, -3.27347, -25.957, 22.74, 13.5247, 1.67995, 4.63675e-310, 0, 0, 28.1269, -2.56505, 1.15418, -15.992, 2.33836, 2.99784, 2.33836, 0, 0, 6.53553, 0, 144.006, 0, 0, 72.1201, 5.41332e-05, 0, 0, 0, 0, 0, 0, 0
0.012767, -0.0255451, 0.743109, 0.099697, -0.995817, 1.06168, -0.165561, 0.101007, 0.230039, 1.00001, 0.230038, 1.00001, 0.0284396, -0.00664743, 0.000664935, -0.046545, 0.046545, 3.2327e-17, 2.0861e-16, 0.155619, 0.00526737, 0.000971858, 0.00506829, 0.00124043, -0.239338, 28.1208, -2.56525, 1.15349, -15.9975, 4.68152, 5.99854, -0.301859, -29.602, -0.969753, -3.31604, -26.163, 23.1147, 13.7135, 1.69454, 4.63675e-310, 0, 0, 28.1208, -2.56525, 1.15349, -15.9975, 2.34076, 2.99927, 2.34076, 0, 0, 6.52843, 0, 143.97, 0, 0, 72.1036, 5.47983e-05, 0, 0, 0, 0, 0, 0, 0
0.0129763, -0.0255465, 0.743109, 0.0996872, -0.995807, 1.06168, -0.165561, 0.10104, 0.23004, 1.00001, 0.230039, 1.00001, 0.0283891, -0.00674972, 0.000675099, -0.0472612, 0.0472612, 3.23514e-17, 2.17693e-16, 0.158059, 0.00531631, 0.000977312, 0.00511403, 0.00125019, -0.242995, 28.1146, -2.56545, 1.15279, -16.003, 4.6864, 6.00143, -0.301502, -29.8964, -0.987161, -3.35862, -26.369, 23.4894, 13.9022, 1.70913, 4.63675e-310, 0, 0, 28.1146, -2.56545, 1.15279, -16.003, 2.3432, 3.00071, 2.3432, 0, 0, 6.52128, 0, 143.934, 0, 0, 72.0869, 5.54533e-05, 0, 0, 0, 0, 0, 0, 0
0.0131855, -0.0255479, 0.743109, 0.0996772, -0.995797, 1.06168, -0.165561, 0.101074, 0.230041, 1.00001, 0.23004, 1.00001, 0.0283379, -0.00685178, 0.000685238, -0.0479758, 0.0479758, 3.25931e-17, 2.25803e-16, 0.160495, 0.00536428, 0.000982397, 0.00515879, 0.00125957, -0.246642, 28.1083, -2.56566, 1.15209, -16.0085, 4.69135, 6.00435, -0.301143, -30.1908, -1.00457, -3.40119, -26.575, 23.8642, 14.091, 1.72373, 4.63675e-310, 0, 0, 28.1083, -2.56566, 1.15209, -16.0085, 2.34568, 3.00218, 2.34568, 0, 0, 6.51407, 0, 143.898, 0, 0, 72.07, 5.60982e-05, 0, 0, 0, 0, 0, 0, 0
0.0133948, -0.0255493, 0.743109, 0.0996671, -0.995787, 1.06168, -0.165561, 0.101107, 0.230042, 1.00001, 0.230041, 1.00001, 0.0282859, -0.00695362, 0.000695352, -0.0486888, 0.0486888, 3.31105e-17, 2.3284e-16, 0.162928, 0.00541128, 0.000987114, 0.00520258, 0.00126858, -0.250281, 28.1019, -2.56587, 1.15137, -16.0141, 4.69639, 6.00732, -0.300781, -30.4852, -1.02198, -3.44376, -26.781, 24.2389, 14.2798, 1.73832, 4.63674e-310, 0, 0, 28.1019, -2.56587, 1.15137, -16.0141, 2.34819, 3.00366, 2.34819, 0, 0, 6.5068, 0, 143.861, 0, 0, 72.053, 5.67331e-05, 0, 0, 0, 0, 0, 0, 0
0.0136041, -0.0255508, 0.743109, 0.0996569, -0.995777, 1.06168, -0.165561, 0.101142, 0.230043, 1.00001, 0.230042, 1.00001, 0.0282331, -0.00705523, 0.000705439, -0.0494002, 0.0494002, 3.39658e-17, 2.38701e-16, 0.165356, 0.00545731, 0.000991459, 0.00524542, 0.00127721, -0.253909, 28.0955, -2.56609, 1.15064, -16.0197, 4.7015, 6.01033, -0.300416, -30.7796, -1.03939, -3.48634, -26.987, 24.6136, 14.4686, 1.75291, 4.63675e-310, 0, 0, 28.0955, -2.56609, 1.15064, -16.0197, 2.35075, 3.00517, 2.35075, 0, 0, 6.49947, 0, 143.824, 0, 0, 72.0359, 5.7358e-05, 0, 0, 0, 0, 0, 0, 0
0.0138134, -0.0255523, 0.743109, 0.0996465, -0.995766, 1.06168, -0.165561, 0.101177, 0.230044, 1.00001, 0.230043, 1.00001, 0.0281796, -0.00715661, 0.000715501, -0.05011, 0.05011, 3.52251e-17, 2.4328e-16, 0.167781, 0.0055024, 0.000995431, 0.0052873, 0.00128546, -0.257529, 28.089, -2.56631, 1.14991, -16.0254, 4.70669, 6.01338, -0.300047, -31.074, -1.0568, -3.52891, -27.193, 24.9883, 14.6574, 1.7675, 4.63674e-310, 0, 0, 28.089, -2.56631, 1.14991, -16.0254, 2.35334, 3.00669, 2.35334, 0, 0, 6.49209, 0, 143.787, 0, 0, 72.0185, 5.79728e-05, 0, 0, 0, 0, 0, 0, 0
0.0140227, -0.0255538, 0.743109, 0.0996359, -0.995756, 1.06168, -0.165561, 0.101212, 0.230046, 1.00001, 0.230044, 1.00001, 0.0281253, -0.00725776, 0.000725537, -0.0508182, 0.0508182, 3.69579e-17, 2.46471e-16, 0.170202, 0.00554654, 0.000999029, 0.00532825, 0.00129334, -0.261138, 28.0825, -2.56653, 1.14917, -16.0311, 4.71196, 6.01647, -0.299676, -31.3683, -1.0742, -3.57148, -27.3991, 25.363, 14.8461, 1.7821, 4.63675e-310, 0, 0, 28.0825, -2.56653, 1.14917, -16.0311, 2.35598, 3.00823, 2.35598, 0, 0, 6.48465, 0, 143.749, 0, 0, 72.001, 5.85776e-05, 0, 0, 0, 0, 0, 0, 0
0.014232, -0.0255553, 0.74311, 0.0996252, -0.995745, 1.06168, -0.165561, 0.101248, 0.230047, 1.00001, 0.230045, 1.00001, 0.0280703, -0.00735869, 0.000735546, -0.0515248, 0.0515248, 3.92379e-17, 2.48162e-16, 0.17262, 0.00558976, 0.00100225, 0.00536827, 0.00130084, -0.264739, 28.0759, -2.56676, 1.14842, -16.0369, 4.71731, 6.01959, -0.299301, -31.6627, -1.09161, -3.61405, -27.6051, 25.7377, 15.0349, 1.79669, 4.63674e-310, 0, 0, 28.0759, -2.56676, 1.14842, -16.0369, 2.35865, 3.0098, 2.35865, 0, 0, 6.47716, 0, 143.711, 0, 0, 71.9834, 5.91724e-05, 0, 0, 0, 0, 0, 0, 0
0.0144413, -0.0255569, 0.74311, 0.0996143, -0.995734, 1.06168, -0.165561, 0.101284, 0.230048, 1.00001, 0.230046, 1.00001, 0.0280145, -0.00745938, 0.00074553, -0.0522298, 0.0522298, 4.21423e-17, 2.4824e-16, 0.175033, 0.00563205, 0.0010051, 0.00540737, 0.00130795, -0.26833, 28.0692, -2.56699, 1.14765, -16.0427, 4.72273, 6.02276, -0.298924, -31.9571, -1.10902, -3.65663, -27.8111, 26.1125, 15.2237, 1.81128, 4.63674e-310, 0, 0, 28.0692, -2.56699, 1.14765, -16.0427, 2.36137, 3.01138, 2.36137, 0, 0, 6.4696, 0, 143.673, 0, 0, 71.9656, 5.97572e-05, 0, 0, 0, 0, 0, 0, 0
0.0146506, -0.0255584, 0.74311, 0.0996033, -0.995723, 1.06168, -0.165561, 0.101321, 0.230049, 1.00001, 0.230047, 1.00001, 0.027958, -0.00755985, 0.000755487, -0.0529332, 0.0529332, 4.30174e-17, 2.50508e-16, 0.177443, 0.00567344, 0.00100756, 0.00544557, 0.00131468, -0.271911, 28.0625, -2.56722, 1.14689, -16.0485, 4.72824, 6.02597, -0.298543, -32.2515, -1.12643, -3.6992, -28.0171, 26.4872, 15.4125, 1.82587, 4.63674e-310, 0, 0, 28.0625, -2.56722, 1.14689, -16.0485, 2.36412, 3.01298, 2.36412, 0, 0, 6.46199, 0, 143.635, 0, 0, 71.9476, 6.03321e-05, 0, 0, 0, 0, 0, 0, 0
0.0148599, -0.02556, 0.74311, 0.0995922, -0.995712, 1.06168, -0.165561, 0.101358, 0.23005, 1.00001, 0.230049, 1.00001, 0.0279007, -0.00766009, 0.000765418, -0.053635, 0.053635, 4.32026e-17, 2.53051e-16, 0.179849, 0.00571393, 0.00100965, 0.00548287, 0.00132103, -0.275482, 28.0557, -2.56746, 1.14611, -16.0544, 4.73382, 6.02921, -0.298159, -32.5459, -1.14384, -3.74177, -28.2231, 26.8619, 15.6012, 1.84047, 4.63675e-310, 0, 0, 28.0557, -2.56746, 1.14611, -16.0544, 2.36691, 3.01461, 2.36691, 0, 0, 6.45433, 0, 143.596, 0, 0, 71.9294, 6.0897e-05, 0, 0, 0, 0, 0, 0, 0
0.0150692, -0.0255617, 0.74311, 0.0995809, -0.995701, 1.06168, -0.165561, 0.101396, 0.230052, 1.00001, 0.23005, 1.00001, 0.0278426, -0.0077601, 0.000775323, -0.0543352, 0.0543352, 4.30721e-17, 2.55338e-16, 0.182252, 0.00575353, 0.00101135, 0.00551929, 0.00132699, -0.279044, 28.0489, -2.5677, 1.14532, -16.0603, 4.73948, 6.0325, -0.297773, -32.8403, -1.16125, -3.78435, -28.4291, 27.2366, 15.79, 1.85506, 4.63674e-310, 0, 0, 28.0489, -2.5677, 1.14532, -16.0603, 2.36974, 3.01625, 2.36974, 0, 0, 6.4466, 0, 143.557, 0, 0, 71.9111, 6.1452e-05, 0, 0, 0, 0, 0, 0, 0
0.0152785, -0.0255633, 0.74311, 0.0995694, -0.995689, 1.06168, -0.165561, 0.101435, 0.230053, 1.00001, 0.230051, 1.00001, 0.0277839, -0.00785988, 0.000785201, -0.0550338, 0.0550338, 4.25637e-17, 2.57468e-16, 0.18465, 0.00579225, 0.00101267, 0.00555483, 0.00133256, -0.282596, 28.042, -2.56795, 1.14452, -16.0663, 4.74522, 6.03582, -0.297383, -33.1346, -1.17865, -3.82692, -28.6351, 27.6113, 15.9788, 1.86965, 4.63675e-310, 0, 0, 28.042, -2.56795, 1.14452, -16.0663, 2.37261, 3.01791, 2.37261, 0, 0, 6.43882, 0, 143.518, 0, 0, 71.8926, 6.1997e-05, 0, 0, 0, 0, 0, 0, 0
0.0154878, -0.0255649, 0.743111, 0.0995578, -0.995678, 1.06168, -0.165561, 0.101474, 0.230054, 1.00001, 0.230052, 1.00001, 0.0277244, -0.00795942, 0.000795052, -0.0557307, 0.0557307, 4.16113e-17, 2.59548e-16, 0.187045, 0.00583011, 0.0010136, 0.0055895, 0.00133774, -0.286138, 28.035, -2.5682, 1.14372, -16.0723, 4.75104, 6.03919, -0.29699, -33.429, -1.19606, -3.86949, -28.8412, 27.986, 16.1676, 1.88425, 4.63674e-310, 0, 0, 28.035, -2.5682, 1.14372, -16.0723, 2.37552, 3.01959, 2.37552, 0, 0, 6.43098, 0, 143.479, 0, 0, 71.874, 6.25321e-05, 0, 0, 0, 0, 0, 0, 0
0.0156971, -0.0255666, 0.743111, 0.0995461, -0.995666, 1.06168, -0.165561, 0.101513, 0.230055, 1.00001, 0.230053, 1.00001, 0.0276641, -0.00805874, 0.000804877, -0.0564261, 0.0564261, 4.0144e-17, 2.61695e-16, 0.189436, 0.0058671, 0.00101415, 0.00562332, 0.00134253, -0.289671, 28.028, -2.56845, 1.1429, -16.0784, 4.75693, 6.04259, -0.296594, -33.7234, -1.21347, -3.91207, -29.0472, 28.3608, 16.3563, 1.89884, 4.63674e-310, 0, 0, 28.028, -2.56845, 1.1429, -16.0784, 2.37847, 3.02129, 2.37847, 0, 0, 6.42309, 0, 143.439, 0, 0, 71.8552, 6.30573e-05, 0, 0, 0, 0, 0, 0, 0
0.0159064, -0.0255683, 0.743111, 0.0995342, -0.995654, 1.06168, -0.165561, 0.101553, 0.230056, 1.00001, 0.230054, 1.00001, 0.0276031, -0.00815782, 0.000814675, -0.0571198, 0.0571198, 3.8087e-17, 2.64033e-16, 0.191823, 0.00590325, 0.00101431, 0.0056563, 0.00134693, -0.293194, 28.0209, -2.5687, 1.14208, -16.0845, 4.76291, 6.04603, -0.296195, -34.0178, -1.23088, -3.95464, -29.2532, 28.7355, 16.5451, 1.91343, 4.63674e-310, 0, 0, 28.0209, -2.5687, 1.14208, -16.0845, 2.38145, 3.02302, 2.38145, 0, 0, 6.41514, 0, 143.399, 0, 0, 71.8362, 6.35727e-05, 0, 0, 0, 0, 0, 0, 0
0.0161157, -0.02557, 0.743111, 0.0995222, -0.995642, 1.06168, -0.165561, 0.101593, 0.230058, 1.00001, 0.230056, 1.00001, 0.0275414, -0.00825667, 0.000824447, -0.0578118, 0.0578118, 3.5361e-17, 2.66697e-16, 0.194206, 0.00593857, 0.00101407, 0.00568844, 0.00135093, -0.296707, 28.0138, -2.56896, 1.14125, -16.0906, 4.76896, 6.04951, -0.295793, -34.3122, -1.24829, -3.99721, -29.4592, 29.1102, 16.7339, 1.92802, 4.63675e-310, 0, 0, 28.0138, -2.56896, 1.14125, -16.0906, 2.38448, 3.02476, 2.38448, 0, 0, 6.40713, 0, 143.358, 0, 0, 71.817, 6.40781e-05, 0, 0, 0, 0, 0, 0, 0
0.016325, -0.0255718, 0.743111, 0.09951, -0.99563, 1.06168, -0.165561, 0.101634, 0.230059, 1.00001, 0.230057, 1.00001, 0.0274789, -0.00835529, 0.000834191, -0.0585023, 0.0585023, 3.18824e-17, 2.69831e-16, 0.196586, 0.00597306, 0.00101345, 0.00571976, 0.00135454, -0.30021, 28.0066, -2.56923, 1.14041, -16.0968, 4.77509, 6.05304, -0.295388, -34.6066, -1.2657, -4.03979, -29.6652, 29.4849, 16.9227, 1.94262, 4.63675e-310, 0, 0, 28.0066, -2.56923, 1.14041, -16.0968, 2.38755, 3.02652, 2.38755, 0, 0, 6.39906, 0, 143.318, 0, 0, 71.7977, 6.45737e-05, 0, 0, 0, 0, 0, 0, 0
0.0165343, -0.0255735, 0.743111, 0.0994977, -0.995617, 1.06168, -0.165561, 0.101676, 0.23006, 1.00001, 0.230058, 1.00001, 0.0274157, -0.00845367, 0.000843908, -0.059191, 0.059191, 2.75634e-17, 2.73587e-16, 0.198961, 0.00600673, 0.00101243, 0.00575027, 0.00135774, -0.303703, 27.9993, -2.56949, 1.13956, -16.103, 4.7813, 6.0566, -0.29498, -34.901, -1.2831, -4.08236, -29.8712, 29.8596, 17.1114, 1.95721, 4.63675e-310, 0, 0, 27.9993, -2.56949, 1.13956, -16.103, 2.39065, 3.0283, 2.39065, 0, 0, 6.39094, 0, 143.277, 0, 0, 71.7783, 6.50594e-05, 0, 0, 0, 0, 0, 0, 0
0.0167435, -0.0255753, 0.743112, 0.0994852, -0.995605, 1.06168, -0.165561, 0.101718, 0.230061, 1.00001, 0.230059, 1.00001, 0.0273518, -0.00855182, 0.000853599, -0.0598782, 0.0598782, 2.23119e-17, 2.78125e-16, 0.201333, 0.0060396, 0.00101102, 0.00577997, 0.00136055, -0.307186, 27.9919, -2.56976, 1.1387, -16.1093, 4.78759, 6.0602, -0.294569, -35.1953, -1.30051, -4.12493, -30.0772, 30.2343, 17.3002, 1.9718, 4.63675e-310, 0, 0, 27.9919, -2.56976, 1.1387, -16.1093, 2.3938, 3.0301, 2.3938, 0, 0, 6.38276, 0, 143.235, 0, 0, 71.7586, 6.55353e-05, 0, 0, 0, 0, 0, 0, 0
0.0169528, -0.0255771, 0.743112, 0.0994726, -0.995592, 1.06168, -0.165561, 0.10176, 0.230063, 1.00001, 0.23006, 1.00001, 0.0272871, -0.00864974, 0.000863262, -0.0605637, 0.0605637, 1.80286e-17, 2.81016e-16, 0.203701, 0.00607167, 0.0010092, 0.00580888, 0.00136296, -0.310659, 27.9845, -2.57004, 1.13783, -16.1156, 4.79396, 6.06384, -0.294155, -35.4897, -1.31792, -4.1675, -30.2832, 30.6091, 17.489, 1.98639, 4.63675e-310, 0, 0, 27.9845, -2.57004, 1.13783, -16.1156, 2.39698, 3.03192, 2.39698, 0, 0, 6.37452, 0, 143.194, 0, 0, 71.7388, 6.60014e-05, 0, 0, 0, 0, 0, 0, 0
0.0171621, -0.0255789, 0.743112, 0.0994599, -0.99558, 1.06168, -0.165561, 0.101803, 0.230064, 1.00001, 0.230062, 1.00001, 0.0272217, -0.00874742, 0.000872898, -0.0612476, 0.0612476, 1.47958e-17, 2.82199e-16, 0.206065, 0.00610295, 0.00100699, 0.00583701, 0.00136496, -0.314122, 27.9771, -2.57031, 1.13695, -16.122, 4.80041, 6.06752, -0.293737, -35.7841, -1.33533, -4.21008, -30.4893, 30.9838, 17.6778, 2.00099, 4.63675e-310, 0, 0, 27.9771, -2.57031, 1.13695, -16.122, 2.4002, 3.03376, 2.4002, 0, 0, 6.36622, 0, 143.152, 0, 0, 71.7189, 6.64577e-05, 0, 0, 0, 0, 0, 0, 0
0.0173714, -0.0255808, 0.743112, 0.099447, -0.995567, 1.06168, -0.165561, 0.101846, 0.230065, 1.00001, 0.230063, 1.00002, 0.0271556, -0.00884486, 0.000882507, -0.0619298, 0.0619298, 1.15455e-17, 2.83119e-16, 0.208425, 0.00613346, 0.00100438, 0.00586436, 0.00136655, -0.317575, 27.9696, -2.5706, 1.13607, -16.1284, 4.80693, 6.07124, -0.293317, -36.0785, -1.35274, -4.25265, -30.6953, 31.3585, 17.8665, 2.01558, 4.63675e-310, 0, 0, 27.9696, -2.5706, 1.13607, -16.1284, 2.40346, 3.03562, 2.40346, 0, 0, 6.35787, 0, 143.11, 0, 0, 71.6987, 6.69041e-05, 0, 0, 0, 0, 0, 0, 0
0.0175807, -0.0255826, 0.743112, 0.099434, -0.995554, 1.06168, -0.165561, 0.10189, 0.230067, 1.00001, 0.230064, 1.00002, 0.0270888, -0.00894207, 0.000892088, -0.0626103, 0.0626103, 8.32773e-18, 2.83764e-16, 0.210781, 0.0061632, 0.00100137, 0.00589096, 0.00136774, -0.321018, 27.962, -2.57088, 1.13517, -16.1348, 4.81353, 6.075, -0.292894, -36.3729, -1.37015, -4.29522, -30.9013, 31.7332, 18.0553, 2.03017, 4.63675e-310, 0, 0, 27.962, -2.57088, 1.13517, -16.1348, 2.40677, 3.0375, 2.40677, 0, 0, 6.34946, 0, 143.068, 0, 0, 71.6785, 6.73408e-05, 0, 0, 0, 0, 0, 0, 0
0.01779, -0.0255845, 0.743112, 0.0994208, -0.99554, 1.06168, -0.165561, 0.101934, 0.230068, 1.00001, 0.230065, 1.00002, 0.0270213, -0.00903904, 0.000901642, -0.0632892, 0.0632892, 5.19664e-18, 2.84124e-16, 0.213134, 0.00619219, 0.000997954, 0.0059168, 0.00136852, -0.324451, 27.9543, -2.57117, 1.13427, -16.1413, 4.82021, 6.0788, -0.292467, -36.6673, -1.38756, -4.3378, -31.1073, 32.1079, 18.2441, 2.04476, 4.63675e-310, 0, 0, 27.9543, -2.57117, 1.13427, -16.1413, 2.41011, 3.0394, 2.41011, 0, 0, 6.34099, 0, 143.025, 0, 0, 71.658, 6.77677e-05, 0, 0, 0, 0, 0, 0, 0
0.0179993, -0.0255864, 0.743113, 0.0994075, -0.995527, 1.06168, -0.165561, 0.101979, 0.230069, 1.00001, 0.230067, 1.00002, 0.026953, -0.00913577, 0.000911168, -0.0639664, 0.0639664, 2.21044e-18, 2.84183e-16, 0.215482, 0.00622044, 0.000994132, 0.0059419, 0.00136889, -0.327873, 27.9466, -2.57146, 1.13336, -16.1479, 4.82697, 6.08264, -0.292038, -36.9617, -1.40496, -4.38037, -31.3133, 32.4826, 18.4329, 2.05936, 4.63674e-310, 0, 0, 27.9466, -2.57146, 1.13336, -16.1479, 2.41349, 3.04132, 2.41349, 0, 0, 6.33246, 0, 142.982, 0, 0, 71.6374, 6.81848e-05, 0, 0, 0, 0, 0, 0, 0
0.0182086, -0.0255883, 0.743113, 0.099394, -0.995514, 1.06168, -0.165561, 0.102025, 0.23007, 1.00001, 0.230068, 1.00002, 0.026884, -0.00923227, 0.000920666, -0.0646419, 0.0646419, -5.68633e-19, 2.83927e-16, 0.217827, 0.00624794, 0.000989903, 0.00596626, 0.00136885, -0.331285, 27.9389, -2.57176, 1.13244, -16.1544, 4.83381, 6.08651, -0.291605, -37.256, -1.42237, -4.42294, -31.5193, 32.8574, 18.6217, 2.07395, 4.63674e-310, 0, 0, 27.9389, -2.57176, 1.13244, -16.1544, 2.4169, 3.04326, 2.4169, 0, 0, 6.32388, 0, 142.939, 0, 0, 71.6166, 6.85922e-05, 0, 0, 0, 0, 0, 0, 0
0.0184179, -0.0255903, 0.743113, 0.0993804, -0.9955, 1.06168, -0.165561, 0.10207, 0.230072, 1.00001, 0.230069, 1.00002, 0.0268143, -0.00932852, 0.000930137, -0.0653158, 0.0653158, -3.07429e-18, 2.83339e-16, 0.220167, 0.00627473, 0.000985265, 0.00598991, 0.0013684, -0.334687, 27.931, -2.57206, 1.13151, -16.1611, 4.84073, 6.09043, -0.29117, -37.5504, -1.43978, -4.46552, -31.7253, 33.2321, 18.8104, 2.08854, 4.63675e-310, 0, 0, 27.931, -2.57206, 1.13151, -16.1611, 2.42036, 3.04522, 2.42036, 0, 0, 6.31524, 0, 142.895, 0, 0, 71.5956, 6.89898e-05, 0, 0, 0, 0, 0, 0, 0
0.0186272, -0.0255922, 0.743113, 0.0993667, -0.995486, 1.06168, -0.165561, 0.102117, 0.230073, 1.00001, 0.23007, 1.00002, 0.0267439, -0.00942454, 0.00093958, -0.065988, 0.065988, -5.2362e-18, 2.82398e-16, 0.222504, 0.0063008, 0.000980216, 0.00601284, 0.00136753, -0.338079, 27.9232, -2.57236, 1.13057, -16.1677, 4.84772, 6.09439, -0.290731, -37.8448, -1.45719, -4.50809, -31.9313, 33.6068, 18.9992, 2.10314, 4.63675e-310, 0, 0, 27.9232, -2.57236, 1.13057, -16.1677, 2.42386, 3.04719, 2.42386, 0, 0, 6.30654, 0, 142.852, 0, 0, 71.5745, 6.93777e-05, 0, 0, 0, 0, 0, 0, 0
0.0188365, -0.0255942, 0.743113, 0.0993528, -0.995472, 1.06168, -0.165561, 0.102164, 0.230074, 1.00001, 0.230072, 1.00002, 0.0266728, -0.00952032, 0.000948995, -0.0666585, 0.0666585, -6.97999e-18, 2.81084e-16, 0.224837, 0.00632616, 0.000974754, 0.00603507, 0.00136624, -0.34146, 27.9152, -2.57267, 1.12962, -16.1744, 4.85479, 6.09838, -0.290289, -38.1392, -1.4746, -4.55066, -32.1374, 33.9815, 19.188, 2.11773, 4.63675e-310, 0, 0, 27.9152, -2.57267, 1.12962, -16.1744, 2.4274, 3.04919, 2.4274, 0, 0, 6.29778, 0, 142.807, 0, 0, 71.5532, 6.97558e-05, 0, 0, 0, 0, 0, 0, 0
0.0190458, -0.0255962, 0.743114, 0.0993388, -0.995458, 1.06168, -0.165561, 0.102211, 0.230076, 1.00001, 0.230073, 1.00002, 0.026601, -0.00961586, 0.000958383, -0.0673274, 0.0673274, -8.22725e-18, 2.79373e-16, 0.227166, 0.00635083, 0.000968879, 0.00605661, 0.00136453, -0.344831, 27.9072, -2.57298, 1.12866, -16.1812, 4.86194, 6.10242, -0.289845, -38.4336, -1.49201, -4.59324, -32.3434, 34.3562, 19.3768, 2.13232, 4.63674e-310, 0, 0, 27.9072, -2.57298, 1.12866, -16.1812, 2.43097, 3.05121, 2.43097, 0, 0, 6.28897, 0, 142.763, 0, 0, 71.5318, 7.01243e-05, 0, 0, 0, 0, 0, 0, 0
0.0192551, -0.0255983, 0.743114, 0.0993246, -0.995444, 1.06168, -0.165561, 0.102259, 0.230077, 1.00001, 0.230074, 1.00002, 0.0265285, -0.00971115, 0.000967742, -0.0679945, 0.0679945, -8.89552e-18, 2.77242e-16, 0.229491, 0.00637482, 0.000962587, 0.00607747, 0.0013624, -0.348192, 27.8991, -2.57329, 1.1277, -16.188, 4.86917, 6.10649, -0.289397, -38.728, -1.50941, -4.63581, -32.5494, 34.7309, 19.5655, 2.14691, 4.63674e-310, 0, 0, 27.8991, -2.57329, 1.1277, -16.188, 2.43459, 3.05325, 2.43459, 0, 0, 6.2801, 0, 142.718, 0, 0, 71.5102, 7.04831e-05, 0, 0, 0, 0, 0, 0, 0
0.0194644, -0.0256003, 0.743114, 0.0993103, -0.99543, 1.06168, -0.165561, 0.102307, 0.230078, 1.00001, 0.230075, 1.00002, 0.0264552, -0.00980621, 0.000977073, -0.06866, 0.06866, -8.89829e-18, 2.74663e-16, 0.231812, 0.00639813, 0.000955878, 0.00609766, 0.00135985, -0.351542, 27.891, -2.57361, 1.12672, -16.1948, 4.87648, 6.11061, -0.288946, -39.0224, -1.52682, -4.67838, -32.7554, 35.1057, 19.7543, 2.16151, 4.63675e-310, 0, 0, 27.891, -2.57361, 1.12672, -16.1948, 2.43824, 3.0553, 2.43824, 0, 0, 6.27117, 0, 142.673, 0, 0, 71.4884, 7.08321e-05, 0, 0, 0, 0, 0, 0, 0
0.0196737, -0.0256024, 0.743114, 0.0992959, -0.995416, 1.06168, -0.165561, 0.102356, 0.23008, 1.00001, 0.230077, 1.00002, 0.0263813, -0.00990102, 0.000986375, -0.0693237, 0.0693237, -8.14502e-18, 2.71608e-16, 0.234129, 0.00642078, 0.000948749, 0.00611719, 0.00135687, -0.354881, 27.8828, -2.57393, 1.12574, -16.2017, 4.88387, 6.11476, -0.288492, -39.3167, -1.54423, -4.72095, -32.9614, 35.4804, 19.9431, 2.1761, 4.63675e-310, 0, 0, 27.8828, -2.57393, 1.12574, -16.2017, 2.44193, 3.05738, 2.44193, 0, 0, 6.26218, 0, 142.628, 0, 0, 71.4665, 7.11715e-05, 0, 0, 0, 0, 0, 0, 0
0.019883, -0.0256044, 0.743114, 0.0992813, -0.995401, 1.06168, -0.165561, 0.102405, 0.230081, 1.00001, 0.230078, 1.00002, 0.0263067, -0.0099956, 0.00099565, -0.0699858, 0.0699858, -8.33603e-18, 2.70989e-16, 0.236442, 0.00644277, 0.0009412, 0.00613606, 0.00135347, -0.35821, 27.8745, -2.57426, 1.12475, -16.2086, 4.89133, 6.11896, -0.288035, -39.6111, -1.56164, -4.76353, -33.1674, 35.8551, 20.1319, 2.19069, 4.63675e-310, 0, 0, 27.8745, -2.57426, 1.12475, -16.2086, 2.44567, 3.05948, 2.44567, 0, 0, 6.25313, 0, 142.583, 0, 0, 71.4444, 7.15013e-05, 0, 0, 0, 0, 0, 0, 0
0.0200923, -0.0256065, 0.743115, 0.0992666, -0.995386, 1.06168, -0.165561, 0.102455, 0.230082, 1.00001, 0.230079, 1.00002, 0.0262314, -0.0100899, 0.0010049, -0.0706462, 0.0706462, -8.3102e-18, 2.71032e-16, 0.238752, 0.00646412, 0.000933227, 0.0061543, 0.00134964, -0.361529, 27.8662, -2.57458, 1.12374, -16.2156, 4.89888, 6.12319, -0.287575, -39.9055, -1.57905, -4.8061, -33.3734, 36.2298, 20.3206, 2.20528, 4.63675e-310, 0, 0, 27.8662, -2.57458, 1.12374, -16.2156, 2.44944, 3.0616, 2.44944, 0, 0, 6.24403, 0, 142.537, 0, 0, 71.4221, 7.18214e-05, 0, 0, 0, 0, 0, 0, 0
0.0203016, -0.0256087, 0.743115, 0.0992517, -0.995371, 1.06168, -0.165561, 0.102505, 0.230084, 1.00001, 0.230081, 1.00002, 0.0261554, -0.010184, 0.00101411, -0.0713048, 0.0713048, -7.8581e-18, 2.71529e-16, 0.241057, 0.00648483, 0.00092483, 0.0061719, 0.00134538, -0.364836, 27.8578, -2.57492, 1.12273, -16.2226, 4.9065, 6.12746, -0.287112, -40.1999, -1.59646, -4.84867, -33.5795, 36.6045, 20.5094, 2.21988, 4.63674e-310, 0, 0, 27.8578, -2.57492, 1.12273, -16.2226, 2.45325, 3.06373, 2.45325, 0, 0, 6.23487, 0, 142.491, 0, 0, 71.3997, 7.21318e-05, 0, 0, 0, 0, 0, 0, 0
0.0205108, -0.0256108, 0.743115, 0.0992367, -0.995356, 1.06168, -0.165561, 0.102556, 0.230085, 1.00002, 0.230082, 1.00002, 0.0260787, -0.0102779, 0.0010233, -0.0719618, 0.0719618, -6.94554e-18, 2.72563e-16, 0.243358, 0.00650492, 0.000916006, 0.00618888, 0.00134068, -0.368134, 27.8494, -2.57525, 1.12171, -16.2296, 4.9142, 6.13178, -0.286646, -40.4943, -1.61387, -4.89125, -33.7855, 36.9792, 20.6982, 2.23447, 4.63675e-310, 0, 0, 27.8494, -2.57525, 1.12171, -16.2296, 2.4571, 3.06589, 2.4571, 0, 0, 6.22565, 0, 142.444, 0, 0, 71.3771, 7.24326e-05, 0, 0, 0, 0, 0, 0, 0
0.0207201, -0.025613, 0.743115, 0.0992216, -0.995341, 1.06168, -0.165561, 0.102607, 0.230087, 1.00002, 0.230083, 1.00002, 0.0260013, -0.0103715, 0.00103246, -0.072617, 0.072617, -5.53771e-18, 2.74219e-16, 0.245655, 0.00652439, 0.000906754, 0.00620525, 0.00133556, -0.37142, 27.8409, -2.57559, 1.12069, -16.2367, 4.92198, 6.13613, -0.286177, -40.7887, -1.63127, -4.93382, -33.9915, 37.354, 20.887, 2.24906, 4.63675e-310, 0, 0, 27.8409, -2.57559, 1.12069, -16.2367, 2.46099, 3.06806, 2.46099, 0, 0, 6.21637, 0, 142.398, 0, 0, 71.3543, 7.27238e-05, 0, 0, 0, 0, 0, 0, 0
0.0209294, -0.0256151, 0.743116, 0.0992063, -0.995326, 1.06168, -0.165561, 0.102658, 0.230088, 1.00002, 0.230084, 1.00002, 0.0259232, -0.0104648, 0.0010416, -0.0732705, 0.0732705, -3.59923e-18, 2.7659e-16, 0.247949, 0.00654326, 0.000897073, 0.00622102, 0.00133, -0.374696, 27.8323, -2.57594, 1.11965, -16.2438, 4.92984, 6.14052, -0.285704, -41.083, -1.64868, -4.97639, -34.1975, 37.7287, 21.0757, 2.26365, 4.63675e-310, 0, 0, 27.8323, -2.57594, 1.11965, -16.2438, 2.46492, 3.07026, 2.46492, 0, 0, 6.20704, 0, 142.351, 0, 0, 71.3314, 7.30054e-05, 0, 0, 0, 0, 0, 0, 0
0.0209294, -0.0256151, 0.743116, 0.0992063, -0.995326, 1.06168, -0.165561, 0.102658, 0.230088, 1.00002, 0.230084, 1.00002, 0.0259232, -0.0104648, 0.0010416, -0.0732705, 0.0732705, -3.59923e-18, 2.7659e-16, 0.247949, 0.00654326, 0.000897073, 0.00622102, 0.00133, -0.374696, 27.8323, -2.57594, 1.11965, -16.2438, 4.92984, 6.14052, -0.285704, -41.083, -1.64868, -4.97639, -34.1975, 37.7287, 21.0757, 2.26365, 4.63675e-310, 0, 0, 27.8323, -2.57594, 1.11965, -16.2438, 2.46492, 3.07026, 2.46492, 0, 0, 6.20704, 0, 142.351, 0, 0, 71.3314, 7.30054e-05, 0, 0, 0, 0, 0, 0, 0
0.0209294, -0.0256151, 0.743116, 0.0992063, -0.995326, 1.06168, -0.165561, 0.102658, 0.230088, 1.00002, 0.230084, 1.00002, 0.0259232, -0.0104648, 0.00104159, -0.0732705, 0.0732705, -1.63397e-12, 8.60328e-13, 0.247949, 0.00654314, 0.000897519, 0.0062209, 0.00133044, -0.374696, 27.8323, -2.57594, 1.11965, -16.2438, 4.92983, 6.14052, -0.285704, -41.083, -1.64868, -4.97639, -34.1975, 37.7287, 21.0757, 2.26365, 4.63675e-310, 0, 0, 27.8323, -2.57594, 1.11965, -16.2438, 2.46492, 3.07026, 2.46492, 0, 0, 6.20704, 0, 142.351, 0, 0, 71.3313, 7.30013e-05, 0, 0, 0, 0, 0, 0, 0
0.0211387, -0.0256173, 0.743116, 0.0991909, -0.995311, 1.06168, -0.165561, 0.102711, 0.230089, 1.00002, 0.230086, 1.00002, 0.0258444, -0.0105579, 0.0010507, -0.0739222, 0.0739222, -1.63397e-12, 8.60332e-13, 0.250238, 0.0065614, 0.000887411, 0.00623606, 0.00132445, -0.377961, 27.8237, -2.57628, 1.11861, -16.251, 4.93778, 6.14496, -0.28523, -41.1482, -1.67774, -4.97043, -34.5725, 38.2304, 21.3635, 2.26517, 4.63675e-310, 0, 0, 27.8237, -2.57628, 1.11861, -16.251, 2.46889, 3.07248, 2.46889, 0, 0, 6.19765, 0, 142.304, 0, 0, 71.3083, 7.32967e-05, 0, 0, 0, 0, 0, 0, 0
0.021348, -0.0256196, 0.743116, 0.0991754, -0.995295, 1.06168, -0.165561, 0.102763, 0.230091, 1.00002, 0.230087, 1.00002, 0.025765, -0.0106508, 0.00105977, -0.0745723, 0.0745723, -1.63397e-12, 8.6033e-13, 0.252523, 0.00657909, 0.000876887, 0.00625065, 0.00131804, -0.381215, 27.8151, -2.57664, 1.11757, -16.2583, 4.94584, 6.14947, -0.284756, -41.2133, -1.7068, -4.96446, -34.9476, 38.7321, 21.6513, 2.2667, 4.63675e-310, 0, 0, 27.8151, -2.57664, 1.11757, -16.2583, 2.47292, 3.07473, 2.47292, 0, 0, 6.1882, 0, 142.256, 0, 0, 71.2853, 7.3628e-05, 0, 0, 0, 0, 0, 0, 0
0.0215573, -0.0256218, 0.743116, 0.0991597, -0.995279, 1.06168, -0.165561, 0.102816, 0.230092, 1.00002, 0.230088, 1.00002, 0.0256848, -0.0107434, 0.00106882, -0.0752206, 0.0752206, -1.63397e-12, 8.6033e-13, 0.254804, 0.0065962, 0.000865951, 0.00626468, 0.00131121, -0.384459, 27.8064, -2.577, 1.11653, -16.2657, 4.954, 6.15403, -0.284282, -41.2784, -1.73586, -4.9585, -35.3226, 39.2338, 21.9391, 2.26822, 4.63674e-310, 0, 0, 27.8064, -2.577, 1.11653, -16.2657, 2.477, 3.07701, 2.477, 0, 0, 6.1787, 0, 142.209, 0, 0, 71.2623, 7.39955e-05, 0, 0, 0, 0, 0, 0, 0
0.0217666, -0.0256241, 0.743116, 0.0991439, -0.995264, 1.06168, -0.165561, 0.10287, 0.230093, 1.00002, 0.23009, 1.00002, 0.025604, -0.0108358, 0.00107783, -0.0758672, 0.0758672, -1.63397e-12, 8.60329e-13, 0.257082, 0.00661275, 0.000854614, 0.00627814, 0.00130397, -0.387691, 27.7978, -2.57736, 1.11549, -16.2731, 4.96226, 6.15865, -0.283807, -41.3436, -1.76491, -4.95253, -35.6977, 39.7355, 22.2269, 2.26974, 4.63674e-310, 0, 0, 27.7978, -2.57736, 1.11549, -16.2731, 2.48113, 3.07932, 2.48113, 0, 0, 6.16914, 0, 142.161, 0, 0, 71.2392, 7.43995e-05, 0, 0, 0, 0, 0, 0, 0
0.0219759, -0.0256263, 0.743117, 0.099128, -0.995248, 1.06168, -0.165561, 0.102924, 0.230095, 1.00002, 0.230091, 1.00002, 0.0255226, -0.0109279, 0.00108682, -0.0765121, 0.0765121, -1.63396e-12, 8.60328e-13, 0.259355, 0.00662876, 0.000842885, 0.00629107, 0.00129633, -0.390913, 27.7891, -2.57774, 1.11446, -16.2806, 4.97063, 6.16333, -0.283332, -41.4087, -1.79397, -4.94657, -36.0727, 40.2372, 22.5146, 2.27126, 4.63675e-310, 0, 0, 27.7891, -2.57774, 1.11446, -16.2806, 2.48531, 3.08167, 2.48531, 0, 0, 6.15953, 0, 142.113, 0, 0, 71.2162, 7.48399e-05, 0, 0, 0, 0, 0, 0, 0
0.0221852, -0.0256286, 0.743117, 0.0991119, -0.995232, 1.06168, -0.165561, 0.102978, 0.230096, 1.00002, 0.230092, 1.00002, 0.0254404, -0.0110198, 0.00109578, -0.0771553, 0.0771553, -1.63396e-12, 8.60326e-13, 0.261624, 0.00664422, 0.000830771, 0.00630345, 0.00128831, -0.394124, 27.7805, -2.57812, 1.11342, -16.2882, 4.9791, 6.16807, -0.282856, -41.4738, -1.82303, -4.9406, -36.4478, 40.7389, 22.8024, 2.27278, 4.63674e-310, 0, 0, 27.7805, -2.57812, 1.11342, -16.2882, 2.48955, 3.08404, 2.48955, 0, 0, 6.14987, 0, 142.065, 0, 0, 71.1931, 7.53168e-05, 0, 0, 0, 0, 0, 0, 0
0.0223945, -0.025631, 0.743117, 0.0990957, -0.995215, 1.06168, -0.165561, 0.103033, 0.230098, 1.00002, 0.230094, 1.00002, 0.0253576, -0.0111114, 0.00110471, -0.0777967, 0.0777967, -1.63395e-12, 8.60323e-13, 0.263889, 0.00665916, 0.000818279, 0.00631531, 0.00127989, -0.397324, 27.7718, -2.5785, 1.11239, -16.2959, 4.98768, 6.17288, -0.28238, -41.5389, -1.85209, -4.93463, -36.8228, 41.2406, 23.0902, 2.2743, 4.63674e-310, 0, 0, 27.7718, -2.5785, 1.11239, -16.2959, 2.49384, 3.08644, 2.49384, 0, 0, 6.14014, 0, 142.017, 0, 0, 71.17, 7.58303e-05, 0, 0, 0, 0, 0, 0, 0
0.0226038, -0.0256333, 0.743117, 0.0990793, -0.995199, 1.06168, -0.165561, 0.103089, 0.230099, 1.00002, 0.230095, 1.00002, 0.0252741, -0.0112028, 0.00111361, -0.0784364, 0.0784364, -1.63395e-12, 8.6032e-13, 0.26615, 0.00667356, 0.000805415, 0.00632665, 0.00127111, -0.400514, 27.7631, -2.57889, 1.11136, -16.3036, 4.99637, 6.17774, -0.281904, -41.6041, -1.88114, -4.92867, -37.1979, 41.7423, 23.378, 2.27582, 4.63674e-310, 0, 0, 27.7631, -2.57889, 1.11136, -16.3036, 2.49818, 3.08887, 2.49818, 0, 0, 6.13037, 0, 141.968, 0, 0, 71.1469, 7.63805e-05, 0, 0, 0, 0, 0, 0, 0
0.0228131, -0.0256356, 0.743118, 0.0990628, -0.995182, 1.06168, -0.165561, 0.103145, 0.2301, 1.00002, 0.230096, 1.00002, 0.02519, -0.0112939, 0.00112248, -0.0790743, 0.0790743, -1.63396e-12, 8.60316e-13, 0.268407, 0.00668746, 0.000792191, 0.00633748, 0.00126195, -0.403693, 27.7544, -2.57929, 1.11032, -16.3114, 5.00516, 6.18266, -0.281428, -41.6692, -1.9102, -4.9227, -37.5729, 42.244, 23.6658, 2.27734, 4.63675e-310, 0, 0, 27.7544, -2.57929, 1.11032, -16.3114, 2.50258, 3.09133, 2.50258, 0, 0, 6.12053, 0, 141.92, 0, 0, 71.1238, 7.69673e-05, 0, 0, 0, 0, 0, 0, 0
0.0230224, -0.025638, 0.743118, 0.0990462, -0.995166, 1.06168, -0.165561, 0.103201, 0.230102, 1.00002, 0.230098, 1.00002, 0.0251051, -0.0113848, 0.00113132, -0.0797106, 0.0797106, -1.63396e-12, 8.60312e-13, 0.27066, 0.00670086, 0.000778619, 0.00634781, 0.00125245, -0.40686, 27.7456, -2.57969, 1.1093, -16.3193, 5.01405, 6.18765, -0.280951, -41.7343, -1.93926, -4.91674, -37.948, 42.7457, 23.9536, 2.27886, 4.63674e-310, 0, 0, 27.7456, -2.57969, 1.1093, -16.3193, 2.50702, 3.09382, 2.50702, 0, 0, 6.11064, 0, 141.871, 0, 0, 71.1007, 7.75908e-05, 0, 0, 0, 0, 0, 0, 0
0.0232317, -0.0256404, 0.743118, 0.0990295, -0.995149, 1.06168, -0.165561, 0.103258, 0.230103, 1.00002, 0.230099, 1.00002, 0.0250196, -0.0114754, 0.00114014, -0.080345, 0.080345, -1.63396e-12, 8.60308e-13, 0.272909, 0.00671377, 0.000764705, 0.00635766, 0.00124259, -0.410017, 27.7369, -2.5801, 1.10827, -16.3273, 5.02305, 6.19269, -0.280474, -41.7994, -1.96832, -4.91077, -38.323, 43.2474, 24.2413, 2.28038, 4.63674e-310, 0, 0, 27.7369, -2.5801, 1.10827, -16.3273, 2.51152, 3.09634, 2.51152, 0, 0, 6.1007, 0, 141.822, 0, 0, 71.0776, 7.82511e-05, 0, 0, 0, 0, 0, 0, 0
0.023441, -0.0256428, 0.743118, 0.0990126, -0.995132, 1.06168, -0.165561, 0.103315, 0.230105, 1.00002, 0.2301, 1.00002, 0.0249335, -0.0115658, 0.00114892, -0.0809777, 0.0809777, -1.63397e-12, 8.60304e-13, 0.275154, 0.00672619, 0.000750459, 0.00636703, 0.0012324, -0.413164, 27.7281, -2.58051, 1.10724, -16.3354, 5.03215, 6.19779, -0.279996, -41.8646, -1.99737, -4.90481, -38.698, 43.7491, 24.5291, 2.2819, 4.63675e-310, 0, 0, 27.7281, -2.58051, 1.10724, -16.3354, 2.51608, 3.0989, 2.51608, 0, 0, 6.0907, 0, 141.773, 0, 0, 71.0545, 7.89483e-05, 0, 0, 0, 0, 0, 0, 0
0.0236503, -0.0256452, 0.743119, 0.0989956, -0.995115, 1.06168, -0.165561, 0.103373, 0.230106, 1.00002, 0.230102, 1.00002, 0.0248467, -0.011656, 0.00115767, -0.0816087, 0.0816087, -1.63397e-12, 8.603e-13, 0.277395, 0.00673815, 0.000735889, 0.00637593, 0.00122188, -0.416299, 27.7194, -2.58094, 1.10621, -16.3435, 5.04136, 6.20296, -0.279519, -41.9297, -2.02643, -4.89884, -39.0731, 44.2508, 24.8169, 2.28342, 4.63674e-310, 0, 0, 27.7194, -2.58094, 1.10621, -16.3435, 2.52068, 3.10148, 2.52068, 0, 0, 6.08065, 0, 141.724, 0, 0, 71.0314, 7.96823e-05, 0, 0, 0, 0, 0, 0, 0
0.0238596, -0.0256477, 0.743119, 0.0989784, -0.995098, 1.06168, -0.165561, 0.103432, 0.230107, 1.00002, 0.230103, 1.00002, 0.0247592, -0.0117458, 0.0011664, -0.082238, 0.082238, -1.63397e-12, 8.60297e-13, 0.279632, 0.00674965, 0.000721006, 0.00638439, 0.00121103, -0.419424, 27.7106, -2.58136, 1.10519, -16.3517, 5.05068, 6.20818, -0.27904, -41.9948, -2.05549, -4.89288, -39.4481, 44.7525, 25.1047, 2.28494, 4.63674e-310, 0, 0, 27.7106, -2.58136, 1.10519, -16.3517, 2.52534, 3.10409, 2.52534, 0, 0, 6.07054, 0, 141.674, 0, 0, 71.0082, 8.04534e-05, 0, 0, 0, 0, 0, 0, 0
0.0240689, -0.0256502, 0.743119, 0.0989611, -0.995081, 1.06168, -0.165561, 0.10349, 0.230109, 1.00002, 0.230104, 1.00002, 0.0246711, -0.0118355, 0.00117509, -0.0828654, 0.0828654, -1.63398e-12, 8.60293e-13, 0.281865, 0.00676071, 0.000705819, 0.0063924, 0.00119988, -0.422537, 27.7018, -2.5818, 1.10417, -16.36, 5.06009, 6.21346, -0.278562, -42.0599, -2.08455, -4.88691, -39.8232, 45.2542, 25.3925, 2.28646, 4.63675e-310, 0, 0, 27.7018, -2.5818, 1.10417, -16.36, 2.53005, 3.10673, 2.53005, 0, 0, 6.06037, 0, 141.625, 0, 0, 70.9851, 8.12614e-05, 0, 0, 0, 0, 0, 0, 0
0.0242781, -0.0256527, 0.743119, 0.0989437, -0.995063, 1.06168, -0.165561, 0.10355, 0.23011, 1.00002, 0.230106, 1.00002, 0.0245824, -0.0119249, 0.00118376, -0.0834912, 0.0834912, -1.63398e-12, 8.60291e-13, 0.284093, 0.00677133, 0.000690336, 0.00639997, 0.00118843, -0.42564, 27.693, -2.58223, 1.10314, -16.3684, 5.06962, 6.21881, -0.278083, -42.1251, -2.1136, -4.88095, -40.1982, 45.7559, 25.6802, 2.28798, 4.63674e-310, 0, 0, 27.693, -2.58223, 1.10314, -16.3684, 2.53481, 3.1094, 2.53481, 0, 0, 6.05015, 0, 141.575, 0, 0, 70.9619, 8.21065e-05, 0, 0, 0, 0, 0, 0, 0
0.0244874, -0.0256552, 0.74312, 0.0989262, -0.995046, 1.06168, -0.165561, 0.103609, 0.230112, 1.00002, 0.230107, 1.00002, 0.024493, -0.012014, 0.00119239, -0.0841152, 0.0841152, -1.63398e-12, 8.60289e-13, 0.286318, 0.00678152, 0.000674568, 0.00640713, 0.00117668, -0.428733, 27.6842, -2.58268, 1.10212, -16.3769, 5.07925, 6.22421, -0.277604, -42.1902, -2.14266, -4.87498, -40.5733, 46.2576, 25.968, 2.2895, 4.63674e-310, 0, 0, 27.6842, -2.58268, 1.10212, -16.3769, 2.53962, 3.11211, 2.53962, 0, 0, 6.03987, 0, 141.525, 0, 0, 70.9387, 8.29887e-05, 0, 0, 0, 0, 0, 0, 0
0.0246967, -0.0256577, 0.74312, 0.0989085, -0.995028, 1.06168, -0.165561, 0.103669, 0.230113, 1.00002, 0.230108, 1.00002, 0.0244029, -0.0121029, 0.001201, -0.0847374, 0.0847374, -1.63398e-12, 8.60289e-13, 0.288538, 0.0067913, 0.000658523, 0.00641387, 0.00116466, -0.431814, 27.6753, -2.58313, 1.1011, -16.3854, 5.08898, 6.22968, -0.277125, -42.2553, -2.17172, -4.86901, -40.9483, 46.7593, 26.2558, 2.29102, 4.63675e-310, 0, 0, 27.6753, -2.58313, 1.1011, -16.3854, 2.54449, 3.11484, 2.54449, 0, 0, 6.02954, 0, 141.475, 0, 0, 70.9155, 8.39081e-05, 0, 0, 0, 0, 0, 0, 0
0.024906, -0.0256602, 0.74312, 0.0988907, -0.99501, 1.06168, -0.165561, 0.10373, 0.230114, 1.00002, 0.23011, 1.00003, 0.0243122, -0.0121916, 0.00120958, -0.0853579, 0.0853579, -1.63398e-12, 8.60289e-13, 0.290755, 0.00680067, 0.000642211, 0.00642022, 0.00115235, -0.434884, 27.6665, -2.58359, 1.10008, -16.394, 5.09882, 6.2352, -0.276645, -42.3205, -2.20078, -4.86305, -41.3234, 47.261, 26.5436, 2.29254, 4.63675e-310, 0, 0, 27.6665, -2.58359, 1.10008, -16.394, 2.54941, 3.1176, 2.54941, 0, 0, 6.01915, 0, 141.424, 0, 0, 70.8924, 8.48648e-05, 0, 0, 0, 0, 0, 0, 0
0.0251153, -0.0256628, 0.74312, 0.0988728, -0.994992, 1.06168, -0.165561, 0.103791, 0.230116, 1.00002, 0.230111, 1.00003, 0.0242209, -0.0122799, 0.00121813, -0.0859766, 0.0859766, -1.63398e-12, 8.60289e-13, 0.292967, 0.00680965, 0.000625641, 0.00642617, 0.00113979, -0.437944, 27.6576, -2.58405, 1.09907, -16.4027, 5.10876, 6.24079, -0.276165, -42.3856, -2.22984, -4.85708, -41.6984, 47.7627, 26.8314, 2.29406, 4.63675e-310, 0, 0, 27.6576, -2.58405, 1.09907, -16.4027, 2.55438, 3.1204, 2.55438, 0, 0, 6.00871, 0, 141.374, 0, 0, 70.8692, 8.58588e-05, 0, 0, 0, 0, 0, 0, 0
0.0253246, -0.0256654, 0.743121, 0.0988547, -0.994974, 1.06168, -0.165561, 0.103853, 0.230117, 1.00002, 0.230112, 1.00003, 0.0241289, -0.0123681, 0.00122664, -0.0865935, 0.0865935, -1.63398e-12, 8.60289e-13, 0.295176, 0.00681824, 0.000608821, 0.00643174, 0.00112697, -0.440993, 27.6487, -2.58452, 1.09805, -16.4115, 5.11881, 6.24644, -0.275685, -42.4507, -2.25889, -4.85112, -42.0735, 48.2644, 27.1191, 2.29559, 4.63675e-310, 0, 0, 27.6487, -2.58452, 1.09805, -16.4115, 2.55941, 3.12322, 2.55941, 0, 0, 5.99821, 0, 141.323, 0, 0, 70.8459, 8.68901e-05, 0, 0, 0, 0, 0, 0, 0
0.0255339, -0.025668, 0.743121, 0.0988365, -0.994956, 1.06168, -0.165561, 0.103915, 0.230119, 1.00002, 0.230114, 1.00003, 0.0240363, -0.012456, 0.00123513, -0.0872087, 0.0872087, -1.63398e-12, 8.60288e-13, 0.29738, 0.00682646, 0.00059176, 0.00643695, 0.0011139, -0.444031, 27.6398, -2.585, 1.09704, -16.4203, 5.12897, 6.25214, -0.275204, -42.5158, -2.28795, -4.84515, -42.4485, 48.7661, 27.4069, 2.29711, 4.63675e-310, 0, 0, 27.6398, -2.585, 1.09704, -16.4203, 2.56448, 3.12607, 2.56448, 0, 0, 5.98766, 0, 141.272, 0, 0, 70.8227, 8.79589e-05, 0, 0, 0, 0, 0, 0, 0
0.0257432, -0.0256706, 0.743121, 0.0988182, -0.994938, 1.06168, -0.165561, 0.103977, 0.23012, 1.00002, 0.230115, 1.00003, 0.023943, -0.0125436, 0.00124359, -0.0878221, 0.0878221, -1.63398e-12, 8.60287e-13, 0.29958, 0.00683432, 0.000574469, 0.00644179, 0.00110059, -0.447058, 27.6309, -2.58548, 1.09602, -16.4292, 5.13923, 6.25791, -0.274724, -42.581, -2.31701, -4.83919, -42.8236, 49.2678, 27.6947, 2.29863, 4.63675e-310, 0, 0, 27.6309, -2.58548, 1.09602, -16.4292, 2.56961, 3.12895, 2.56961, 0, 0, 5.97705, 0, 141.221, 0, 0, 70.7995, 8.90651e-05, 0, 0, 0, 0, 0, 0, 0
0.0259525, -0.0256732, 0.743121, 0.0987998, -0.994919, 1.06168, -0.165561, 0.10404, 0.230122, 1.00002, 0.230116, 1.00003, 0.0238492, -0.012631, 0.00125202, -0.0884338, 0.0884338, -1.63398e-12, 8.60285e-13, 0.301776, 0.00684182, 0.000556956, 0.00644629, 0.00108706, -0.450074, 27.622, -2.58597, 1.09501, -16.4382, 5.14959, 6.26373, -0.274242, -42.6461, -2.34607, -4.83322, -43.1986, 49.7695, 27.9825, 2.30015, 4.63675e-310, 0, 0, 27.622, -2.58597, 1.09501, -16.4382, 2.57479, 3.13187, 2.57479, 0, 0, 5.96638, 0, 141.17, 0, 0, 70.7763, 9.02089e-05, 0, 0, 0, 0, 0, 0, 0
0.0261618, -0.0256759, 0.743122, 0.0987812, -0.994901, 1.06168, -0.165561, 0.104103, 0.230123, 1.00002, 0.230118, 1.00003, 0.0237546, -0.0127181, 0.00126042, -0.0890437, 0.0890437, -1.63398e-12, 8.60282e-13, 0.303968, 0.00684898, 0.00053923, 0.00645045, 0.0010733, -0.45308, 27.6131, -2.58646, 1.094, -16.4473, 5.16006, 6.26962, -0.273761, -42.7112, -2.37512, -4.82726, -43.5737, 50.2712, 28.2703, 2.30167, 4.63674e-310, 0, 0, 27.6131, -2.58646, 1.094, -16.4473, 2.58003, 3.13481, 2.58003, 0, 0, 5.95566, 0, 141.119, 0, 0, 70.753, 9.13903e-05, 0, 0, 0, 0, 0, 0, 0
0.0263711, -0.0256785, 0.743122, 0.0987625, -0.994882, 1.06168, -0.165561, 0.104167, 0.230124, 1.00002, 0.230119, 1.00003, 0.0236595, -0.012805, 0.00126878, -0.0896518, 0.0896518, -1.63398e-12, 8.60281e-13, 0.306156, 0.00685581, 0.000521299, 0.00645428, 0.00105934, -0.456074, 27.6041, -2.58696, 1.09299, -16.4565, 5.17063, 6.27557, -0.273279, -42.7763, -2.40418, -4.82129, -43.9487, 50.7729, 28.558, 2.30319, 4.63674e-310, 0, 0, 27.6041, -2.58696, 1.09299, -16.4565, 2.58532, 3.13778, 2.58532, 0, 0, 5.94488, 0, 141.067, 0, 0, 70.7297, 9.26093e-05, 0, 0, 0, 0, 0, 0, 0
0.0265804, -0.0256812, 0.743122, 0.0987437, -0.994863, 1.06168, -0.165561, 0.104232, 0.230126, 1.00002, 0.23012, 1.00003, 0.0235637, -0.0128916, 0.00127712, -0.0902581, 0.0902581, -1.63398e-12, 8.60279e-13, 0.308339, 0.00686232, 0.000503174, 0.00645779, 0.00104517, -0.459058, 27.5952, -2.58747, 1.09198, -16.4657, 5.18131, 6.28158, -0.272797, -42.8415, -2.43324, -4.81532, -44.3237, 51.2746, 28.8458, 2.30471, 4.63675e-310, 0, 0, 27.5952, -2.58747, 1.09198, -16.4657, 2.59066, 3.14079, 2.59066, 0, 0, 5.93404, 0, 141.015, 0, 0, 70.7065, 9.3866e-05, 0, 0, 0, 0, 0, 0, 0
0.0267897, -0.0256839, 0.743122, 0.0987247, -0.994844, 1.06168, -0.165561, 0.104296, 0.230127, 1.00002, 0.230122, 1.00003, 0.0234673, -0.012978, 0.00128543, -0.0908627, 0.0908627, -1.63398e-12, 8.60278e-13, 0.310519, 0.00686851, 0.000484863, 0.00646099, 0.00103082, -0.462031, 27.5862, -2.58798, 1.09097, -16.475, 5.1921, 6.28764, -0.272314, -42.9066, -2.4623, -4.80936, -44.6988, 51.7763, 29.1336, 2.30623, 4.63675e-310, 0, 0, 27.5862, -2.58798, 1.09097, -16.475, 2.59605, 3.14382, 2.59605, 0, 0, 5.92315, 0, 140.964, 0, 0, 70.6832, 9.51606e-05, 0, 0, 0, 0, 0, 0, 0
0.026999, -0.0256867, 0.743123, 0.0987056, -0.994825, 1.06168, -0.165561, 0.104362, 0.230129, 1.00002, 0.230123, 1.00003, 0.0233703, -0.0130641, 0.00129371, -0.0914654, 0.0914654, -1.63398e-12, 8.60276e-13, 0.312694, 0.0068744, 0.000466376, 0.0064639, 0.00101627, -0.464993, 27.5772, -2.5885, 1.08997, -16.4844, 5.20298, 6.29377, -0.271831, -42.9717, -2.49135, -4.80339, -45.0738, 52.278, 29.4214, 2.30775, 4.63675e-310, 0, 0, 27.5772, -2.5885, 1.08997, -16.4844, 2.60149, 3.14689, 2.60149, 0, 0, 5.91221, 0, 140.911, 0, 0, 70.6599, 9.64929e-05, 0, 0, 0, 0, 0, 0, 0
0.0272083, -0.0256894, 0.743123, 0.0986864, -0.994806, 1.06168, -0.165561, 0.104427, 0.23013, 1.00002, 0.230125, 1.00003, 0.0232727, -0.01315, 0.00130196, -0.0920664, 0.0920664, -1.63398e-12, 8.60274e-13, 0.314866, 0.00688001, 0.00044772, 0.00646652, 0.00100156, -0.467944, 27.5682, -2.58902, 1.08896, -16.4939, 5.21398, 6.29996, -0.271348, -43.0368, -2.52041, -4.79743, -45.4489, 52.7797, 29.7092, 2.30927, 4.63674e-310, 0, 0, 27.5682, -2.58902, 1.08896, -16.4939, 2.60699, 3.14998, 2.60699, 0, 0, 5.90121, 0, 140.859, 0, 0, 70.6366, 9.78632e-05, 0, 0, 0, 0, 0, 0, 0
0.0274176, -0.0256922, 0.743123, 0.0986671, -0.994787, 1.06168, -0.165561, 0.104493, 0.230132, 1.00002, 0.230126, 1.00003, 0.0231745, -0.0132356, 0.00131018, -0.0926657, 0.0926657, -1.63398e-12, 8.60271e-13, 0.317033, 0.00688533, 0.000428907, 0.00646886, 0.000986677, -0.470884, 27.5592, -2.58955, 1.08796, -16.5034, 5.22508, 6.30621, -0.270865, -43.102, -2.54947, -4.79146, -45.8239, 53.2814, 29.997, 2.31079, 4.63675e-310, 0, 0, 27.5592, -2.58955, 1.08796, -16.5034, 2.61254, 3.1531, 2.61254, 0, 0, 5.89015, 0, 140.807, 0, 0, 70.6133, 9.92714e-05, 0, 0, 0, 0, 0, 0, 0
0.0276269, -0.0256949, 0.743123, 0.0986477, -0.994767, 1.06168, -0.165561, 0.10456, 0.230133, 1.00002, 0.230127, 1.00003, 0.0230756, -0.013321, 0.00131836, -0.0932631, 0.0932631, -1.63398e-12, 8.60269e-13, 0.319196, 0.00689037, 0.000409943, 0.00647094, 0.000971639, -0.473813, 27.5502, -2.59009, 1.08696, -16.5131, 5.23628, 6.31251, -0.270381, -43.1671, -2.57853, -4.7855, -46.199, 53.7831, 30.2847, 2.31231, 4.63675e-310, 0, 0, 27.5502, -2.59009, 1.08696, -16.5131, 2.61814, 3.15626, 2.61814, 0, 0, 5.87904, 0, 140.754, 0, 0, 70.59, 0.000100718, 0, 0, 0, 0, 0, 0, 0
0.0278362, -0.0256977, 0.743124, 0.0986281, -0.994748, 1.06168, -0.165561, 0.104627, 0.230135, 1.00002, 0.230129, 1.00003, 0.0229761, -0.0134061, 0.00132652, -0.0938587, 0.0938587, -1.63398e-12, 8.60266e-13, 0.321355, 0.00689516, 0.00039084, 0.00647276, 0.000956454, -0.476731, 27.5411, -2.59063, 1.08596, -16.5228, 5.24759, 6.31888, -0.269897, -43.2322, -2.60758, -4.77953, -46.574, 54.2848, 30.5725, 2.31383, 4.63674e-310, 0, 0, 27.5411, -2.59063, 1.08596, -16.5228, 2.6238, 3.15944, 2.6238, 0, 0, 5.86787, 0, 140.701, 0, 0, 70.5666, 0.000102202, 0, 0, 0, 0, 0, 0, 0
0.0280454, -0.0257006, 0.743124, 0.0986084, -0.994728, 1.06168, -0.165561, 0.104694, 0.230136, 1.00002, 0.23013, 1.00003, 0.022876, -0.0134909, 0.00133465, -0.0944526, 0.0944526, -1.63398e-12, 8.60264e-13, 0.32351, 0.0068997, 0.000371604, 0.00647434, 0.000941131, -0.479639, 27.5321, -2.59118, 1.08496, -16.5326, 5.259, 6.32531, -0.269412, -43.2973, -2.63664, -4.77357, -46.9491, 54.7865, 30.8603, 2.31535, 4.63675e-310, 0, 0, 27.5321, -2.59118, 1.08496, -16.5326, 2.6295, 3.16266, 2.6295, 0, 0, 5.85664, 0, 140.648, 0, 0, 70.5433, 0.000103725, 0, 0, 0, 0, 0, 0, 0
0.0282547, -0.0257034, 0.743124, 0.0985885, -0.994708, 1.06168, -0.165561, 0.104762, 0.230137, 1.00002, 0.230131, 1.00003, 0.0227754, -0.0135755, 0.00134274, -0.0950446, 0.0950446, -1.63398e-12, 8.60262e-13, 0.32566, 0.006904, 0.000352247, 0.00647568, 0.000925679, -0.482535, 27.523, -2.59174, 1.08396, -16.5424, 5.27052, 6.3318, -0.268928, -43.3625, -2.6657, -4.7676, -47.3241, 55.2882, 31.1481, 2.31687, 4.63675e-310, 0, 0, 27.523, -2.59174, 1.08396, -16.5424, 2.63526, 3.1659, 2.63526, 0, 0, 5.84536, 0, 140.595, 0, 0, 70.5199, 0.000105285, 0, 0, 0, 0, 0, 0, 0
0.028464, -0.0257062, 0.743125, 0.0985686, -0.994688, 1.06168, -0.165561, 0.104831, 0.230139, 1.00002, 0.230133, 1.00003, 0.0226741, -0.0136599, 0.00135081, -0.0956349, 0.0956349, -1.63398e-12, 8.60259e-13, 0.327807, 0.00690806, 0.000332776, 0.00647679, 0.000910106, -0.485421, 27.5139, -2.5923, 1.08296, -16.5524, 5.28215, 6.33835, -0.268442, -43.4276, -2.69476, -4.76163, -47.6992, 55.7899, 31.4359, 2.31839, 4.63674e-310, 0, 0, 27.5139, -2.5923, 1.08296, -16.5524, 2.64107, 3.16918, 2.64107, 0, 0, 5.83402, 0, 140.542, 0, 0, 70.4966, 0.000106884, 0, 0, 0, 0, 0, 0, 0
0.0286733, -0.0257091, 0.743125, 0.0985485, -0.994668, 1.06168, -0.165561, 0.1049, 0.23014, 1.00002, 0.230134, 1.00003, 0.0225722, -0.0137439, 0.00135885, -0.0962234, 0.0962234, -1.63398e-12, 8.60257e-13, 0.329949, 0.00691191, 0.0003132, 0.00647768, 0.000894422, -0.488296, 27.5048, -2.59287, 1.08197, -16.5624, 5.29388, 6.34496, -0.267957, -43.4927, -2.72382, -4.75567, -48.0742, 56.2916, 31.7236, 2.31991, 4.63674e-310, 0, 0, 27.5048, -2.59287, 1.08197, -16.5624, 2.64694, 3.17248, 2.64694, 0, 0, 5.82262, 0, 140.488, 0, 0, 70.4732, 0.000108521, 0, 0, 0, 0, 0, 0, 0
0.0288826, -0.025712, 0.743125, 0.0985283, -0.994648, 1.06168, -0.165561, 0.104969, 0.230142, 1.00002, 0.230135, 1.00003, 0.0224697, -0.0138278, 0.00136685, -0.0968101, 0.0968101, -1.63398e-12, 8.60256e-13, 0.332087, 0.00691554, 0.00029353, 0.00647837, 0.000878635, -0.49116, 27.4957, -2.59344, 1.08097, -16.5725, 5.30571, 6.35163, -0.267471, -43.5579, -2.75287, -4.7497, -48.4493, 56.7933, 32.0114, 2.32143, 4.63675e-310, 0, 0, 27.4957, -2.59344, 1.08097, -16.5725, 2.65286, 3.17581, 2.65286, 0, 0, 5.81117, 0, 140.435, 0, 0, 70.4498, 0.000110197, 0, 0, 0, 0, 0, 0, 0
0.0290919, -0.0257149, 0.743125, 0.098508, -0.994628, 1.06168, -0.165561, 0.105039, 0.230143, 1.00002, 0.230137, 1.00003, 0.0223666, -0.0139113, 0.00137483, -0.0973949, 0.0973949, -1.63397e-12, 8.60254e-13, 0.334221, 0.00691897, 0.000273773, 0.00647887, 0.000862756, -0.494013, 27.4866, -2.59402, 1.07998, -16.5827, 5.31765, 6.35836, -0.266985, -43.623, -2.78193, -4.74374, -48.8243, 57.295, 32.2992, 2.32295, 4.63675e-310, 0, 0, 27.4866, -2.59402, 1.07998, -16.5827, 2.65882, 3.17918, 2.65882, 0, 0, 5.79967, 0, 140.381, 0, 0, 70.4264, 0.000111911, 0, 0, 0, 0, 0, 0, 0
0.0293012, -0.0257178, 0.743126, 0.0984875, -0.994607, 1.06168, -0.165561, 0.105109, 0.230145, 1.00002, 0.230138, 1.00003, 0.0222629, -0.0139946, 0.00138277, -0.097978, 0.097978, -1.63397e-12, 8.60253e-13, 0.336351, 0.00692222, 0.000253939, 0.00647918, 0.000846792, -0.496854, 27.4775, -2.5946, 1.07899, -16.5929, 5.32969, 6.36515, -0.266499, -43.6881, -2.81099, -4.73777, -49.1993, 57.7967, 32.587, 2.32448, 4.63675e-310, 0, 0, 27.4775, -2.5946, 1.07899, -16.5929, 2.66485, 3.18257, 2.66485, 0, 0, 5.7881, 0, 140.327, 0, 0, 70.403, 0.000113664, 0, 0, 0, 0, 0, 0, 0
0.0295105, -0.0257207, 0.743126, 0.098467, -0.994587, 1.06168, -0.165561, 0.105179, 0.230146, 1.00002, 0.230139, 1.00003, 0.0221586, -0.0140777, 0.00139069, -0.0985593, 0.0985593, -1.63397e-12, 8.60252e-13, 0.338477, 0.00692528, 0.000234037, 0.00647931, 0.000830752, -0.499685, 27.4683, -2.59519, 1.07799, -16.6033, 5.34184, 6.372, -0.266012, -43.7532, -2.84005, -4.73181, -49.5744, 58.2985, 32.8748, 2.326, 4.63675e-310, 0, 0, 27.4683, -2.59519, 1.07799, -16.6033, 2.67092, 3.186, 2.67092, 0, 0, 5.77648, 0, 140.273, 0, 0, 70.3796, 0.000115455, 0, 0, 0, 0, 0, 0, 0
0.0297198, -0.0257237, 0.743126, 0.0984463, -0.994566, 1.06168, -0.165561, 0.10525, 0.230148, 1.00002, 0.230141, 1.00003, 0.0220537, -0.0141605, 0.00139857, -0.0991387, 0.0991387, -1.63396e-12, 8.60251e-13, 0.340598, 0.00692817, 0.000214076, 0.00647928, 0.000814646, -0.502506, 27.4591, -2.59579, 1.07701, -16.6137, 5.3541, 6.37891, -0.265525, -43.8184, -2.8691, -4.72584, -49.9494, 58.8002, 33.1625, 2.32752, 4.63675e-310, 0, 0, 27.4591, -2.59579, 1.07701, -16.6137, 2.67705, 3.18946, 2.67705, 0, 0, 5.76481, 0, 140.218, 0, 0, 70.3562, 0.000117285, 0, 0, 0, 0, 0, 0, 0
0.0299291, -0.0257267, 0.743127, 0.0984255, -0.994545, 1.06168, -0.165561, 0.105322, 0.230149, 1.00002, 0.230142, 1.00003, 0.0219483, -0.014243, 0.00140642, -0.0997164, 0.0997164, -1.63396e-12, 8.60251e-13, 0.342716, 0.0069309, 0.000194065, 0.00647909, 0.000798483, -0.505315, 27.45, -2.5964, 1.07602, -16.6242, 5.36646, 6.38588, -0.265038, -43.8835, -2.89816, -4.71988, -50.3245, 59.3019, 33.4503, 2.32904, 4.63675e-310, 0, 0, 27.45, -2.5964, 1.07602, -16.6242, 2.68323, 3.19294, 2.68323, 0, 0, 5.75308, 0, 140.164, 0, 0, 70.3327, 0.000119154, 0, 0, 0, 0, 0, 0, 0
0.0301384, -0.0257297, 0.743127, 0.0984045, -0.994524, 1.06168, -0.165561, 0.105394, 0.23015, 1.00002, 0.230143, 1.00003, 0.0218422, -0.0143253, 0.00141424, -0.100292, 0.100292, -1.63396e-12, 8.60251e-13, 0.344829, 0.00693348, 0.000174014, 0.00647876, 0.000782272, -0.508113, 27.4408, -2.597, 1.07503, -16.6348, 5.37892, 6.39291, -0.26455, -43.9486, -2.92722, -4.71391, -50.6995, 59.8036, 33.7381, 2.33056, 4.63675e-310, 0, 0, 27.4408, -2.597, 1.07503, -16.6348, 2.68946, 3.19646, 2.68946, 0, 0, 5.74129, 0, 140.109, 0, 0, 70.3093, 0.000121061, 0, 0, 0, 0, 0, 0, 0
0.0303477, -0.0257327, 0.743127, 0.0983835, -0.994503, 1.06168, -0.165561, 0.105466, 0.230152, 1.00002, 0.230145, 1.00003, 0.0217356, -0.0144073, 0.00142204, -0.100866, 0.100866, -1.63396e-12, 8.60251e-13, 0.346938, 0.00693592, 0.00015393, 0.00647829, 0.000766022, -0.5109, 27.4316, -2.59762, 1.07404, -16.6454, 5.39149, 6.4, -0.264063, -44.0137, -2.95628, -4.70795, -51.0746, 60.3053, 34.0259, 2.33208, 4.63674e-310, 0, 0, 27.4316, -2.59762, 1.07404, -16.6454, 2.69574, 3.2, 2.69574, 0, 0, 5.72944, 0, 140.054, 0, 0, 70.2858, 0.000123008, 0, 0, 0, 0, 0, 0, 0
0.030557, -0.0257357, 0.743127, 0.0983623, -0.994482, 1.06168, -0.165561, 0.105539, 0.230153, 1.00002, 0.230146, 1.00003, 0.0216283, -0.0144891, 0.0014298, -0.101438, 0.101438, -1.63396e-12, 8.60252e-13, 0.349042, 0.00693823, 0.000133823, 0.0064777, 0.000749741, -0.513676, 27.4223, -2.59824, 1.07306, -16.6561, 5.40416, 6.40716, -0.263574, -44.0789, -2.98533, -4.70198, -51.4496, 60.807, 34.3137, 2.3336, 4.63674e-310, 0, 0, 27.4223, -2.59824, 1.07306, -16.6561, 2.70208, 3.20358, 2.70208, 0, 0, 5.71754, 0, 139.999, 0, 0, 70.2623, 0.000124993, 0, 0, 0, 0, 0, 0, 0
0.0307663, -0.0257387, 0.743128, 0.098341, -0.994461, 1.06168, -0.165561, 0.105612, 0.230155, 1.00002, 0.230148, 1.00003, 0.0215205, -0.0145706, 0.00143753, -0.102009, 0.102009, -1.63396e-12, 8.60254e-13, 0.351143, 0.00694042, 0.000113703, 0.00647699, 0.000733439, -0.516442, 27.4131, -2.59887, 1.07208, -16.6669, 5.41694, 6.41437, -0.263086, -44.144, -3.01439, -4.69601, -51.8247, 61.3087, 34.6014, 2.33512, 4.63674e-310, 0, 0, 27.4131, -2.59887, 1.07208, -16.6669, 2.70847, 3.20718, 2.70847, 0, 0, 5.70558, 0, 139.944, 0, 0, 70.2389, 0.000127017, 0, 0, 0, 0, 0, 0, 0
0.0309756, -0.0257418, 0.743128, 0.0983196, -0.994439, 1.06168, -0.165561, 0.105686, 0.230156, 1.00002, 0.230149, 1.00003, 0.0214122, -0.0146518, 0.00144522, -0.102577, 0.102577, -1.63396e-12, 8.60256e-13, 0.353239, 0.0069425, 9.35777e-05, 0.00647617, 0.000717125, -0.519196, 27.4039, -2.5995, 1.07109, -16.6778, 5.42983, 6.42164, -0.262597, -44.2091, -3.04345, -4.69005, -52.1997, 61.8104, 34.8892, 2.33664, 4.63674e-310, 0, 0, 27.4039, -2.5995, 1.07109, -16.6778, 2.71491, 3.21082, 2.71491, 0, 0, 5.69357, 0, 139.888, 0, 0, 70.2154, 0.00012908, 0, 0, 0, 0, 0, 0, 0
0.0311849, -0.0257449, 0.743128, 0.0982981, -0.994418, 1.06168, -0.165561, 0.10576, 0.230158, 1.00002, 0.23015, 1.00003, 0.0213032, -0.0147328, 0.00145289, -0.103144, 0.103144, -1.63396e-12, 8.60259e-13, 0.355331, 0.00694448, 7.34568e-05, 0.00647526, 0.000700807, -0.521939, 27.3946, -2.60014, 1.07011, -16.6888, 5.44282, 6.42897, -0.262108, -44.2742, -3.07251, -4.68408, -52.5748, 62.3121, 35.177, 2.33816, 4.63674e-310, 0, 0, 27.3946, -2.60014, 1.07011, -16.6888, 2.72141, 3.21449, 2.72141, 0, 0, 5.6815, 0, 139.833, 0, 0, 70.1919, 0.000131182, 0, 0, 0, 0, 0, 0, 0
0.0313942, -0.025748, 0.743129, 0.0982764, -0.994396, 1.06168, -0.165561, 0.105835, 0.230159, 1.00002, 0.230152, 1.00003, 0.0211937, -0.0148135, 0.00146053, -0.103709, 0.103709, -1.63396e-12, 8.60262e-13, 0.357419, 0.00694636, 5.33492e-05, 0.00647426, 0.000684495, -0.524672, 27.3853, -2.60079, 1.06913, -16.6998, 5.45591, 6.43636, -0.261618, -44.3394, -3.10156, -4.67812, -52.9498, 62.8138, 35.4648, 2.33968, 4.63674e-310, 0, 0, 27.3853, -2.60079, 1.06913, -16.6998, 2.72795, 3.21818, 2.72795, 0, 0, 5.66937, 0, 139.777, 0, 0, 70.1683, 0.000133324, 0, 0, 0, 0, 0, 0, 0
0.0316035, -0.0257511, 0.743129, 0.0982547, -0.994374, 1.06168, -0.165561, 0.10591, 0.230161, 1.00002, 0.230153, 1.00003, 0.0210836, -0.014894, 0.00146813, -0.104272, 0.104272, -1.63397e-12, 8.60267e-13, 0.359502, 0.00694817, 3.3264e-05, 0.00647319, 0.000668198, -0.527393, 27.3761, -2.60144, 1.06815, -16.711, 5.46911, 6.44382, -0.261128, -44.4045, -3.13062, -4.67215, -53.3249, 63.3155, 35.7526, 2.3412, 4.63674e-310, 0, 0, 27.3761, -2.60144, 1.06815, -16.711, 2.73455, 3.22191, 2.73455, 0, 0, 5.65719, 0, 139.721, 0, 0, 70.1448, 0.000135505, 0, 0, 0, 0, 0, 0, 0
0.0318127, -0.0257542, 0.743129, 0.0982328, -0.994352, 1.06168, -0.165561, 0.105985, 0.230162, 1.00002, 0.230154, 1.00003, 0.0209729, -0.0149742, 0.00147571, -0.104833, 0.104833, -1.63397e-12, 8.60272e-13, 0.361582, 0.0069499, 1.321e-05, 0.00647205, 0.000651924, -0.530103, 27.3668, -2.6021, 1.06718, -16.7222, 5.48241, 6.45133, -0.260638, -44.4696, -3.15968, -4.66619, -53.6999, 63.8172, 36.0404, 2.34272, 4.63675e-310, 0, 0, 27.3668, -2.6021, 1.06718, -16.7222, 2.74121, 3.22566, 2.74121, 0, 0, 5.64495, 0, 139.665, 0, 0, 70.1213, 0.000137725, 0, 0, 0, 0, 0, 0, 0
0.032022, -0.0257573, 0.74313, 0.0982108, -0.99433, 1.06168, -0.165561, 0.106061, 0.230164, 1.00002, 0.230156, 1.00003, 0.0208617, -0.0150541, 0.00148325, -0.105393, 0.105393, -1.63398e-12, 8.60278e-13, 0.363657, 0.00695157, -6.80348e-06, 0.00647086, 0.000635683, -0.532803, 27.3574, -2.60277, 1.0662, -16.7334, 5.49582, 6.4589, -0.260148, -44.5348, -3.18874, -4.66022, -54.0749, 64.3189, 36.3281, 2.34424, 4.63675e-310, 0, 0, 27.3574, -2.60277, 1.0662, -16.7334, 2.74791, 3.22945, 2.74791, 0, 0, 5.63265, 0, 139.608, 0, 0, 70.0977, 0.000139984, 0, 0, 0, 0, 0, 0, 0
0.0322313, -0.0257605, 0.74313, 0.0981887, -0.994308, 1.06168, -0.165561, 0.106138, 0.230165, 1.00002, 0.230157, 1.00003, 0.0207499, -0.0151338, 0.00149076, -0.10595, 0.10595, -1.63398e-12, 8.60284e-13, 0.365728, 0.00695319, -2.67676e-05, 0.00646961, 0.000619483, -0.535491, 27.3481, -2.60344, 1.06523, -16.7448, 5.50934, 6.46654, -0.259657, -44.5999, -3.21779, -4.65426, -54.45, 64.8206, 36.6159, 2.34576, 4.63675e-310, 0, 0, 27.3481, -2.60344, 1.06523, -16.7448, 2.75467, 3.23327, 2.75467, 0, 0, 5.62029, 0, 139.552, 0, 0, 70.0742, 0.000142283, 0, 0, 0, 0, 0, 0, 0
0.0324406, -0.0257637, 0.74313, 0.0981664, -0.994286, 1.06168, -0.165561, 0.106214, 0.230166, 1.00002, 0.230158, 1.00003, 0.0206376, -0.0152132, 0.00149825, -0.106506, 0.106506, -1.63399e-12, 8.60285e-13, 0.367794, 0.00695477, -4.66731e-05, 0.00646833, 0.000603335, -0.538168, 27.3388, -2.60411, 1.06425, -16.7562, 5.52295, 6.47423, -0.259166, -44.665, -3.24685, -4.64829, -54.825, 65.3223, 36.9037, 2.34728, 4.63674e-310, 0, 0, 27.3388, -2.60411, 1.06425, -16.7562, 2.76148, 3.23711, 2.76148, 0, 0, 5.60788, 0, 139.495, 0, 0, 70.0506, 0.000144621, 0, 0, 0, 0, 0, 0, 0
0.0326499, -0.0257669, 0.743131, 0.0981441, -0.994264, 1.06168, -0.165561, 0.106292, 0.230168, 1.00002, 0.23016, 1.00003, 0.0205246, -0.0152924, 0.0015057, -0.10706, 0.10706, -1.63399e-12, 8.60286e-13, 0.369857, 0.00695631, -6.65112e-05, 0.00646703, 0.000587245, -0.540834, 27.3294, -2.60479, 1.06328, -16.7677, 5.53668, 6.48198, -0.258674, -44.7301, -3.27591, -4.64232, -55.2001, 65.824, 37.1915, 2.3488, 4.63674e-310, 0, 0, 27.3294, -2.60479, 1.06328, -16.7677, 2.76834, 3.24099, 2.76834, 0, 0, 5.59542, 0, 139.438, 0, 0, 70.027, 0.000146999, 0, 0, 0, 0, 0, 0, 0
0.0328592, -0.0257701, 0.743131, 0.0981216, -0.994241, 1.06168, -0.165561, 0.106369, 0.230169, 1.00002, 0.230161, 1.00003, 0.0204112, -0.0153713, 0.00151312, -0.107612, 0.107612, -1.63399e-12, 8.60285e-13, 0.371915, 0.00695784, -8.62727e-05, 0.0064657, 0.000571225, -0.54349, 27.32, -2.60548, 1.06231, -16.7793, 5.55051, 6.4898, -0.258183, -44.7953, -3.30497, -4.63636, -55.5751, 66.3257, 37.4793, 2.35032, 4.63674e-310, 0, 0, 27.32, -2.60548, 1.06231, -16.7793, 2.77525, 3.2449, 2.77525, 0, 0, 5.58289, 0, 139.381, 0, 0, 70.0034, 0.000149417, 0, 0, 0, 0, 0, 0, 0
0.0330685, -0.0257733, 0.743131, 0.0980991, -0.994219, 1.06168, -0.165561, 0.106447, 0.230171, 1.00002, 0.230162, 1.00003, 0.0202971, -0.0154499, 0.0015205, -0.108162, 0.108162, -1.63399e-12, 8.60283e-13, 0.373969, 0.00695934, -0.000105949, 0.00646437, 0.000555282, -0.546134, 27.3107, -2.60618, 1.06134, -16.791, 5.56444, 6.49767, -0.25769, -44.8604, -3.33403, -4.63039, -55.9502, 66.8274, 37.767, 2.35184, 4.63675e-310, 0, 0, 27.3107, -2.60618, 1.06134, -16.791, 2.78222, 3.24884, 2.78222, 0, 0, 5.57031, 0, 139.324, 0, 0, 69.9798, 0.000151874, 0, 0, 0, 0, 0, 0, 0
0.0332778, -0.0257765, 0.743132, 0.0980764, -0.994196, 1.06168, -0.165561, 0.106526, 0.230172, 1.00002, 0.230164, 1.00003, 0.0201826, -0.0155283, 0.00152786, -0.108711, 0.108711, -1.63399e-12, 8.60279e-13, 0.376018, 0.00696085, -0.00012553, 0.00646304, 0.000539425, -0.548767, 27.3013, -2.60688, 1.06037, -16.8027, 5.57848, 6.50561, -0.257198, -44.9255, -3.36308, -4.62443, -56.3252, 67.3291, 38.0548, 2.35336, 4.63675e-310, 0, 0, 27.3013, -2.60688, 1.06037, -16.8027, 2.78924, 3.2528, 2.78924, 0, 0, 5.55767, 0, 139.266, 0, 0, 69.9562, 0.000154372, 0, 0, 0, 0, 0, 0, 0
0.0334871, -0.0257798, 0.743132, 0.0980536, -0.994173, 1.06168, -0.165561, 0.106605, 0.230174, 1.00002, 0.230165, 1.00003, 0.0200674, -0.0156064, 0.00153518, -0.109257, 0.109257, -1.634e-12, 8.60273e-13, 0.378064, 0.00696236, -0.000145008, 0.00646172, 0.000523664, -0.551389, 27.2919, -2.60759, 1.0594, -16.8146, 5.59263, 6.5136, -0.256705, -44.9906, -3.39214, -4.61846, -56.7003, 67.8308, 38.3426, 2.35489, 4.63675e-310, 0, 0, 27.2919, -2.60759, 1.0594, -16.8146, 2.79631, 3.2568, 2.79631, 0, 0, 5.54498, 0, 139.209, 0, 0, 69.9326, 0.000156909, 0, 0, 0, 0, 0, 0, 0
0.0336964, -0.0257831, 0.743132, 0.0980306, -0.99415, 1.06168, -0.165561, 0.106684, 0.230175, 1.00002, 0.230167, 1.00003, 0.0199518, -0.0156842, 0.00154248, -0.109802, 0.109802, -1.634e-12, 8.60265e-13, 0.380105, 0.00696388, -0.000164373, 0.00646042, 0.000508008, -0.554, 27.2824, -2.6083, 1.05844, -16.8265, 5.60687, 6.52166, -0.256212, -45.0558, -3.4212, -4.6125, -57.0753, 68.3325, 38.6304, 2.35641, 4.63675e-310, 0, 0, 27.2824, -2.6083, 1.05844, -16.8265, 2.80344, 3.26083, 2.80344, 0, 0, 5.53223, 0, 139.151, 0, 0, 69.9089, 0.000159486, 0, 0, 0, 0, 0, 0, 0
0.0339057, -0.0257864, 0.743132, 0.0980076, -0.994127, 1.06168, -0.165561, 0.106764, 0.230177, 1.00002, 0.230168, 1.00003, 0.0198355, -0.0157618, 0.00154974, -0.110345, 0.110345, -1.63399e-12, 8.60254e-13, 0.382142, 0.00696543, -0.000183616, 0.00645916, 0.000492465, -0.5566, 27.273, -2.60902, 1.05747, -16.8385, 5.62123, 6.52977, -0.255719, -45.1209, -3.45026, -4.60653, -57.4504, 68.8342, 38.9182, 2.35793, 4.63675e-310, 0, 0, 27.273, -2.60902, 1.05747, -16.8385, 2.81061, 3.26489, 2.81061, 0, 0, 5.51942, 0, 139.093, 0, 0, 69.8853, 0.000162103, 0, 0, 0, 0, 0, 0, 0
0.034115, -0.0257897, 0.743133, 0.0979844, -0.994104, 1.06168, -0.165561, 0.106844, 0.230178, 1.00002, 0.230169, 1.00003, 0.0197188, -0.0158391, 0.00155697, -0.110886, 0.110886, -1.63399e-12, 8.6024e-13, 0.384174, 0.00696702, -0.000202729, 0.00645793, 0.000477045, -0.559189, 27.2635, -2.60974, 1.05651, -16.8505, 5.63569, 6.53795, -0.255225, -45.186, -3.47931, -4.60057, -57.8254, 69.3359, 39.2059, 2.35945, 4.63675e-310, 0, 0, 27.2635, -2.60974, 1.05651, -16.8505, 2.81784, 3.26897, 2.81784, 0, 0, 5.50655, 0, 139.035, 0, 0, 69.8616, 0.00016476, 0, 0, 0, 0, 0, 0, 0
0.0343243, -0.025793, 0.743133, 0.0979612, -0.994081, 1.06168, -0.165561, 0.106925, 0.23018, 1.00002, 0.230171, 1.00003, 0.0196015, -0.0159161, 0.00156417, -0.111425, 0.111425, -1.63399e-12, 8.60224e-13, 0.386202, 0.00696865, -0.000221702, 0.00645675, 0.000461756, -0.561767, 27.2541, -2.61047, 1.05555, -16.8627, 5.65025, 6.54618, -0.254731, -45.2511, -3.50837, -4.5946, -58.2005, 69.8376, 39.4937, 2.36097, 0, 0, 0, 27.2541, -2.61047, 1.05555, -16.8627, 2.82513, 3.27309, 2.82513, 0, 0, 5.49363, 0, 138.977, 0, 0, 69.838, 0.000167457, 0, 0, 0, 0, 0, 0, 0
0.0345336, -0.0257963, 0.743133, 0.0979378, -0.994057, 1.06168, -0.165561, 0.107006, 0.230181, 1.00002, 0.230172, 1.00003, 0.0194836, -0.0159929, 0.00157134, -0.111962, 0.111962, -1.63399e-12, 8.60215e-13, 0.388226, 0.00697033, -0.000240526, 0.00645564, 0.000446608, -0.564333, 27.2446, -2.61121, 1.05459, -16.8749, 5.66492, 6.55448, -0.254237, -45.3163, -3.53743, -4.58864, -58.5755, 70.3393, 39.7815, 2.36249, 0, 0, 0, 27.2446, -2.61121, 1.05459, -16.8749, 2.83246, 3.27724, 2.83246, 0, 0, 5.48065, 0, 138.918, 0, 0, 69.8143, 0.000170194, 0, 0, 0, 0, 0, 0, 0
0.0347429, -0.0257997, 0.743134, 0.0979143, -0.994034, 1.06168, -0.165561, 0.107087, 0.230183, 1.00002, 0.230173, 1.00003, 0.0193652, -0.0160694, 0.00157847, -0.112497, 0.112497, -1.63399e-12, 8.60205e-13, 0.390246, 0.00697208, -0.000259193, 0.00645459, 0.000431609, -0.566889, 27.2351, -2.61196, 1.05363, -16.8872, 5.67969, 6.56283, -0.253742, -45.3814, -3.56649, -4.58267, -58.9506, 70.841, 40.0693, 2.36401, 0, 0, 0, 27.2351, -2.61196, 1.05363, -16.8872, 2.83985, 3.28142, 2.83985, 0, 0, 5.46761, 0, 138.859, 0, 0, 69.7906, 0.000172972, 0, 0, 0, 0, 0, 0, 0
0.0349522, -0.0258031, 0.743134, 0.0978907, -0.99401, 1.06168, -0.165561, 0.107169, 0.230184, 1.00002, 0.230175, 1.00003, 0.0192463, -0.0161456, 0.00158558, -0.113031, 0.113031, -1.63399e-12, 8.60196e-13, 0.392261, 0.00697389, -0.000277692, 0.00645362, 0.000416768, -0.569433, 27.2256, -2.6127, 1.05267, -16.8996, 5.69457, 6.57125, -0.253248, -45.4465, -3.59554, -4.5767, -59.3256, 71.3427, 40.3571, 2.36553, 4.63675e-310, 0, 0, 27.2256, -2.6127, 1.05267, -16.8996, 2.84729, 3.28563, 2.84729, 0, 0, 5.45452, 0, 138.8, 0, 0, 69.7669, 0.00017579, 0, 0, 0, 0, 0, 0, 0
0.0351615, -0.0258064, 0.743134, 0.097867, -0.993987, 1.06168, -0.165561, 0.107251, 0.230185, 1.00002, 0.230176, 1.00003, 0.0191269, -0.0162216, 0.00159265, -0.113562, 0.113562, -1.63399e-12, 8.60186e-13, 0.394272, 0.00697579, -0.000296015, 0.00645274, 0.000402095, -0.571967, 27.2161, -2.61346, 1.05171, -16.912, 5.70956, 6.57973, -0.252752, -45.5117, -3.6246, -4.57074, -59.7006, 71.8444, 40.6448, 2.36705, 4.63674e-310, 0, 0, 27.2161, -2.61346, 1.05171, -16.912, 2.85478, 3.28986, 2.85478, 0, 0, 5.44137, 0, 138.741, 0, 0, 69.7432, 0.000178648, 0, 0, 0, 0, 0, 0, 0
0.0353707, -0.0258099, 0.743135, 0.0978432, -0.993963, 1.06168, -0.165561, 0.107334, 0.230187, 1.00002, 0.230177, 1.00003, 0.0190069, -0.0162973, 0.00159969, -0.114092, 0.114092, -1.63398e-12, 8.60177e-13, 0.396278, 0.00697779, -0.000314154, 0.00645195, 0.000387599, -0.574489, 27.2066, -2.61422, 1.05075, -16.9246, 5.72465, 6.58826, -0.252257, -45.5768, -3.65366, -4.56477, -60.0757, 72.3461, 40.9326, 2.36857, 4.63674e-310, 0, 0, 27.2066, -2.61422, 1.05075, -16.9246, 2.86232, 3.29413, 2.86232, 0, 0, 5.42816, 0, 138.682, 0, 0, 69.7194, 0.000181547, 0, 0, 0, 0, 0, 0, 0
0.03558, -0.0258133, 0.743135, 0.0978192, -0.993939, 1.06168, -0.165561, 0.107417, 0.230188, 1.00002, 0.230179, 1.00003, 0.0188864, -0.0163728, 0.0016067, -0.11462, 0.11462, -1.63398e-12, 8.60168e-13, 0.398281, 0.00697988, -0.000332099, 0.00645127, 0.000373288, -0.577, 27.197, -2.61499, 1.0498, -16.9372, 5.73984, 6.59686, -0.251761, -45.6419, -3.68272, -4.55881, -60.4507, 72.8478, 41.2204, 2.37009, 4.63674e-310, 0, 0, 27.197, -2.61499, 1.0498, -16.9372, 2.86992, 3.29843, 2.86992, 0, 0, 5.41489, 0, 138.623, 0, 0, 69.6957, 0.000184487, 0, 0, 0, 0, 0, 0, 0
0.0357893, -0.0258167, 0.743135, 0.0977952, -0.993915, 1.06168, -0.165561, 0.107501, 0.23019, 1.00002, 0.23018, 1.00003, 0.0187654, -0.0164479, 0.00161368, -0.115146, 0.115146, -1.63398e-12, 8.6016e-13, 0.400279, 0.00698208, -0.000349841, 0.00645071, 0.000359171, -0.5795, 27.1875, -2.61576, 1.04885, -16.9499, 5.75514, 6.60552, -0.251265, -45.707, -3.71177, -4.55284, -60.8258, 73.3495, 41.5082, 2.37161, 4.63675e-310, 0, 0, 27.1875, -2.61576, 1.04885, -16.9499, 2.87757, 3.30276, 2.87757, 0, 0, 5.40157, 0, 138.563, 0, 0, 69.6719, 0.000187467, 0, 0, 0, 0, 0, 0, 0
0.0359986, -0.0258202, 0.743136, 0.097771, -0.993891, 1.06168, -0.165561, 0.107585, 0.230191, 1.00002, 0.230181, 1.00003, 0.0186438, -0.0165228, 0.00162062, -0.11567, 0.11567, -1.63397e-12, 8.60153e-13, 0.402272, 0.0069844, -0.00036737, 0.00645027, 0.000345257, -0.581989, 27.1779, -2.61654, 1.04789, -16.9626, 5.77054, 6.61424, -0.250768, -45.7722, -3.74083, -4.54688, -61.2008, 73.8512, 41.796, 2.37313, 4.63675e-310, 0, 0, 27.1779, -2.61654, 1.04789, -16.9626, 2.88527, 3.30712, 2.88527, 0, 0, 5.38819, 0, 138.503, 0, 0, 69.6482, 0.000190488, 0, 0, 0, 0, 0, 0, 0
