flxalr/sts-optimization-reemc/input/498_145/pos.csv
time;base_link_tx;base_link_ty;base_link_tz;base_link_rz;base_link_ry;base_link_rx;leg_left_1_joint;leg_left_2_joint;leg_left_3_joint;leg_left_4_joint;leg_left_5_joint;leg_left_6_joint;leg_right_1_joint;leg_right_2_joint;leg_right_3_joint;leg_right_4_joint;leg_right_5_joint;leg_right_6_joint;torso_1_joint;torso_2_joint;arm_left_1_joint;arm_left_2_joint;arm_left_3_joint;arm_left_4_joint;arm_left_5_joint;arm_left_6_joint;arm_left_7_joint;arm_right_1_joint;arm_right_2_joint;arm_right_3_joint;arm_right_4_joint;arm_right_5_joint;arm_right_6_joint;arm_right_7_joint;head_1_joint;head_2_joint
0.0;-0.14718859466876033;-0.06674535208506295;0.7518019179274916;0.004443207458635606;0.13049086573317886;-0.01178085728291804;-0.001496628447582991;9.497982731764693e-06;-0.9959738563125352;1.0616748924511312;-0.16557256098623785;9.527892906483729e-06;-0.0014985630915726525;9.507952790004623e-06;-0.9960533621658724;1.0616777557523054;-0.16557533573838012;-9.517922848244122e-06;-4.6020034054829184e-05;0.09995551396708033;0.230023470217368;0.1298482980257405;1.3517618002945042e-05;1.0000220988203532;9.130919118318449e-06;-3.195821691411457e-05;3.195821691411457e-05;0.2299314301492583;0.12989431805979534;-7.852245010653293e-05;0.9999615824755709;0.0;2.739275735495535e-05;-8.217827206486605e-05;-0.005313147336269974;0.04217450113839005
0.020179033279418945;-0.14717252538144596;-0.06675737051316077;0.7518039967172261;0.0044161461661125405;0.1305148016211065;-0.011758714712140114;-0.001496628447582991;9.497982731764693e-06;-0.9959738563125352;1.0616748924511312;-0.16557256098623785;9.527892906483729e-06;-0.0014985630915726525;9.507952790004623e-06;-0.9960533621658724;1.0616777557523054;-0.16557533573838012;-9.517922848244122e-06;-4.6020034054829184e-05;0.09995551396708033;0.230023470217368;0.1298482980257405;1.3517618002945042e-05;0.9999760787862984;9.130919118318449e-06;-3.195821691411457e-05;3.195821691411457e-05;0.2299314301492583;0.12989431805979534;-7.852245010653293e-05;0.9999615824755709;0.0;4.5654595591592245e-06;-5.935097426906993e-05;-0.005313147336269974;0.04217450113839005
0.03999066352844238;-0.1470171655202258;-0.06676207815174388;0.7518339751489271;0.004394841192711928;0.13072342534154194;-0.011746966009890688;-0.001496628447582991;9.497982731764693e-06;-0.9959738563125352;1.0616748924511312;-0.16557256098623785;9.527892906483729e-06;-0.0014985630915726525;9.507952790004623e-06;-0.9960533621658724;1.0616777557523054;-0.16557533573838012;-9.517922848244122e-06;-4.6020034054829184e-05;0.09995551396708033;0.230023470217368;0.1298482980257405;2.8857629354561712e-05;0.9999760787862984;9.130919118318449e-06;-3.195821691411457e-05;3.195821691411457e-05;0.2299314301492583;0.12989431805979534;-7.852245010653293e-05;0.9999615824755709;0.0;2.739275735495535e-05;-8.217827206486605e-05;-0.005313147336269974;0.04063861139663505
0.06013369560241699;-0.1470732016600775;-0.06684840842292998;0.7518153442633064;0.00451367576479481;0.13063900795971856;-0.011652544029904142;-0.001496628447582991;9.497982731764693e-06;-0.9959738563125352;1.0616748924511312;-0.16557256098623785;9.527892906483729e-06;-0.0014985630915726525;9.507952790004623e-06;-0.9960533621658724;1.0616777557523054;-0.16557533573838012;-9.517922848244122e-06;-4.6020034054829184e-05;0.09995551396708033;0.230023470217368;0.1298482980257405;2.8857629354561712e-05;0.9999607387749468;9.130919118318449e-06;-2.739275735495535e-05;2.739275735495535e-05;0.2299314301492583;0.12989431805979534;-7.852245010653293e-05;0.9999615824755709;0.0;2.739275735495535e-05;-8.217827206486605e-05;-0.005313147336269974;0.04217450113839005
0.07999801635742188;-0.14700954983014305;-0.06680606368366727;0.7518315571581252;0.004584789632492292;0.13071683936118186;-0.011724882170199359;-0.001496628447582991;9.497982731764693e-06;-0.9959738563125352;1.0616748924511312;-0.16557256098623785;9.527892906483729e-06;-0.0014985630915726525;9.507952790004623e-06;-0.9960776034147814;1.0616777557523054;-0.16557533573838012;-9.517922848244122e-06;-4.6020034054829184e-05;0.09995551396708033;0.230023470217368;0.1298482980257405;2.8857629354561712e-05;0.9999607387749468;9.130919118318449e-06;-3.195821691411457e-05;3.195821691411457e-05;0.2299314301492583;0.12989431805979534;-7.852245010653293e-05;0.9999615824755709;0.0;2.739275735495535e-05;-8.217827206486605e-05;-0.005313147336269974;0.04217450113839005
0.10018229484558105;-0.1470771418419958;-0.06674324210632587;0.7518239170216019;0.004660029648399976;0.130619537853213;-0.01182708271014546;-0.001496628447582991;9.497982731764693e-06;-0.9959738563125352;1.0616748924511312;-0.16557256098623785;9.527892906483729e-06;-0.0014985630915726525;9.507952790004623e-06;-0.9961260859125995;1.0616777557523054;-0.16557533573838012;-9.517922848244122e-06;-3.835002837902085e-05;0.09996318397275614;0.230023470217368;0.1298482980257405;2.8857629354561712e-05;0.9999607387749468;9.130919118318449e-06;-3.195821691411457e-05;3.195821691411457e-05;0.2299314301492583;0.12989431805979534;-7.852245010653293e-05;0.9999615824755709;0.0;0.0;-5.4785514709910704e-05;-0.005313147336269974;0.04217450113839005
0.12017202377319336;-0.14712341502059756;-0.06671241615368827;0.7518175992277603;0.004798948548271486;0.1305451718863089;-0.011898029158133134;-0.001496628447582991;9.497982731764693e-06;-0.9959738563125352;1.0616748924511312;-0.16557256098623785;9.527892906483729e-06;-0.0014985630915726525;9.507952790004623e-06;-0.9961260859125995;1.0616777557523054;-0.16557533573838012;-9.517922848244122e-06;-3.835002837902085e-05;0.09996318397275614;0.230023470217368;0.1298636380370921;2.8857629354561712e-05;0.9999607387749468;9.130919118318449e-06;-3.195821691411457e-05;3.195821691411457e-05;0.2299314301492583;0.12989431805979534;-7.852245010653293e-05;0.9999615824755709;0.0;2.739275735495535e-05;-8.217827206486605e-05;-0.005313147336269974;0.04063861139663505
0.14006900787353516;-0.1471355082758144;-0.06671633060054917;0.7518148852347862;0.0047816401417113035;0.13053068225672748;-0.011889204711875058;-0.001496628447582991;9.497982731764693e-06;-0.9959738563125352;1.0616748924511312;-0.16557256098623785;9.527892906483729e-06;-0.0014985630915726525;9.507952790004623e-06;-0.9961260859125995;1.0616777557523054;-0.16557533573838012;-9.517922848244122e-06;-3.835002837902085e-05;0.09996318397275614;0.230023470217368;0.1298636380370921;2.8857629354561712e-05;0.9999607387749468;9.130919118318449e-06;-3.195821691411457e-05;3.195821691411457e-05;0.2299314301492583;0.12989431805979534;-7.852245010653293e-05;0.9999615824755709;0.0;2.739275735495535e-05;-8.217827206486605e-05;-0.005313147336269974;0.04217450113839005
0.15996074676513672;-0.1470764459196013;-0.06665834815824404;0.7518315847990504;0.004849723011590839;0.13060257113208357;-0.011982473395062318;-0.001496628447582991;9.497982731764693e-06;-0.9959738563125352;1.0616748924511312;-0.16557256098623785;9.527892906483729e-06;-0.0014985630915726525;9.507952790004623e-06;-0.9961260859125995;1.0616777557523054;-0.16557533573838012;-9.517922848244122e-06;-3.835002837902085e-05;0.09996318397275614;0.230023470217368;0.12989431805979534;2.8857629354561712e-05;0.9999607387749468;9.130919118318449e-06;-3.195821691411457e-05;3.195821691411457e-05;0.2299314301492583;0.12989431805979534;-7.852245010653293e-05;0.9999615824755709;0.0;2.739275735495535e-05;-8.217827206486605e-05;-0.005313147336269974;0.04217450113839005
0.1800527572631836;-0.14709135290231043;-0.06660843253492768;0.751833092409204;0.004957160577105072;0.13057261586569668;-0.012073112507072934;-0.001496628447582991;9.497982731764693e-06;-0.9959738563125352;1.0616748924511312;-0.16557256098623785;9.527892906483729e-06;-0.0014985630915726525;9.507952790004623e-06;-0.9961260859125995;1.0616777557523054;-0.16557533573838012;-9.517922848244122e-06;-3.835002837902085e-05;0.09996318397275614;0.230023470217368;0.1299403380938502;2.8857629354561712e-05;0.9999607387749468;9.130919118318449e-06;-3.195821691411457e-05;3.195821691411457e-05;0.2299314301492583;0.12989431805979534;-7.852245010653293e-05;0.9999615824755709;0.0;4.5654595591592245e-06;-5.935097426906993e-05;-0.005313147336269974;0.04217450113839005
0.19995522499084473;-0.14710313600276778;-0.06658112495269634;0.7518332058396753;0.005056056852211443;0.1305478038282286;-0.012130870760498473;-0.001496628447582991;9.497982731764693e-06;-0.9959738563125352;1.0616748924511312;-0.16557256098623785;9.527892906483729e-06;-0.0014985630915726525;9.507952790004623e-06;-0.9961260859125995;1.0616777557523054;-0.16557533573838012;-9.517922848244122e-06;-3.0680022703219456e-05;0.09997085397843193;0.230023470217368;0.12997101811655346;2.8857629354561712e-05;0.9999607387749468;9.130919118318449e-06;-3.195821691411457e-05;3.195821691411457e-05;0.2299314301492583;0.12989431805979534;-7.852245010653293e-05;0.9999615824755709;0.0;2.739275735495535e-05;-8.217827206486605e-05;-0.005313147336269974;0.04217450113839005
0.22011208534240723;-0.14714194098561706;-0.06655799912320294;0.7518276598933293;0.005138087175510653;0.1304886102643637;-0.012179641554908086;-0.001496628447582991;9.497982731764693e-06;-0.9959738563125352;1.0616748924511312;-0.16557256098623785;9.527892906483729e-06;-0.0014985630915726525;9.507952790004623e-06;-0.9961260859125995;1.0616777557523054;-0.16557533573838012;-9.517922848244122e-06;-3.0680022703219456e-05;0.09997085397843193;0.230023470217368;0.12998635812790504;2.8857629354561712e-05;0.9999607387749468;9.130919118318449e-06;-3.195821691411457e-05;3.195821691411457e-05;0.2299314301492583;0.12989431805979534;-7.852245010653293e-05;0.9999615824755709;0.0;2.739275735495535e-05;-8.217827206486605e-05;-0.005313147336269974;0.04217450113839005
0.23995304107666016;-0.14707530007633335;-0.06659886662381902;0.7518370802885808;0.005222752836237216;0.13057000455211323;-0.01214008449679899;-0.001496628447582991;9.497982731764693e-06;-0.9959738563125352;1.0616748924511312;-0.16557256098623785;9.527892906483729e-06;-0.0014985630915726525;9.507952790004623e-06;-0.9961260859125995;1.0616777557523054;-0.16557533573838012;-9.517922848244122e-06;-2.3010017027411123e-05;0.09997852398410777;0.230023470217368;0.1300323781619599;2.8857629354561712e-05;0.9999607387749468;9.130919118318449e-06;-3.195821691411457e-05;3.195821691411457e-05;0.2299314301492583;0.12989431805979534;-7.852245010653293e-05;0.9999615824755709;0.0;2.739275735495535e-05;-8.217827206486605e-05;-0.005313147336269974;0.04217450113839005
0.2600893974304199;-0.14708069159634274;-0.06664481997095954;0.7518319535345374;0.005313701340959761;0.1305550566923757;-0.012095311460706653;-0.001496628447582991;9.497982731764693e-06;-0.9959738563125352;1.0616748924511312;-0.16557256098623785;9.527892906483729e-06;-0.0014985630915726525;9.507952790004623e-06;-0.9961260859125995;1.0616777557523054;-0.16557533573838012;-9.517922848244122e-06;-2.3010017027411123e-05;0.09997852398410777;0.230023470217368;0.1300477181733114;2.8857629354561712e-05;0.9999607387749468;9.130919118318449e-06;-3.195821691411457e-05;3.195821691411457e-05;0.2299314301492583;0.12989431805979534;-7.852245010653293e-05;0.9999615824755709;0.0;9.130919118318454e-06;-6.391643382822915e-05;-0.005313147336269974;0.04217450113839005
0.27991223335266113;-0.14715733696870426;-0.06673161409984342;0.7518092564479953;0.005326577806966576;0.1304526959310681;-0.011978977134455187;-0.001496628447582991;9.497982731764693e-06;-0.9959738563125352;1.0616748924511312;-0.16557256098623785;9.527892906483729e-06;-0.0014985630915726525;9.507952790004623e-06;-0.9961260859125995;1.0616777557523054;-0.16557533573838012;-9.517922848244122e-06;6.903005108223337e-05;0.1000705640522174;0.230023470217368;0.13006305818466302;2.8857629354561712e-05;0.9999607387749468;9.130919118318449e-06;-3.195821691411457e-05;3.195821691411457e-05;0.2299314301492583;0.12989431805979534;-7.852245010653293e-05;0.9999615824755709;0.0;2.739275735495535e-05;-8.217827206486605e-05;-0.005313147336269974;0.04217450113839005
0.29990172386169434;-0.1471406654087389;-0.06667773424284601;0.7518172999900259;0.005505796907223593;0.13045828815061655;-0.012089444007449051;-0.001496628447582991;9.497982731764693e-06;-0.9959738563125352;1.0616748924511312;-0.16557256098623785;9.527892906483729e-06;-0.0014985630915726525;9.507952790004623e-06;-0.9961260859125995;1.0616777557523054;-0.16557533573838012;-9.517922848244122e-06;6.903005108223337e-05;0.1000705640522174;0.230023470217368;0.13006305818466302;2.8857629354561712e-05;0.9999607387749468;9.130919118318449e-06;-3.195821691411457e-05;3.195821691411457e-05;0.2299314301492583;0.12989431805979534;-7.852245010653293e-05;0.9999615824755709;0.0;2.739275735495535e-05;-8.217827206486605e-05;-0.005313147336269974;0.04217450113839005
0.3199019432067871;-0.14712605621805314;-0.06673931386335674;0.7518146951155913;0.005614394766036469;0.13046846329317233;-0.012026597516931194;-0.001496628447582991;9.497982731764693e-06;-0.9959738563125352;1.0616748924511312;-0.16557256098623785;9.527892906483729e-06;-0.0014985630915726525;9.507952790004623e-06;-0.9961260859125995;1.0616777557523054;-0.16557533573838012;-9.517922848244122e-06;7.67000567580417e-05;0.1000782340578932;0.230023470217368;0.13007839819601466;2.8857629354561712e-05;0.9999607387749468;9.130919118318449e-06;-3.195821691411457e-05;3.195821691411457e-05;0.2299314301492583;0.12989431805979534;-7.852245010653293e-05;0.9999615824755709;0.0;2.739275735495535e-05;-8.217827206486605e-05;-0.005313147336269974;0.04217450113839005
0.33996105194091797;-0.14707341896302642;-0.06677076507392779;0.751822201448552;0.0056980721831932;0.1305312066220859;-0.011999873227047689;-0.001496628447582991;9.497982731764693e-06;-0.9959738563125352;1.0616748924511312;-0.16557256098623785;9.527892906483729e-06;-0.0014985630915726525;9.507952790004623e-06;-0.9961260859125995;1.0616777557523054;-0.16557533573838012;-9.517922848244122e-06;7.67000567580417e-05;0.1000782340578932;0.230023470217368;0.13007839819601466;2.8857629354561712e-05;0.9999607387749468;0.0;-3.195821691411457e-05;3.195821691411457e-05;0.2299314301492583;0.12990965807114696;-7.852245010653293e-05;0.9999615824755709;0.0;1.3696378677477674e-05;-6.848189338738837e-05;-0.005313147336269974;0.04217450113839005
0.3599710464477539;-0.14712464414573725;-0.06675733758293279;0.751812239631493;0.005762715445193361;0.1304767664425526;-0.012031962515966823;-0.001496628447582991;9.497982731764693e-06;-0.9959980975614444;1.0616748924511312;-0.16557256098623785;9.527892906483729e-06;-0.0014985630915726525;9.507952790004623e-06;-0.9961260859125995;1.0616777557523054;-0.16557533573838012;-9.517922848244122e-06;7.67000567580417e-05;0.1000782340578932;0.230023470217368;0.13007839819601466;2.8857629354561712e-05;0.9999607387749468;9.130919118318449e-06;-3.195821691411457e-05;3.195821691411457e-05;0.2299314301492583;0.12990965807114696;-7.852245010653293e-05;0.9999615824755709;0.0;2.739275735495535e-05;-8.217827206486605e-05;-0.005313147336269974;0.04217450113839005
0.3800954818725586;-0.14719051149198453;-0.06676575184227052;0.7517940724068164;0.005707565452524846;0.13047267964262016;-0.012009967419373173;-0.001496628447582991;9.497982731764693e-06;-0.996095062557081;1.0616748924511312;-0.16557256098623785;9.527892906483729e-06;-0.0014985630915726525;9.507952790004623e-06;-0.9961260859125995;1.0616777557523054;-0.16557533573838012;-9.517922848244122e-06;7.67000567580417e-05;0.1000782340578932;0.230023470217368;0.13007839819601466;2.8857629354561712e-05;0.9999607387749468;9.130919118318449e-06;-3.195821691411457e-05;3.195821691411457e-05;0.2299314301492583;0.12990965807114696;-7.852245010653293e-05;0.9999615824755709;0.0;2.739275735495535e-05;-8.217827206486605e-05;-0.005313147336269974;0.04217450113839005
0.3999669551849365;-0.1472112181825134;-0.06671848305016609;0.7517874215955689;0.00573163463550749;0.13056033432790126;-0.012080526635458699;-0.001496628447582991;9.497982731764693e-06;-0.9962405100505358;1.0616748924511312;-0.16557256098623785;9.527892906483729e-06;-0.0014985630915726525;9.507952790004623e-06;-0.9961260859125995;1.0616777557523054;-0.16557533573838012;-9.517922848244122e-06;7.67000567580417e-05;0.1000782340578932;0.230023470217368;0.13007839819601466;2.8857629354561712e-05;0.9999607387749468;9.130919118318449e-06;-3.195821691411457e-05;3.195821691411457e-05;0.2299314301492583;0.12992499808249858;-7.852245010653293e-05;0.9999615824755709;0.0;2.739275735495535e-05;-8.217827206486605e-05;-0.005313147336269974;0.04217450113839005
0.41995787620544434;-0.14720160956788747;-0.06661420618377993;0.7517985499345796;0.005790938177980515;0.1305669491216431;-0.012236097405694505;-0.001496628447582991;9.497982731764693e-06;-0.9962405100505358;1.0616748924511312;-0.16557256098623785;9.527892906483729e-06;-0.0014985630915726525;9.507952790004623e-06;-0.9961260859125995;1.0616777557523054;-0.16557533573838012;-9.517922848244122e-06;7.67000567580417e-05;0.1000782340578932;0.230023470217368;0.13007839819601466;2.8857629354561712e-05;0.9999453987635952;9.130919118318449e-06;-3.195821691411457e-05;3.195821691411457e-05;0.2299314301492583;0.1299403380938502;-7.852245010653293e-05;0.9999615824755709;0.0;1.3696378677477674e-05;-6.848189338738837e-05;-0.005313147336269974;0.04217450113839005
0.43996357917785645;-0.14716566048179974;-0.06662103327894142;0.7518049828967684;0.005880138896328164;0.13060681437664173;-0.012244534073465992;-0.001496628447582991;9.497982731764693e-06;-0.9962405100505358;1.0616748924511312;-0.16557256098623785;9.527892906483729e-06;-0.0014985630915726525;9.507952790004623e-06;-0.9961260859125995;1.0616777557523054;-0.16557533573838012;-9.517922848244122e-06;7.67000567580417e-05;0.1000782340578932;0.230023470217368;0.13007839819601466;2.8857629354561712e-05;0.9999453987635952;9.130919118318449e-06;-3.195821691411457e-05;3.195821691411457e-05;0.2299314301492583;0.1299403380938502;-7.852245010653293e-05;0.9999615824755709;0.0;1.8261838236636895e-05;-7.304735294654759e-05;-0.005313147336269974;0.04063861139663505
0.45995044708251953;-0.14722375790523934;-0.06654798416098594;0.7518000777606885;0.006034397088553129;0.13051512842310212;-0.012376952292069924;-0.001496628447582991;9.497982731764693e-06;-0.9962405100505358;1.0616748924511312;-0.16557256098623785;9.527892906483729e-06;-0.0014985630915726525;9.507952790004623e-06;-0.9961260859125995;1.0616777557523054;-0.16557533573838012;-9.517922848244122e-06;7.67000567580417e-05;0.1000782340578932;0.230023470217368;0.13007839819601466;2.8857629354561712e-05;0.9999453987635952;9.130919118318449e-06;-3.195821691411457e-05;3.195821691411457e-05;0.2299314301492583;0.1299556781052018;-7.852245010653293e-05;0.9999615824755709;0.0;2.739275735495535e-05;-8.217827206486605e-05;-0.005313147336269974;0.04217450113839005
0.47994494438171387;-0.14722038872006465;-0.06650157696156822;0.7518048439690624;0.006167037434363114;0.13050737618684657;-0.01246779109753671;-0.001496628447582991;9.497982731764693e-06;-0.9962405100505358;1.0616748924511312;-0.16557256098623785;9.527892906483729e-06;-0.0014985630915726525;9.507952790004623e-06;-0.9961260859125995;1.0616777557523054;-0.16557533573838012;-9.517922848244122e-06;7.67000567580417e-05;0.1000782340578932;0.230023470217368;0.13007839819601466;2.8857629354561712e-05;0.9999453987635952;9.130919118318449e-06;-3.195821691411457e-05;3.195821691411457e-05;0.2299314301492583;0.12997101811655346;-7.852245010653293e-05;0.9999615824755709;0.0;2.739275735495535e-05;-8.217827206486605e-05;-0.005313147336269974;0.04217450113839005
0.49993348121643066;-0.1473281858435614;-0.06655377566051325;0.7517792216390959;0.006269528224203955;0.13035516645047004;-0.012419253706951695;-0.001496628447582991;9.497982731764693e-06;-0.9962405100505358;1.0616748924511312;-0.16557256098623785;1.9055785812967458e-05;-0.0014985630915726525;9.507952790004623e-06;-0.9961260859125995;1.0616777557523054;-0.16557533573838012;-9.517922848244122e-06;7.67000567580417e-05;0.1000782340578932;0.230023470217368;0.13007839819601466;2.8857629354561712e-05;0.9999453987635952;9.130919118318449e-06;-2.739275735495535e-05;2.739275735495535e-05;0.2299314301492583;0.1300323781619599;-7.852245010653293e-05;0.9999615824755709;0.0;9.130919118318454e-06;-6.391643382822915e-05;-0.005313147336269974;0.04217450113839005
0.5199096202850342;-0.14734343058085836;-0.06652816972704141;0.7517785003472389;0.006325234692647184;0.13032971128187038;-0.01246597948266815;-0.001496628447582991;9.497982731764693e-06;-0.9962405100505358;1.0616748924511312;-0.16557256098623785;1.9055785812967458e-05;-0.0014985630915726525;9.507952790004623e-06;-0.9961260859125995;1.0616777557523054;-0.16557533573838012;-9.517922848244122e-06;7.67000567580417e-05;0.1000782340578932;0.230023470217368;0.13007839819601466;2.8857629354561712e-05;0.9999453987635952;9.130919118318449e-06;-3.195821691411457e-05;3.195821691411457e-05;0.2299314301492583;0.1300323781619599;-7.852245010653293e-05;0.9999615824755709;0.0;2.739275735495535e-05;-8.217827206486605e-05;-0.005313147336269974;0.04217450113839005
0.5400524139404297;-0.14732882503356687;-0.0665166753012736;0.7517823798866289;0.006353104445233232;0.13034656201342415;-0.012487350310225612;-0.001496628447582991;9.497982731764693e-06;-0.9962405100505358;1.0616748924511312;-0.16557256098623785;1.9055785812967458e-05;-0.0014985630915726525;9.507952790004623e-06;-0.9961260859125995;1.0616777557523054;-0.16557533573838012;-9.517922848244122e-06;7.67000567580417e-05;0.1000782340578932;0.230023470217368;0.13007839819601466;2.8857629354561712e-05;0.9999453987635952;9.130919118318449e-06;-3.195821691411457e-05;3.195821691411457e-05;0.2299314301492583;0.1300477181733114;-7.852245010653293e-05;0.9999615824755709;0.0;2.739275735495535e-05;-8.217827206486605e-05;-0.005313147336269974;0.04217450113839005
0.5599405765533447;-0.1473199151616621;-0.06662255559257946;0.7517747502876004;0.006354655711507725;0.13035903500803314;-0.012341789672561424;-0.001496628447582991;9.497982731764693e-06;-0.9962405100505358;1.0616748924511312;-0.16557256098623785;1.9055785812967458e-05;-0.0014985630915726525;9.507952790004623e-06;-0.9961260859125995;1.0616777557523054;-0.16557533573838012;-9.517922848244122e-06;7.67000567580417e-05;0.1000782340578932;0.230023470217368;0.13007839819601466;2.8857629354561712e-05;0.9999453987635952;9.130919118318449e-06;-3.195821691411457e-05;3.195821691411457e-05;0.2299314301492583;0.1300477181733114;-7.852245010653293e-05;0.9999615824755709;0.0;2.739275735495535e-05;-8.217827206486605e-05;-0.005313147336269974;0.04217450113839005
0.579930305480957;-0.14724926722869808;-0.06665560741800224;0.7517856614669226;0.006502030670723819;0.1304400305710042;-0.012325627881823665;-0.001496628447582991;9.497982731764693e-06;-0.9962405100505358;1.0616748924511312;-0.16557256098623785;1.9055785812967458e-05;-0.0014985630915726525;9.507952790004623e-06;-0.9961260859125995;1.0616777557523054;-0.16557533573838012;-9.517922848244122e-06;7.67000567580417e-05;0.1000782340578932;0.230023470217368;0.13007839819601466;2.8857629354561712e-05;0.9999453987635952;9.130919118318449e-06;-3.195821691411457e-05;3.195821691411457e-05;0.2299314301492583;0.1300477181733114;-7.852245010653293e-05;0.9999615824755709;0.0;1.3696378677477674e-05;-6.848189338738837e-05;-0.005313147336269974;0.04217450113839005
0.5998954772949219;-0.14724579446696687;-0.06659623984195319;0.7517916029975426;0.006479815033163746;0.13044622576157644;-0.012402829203796832;-0.001496628447582991;9.497982731764693e-06;-0.9962405100505358;1.0616748924511312;-0.16557256098623785;1.9055785812967458e-05;-0.0014985630915726525;9.507952790004623e-06;-0.9961018446636904;1.0616777557523054;-0.16557533573838012;-9.517922848244122e-06;7.67000567580417e-05;0.1000782340578932;0.230023470217368;0.13007839819601466;2.8857629354561712e-05;0.9999453987635952;9.130919118318449e-06;-3.195821691411457e-05;3.195821691411457e-05;0.2299314301492583;0.1300477181733114;-6.318243875513829e-05;0.9999615824755709;0.0;2.739275735495535e-05;-8.217827206486605e-05;-0.005313147336269974;0.04217450113839005
0.6201767921447754;-0.14729800018577974;-0.06662170114755182;0.7517791201971402;0.006546380527039853;0.13037099068607916;-0.01238177582710177;-0.001496628447582991;9.497982731764693e-06;-0.9962405100505358;1.0616748924511312;-0.16557256098623785;1.9055785812967458e-05;-0.0014985630915726525;9.507952790004623e-06;-0.9960776034147814;1.0616777557523054;-0.16557533573838012;-9.517922848244122e-06;7.67000567580417e-05;0.1000782340578932;0.230023470217368;0.13007839819601466;2.8857629354561712e-05;0.9999453987635952;9.130919118318449e-06;-3.195821691411457e-05;3.195821691411457e-05;0.2299314301492583;0.1300477181733114;-6.318243875513829e-05;0.9999615824755709;0.0;3.195821691411458e-05;-8.674373162402527e-05;-0.005313147336269974;0.04063861139663505
0.6401236057281494;-0.14733891359527046;-0.06665261324366652;0.7517683627123886;0.006545439704143557;0.13031686366143125;-0.012339386758588767;-0.001496628447582991;9.497982731764693e-06;-0.9962405100505358;1.0616748924511312;-0.16557256098623785;1.9055785812967458e-05;-0.0014985630915726525;9.507952790004623e-06;-0.9960776034147814;1.0616777557523054;-0.16557533573838012;-9.517922848244122e-06;7.67000567580417e-05;0.1000782340578932;0.230023470217368;0.13007839819601466;2.8857629354561712e-05;0.9999453987635952;9.130919118318449e-06;-3.195821691411457e-05;3.195821691411457e-05;0.2299314301492583;0.1300477181733114;-6.318243875513829e-05;0.9999615824755709;0.0;2.739275735495535e-05;-8.217827206486605e-05;-0.005313147336269974;0.04217450113839005
0.6598894596099854;-0.14745921999638065;-0.06664613743244953;0.7517453480336967;0.006560204541867255;0.13015545225393607;-0.012352395360401355;-0.001496628447582991;9.497982731764693e-06;-0.9962405100505358;1.0616748924511312;-0.16557256098623785;1.9055785812967458e-05;-0.0014985630915726525;9.507952790004623e-06;-0.9960776034147814;1.0616777557523054;-0.16557533573838012;-9.517922848244122e-06;7.67000567580417e-05;0.1000782340578932;0.230023470217368;0.13007839819601466;2.8857629354561712e-05;0.9999453987635952;9.130919118318449e-06;-3.195821691411457e-05;3.195821691411457e-05;0.2299314301492583;0.1300477181733114;-6.318243875513829e-05;0.9999615824755709;0.0;9.130919118318454e-06;-6.391643382822915e-05;-0.005313147336269974;0.04063861139663505
0.6799497604370117;-0.14748436304838153;-0.06665363037149419;0.7517397513111991;0.006619979863966615;0.13011669497627062;-0.012354480421215163;-0.001496628447582991;9.497982731764693e-06;-0.9962405100505358;1.0616748924511312;-0.16557256098623785;1.9055785812967458e-05;-0.0014985630915726525;9.507952790004623e-06;-0.9960776034147814;1.0616777557523054;-0.16557533573838012;-9.517922848244122e-06;7.67000567580417e-05;0.1000782340578932;0.230023470217368;0.13007839819601466;2.8857629354561712e-05;0.9999453987635952;9.130919118318449e-06;-3.195821691411457e-05;3.195821691411457e-05;0.2299314301492583;0.1300477181733114;-6.318243875513829e-05;0.9999615824755709;0.0;2.739275735495535e-05;-8.217827206486605e-05;-0.005313147336269974;0.04217450113839005
0.7001407146453857;-0.14751076265595153;-0.06665303686920804;0.7517346240952864;0.006550531505640479;0.1300877990127729;-0.012341389681079281;-0.001496628447582991;9.497982731764693e-06;-0.9962405100505358;1.0616748924511312;-0.16557256098623785;1.9055785812967458e-05;-0.0014985630915726525;9.507952790004623e-06;-0.9960776034147814;1.0616777557523054;-0.16557533573838012;-9.517922848244122e-06;7.67000567580417e-05;0.1000782340578932;0.230023470217368;0.13007839819601466;2.8857629354561712e-05;0.9999453987635952;9.130919118318449e-06;-3.195821691411457e-05;3.195821691411457e-05;0.2299314301492583;0.1300477181733114;-6.318243875513829e-05;0.9999615824755709;0.0;2.739275735495535e-05;-8.217827206486605e-05;-0.005313147336269974;0.04217450113839005
0.7199509143829346;-0.1474657545594961;-0.06660586201074538;0.7517476357561186;0.006589660472798888;0.13014384231391773;-0.012413913307303;-0.001496628447582991;9.497982731764693e-06;-0.9962405100505358;1.0616748924511312;-0.16557256098623785;1.9055785812967458e-05;-0.0014985630915726525;9.507952790004623e-06;-0.9960776034147814;1.0616777557523054;-0.16557533573838012;-9.517922848244122e-06;7.67000567580417e-05;0.1000782340578932;0.230023470217368;0.13007839819601466;2.8857629354561712e-05;0.9999453987635952;9.130919118318449e-06;-3.195821691411457e-05;3.195821691411457e-05;0.2299467701606099;0.1300477181733114;-4.784242740352162e-05;0.9999615824755709;0.0;2.739275735495535e-05;-8.217827206486605e-05;-0.005313147336269974;0.04217450113839005
0.7399072647094727;-0.14746952943091654;-0.06655024341437987;0.7517518210671795;0.006564467562636519;0.130140696534998;-0.012485403586703176;-0.001496628447582991;9.497982731764693e-06;-0.9962405100505358;1.0616748924511312;-0.16557256098623785;1.9055785812967458e-05;-0.0014985630915726525;9.507952790004623e-06;-0.9960776034147814;1.0616777557523054;-0.16557533573838012;-9.517922848244122e-06;7.67000567580417e-05;0.1000782340578932;0.230023470217368;0.13007839819601466;4.4197640706178376e-05;0.9999453987635952;9.130919118318449e-06;-3.195821691411457e-05;3.195821691411457e-05;0.230023470217368;0.1300477181733114;1.3517618002945042e-05;0.9999615824755709;0.0;1.3696378677477674e-05;-6.848189338738837e-05;-0.005313147336269974;0.04217450113839005
0.7599508762359619;-0.1474225653485039;-0.06653329211248285;0.7517625328211368;0.006555402213850396;0.1302038676745753;-0.012506475259051632;-0.001496628447582991;9.497982731764693e-06;-0.9962405100505358;1.0616748924511312;-0.16557256098623785;1.9055785812967458e-05;-0.0014985630915726525;9.507952790004623e-06;-0.9960776034147814;1.0616777557523054;-0.16557533573838012;-9.517922848244122e-06;7.67000567580417e-05;0.1000782340578932;0.230023470217368;0.13007839819601466;4.4197640706178376e-05;0.9999453987635952;9.130919118318449e-06;-3.195821691411457e-05;3.195821691411457e-05;0.2300388102287196;0.1300477181733114;2.8857629354561712e-05;0.9999615824755709;0.0;2.739275735495535e-05;-8.217827206486605e-05;-0.005313147336269974;0.04217450113839005
0.7799293994903564;-0.14746829904526124;-0.0665287297445576;0.7517539666554364;0.006583815420454859;0.1301404539955819;-0.012518957238416561;-0.001496628447582991;9.497982731764693e-06;-0.9962405100505358;1.0616748924511312;-0.16557256098623785;1.9055785812967458e-05;-0.0014985630915726525;9.507952790004623e-06;-0.9960776034147814;1.0616777557523054;-0.16557533573838012;-9.517922848244122e-06;7.67000567580417e-05;0.1000782340578932;0.230023470217368;0.13007839819601466;4.4197640706178376e-05;0.9999453987635952;9.130919118318449e-06;-3.195821691411457e-05;3.195821691411457e-05;0.2300388102287196;0.1300477181733114;4.4197640706178376e-05;0.9999615824755709;0.0;2.739275735495535e-05;-8.217827206486605e-05;-0.005313147336269974;0.04217450113839005
0.7999162673950195;-0.14746618097610925;-0.06657922646749605;0.7517499115784592;0.006580774764558009;0.13014388901653104;-0.012448784777630466;-0.001496628447582991;9.497982731764693e-06;-0.9962405100505358;1.0616748924511312;-0.16557256098623785;1.9055785812967458e-05;-0.0014985630915726525;9.507952790004623e-06;-0.9960776034147814;1.0616777557523054;-0.16557533573838012;-9.517922848244122e-06;7.67000567580417e-05;0.1000782340578932;0.230023470217368;0.13007839819601466;4.4197640706178376e-05;0.9999453987635952;9.130919118318449e-06;-3.195821691411457e-05;3.195821691411457e-05;0.2300388102287196;0.1300477181733114;4.4197640706178376e-05;0.9999615824755709;0.0;2.739275735495535e-05;-8.217827206486605e-05;-0.005313147336269974;0.04217450113839005
0.8199203014373779;-0.14746258291267506;-0.06661421324331095;0.7517475179351154;0.0064764291617053875;0.13015826843673275;-0.012379324451006658;-0.001496628447582991;9.497982731764693e-06;-0.9962405100505358;1.0616748924511312;-0.16557256098623785;1.9055785812967458e-05;-0.0014985630915726525;9.507952790004623e-06;-0.9960776034147814;1.0616777557523054;-0.16557533573838012;-9.517922848244122e-06;7.67000567580417e-05;0.1000782340578932;0.230023470217368;0.13007839819601466;4.4197640706178376e-05;0.9999453987635952;9.130919118318449e-06;-3.195821691411457e-05;3.195821691411457e-05;0.2300388102287196;0.1300477181733114;4.4197640706178376e-05;0.9999615824755709;0.0;1.3696378677477674e-05;-6.848189338738837e-05;-0.005313147336269974;0.04217450113839005
0.8399143218994141;-0.14740030834054701;-0.06655219744954538;0.7517652237252388;0.006539997489326634;0.13023498517600027;-0.012477105770092622;-0.001496628447582991;9.497982731764693e-06;-0.9962405100505358;1.0616748924511312;-0.16557256098623785;1.9055785812967458e-05;-0.0014985630915726525;9.507952790004623e-06;-0.9960776034147814;1.0616777557523054;-0.16557533573838012;-9.517922848244122e-06;7.67000567580417e-05;0.1000782340578932;0.230023470217368;0.13007839819601466;4.4197640706178376e-05;0.9999453987635952;9.130919118318449e-06;-3.195821691411457e-05;3.195821691411457e-05;0.2300388102287196;0.1300477181733114;4.4197640706178376e-05;0.9999615824755709;0.0;2.282729779579613e-05;-7.761281250570684e-05;-0.005313147336269974;0.04217450113839005
0.8599615097045898;-0.14737472957156472;-0.06658764473890398;0.7517693642741176;0.0065014865291150425;0.130233460498808;-0.012420081856513566;-0.001496628447582991;9.497982731764693e-06;-0.9961920275527174;1.0616748924511312;-0.16557256098623785;1.9055785812967458e-05;-0.0014985630915726525;9.507952790004623e-06;-0.9960776034147814;1.0616777557523054;-0.16557533573838012;-9.517922848244122e-06;7.67000567580417e-05;0.1000782340578932;0.230023470217368;0.13007839819601466;4.4197640706178376e-05;0.9999453987635952;9.130919118318449e-06;-2.739275735495535e-05;2.739275735495535e-05;0.2300388102287196;0.1300477181733114;4.4197640706178376e-05;0.9999615824755709;0.0;2.739275735495535e-05;-8.217827206486605e-05;-0.005313147336269974;0.04217450113839005
0.8799035549163818;-0.14739186251221603;-0.06662052438255511;0.7517630923405665;0.0066472176629615125;0.1301978352236859;-0.012404625381998149;-0.001496628447582991;9.497982731764693e-06;-0.9961920275527174;1.0616748924511312;-0.16557256098623785;1.9055785812967458e-05;-0.0014985630915726525;9.507952790004623e-06;-0.9960776034147814;1.0616777557523054;-0.16557533573838012;-9.517922848244122e-06;7.67000567580417e-05;0.1000782340578932;0.230023470217368;0.13007839819601466;4.4197640706178376e-05;0.9999453987635952;9.130919118318449e-06;-3.195821691411457e-05;3.195821691411457e-05;0.2300388102287196;0.1300477181733114;4.4197640706178376e-05;0.9999615824755709;0.0;2.739275735495535e-05;-8.217827206486605e-05;-0.005313147336269974;0.04217450113839005
0.8999412059783936;-0.14731806051512852;-0.06665510955371738;0.7517790210514691;0.006688613204552187;0.13021403978732685;-0.012364462579171478;-0.001496628447582991;9.497982731764693e-06;-0.996095062557081;1.0616748924511312;-0.16557256098623785;1.9055785812967458e-05;-0.0014985630915726525;9.507952790004623e-06;-0.9960776034147814;1.0616777557523054;-0.16557533573838012;-9.517922848244122e-06;7.67000567580417e-05;0.1000782340578932;0.230023470217368;0.13007839819601466;4.4197640706178376e-05;0.9999453987635952;9.130919118318449e-06;-3.195821691411457e-05;3.195821691411457e-05;0.2300388102287196;0.1300477181733114;4.4197640706178376e-05;0.9999615824755709;0.0;1.8261838236636895e-05;-7.304735294654759e-05;-0.005313147336269974;0.04217450113839005
0.9201037883758545;-0.14733826124838478;-0.06665015046608265;0.7517800292567937;0.006770047546923084;0.1301013399735383;-0.01238776128005519;-0.001496628447582991;9.497982731764693e-06;-0.9959980975614444;1.0616748924511312;-0.16557256098623785;1.9055785812967458e-05;-0.0014985630915726525;9.507952790004623e-06;-0.9960776034147814;1.0616777557523054;-0.16557533573838012;-9.517922848244122e-06;7.67000567580417e-05;0.1000782340578932;0.230023470217368;0.13007839819601466;4.4197640706178376e-05;0.9999453987635952;9.130919118318449e-06;-3.195821691411457e-05;3.195821691411457e-05;0.2300388102287196;0.1300477181733114;4.4197640706178376e-05;0.9999615824755709;0.0;1.8261838236636895e-05;-7.304735294654759e-05;-0.005313147336269974;0.04217450113839005
0.9401109218597412;-0.1472528051134348;-0.06667238386251875;0.7517948009866178;0.006832178963315669;0.13020959332616588;-0.012368987603961915;-0.001496628447582991;9.497982731764693e-06;-0.9959980975614444;1.0616748924511312;-0.16557256098623785;1.9055785812967458e-05;-0.0014985630915726525;9.507952790004623e-06;-0.9960776034147814;1.0616777557523054;-0.16557533573838012;-9.517922848244122e-06;7.67000567580417e-05;0.1000782340578932;0.230023470217368;0.13007839819601466;4.4197640706178376e-05;0.9999453987635952;9.130919118318449e-06;-3.195821691411457e-05;3.195821691411457e-05;0.2300388102287196;0.1300477181733114;4.4197640706178376e-05;0.9999615824755709;0.0;2.739275735495535e-05;-8.217827206486605e-05;-0.005313147336269974;0.04217450113839005
0.9599552154541016;-0.1472251132503707;-0.06663768000404345;0.7518033012738697;0.0067418857668241116;0.13025429441588673;-0.01239815084159831;-0.001496628447582991;9.497982731764693e-06;-0.9959980975614444;1.0616748924511312;-0.16557256098623785;1.9055785812967458e-05;-0.0014985630915726525;9.507952790004623e-06;-0.9960776034147814;1.0616777557523054;-0.16557533573838012;-9.517922848244122e-06;7.67000567580417e-05;0.1000782340578932;0.230023470217368;0.13007839819601466;4.4197640706178376e-05;0.9999453987635952;9.130919118318449e-06;-3.195821691411457e-05;3.195821691411457e-05;0.2300388102287196;0.1300477181733114;4.4197640706178376e-05;0.9999615824755709;0.0;2.739275735495535e-05;-8.217827206486605e-05;-0.005313147336269974;0.04217450113839005
0.9800946712493896;-0.14736580305680777;-0.06668544356092754;0.7517715011096783;0.006726204972477177;0.1300688671105929;-0.012330499718218051;-0.001496628447582991;9.497982731764693e-06;-0.9959980975614444;1.0616748924511312;-0.16557256098623785;1.9055785812967458e-05;-0.0014985630915726525;9.507952790004623e-06;-0.9960776034147814;1.0616777557523054;-0.16557533573838012;-9.517922848244122e-06;6.903005108223337e-05;0.1000705640522174;0.230023470217368;0.13007839819601466;4.4197640706178376e-05;0.9999453987635952;9.130919118318449e-06;-3.195821691411457e-05;3.195821691411457e-05;0.2300388102287196;0.1300477181733114;4.4197640706178376e-05;0.9999615824755709;0.0;2.282729779579613e-05;-7.761281250570684e-05;-0.005313147336269974;0.04217450113839005
0.9999830722808838;-0.1474293113850732;-0.06660970979471866;0.7517657633064843;0.006353266243715713;0.1300173050696378;-0.012359437162895745;-0.001496628447582991;9.497982731764693e-06;-0.9959980975614444;1.0616748924511312;-0.16557256098623785;1.9055785812967458e-05;-0.0014985630915726525;9.507952790004623e-06;-0.9960776034147814;1.0616777557523054;-0.16557533573838012;-9.517922848244122e-06;6.903005108223337e-05;0.1000705640522174;0.230023470217368;0.13007839819601466;4.4197640706178376e-05;0.9999453987635952;9.130919118318449e-06;-3.195821691411457e-05;3.195821691411457e-05;0.2300388102287196;0.1300477181733114;4.4197640706178376e-05;0.9999615824755709;0.0;9.130919118318454e-06;-6.391643382822915e-05;-0.005313147336269974;0.04063861139663505
1.020066738128662;-0.14731507869677726;-0.06665176472030854;0.7517844292231818;0.0059230400732985826;0.13020818333196443;-0.012213022159625804;-0.001496628447582991;9.497982731764693e-06;-0.9959980975614444;1.0616748924511312;-0.16557256098623785;1.9055785812967458e-05;-0.0014985630915726525;9.507952790004623e-06;-0.9960776034147814;1.0616777557523054;-0.16557533573838012;-9.517922848244122e-06;6.903005108223337e-05;0.1000705640522174;0.230023470217368;0.13007839819601466;4.4197640706178376e-05;0.9999453987635952;9.130919118318449e-06;-3.195821691411457e-05;3.195821691411457e-05;0.2300388102287196;0.1300477181733114;4.4197640706178376e-05;0.9999615824755709;0.0;2.739275735495535e-05;-8.217827206486605e-05;-0.005313147336269974;0.04217450113839005
1.0401182174682617;-0.14729299883908;-0.06658912955059973;0.7517943059726367;0.005571452784084004;0.13026862560466118;-0.012227594767341336;-0.001496628447582991;9.497982731764693e-06;-0.9959980975614444;1.0616748924511312;-0.16557256098623785;1.9055785812967458e-05;-0.0014985630915726525;9.507952790004623e-06;-0.9960776034147814;1.0616777557523054;-0.16557533573838012;-9.517922848244122e-06;6.903005108223337e-05;0.1000705640522174;0.230023470217368;0.13007839819601466;4.4197640706178376e-05;0.9999453987635952;9.130919118318449e-06;-3.195821691411457e-05;3.195821691411457e-05;0.2300388102287196;0.1300477181733114;4.4197640706178376e-05;0.9999615824755709;0.0;2.739275735495535e-05;-8.217827206486605e-05;-0.005313147336269974;0.04217450113839005
1.060133695602417;-0.14724419401066205;-0.06660230411926833;0.7518026992438571;0.005314700737783687;0.1303567201531181;-0.012156896387974533;-0.001496628447582991;9.497982731764693e-06;-0.9959980975614444;1.0616748924511312;-0.16557256098623785;1.9055785812967458e-05;-0.0014985630915726525;9.507952790004623e-06;-0.9960776034147814;1.0616777557523054;-0.16557533573838012;-9.517922848244122e-06;6.903005108223337e-05;0.1000705640522174;0.230023470217368;0.13007839819601466;4.4197640706178376e-05;0.9999453987635952;9.130919118318449e-06;-3.195821691411457e-05;3.195821691411457e-05;0.2300388102287196;0.1300477181733114;4.4197640706178376e-05;0.9999615824755709;0.0;2.282729779579613e-05;-7.761281250570684e-05;-0.005313147336269974;0.04217450113839005
1.079972505569458;-0.14729647223808928;-0.06663717358138946;0.7517893684653247;0.004828229789754749;0.13033124105900074;-0.012010373195936638;-0.001496628447582991;9.497982731764693e-06;-0.9959980975614444;1.0616748924511312;-0.16557256098623785;1.9055785812967458e-05;-0.0014985630915726525;9.507952790004623e-06;-0.9960776034147814;1.0616777557523054;-0.16557533573838012;-9.517922848244122e-06;6.136004540643197e-05;0.1000628940465416;0.230023470217368;0.13007839819601466;4.4197640706178376e-05;0.9999453987635952;9.130919118318449e-06;-3.195821691411457e-05;3.195821691411457e-05;0.2300388102287196;0.1300477181733114;4.4197640706178376e-05;0.9999615824755709;0.0;0.0;-5.4785514709910704e-05;-0.005313147336269974;0.04217450113839005
1.0999338626861572;-0.14726158757744517;-0.06660726746263482;0.7517988526989954;0.004424330790847175;0.13041372153399552;-0.01196924931355791;-0.001496628447582991;9.497982731764693e-06;-0.9959980975614444;1.0616748924511312;-0.16557256098623785;1.9055785812967458e-05;-0.0014985630915726525;9.507952790004623e-06;-0.9961018446636904;1.0616777557523054;-0.16557533573838012;-9.517922848244122e-06;6.903005108224031e-05;0.10005522404086578;0.230023470217368;0.13007839819601466;4.4197640706178376e-05;0.9999453987635952;9.130919118318449e-06;-3.195821691411457e-05;3.195821691411457e-05;0.2300388102287196;0.1300477181733114;4.4197640706178376e-05;0.9999615824755709;0.0;2.739275735495535e-05;-8.217827206486605e-05;-0.005313147336269974;0.04217450113839005
1.119966745376587;-0.14725799152504684;-0.06653538830294244;0.7518059219037719;0.004072009904495529;0.13044950277239808;-0.011996625554960364;-0.001496628447582991;9.497982731764693e-06;-0.9959980975614444;1.0616748924511312;-0.16557256098623785;1.9055785812967458e-05;-0.0014985630915726525;9.507952790004623e-06;-0.9961260859125995;1.0616777557523054;-0.16557533573838012;-9.517922848244122e-06;6.903005108224031e-05;0.10005522404086578;0.230023470217368;0.13007839819601466;4.4197640706178376e-05;0.9999453987635952;0.0;-3.195821691411457e-05;3.195821691411457e-05;0.2300388102287196;0.1300477181733114;4.4197640706178376e-05;0.9999615824755709;0.0;2.739275735495535e-05;-8.217827206486605e-05;-0.005313147336269974;0.04217450113839005
1.139972448348999;-0.14727186897341987;-0.06647532812328101;0.7518085165347439;0.0038123746803970797;0.13045378331065643;-0.012026659454532804;-0.001496628447582991;9.497982731764693e-06;-0.9959980975614444;1.0616748924511312;-0.16557256098623785;1.9055785812967458e-05;-0.0014985630915726525;9.507952790004623e-06;-0.9961260859125995;1.0616777557523054;-0.16557533573838012;-9.517922848244122e-06;6.136004540643891e-05;0.10004755403519;0.230023470217368;0.13007839819601466;4.4197640706178376e-05;0.9999453987635952;9.130919118318449e-06;-3.195821691411457e-05;3.195821691411457e-05;0.2300388102287196;0.1300477181733114;4.4197640706178376e-05;0.9999615824755709;0.0;2.739275735495535e-05;-8.217827206486605e-05;-0.005313147336269974;0.04217450113839005
1.1601145267486572;-0.14731851218117983;-0.06645608129445352;0.7518010796759358;0.003586412252384155;0.13041186839467372;-0.012007492966512332;-0.001496628447582991;9.497982731764693e-06;-0.9959980975614444;1.0616748924511312;-0.16557256098623785;1.9055785812967458e-05;-0.0014985630915726525;9.507952790004623e-06;-0.9961260859125995;1.0616777557523054;-0.16557533573838012;-9.517922848244122e-06;6.136004540643891e-05;0.10004755403519;0.230023470217368;0.13007839819601466;4.4197640706178376e-05;0.9999453987635952;9.130919118318449e-06;-3.195821691411457e-05;3.195821691411457e-05;0.2300388102287196;0.1300477181733114;4.4197640706178376e-05;0.9999615824755709;0.0;0.0;-5.4785514709910704e-05;-0.005313147336269974;0.04217450113839005
1.179957389831543;-0.14733299821741633;-0.06647546301544613;0.7517965274110696;0.0032988425374479973;0.1304187111926565;-0.011922445430361812;-0.001496628447582991;9.497982731764693e-06;-0.9959980975614444;1.0616748924511312;-0.16557256098623785;1.9055785812967458e-05;-0.0014985630915726525;9.507952790004623e-06;-0.9961260859125995;1.0616777557523054;-0.16557533573838012;-9.517922848244122e-06;6.136004540643891e-05;0.10004755403519;0.230023470217368;0.13007839819601466;4.4197640706178376e-05;0.9999453987635952;9.130919118318449e-06;-3.195821691411457e-05;3.195821691411457e-05;0.2300388102287196;0.1300477181733114;4.4197640706178376e-05;0.9999615824755709;0.0;2.739275735495535e-05;-8.217827206486605e-05;-0.005313147336269974;0.04217450113839005
1.2001912593841553;-0.1473559843148021;-0.0664233336328709;0.7517966299538101;0.002915773907430612;0.1304220448534473;-0.011916495024301832;-0.001496628447582991;9.497982731764693e-06;-0.9959980975614444;1.0616748924511312;-0.16557256098623785;1.9055785812967458e-05;-0.0014985630915726525;9.507952790004623e-06;-0.9961260859125995;1.0616777557523054;-0.16557533573838012;-9.517922848244122e-06;6.136004540643891e-05;0.10004755403519;0.230023470217368;0.13007839819601466;4.4197640706178376e-05;0.9999453987635952;9.130919118318449e-06;-3.195821691411457e-05;3.195821691411457e-05;0.2300388102287196;0.1300477181733114;4.4197640706178376e-05;0.9999615824755709;0.0;2.739275735495535e-05;-8.217827206486605e-05;-0.005313147336269974;0.04217450113839005
1.2200744152069092;-0.14738026173631982;-0.06646144288725639;0.7517885029940748;0.002640394704892445;0.13041503648909958;-0.011808160686737451;-0.001496628447582991;9.497982731764693e-06;-0.9959980975614444;1.0616748924511312;-0.16557256098623785;1.9055785812967458e-05;-0.0014985630915726525;9.507952790004623e-06;-0.9961260859125995;1.0616777557523054;-0.16557533573838012;-9.517922848244122e-06;6.136004540643891e-05;0.10004755403519;0.230023470217368;0.13007839819601466;4.4197640706178376e-05;0.9999453987635952;9.130919118318449e-06;-3.195821691411457e-05;3.195821691411457e-05;0.2300388102287196;0.1300477181733114;4.4197640706178376e-05;0.9999615824755709;0.0;2.739275735495535e-05;-8.217827206486605e-05;-0.005313147336269974;0.04217450113839005
1.2399358749389648;-0.1474407187726826;-0.06645730417782686;0.7517770143755426;0.002395528891406762;0.13035665933742385;-0.011764308972340761;-0.001496628447582991;9.497982731764693e-06;-0.9959980975614444;1.0616748924511312;-0.16557256098623785;1.9055785812967458e-05;-0.0014985630915726525;9.507952790004623e-06;-0.9961260859125995;1.0616777557523054;-0.16557533573838012;-9.517922848244122e-06;5.369003973063058e-05;0.10003988402951418;0.230023470217368;0.13007839819601466;4.4197640706178376e-05;0.9999453987635952;9.130919118318449e-06;-3.195821691411457e-05;3.195821691411457e-05;0.2300388102287196;0.1300477181733114;4.4197640706178376e-05;0.9999615824755709;0.0;4.5654595591592245e-06;-5.935097426906993e-05;-0.005313147336269974;0.04217450113839005
1.2599515914916992;-0.14745502829781068;-0.06641254353747376;0.7517781633332862;0.0020576004741376993;0.13036755296707386;-0.011757307851513462;-0.001496628447582991;9.497982731764693e-06;-0.9959980975614444;1.0616748924511312;-0.16557256098623785;1.9055785812967458e-05;-0.0014985630915726525;9.507952790004623e-06;-0.9961260859125995;1.0616777557523054;-0.16557533573838012;-9.517922848244122e-06;4.6020034054829184e-05;0.10003221402383837;0.230023470217368;0.13007839819601466;4.4197640706178376e-05;0.9999453987635952;9.130919118318449e-06;-2.739275735495535e-05;2.739275735495535e-05;0.2300388102287196;0.1300477181733114;4.4197640706178376e-05;0.9999615824755709;0.0;2.739275735495535e-05;-8.217827206486605e-05;-0.005313147336269974;0.04217450113839005
1.2799217700958252;-0.147480192737528;-0.0664216187309876;0.7517724253319292;0.001746557603411841;0.13036228542255596;-0.011681661265665265;-0.001496628447582991;9.497982731764693e-06;-0.9959980975614444;1.0616748924511312;-0.16557256098623785;1.9055785812967458e-05;-0.0014985630915726525;9.507952790004623e-06;-0.9961260859125995;1.0616777557523054;-0.16557533573838012;-9.517922848244122e-06;4.6020034054829184e-05;0.10003221402383837;0.230023470217368;0.13007839819601466;4.4197640706178376e-05;0.9999453987635952;9.130919118318449e-06;-3.195821691411457e-05;3.195821691411457e-05;0.2300388102287196;0.1300477181733114;4.4197640706178376e-05;0.9999615824755709;0.0;2.739275735495535e-05;-8.217827206486605e-05;-0.005313147336269974;0.04063861139663505
1.2999703884124756;-0.14746403125842983;-0.0663642147433926;0.7517806652612848;0.001484566399271767;0.13040666626574626;-0.01170742985794459;-0.001496628447582991;9.497982731764693e-06;-0.9959980975614444;1.0616748924511312;-0.16557256098623785;1.9055785812967458e-05;-0.0014985630915726525;9.507952790004623e-06;-0.9961260859125995;1.0616777557523054;-0.16557533573838012;-9.517922848244122e-06;3.835002837902085e-05;0.10002454401816258;0.230023470217368;0.13007839819601466;4.4197640706178376e-05;0.9999453987635952;9.130919118318449e-06;-3.195821691411457e-05;3.195821691411457e-05;0.2300388102287196;0.1300477181733114;4.4197640706178376e-05;0.9999615824755709;0.0;2.739275735495535e-05;-8.217827206486605e-05;-0.0068490370780249785;0.04217450113839005
1.32008695602417;-0.14745279179252493;-0.06634529381170672;0.7517845398489004;0.001148997204521425;0.1304516639165396;-0.011665285334683423;-0.001496628447582991;9.497982731764693e-06;-0.9959980975614444;1.0616748924511312;-0.16557256098623785;1.9055785812967458e-05;-0.0014985630915726525;9.507952790004623e-06;-0.9961260859125995;1.0616777557523054;-0.16557533573838012;-9.517922848244122e-06;-6.136004540643197e-05;0.09992483394437712;0.230023470217368;0.13007839819601466;4.4197640706178376e-05;0.9999453987635952;9.130919118318449e-06;-3.195821691411457e-05;3.195821691411457e-05;0.2300388102287196;0.1300477181733114;4.4197640706178376e-05;0.9999615824755709;0.0;9.130919118318454e-06;-6.391643382822915e-05;-0.005313147336269974;0.04217450113839005
1.3399085998535156;-0.1474445600027262;-0.06634172609025886;0.7517864692046285;0.0008495493841734636;0.13048962591650293;-0.011609359568871247;-0.001496628447582991;9.497982731764693e-06;-0.9959980975614444;1.0616748924511312;-0.16557256098623785;1.9055785812967458e-05;-0.0014985630915726525;9.507952790004623e-06;-0.9961260859125995;1.0616777557523054;-0.16557533573838012;-9.517922848244122e-06;-6.136004540643197e-05;0.09992483394437712;0.230023470217368;0.13007839819601466;4.4197640706178376e-05;0.9999453987635952;9.130919118318449e-06;-3.195821691411457e-05;3.195821691411457e-05;0.2300388102287196;0.1300477181733114;4.4197640706178376e-05;0.9999615824755709;0.0;2.739275735495535e-05;-8.217827206486605e-05;-0.005313147336269974;0.04217450113839005
1.360060453414917;-0.1473339083959084;-0.0662491685500341;0.7518163241626306;0.0006053899916083876;0.13065750156457265;-0.011687132100547986;-0.001496628447582991;9.497982731764693e-06;-0.9959980975614444;1.0616748924511312;-0.16557256098623785;1.9055785812967458e-05;-0.0014985630915726525;9.507952790004623e-06;-0.9961260859125995;1.0616777557523054;-0.16557533573838012;-9.517922848244122e-06;-6.136004540643197e-05;0.09992483394437712;0.230023470217368;0.13007839819601466;4.4197640706178376e-05;0.9999453987635952;9.130919118318449e-06;-3.195821691411457e-05;3.195821691411457e-05;0.2300388102287196;0.1300477181733114;4.4197640706178376e-05;0.9999615824755709;0.0;2.739275735495535e-05;-8.217827206486605e-05;-0.005313147336269974;0.04063861139663505
1.3799452781677246;-0.14734171795885795;-0.06624307235867855;0.7518153308410314;0.00035938587624407533;0.13066924741621008;-0.011645609988924822;-0.001496628447582991;9.497982731764693e-06;-0.9959980975614444;1.0616748924511312;-0.16557256098623785;1.9055785812967458e-05;-0.0014985630915726525;9.507952790004623e-06;-0.9961260859125995;1.0616777557523054;-0.16557533573838012;-9.517922848244122e-06;-6.903005108223337e-05;0.09991716393870133;0.230023470217368;0.13007839819601466;4.4197640706178376e-05;0.9999453987635952;9.130919118318449e-06;-3.195821691411457e-05;3.195821691411457e-05;0.2300388102287196;0.1300477181733114;4.4197640706178376e-05;0.9999615824755709;0.0;2.739275735495535e-05;-8.217827206486605e-05;-0.005313147336269974;0.04217450113839005
1.3999366760253906;-0.14739685288163623;-0.06623966178842429;0.7518025603763321;3.747798700062226e-05;0.13066420972394;-0.011585120962633241;-0.001496628447582991;9.497982731764693e-06;-0.9960465800592626;1.0616748924511312;-0.16557256098623785;1.9055785812967458e-05;-0.0014985630915726525;9.507952790004623e-06;-0.9961260859125995;1.0616777557523054;-0.16557533573838012;-9.517922848244122e-06;-6.136004540643197e-05;0.0999094939330255;0.230023470217368;0.13007839819601466;4.4197640706178376e-05;0.9999453987635952;9.130919118318449e-06;-3.195821691411457e-05;3.195821691411457e-05;0.2300388102287196;0.1300477181733114;4.4197640706178376e-05;0.9999615824755709;0.0;1.3696378677477674e-05;-6.848189338738837e-05;-0.005313147336269974;0.04217450113839005
1.419914722442627;-0.1476219054859795;-0.06619484429118648;0.7517544250665261;-0.00029545069526117133;0.13053162247736283;-0.011579630359453245;-0.001496628447582991;9.497982731764693e-06;-0.9962162688016268;1.0616748924511312;-0.16557256098623785;1.9055785812967458e-05;-0.0014985630915726525;9.507952790004623e-06;-0.9961260859125995;1.0616777557523054;-0.16557533573838012;-9.517922848244122e-06;-6.136004540643197e-05;0.0999094939330255;0.230023470217368;0.13007839819601466;4.4197640706178376e-05;0.9999453987635952;9.130919118318449e-06;-3.195821691411457e-05;3.195821691411457e-05;0.2300388102287196;0.1300477181733114;4.4197640706178376e-05;0.9999615824755709;0.0;2.739275735495535e-05;-8.217827206486605e-05;-0.005313147336269974;0.04217450113839005
1.440075397491455;-0.14758397200667164;-0.06617704633683417;0.7517623076689707;-0.0007876270044462397;0.13064594559295778;-0.011504213436697214;-0.001496628447582991;9.497982731764693e-06;-0.9962405100505358;1.0616748924511312;-0.16557256098623785;1.9055785812967458e-05;-0.0014985630915726525;9.507952790004623e-06;-0.9961260859125995;1.0616777557523054;-0.16557533573838012;-9.517922848244122e-06;-6.136004540643197e-05;0.0999094939330255;0.230023470217368;0.13007839819601466;4.4197640706178376e-05;0.9999453987635952;9.130919118318449e-06;-3.195821691411457e-05;3.195821691411457e-05;0.2300388102287196;0.1300477181733114;4.4197640706178376e-05;0.9999615824755709;0.0;2.739275735495535e-05;-8.217827206486605e-05;-0.005313147336269974;0.04217450113839005
1.4600448608398438;-0.14755846878660198;-0.06613885536382622;0.7517706748652985;-0.001054428184054639;0.13070336885970882;-0.01150264147762662;-0.001496628447582991;9.497982731764693e-06;-0.9962405100505358;1.0616748924511312;-0.16557256098623785;1.9055785812967458e-05;-0.0014985630915726525;9.507952790004623e-06;-0.9961260859125995;1.0616777557523054;-0.16557533573838012;-9.517922848244122e-06;-6.136004540643197e-05;0.0999094939330255;0.230023470217368;0.13007839819601466;4.4197640706178376e-05;0.9999453987635952;9.130919118318449e-06;-3.195821691411457e-05;3.195821691411457e-05;0.2300388102287196;0.1300477181733114;4.4197640706178376e-05;0.9999615824755709;0.0;2.739275735495535e-05;-8.217827206486605e-05;-0.005313147336269974;0.04217450113839005
1.4799413681030273;-0.14761121918505393;-0.06614481753897634;0.7517597944625314;-0.0009378039892245435;0.1306227474079867;-0.011518051188364752;-0.001496628447582991;9.497982731764693e-06;-0.9962405100505358;1.0616748924511312;-0.16557256098623785;1.9055785812967458e-05;-0.0014985630915726525;9.507952790004623e-06;-0.9961260859125995;1.0616777557523054;-0.16557533573838012;-9.517922848244122e-06;-6.136004540643197e-05;0.0999094939330255;0.230023470217368;0.13007839819601466;4.4197640706178376e-05;0.9999453987635952;9.130919118318449e-06;-3.195821691411457e-05;3.195821691411457e-05;0.2300388102287196;0.1300477181733114;4.4197640706178376e-05;0.9999615824755709;0.0;1.3696378677477674e-05;-6.848189338738837e-05;-0.005313147336269974;0.04217450113839005
1.4999256134033203;-0.14764193727160077;-0.06615585694306772;0.7517527907748179;-0.0011776554410375729;0.13060379165707095;-0.01145406371676244;-0.001496628447582991;9.497982731764693e-06;-0.9962405100505358;1.0616748924511312;-0.16557256098623785;1.9055785812967458e-05;-0.0014985630915726525;9.507952790004623e-06;-0.9961260859125995;1.0616777557523054;-0.16557533573838012;-9.517922848244122e-06;-6.136004540643197e-05;0.0999094939330255;0.230023470217368;0.13007839819601466;4.4197640706178376e-05;0.9999453987635952;9.130919118318449e-06;-3.195821691411457e-05;3.195821691411457e-05;0.2300388102287196;0.1300477181733114;4.4197640706178376e-05;0.9999615824755709;0.0;2.282729779579613e-05;-7.761281250570684e-05;-0.005313147336269974;0.04217450113839005
1.5202159881591797;-0.14755418247316973;-0.06601451113911234;0.7517824452862998;-0.0015035937135985846;0.13074753108041193;-0.011582668070153925;-0.001496628447582991;9.497982731764693e-06;-0.9962405100505358;1.0616748924511312;-0.16557256098623785;1.9055785812967458e-05;-0.0014985630915726525;9.507952790004623e-06;-0.9961260859125995;1.0616777557523054;-0.16557533573838012;-9.517922848244122e-06;-6.136004540643197e-05;0.0999094939330255;0.230023470217368;0.13007839819601466;4.4197640706178376e-05;0.9999453987635952;9.130919118318449e-06;-3.195821691411457e-05;3.195821691411457e-05;0.2300388102287196;0.1300477181733114;4.4197640706178376e-05;0.9999615824755709;0.0;2.739275735495535e-05;-8.217827206486605e-05;-0.005313147336269974;0.04217450113839005
1.5399549007415771;-0.14759426099968176;-0.06598796784109277;0.7517769082028727;-0.0017005031675836086;0.130711552764957;-0.011579144175104434;-0.001496628447582991;9.497982731764693e-06;-0.9962405100505358;1.0616748924511312;-0.16557256098623785;1.9055785812967458e-05;-0.0014985630915726525;9.507952790004623e-06;-0.9961260859125995;1.0616777557523054;-0.16557533573838012;-9.517922848244122e-06;-6.136004540643197e-05;0.0999094939330255;0.230023470217368;0.13007839819601466;4.4197640706178376e-05;0.9999453987635952;9.130919118318449e-06;-3.195821691411457e-05;3.195821691411457e-05;0.2300388102287196;0.1300477181733114;4.4197640706178376e-05;0.9999615824755709;0.0;2.739275735495535e-05;-8.217827206486605e-05;-0.005313147336269974;0.04217450113839005
1.5600707530975342;-0.1475178012379018;-0.06594772988514926;0.7517954460675059;-0.0019475470671865749;0.13083486258885002;-0.011584589840922265;-0.001496628447582991;9.497982731764693e-06;-0.9962405100505358;1.0616748924511312;-0.16557256098623785;1.9055785812967458e-05;-0.0014985630915726525;9.507952790004623e-06;-0.9961260859125995;1.0616777557523054;-0.16557533573838012;-9.517922848244122e-06;-6.136004540643197e-05;0.0999094939330255;0.230023470217368;0.13007839819601466;4.4197640706178376e-05;0.9999453987635952;9.130919118318449e-06;-3.195821691411457e-05;3.195821691411457e-05;0.2300388102287196;0.1300477181733114;4.4197640706178376e-05;0.9999615824755709;0.0;1.8261838236636895e-05;-7.304735294654759e-05;-0.005313147336269974;0.04217450113839005
1.5799119472503662;-0.14749534747310708;-0.06592864564617437;0.7518015254333809;-0.0023125671140257985;0.1308973914637454;-0.011536858755271452;-0.001496628447582991;9.497982731764693e-06;-0.9962405100505358;1.0616748924511312;-0.16557256098623785;1.9055785812967458e-05;-0.0014985630915726525;9.507952790004623e-06;-0.9961260859125995;1.0616777557523054;-0.16557533573838012;-9.517922848244122e-06;-6.136004540643197e-05;0.0999094939330255;0.230023470217368;0.13007839819601466;4.4197640706178376e-05;0.9999453987635952;9.130919118318449e-06;-3.195821691411457e-05;3.195821691411457e-05;0.2300388102287196;0.1300477181733114;4.4197640706178376e-05;0.9999615824755709;0.0;1.8261838236636895e-05;-7.304735294654759e-05;-0.005313147336269974;0.04217450113839005
1.5998923778533936;-0.14767765416282994;-0.06599771305562994;0.751759675574116;-0.0024393431446762086;0.13066769043981208;-0.011415406177557952;-0.001496628447582991;9.497982731764693e-06;-0.9962405100505358;1.0616748924511312;-0.16557256098623785;1.9055785812967458e-05;-0.0014985630915726525;9.507952790004623e-06;-0.9961260859125995;1.0616777557523054;-0.16557533573838012;-9.517922848244122e-06;-6.136004540643197e-05;0.0999094939330255;0.230023470217368;0.13007839819601466;4.4197640706178376e-05;0.9999453987635952;9.130919118318449e-06;-3.195821691411457e-05;3.195821691411457e-05;0.2300388102287196;0.1300477181733114;4.4197640706178376e-05;0.9999615824755709;0.0;2.739275735495535e-05;-8.217827206486605e-05;-0.005313147336269974;0.04217450113839005
1.6200952529907227;-0.14761388534224043;-0.06594894915760467;0.7517764790455241;-0.002397026989791908;0.13074775125300883;-0.011491368862673936;-0.001496628447582991;9.497982731764693e-06;-0.9962405100505358;1.0616748924511312;-0.16557256098623785;1.9055785812967458e-05;-0.0014985630915726525;9.507952790004623e-06;-0.9961260859125995;1.0616777557523054;-0.16557533573838012;-9.517922848244122e-06;-6.136004540643197e-05;0.0999094939330255;0.230023470217368;0.13007839819601466;4.4197640706178376e-05;0.9999453987635952;9.130919118318449e-06;-3.195821691411457e-05;3.195821691411457e-05;0.2300388102287196;0.1300477181733114;4.4197640706178376e-05;0.9999615824755709;0.0;2.739275735495535e-05;-8.217827206486605e-05;-0.005313147336269974;0.04217450113839005
1.6399421691894531;-0.14762956278495565;-0.06598860574839771;0.7517699206474114;-0.0023528312934904113;0.13072364926418117;-0.011445679745464902;-0.001496628447582991;9.497982731764693e-06;-0.9962405100505358;1.0616748924511312;-0.16557256098623785;1.9055785812967458e-05;-0.0014985630915726525;9.507952790004623e-06;-0.9961018446636904;1.0616777557523054;-0.16557533573838012;-9.517922848244122e-06;-6.136004540643197e-05;0.0999094939330255;0.230023470217368;0.13007839819601466;4.4197640706178376e-05;0.9999453987635952;9.130919118318449e-06;-3.195821691411457e-05;3.195821691411457e-05;0.2300388102287196;0.1300477181733114;4.4197640706178376e-05;0.9999615824755709;0.0;2.282729779579613e-05;-7.761281250570684e-05;-0.005313147336269974;0.04217450113839005
1.6599390506744385;-0.14770310180474686;-0.06599515922281125;0.7517549003254467;-0.002176390256288572;0.13060997447902156;-0.011472269871730579;-0.001496628447582991;9.497982731764693e-06;-0.9962405100505358;1.0616748924511312;-0.16557256098623785;1.9055785812967458e-05;-0.0014985630915726525;9.507952790004623e-06;-0.9960776034147814;1.0616777557523054;-0.16557533573838012;-9.517922848244122e-06;-6.136004540643197e-05;0.0999094939330255;0.230023470217368;0.13007839819601466;4.4197640706178376e-05;0.9999453987635952;9.130919118318449e-06;-3.195821691411457e-05;3.195821691411457e-05;0.2300388102287196;0.1300477181733114;4.4197640706178376e-05;0.9999615824755709;0.0;9.130919118318454e-06;-6.391643382822915e-05;-0.005313147336269974;0.04217450113839005
1.6799161434173584;-0.14773505771146075;-0.06586812586866324;0.7517597622940797;-0.0021745480988028957;0.13056492548456428;-0.01164749149277125;-0.001496628447582991;9.497982731764693e-06;-0.9962405100505358;1.0616748924511312;-0.16557256098623785;1.9055785812967458e-05;-0.0014985630915726525;9.507952790004623e-06;-0.9960776034147814;1.0616777557523054;-0.16557533573838012;-9.517922848244122e-06;-6.136004540643197e-05;0.0999094939330255;0.230023470217368;0.13007839819601466;4.4197640706178376e-05;0.9999453987635952;9.130919118318449e-06;-3.195821691411457e-05;3.195821691411457e-05;0.2300388102287196;0.1300477181733114;4.4197640706178376e-05;0.9999615824755709;0.0;2.739275735495535e-05;-8.217827206486605e-05;-0.005313147336269974;0.04217450113839005
1.7001700401306152;-0.1477186007066339;-0.06581384036295204;0.7517677506443489;-0.002030606248250902;0.13057280642827537;-0.011751552895154362;-0.001496628447582991;9.497982731764693e-06;-0.9962405100505358;1.0616748924511312;-0.16557256098623785;1.9055785812967458e-05;-0.0014985630915726525;9.507952790004623e-06;-0.9960776034147814;1.0616777557523054;-0.16557533573838012;-9.517922848244122e-06;-5.369003973063058e-05;0.09990182392734973;0.230023470217368;0.13007839819601466;4.4197640706178376e-05;0.9999453987635952;9.130919118318449e-06;-3.195821691411457e-05;3.195821691411457e-05;0.2300388102287196;0.1300477181733114;4.4197640706178376e-05;0.9999615824755709;0.0;2.739275735495535e-05;-8.217827206486605e-05;-0.005313147336269974;0.04217450113839005
1.7199506759643555;-0.14770681574317443;-0.06585616403792455;0.7517663598007908;-0.0019594555666257916;0.13058283784140937;-0.011707760923234148;-0.001496628447582991;9.497982731764693e-06;-0.9962405100505358;1.0616748924511312;-0.16557256098623785;1.9055785812967458e-05;-0.0014985630915726525;9.507952790004623e-06;-0.9960776034147814;1.0616777557523054;-0.16557533573838012;-9.517922848244122e-06;-5.369003973063058e-05;0.09990182392734973;0.230023470217368;0.13007839819601466;4.4197640706178376e-05;0.9999453987635952;9.130919118318449e-06;-3.195821691411457e-05;3.195821691411457e-05;0.2300388102287196;0.1300477181733114;4.4197640706178376e-05;0.9999769224869226;0.0;2.282729779579613e-05;-7.761281250570684e-05;-0.005313147336269974;0.04217450113839005
1.7401010990142822;-0.14767845822216583;-0.06579069470583963;0.7517776632450296;-0.0017343233570088015;0.13059904726293697;-0.011843743822983489;-0.001496628447582991;9.497982731764693e-06;-0.9962405100505358;1.0616748924511312;-0.16557256098623785;1.9055785812967458e-05;-0.0014985630915726525;9.507952790004623e-06;-0.9960776034147814;1.0616777557523054;-0.16557533573838012;-9.517922848244122e-06;-5.369003973063058e-05;0.09990182392734973;0.230023470217368;0.13007839819601466;4.4197640706178376e-05;0.9999453987635952;9.130919118318449e-06;-2.739275735495535e-05;2.739275735495535e-05;0.2300388102287196;0.1300477181733114;4.4197640706178376e-05;0.9999769224869226;0.0;0.0;-5.4785514709910704e-05;-0.005313147336269974;0.04217450113839005
1.7601122856140137;-0.14773220647544325;-0.06589513733601808;0.7517579554166849;-0.0015830758354988955;0.13051578149210172;-0.011730533638945181;-0.001496628447582991;9.497982731764693e-06;-0.9962405100505358;1.0616748924511312;-0.16557256098623785;1.9055785812967458e-05;-0.0014985630915726525;9.507952790004623e-06;-0.9960776034147814;1.0616777557523054;-0.16557533573838012;-9.517922848244122e-06;-5.369003973063058e-05;0.09990182392734973;0.230023470217368;0.13007839819601466;4.4197640706178376e-05;0.9999453987635952;9.130919118318449e-06;-3.195821691411457e-05;3.195821691411457e-05;0.2300388102287196;0.1300477181733114;4.4197640706178376e-05;0.9999769224869226;0.0;2.739275735495535e-05;-8.217827206486605e-05;-0.005313147336269974;0.04217450113839005
1.780106782913208;-0.14772369167294477;-0.06604890896855663;0.7517461340302924;-0.0014318021047780372;0.1305161703434873;-0.011549541805194111;-0.001496628447582991;9.497982731764693e-06;-0.9962405100505358;1.0616748924511312;-0.16557256098623785;1.9055785812967458e-05;-0.0014985630915726525;9.507952790004623e-06;-0.9960776034147814;1.0616777557523054;-0.16557533573838012;-9.517922848244122e-06;-5.369003973063058e-05;0.09990182392734973;0.230023470217368;0.13007839819601466;4.4197640706178376e-05;0.9999453987635952;9.130919118318449e-06;-3.195821691411457e-05;3.195821691411457e-05;0.2300388102287196;0.1300477181733114;4.4197640706178376e-05;0.9999769224869226;0.0;2.739275735495535e-05;-8.217827206486605e-05;-0.005313147336269974;0.04217450113839005
1.7999484539031982;-0.14777051647332803;-0.06605342021301783;0.75173653471564;-0.0013540252150986024;0.13044692613287823;-0.011559054689539406;-0.001496628447582991;9.497982731764693e-06;-0.9962405100505358;1.0616748924511312;-0.16557256098623785;1.9055785812967458e-05;-0.0014985630915726525;9.507952790004623e-06;-0.9960776034147814;1.0616777557523054;-0.16557533573838012;-9.517922848244122e-06;-5.369003973063058e-05;0.09990182392734973;0.230023470217368;0.13007839819601466;4.4197640706178376e-05;0.9999453987635952;9.130919118318449e-06;-3.195821691411457e-05;3.195821691411457e-05;0.2300388102287196;0.1300477181733114;4.4197640706178376e-05;0.9999769224869226;0.0;2.282729779579613e-05;-7.761281250570684e-05;-0.005313147336269974;0.04217450113839005
1.8198895454406738;-0.14776939391074287;-0.06602970798602309;0.7517388385426435;-0.0011777919733300458;0.1304320682688849;-0.011627554862079293;-0.001496628447582991;9.497982731764693e-06;-0.9962405100505358;1.0616748924511312;-0.16557256098623785;1.9055785812967458e-05;-0.0014985630915726525;9.507952790004623e-06;-0.9960776034147814;1.0616777557523054;-0.16557533573838012;-9.517922848244122e-06;-5.369003973063058e-05;0.09990182392734973;0.230023470217368;0.13007839819601466;4.4197640706178376e-05;0.9999453987635952;9.130919118318449e-06;-3.195821691411457e-05;3.195821691411457e-05;0.2300388102287196;0.1300477181733114;4.4197640706178376e-05;0.9999769224869226;0.0;0.0;-5.4785514709910704e-05;-0.005313147336269974;0.04217450113839005
1.8400838375091553;-0.14779802601950406;-0.06599084540448602;0.7517366223049462;-0.0011104099707143016;0.1303872201824546;-0.01169473505940076;-0.001496628447582991;9.497982731764693e-06;-0.9962405100505358;1.0616748924511312;-0.16557256098623785;1.9055785812967458e-05;-0.0014985630915726525;9.507952790004623e-06;-0.9960776034147814;1.0616777557523054;-0.16557533573838012;-9.517922848244122e-06;-5.369003973063058e-05;0.09990182392734973;0.230023470217368;0.13007839819601466;4.4197640706178376e-05;0.9999453987635952;9.130919118318449e-06;-3.195821691411457e-05;3.195821691411457e-05;0.2300388102287196;0.1300477181733114;4.4197640706178376e-05;0.9999769224869226;0.0;2.739275735495535e-05;-8.217827206486605e-05;-0.005313147336269974;0.04217450113839005
1.8599853515625;-0.14778294584110954;-0.06611901414240139;0.7517283248450005;-0.0009865190375198643;0.13039828010426058;-0.011543454337487172;-0.001496628447582991;9.497982731764693e-06;-0.9962405100505358;1.0616748924511312;-0.16557256098623785;1.9055785812967458e-05;-0.0014985630915726525;9.507952790004623e-06;-0.9960776034147814;1.0616777557523054;-0.16557533573838012;-9.517922848244122e-06;-5.369003973063058e-05;0.09990182392734973;0.230023470217368;0.13006305818466302;4.4197640706178376e-05;0.9999453987635952;9.130919118318449e-06;-2.739275735495535e-05;2.739275735495535e-05;0.2300388102287196;0.1300477181733114;4.4197640706178376e-05;0.9999769224869226;0.0;2.739275735495535e-05;-8.217827206486605e-05;-0.005313147336269974;0.04217450113839005
1.8800530433654785;-0.14780445117074428;-0.06617771433645314;0.7517189314007118;-0.0009003776890683107;0.13036287591163684;-0.011480112688329361;-0.001496628447582991;9.497982731764693e-06;-0.9962405100505358;1.0616748924511312;-0.16557256098623785;1.9055785812967458e-05;-0.0014985630915726525;9.507952790004623e-06;-0.9960776034147814;1.0616777557523054;-0.16557533573838012;-9.517922848244122e-06;-4.6020034054822245e-05;0.0998941539216739;0.230023470217368;0.1300323781619599;4.4197640706178376e-05;0.9999453987635952;9.130919118318449e-06;-3.195821691411457e-05;3.195821691411457e-05;0.2300388102287196;0.1300477181733114;4.4197640706178376e-05;0.9999769224869226;0.0;2.739275735495535e-05;-8.217827206486605e-05;-0.005313147336269974;0.04217450113839005
1.8999459743499756;-0.14775564297481852;-0.06624899122457088;0.7517245130631981;-0.0007374698820381107;0.13037500090440915;-0.011415022585820781;-0.001496628447582991;9.497982731764693e-06;-0.9961920275527174;1.0616748924511312;-0.16557256098623785;1.9055785812967458e-05;-0.0014985630915726525;9.507952790004623e-06;-0.9960776034147814;1.0616777557523054;-0.16557533573838012;-9.517922848244122e-06;-4.6020034054822245e-05;0.0998941539216739;0.230023470217368;0.1300323781619599;4.4197640706178376e-05;0.9999453987635952;0.0;-3.195821691411457e-05;3.195821691411457e-05;0.2300388102287196;0.1300477181733114;4.4197640706178376e-05;0.9999769224869226;0.0;0.0;-5.4785514709910704e-05;-0.005313147336269974;0.04217450113839005
1.9199788570404053;-0.14777421240500757;-0.06619195928854606;0.7517292835393676;-0.0006462186516677382;0.13028220581082436;-0.011511914645261506;-0.001496628447582991;9.497982731764693e-06;-0.99611930380599;1.0616748924511312;-0.16557256098623785;1.9055785812967458e-05;-0.0014985630915726525;9.507952790004623e-06;-0.9960776034147814;1.0616777557523054;-0.16557533573838012;-9.517922848244122e-06;-4.6020034054822245e-05;0.0998941539216739;0.230023470217368;0.13001703815060828;4.4197640706178376e-05;0.9999453987635952;9.130919118318449e-06;-3.195821691411457e-05;3.195821691411457e-05;0.2300388102287196;0.1300477181733114;4.4197640706178376e-05;0.9999769224869226;0.0;2.739275735495535e-05;-8.217827206486605e-05;-0.005313147336269974;0.04217450113839005
1.940084457397461;-0.14764847165249187;-0.06622568000193817;0.7517566802504376;-0.0006440314460127915;0.13035170601400534;-0.011465712983684862;-0.001496628447582991;9.497982731764693e-06;-0.9959980975614444;1.0616748924511312;-0.16557256098623785;1.9055785812967458e-05;-0.0014985630915726525;9.507952790004623e-06;-0.9960776034147814;1.0616777557523054;-0.16557533573838012;-9.517922848244122e-06;-4.6020034054822245e-05;0.0998941539216739;0.230023470217368;0.13001703815060828;4.4197640706178376e-05;0.9999453987635952;9.130919118318449e-06;-3.195821691411457e-05;3.195821691411457e-05;0.2300388102287196;0.1300477181733114;4.4197640706178376e-05;0.9999769224869226;0.0;2.739275735495535e-05;-8.217827206486605e-05;-0.005313147336269974;0.04217450113839005
1.9601151943206787;-0.14760128626584787;-0.06623170232298654;0.7517654155880417;-0.0005739774188360502;0.13040822872112706;-0.011471696663548414;-0.001496628447582991;9.497982731764693e-06;-0.9959980975614444;1.0616748924511312;-0.16557256098623785;1.9055785812967458e-05;-0.0014985630915726525;9.507952790004623e-06;-0.9960776034147814;1.0616777557523054;-0.16557533573838012;-9.517922848244122e-06;-4.6020034054822245e-05;0.0998941539216739;0.230023470217368;0.13000169813925666;4.4197640706178376e-05;0.9999453987635952;9.130919118318449e-06;-3.195821691411457e-05;3.195821691411457e-05;0.230023470217368;0.1300477181733114;4.4197640706178376e-05;0.9999769224869226;0.0;2.739275735495535e-05;-8.217827206486605e-05;-0.005313147336269974;0.04063861139663505
1.9801406860351562;-0.14753042406844924;-0.06619706267149378;0.751782376118278;-0.00044756344307458077;0.13049047598337457;-0.011545128604708065;-0.001496628447582991;9.497982731764693e-06;-0.9959980975614444;1.0616748924511312;-0.16557256098623785;1.9055785812967458e-05;-0.0014985630915726525;9.507952790004623e-06;-0.9960776034147814;1.0616777557523054;-0.16557533573838012;-9.517922848244122e-06;-4.6020034054822245e-05;0.0998941539216739;0.230023470217368;0.12998635812790504;4.4197640706178376e-05;0.9999453987635952;9.130919118318449e-06;-3.195821691411457e-05;3.195821691411457e-05;0.22999279019466476;0.1300477181733114;4.4197640706178376e-05;0.9999769224869226;0.0;4.5654595591592245e-06;-5.935097426906993e-05;-0.005313147336269974;0.04217450113839005
2.0001296997070312;-0.1475341360245685;-0.06617606985066128;0.7517834958688563;-0.0008395904876759073;0.13052066571661664;-0.01149441297233364;-0.001496628447582991;9.497982731764693e-06;-0.9959980975614444;1.0616748924511312;-0.16557256098623785;1.9055785812967458e-05;-0.0014985630915726525;9.507952790004623e-06;-0.9960776034147814;1.0616777557523054;-0.16557533573838012;-9.517922848244122e-06;-4.6020034054822245e-05;0.0998941539216739;0.230023470217368;0.12998635812790504;4.4197640706178376e-05;0.9999453987635952;9.130919118318449e-06;-3.195821691411457e-05;3.195821691411457e-05;0.2299467701606099;0.1300477181733114;4.4197640706178376e-05;0.9999769224869226;0.0;2.739275735495535e-05;-8.217827206486605e-05;-0.005313147336269974;0.04217450113839005
2.0199368000030518;-0.14756569425339808;-0.06618862776279047;0.7517761964897435;-0.0011027603607309676;0.1305027347589179;-0.011423629635215368;-0.001496628447582991;9.497982731764693e-06;-0.9959980975614444;1.0616748924511312;-0.16557256098623785;1.9055785812967458e-05;-0.0014985630915726525;9.507952790004623e-06;-0.9960776034147814;1.0616777557523054;-0.16557533573838012;-9.517922848244122e-06;-4.6020034054822245e-05;0.0998941539216739;0.230023470217368;0.12998635812790504;4.4197640706178376e-05;0.9999453987635952;9.130919118318449e-06;-3.195821691411457e-05;3.195821691411457e-05;0.2299314301492583;0.1300477181733114;4.4197640706178376e-05;0.9999769224869226;0.0;2.739275735495535e-05;-8.217827206486605e-05;-0.005313147336269974;0.04063861139663505
2.0400524139404297;-0.14766877829216973;-0.0661251732671202;0.751761539021707;-0.0011002929515590133;0.1303642956628652;-0.011511354210728016;-0.001496628447582991;9.497982731764693e-06;-0.9959980975614444;1.0616748924511312;-0.16557256098623785;1.9055785812967458e-05;-0.0014985630915726525;9.507952790004623e-06;-0.9960776034147814;1.0616777557523054;-0.16557533573838012;-9.517922848244122e-06;-4.6020034054822245e-05;0.0998941539216739;0.230023470217368;0.12998635812790504;4.4197640706178376e-05;0.9999453987635952;9.130919118318449e-06;-3.195821691411457e-05;3.195821691411457e-05;0.2299314301492583;0.1300477181733114;4.4197640706178376e-05;0.9999769224869226;0.0;2.739275735495535e-05;-8.217827206486605e-05;-0.005313147336269974;0.04217450113839005
2.060148239135742;-0.14770527914219383;-0.06607620995173114;0.7517586734891294;-0.0012802977319672187;0.1303311811720162;-0.011542130502706431;-0.001496628447582991;9.497982731764693e-06;-0.9959980975614444;1.0616748924511312;-0.16557256098623785;1.9055785812967458e-05;-0.0014985630915726525;9.507952790004623e-06;-0.9960776034147814;1.0616777557523054;-0.16557533573838012;-9.517922848244122e-06;-4.6020034054822245e-05;0.0998941539216739;0.230023470217368;0.12997101811655346;4.4197640706178376e-05;0.9999453987635952;9.130919118318449e-06;-3.195821691411457e-05;3.195821691411457e-05;0.2299314301492583;0.1300477181733114;4.4197640706178376e-05;0.9999769224869226;0.0;9.130919118318454e-06;-6.391643382822915e-05;-0.005313147336269974;0.04217450113839005
2.0799429416656494;-0.14780505902532542;-0.06608735034591944;0.7517380825959062;-0.0011951806322808474;0.1301909457590922;-0.011543928405061382;-0.001496628447582991;9.497982731764693e-06;-0.9959980975614444;1.0616748924511312;-0.16557256098623785;1.9055785812967458e-05;-0.0014985630915726525;9.507952790004623e-06;-0.9960776034147814;1.0616777557523054;-0.16557533573838012;-9.517922848244122e-06;-4.6020034054822245e-05;0.0998941539216739;0.230023470217368;0.12997101811655346;4.4197640706178376e-05;0.9999453987635952;9.130919118318449e-06;-3.195821691411457e-05;3.195821691411457e-05;0.2299314301492583;0.1300477181733114;4.4197640706178376e-05;0.9999769224869226;0.0;2.739275735495535e-05;-8.217827206486605e-05;-0.005313147336269974;0.04217450113839005
2.0999584197998047;-0.14774675256130412;-0.06613008148003482;0.7517457865563508;-0.0012248882281787623;0.13027193775470627;-0.011479141140772624;-0.001496628447582991;9.497982731764693e-06;-0.9959980975614444;1.0616748924511312;-0.16557256098623785;1.9055785812967458e-05;-0.0014985630915726525;9.507952790004623e-06;-0.9960776034147814;1.0616777557523054;-0.16557533573838012;-9.517922848244122e-06;-4.6020034054822245e-05;0.0998941539216739;0.230023470217368;0.12997101811655346;4.4197640706178376e-05;0.9999453987635952;9.130919118318449e-06;-3.195821691411457e-05;3.195821691411457e-05;0.2299314301492583;0.1300477181733114;4.4197640706178376e-05;0.9999769224869226;0.0;2.739275735495535e-05;-8.217827206486605e-05;-0.005313147336269974;0.04217450113839005
2.1200971603393555;-0.1477703530528349;-0.06605120041008747;0.7517480827093745;-0.0011766280720892155;0.13023480774712662;-0.011597538250269351;-0.001496628447582991;9.497982731764693e-06;-0.9959980975614444;1.0616748924511312;-0.16557256098623785;1.9055785812967458e-05;-0.0014985630915726525;9.507952790004623e-06;-0.9960776034147814;1.0616777557523054;-0.16557533573838012;-9.517922848244122e-06;-4.6020034054822245e-05;0.0998941539216739;0.230023470217368;0.12997101811655346;4.4197640706178376e-05;0.9999453987635952;9.130919118318449e-06;-2.739275735495535e-05;2.739275735495535e-05;0.2299314301492583;0.1300477181733114;4.4197640706178376e-05;0.9999769224869226;0.0;2.739275735495535e-05;-8.217827206486605e-05;-0.005313147336269974;0.04217450113839005
2.140052556991577;-0.14773019965296882;-0.06602080769186874;0.7517586442711524;-0.0010922923198817302;0.13028007214768347;-0.011656602355868777;-0.001496628447582991;9.497982731764693e-06;-0.9959980975614444;1.0616748924511312;-0.16557256098623785;1.9055785812967458e-05;-0.0014985630915726525;9.507952790004623e-06;-0.9961018446636904;1.0616777557523054;-0.16557533573838012;-9.517922848244122e-06;-4.6020034054822245e-05;0.0998941539216739;0.230023470217368;0.1299556781052018;4.4197640706178376e-05;0.9999453987635952;9.130919118318449e-06;-3.195821691411457e-05;3.195821691411457e-05;0.2299314301492583;0.1300477181733114;4.4197640706178376e-05;0.9999769224869226;0.0;1.3696378677477674e-05;-6.848189338738837e-05;-0.005313147336269974;0.04217450113839005
2.1600563526153564;-0.14765441723951475;-0.06592696837310758;0.7517817675928197;-0.0011300693205902566;0.13038267119616737;-0.011778257169003435;-0.001496628447582991;9.497982731764693e-06;-0.9959980975614444;1.0616748924511312;-0.16557256098623785;1.9055785812967458e-05;-0.0014985630915726525;9.507952790004623e-06;-0.9961018446636904;1.0616777557523054;-0.16557533573838012;-9.517922848244122e-06;-4.6020034054822245e-05;0.0998941539216739;0.230023470217368;0.1299556781052018;4.4197640706178376e-05;0.9999453987635952;9.130919118318449e-06;-3.195821691411457e-05;3.195821691411457e-05;0.2299314301492583;0.1300477181733114;4.4197640706178376e-05;0.9999769224869226;0.0;2.739275735495535e-05;-8.217827206486605e-05;-0.005313147336269974;0.04217450113839005
2.180081844329834;-0.1475657861415727;-0.06577081667480839;0.7518128467966894;-0.0010743830822268112;0.13049285853890305;-0.012004724210818428;-0.001496628447582991;9.497982731764693e-06;-0.9959980975614444;1.0616748924511312;-0.16557256098623785;1.9055785812967458e-05;-0.0014985630915726525;9.507952790004623e-06;-0.9961018446636904;1.0616777557523054;-0.16557533573838012;-9.517922848244122e-06;-4.6020034054822245e-05;0.0998941539216739;0.23000813020601635;0.1299556781052018;4.4197640706178376e-05;0.9999453987635952;9.130919118318449e-06;-3.195821691411457e-05;3.195821691411457e-05;0.2299314301492583;0.1300477181733114;4.4197640706178376e-05;0.9999769224869226;0.0;2.739275735495535e-05;-8.217827206486605e-05;-0.005313147336269974;0.04217450113839005
2.1999292373657227;-0.14760230904993923;-0.06580777984363395;0.7518023285219796;-0.0010536022859356908;0.13044305927222496;-0.011956419995496272;-0.001496628447582991;9.497982731764693e-06;-0.9959980975614444;1.0616748924511312;-0.16557256098623785;9.527892906483729e-06;-0.0014985630915726525;9.507952790004623e-06;-0.9961018446636904;1.0616777557523054;-0.16557533573838012;-9.517922848244122e-06;-4.6020034054822245e-05;0.0998941539216739;0.23000813020601635;0.1299556781052018;4.4197640706178376e-05;0.9999453987635952;9.130919118318449e-06;-3.195821691411457e-05;3.195821691411457e-05;0.2299314301492583;0.1300323781619599;4.4197640706178376e-05;0.9999769224869226;0.0;2.739275735495535e-05;-8.217827206486605e-05;-0.005313147336269974;0.04217450113839005
2.2199625968933105;-0.14757868092663667;-0.06571524706777025;0.7518150609921755;-0.000963526559305089;0.13046480450669692;-0.012102165699040318;-0.001496628447582991;9.497982731764693e-06;-0.9959980975614444;1.0616748924511312;-0.16557256098623785;9.527892906483729e-06;-0.0014985630915726525;9.507952790004623e-06;-0.9961260859125995;1.0616777557523054;-0.16557533573838012;-9.517922848244122e-06;-4.6020034054822245e-05;0.0998941539216739;0.23000813020601635;0.1299556781052018;4.4197640706178376e-05;0.9999453987635952;9.130919118318449e-06;-3.195821691411457e-05;3.195821691411457e-05;0.2299314301492583;0.1300323781619599;4.4197640706178376e-05;0.9999769224869226;0.0;1.3696378677477674e-05;-6.848189338738837e-05;-0.005313147336269974;0.04217450113839005
2.24017596244812;-0.1476180635610304;-0.06560989573557839;0.7518165305365073;-0.000965868663457842;0.1304108455061826;-0.01224670168631481;-0.001496628447582991;9.497982731764693e-06;-0.9959980975614444;1.0616748924511312;-0.16557256098623785;9.527892906483729e-06;-0.0014985630915726525;9.507952790004623e-06;-0.9961260859125995;1.0616777557523054;-0.16557533573838012;-9.517922848244122e-06;-4.6020034054822245e-05;0.0998941539216739;0.22999279019466476;0.1299556781052018;4.4197640706178376e-05;0.9999453987635952;9.130919118318449e-06;-3.195821691411457e-05;3.195821691411457e-05;0.2299314301492583;0.1300323781619599;4.4197640706178376e-05;0.9999769224869226;0.0;2.282729779579613e-05;-7.761281250570684e-05;-0.005313147336269974;0.04217450113839005
2.259920597076416;-0.14765894069926622;-0.06563561994671804;0.7518062578362016;-0.0009905393639580116;0.1303591261248152;-0.012206212557410704;-0.001496628447582991;9.497982731764693e-06;-0.9959980975614444;1.0616748924511312;-0.16557256098623785;9.527892906483729e-06;-0.0014985630915726525;9.507952790004623e-06;-0.9961260859125995;1.0616777557523054;-0.16557533573838012;-9.517922848244122e-06;-4.6020034054822245e-05;0.0998941539216739;0.22999279019466476;0.1299556781052018;4.4197640706178376e-05;0.9999453987635952;9.130919118318449e-06;-3.195821691411457e-05;3.195821691411457e-05;0.2299314301492583;0.13000169813925666;4.4197640706178376e-05;0.9999769224869226;0.0;2.739275735495535e-05;-8.217827206486605e-05;-0.005313147336269974;0.04217450113839005
2.279967784881592;-0.14771808696795824;-0.06570544431046474;0.7517885394619845;-0.0010464410504749777;0.13028666602074576;-0.01209862131109129;-0.001496628447582991;9.497982731764693e-06;-0.9959980975614444;1.0616748924511312;-0.16557256098623785;9.527892906483729e-06;-0.0014985630915726525;9.507952790004623e-06;-0.9961260859125995;1.0616777557523054;-0.16557533573838012;-9.517922848244122e-06;-4.6020034054822245e-05;0.0998941539216739;0.22999279019466476;0.1299556781052018;4.4197640706178376e-05;0.9999453987635952;9.130919118318449e-06;-3.195821691411457e-05;3.195821691411457e-05;0.2299314301492583;0.1299403380938502;4.4197640706178376e-05;0.9999769224869226;0.0;2.739275735495535e-05;-8.217827206486605e-05;-0.005313147336269974;0.04217450113839005
2.3000667095184326;-0.14770526666779688;-0.06573093382205795;0.7517888302132242;-0.000859967793645403;0.13028738356470937;-0.012101451393854894;-0.001496628447582991;9.497982731764693e-06;-0.9959980975614444;1.0616748924511312;-0.16557256098623785;9.527892906483729e-06;-0.0014985630915726525;9.507952790004623e-06;-0.9961260859125995;1.0616777557523054;-0.16557533573838012;-9.517922848244122e-06;-4.6020034054822245e-05;0.0998941539216739;0.22999279019466476;0.1299556781052018;4.4197640706178376e-05;0.9999453987635952;9.130919118318449e-06;-3.195821691411457e-05;3.195821691411457e-05;0.2299314301492583;0.12990965807114696;4.4197640706178376e-05;0.9999769224869226;0.0;1.3696378677477674e-05;-6.848189338738837e-05;-0.005313147336269974;0.04217450113839005
2.3199827671051025;-0.14782512158518604;-0.06576131846388601;0.751762614871283;-0.0007504453040164979;0.13011861555237125;-0.012081756186040757;-0.001496628447582991;9.497982731764693e-06;-0.9959980975614444;1.0616748924511312;-0.16557256098623785;9.527892906483729e-06;-0.0014985630915726525;9.507952790004623e-06;-0.9961260859125995;1.0616777557523054;-0.16557533573838012;-9.517922848244122e-06;-3.835002837902085e-05;0.0999018239273497;0.22999279019466476;0.1299556781052018;4.4197640706178376e-05;0.9999453987635952;9.130919118318449e-06;-3.195821691411457e-05;3.195821691411457e-05;0.2299314301492583;0.12990965807114696;4.4197640706178376e-05;0.9999769224869226;0.0;2.739275735495535e-05;-8.217827206486605e-05;-0.005313147336269974;0.04217450113839005
2.339916229248047;-0.14776266504926053;-0.0657615405423671;0.7517748740806169;-0.0007407178171539604;0.1302008231012338;-0.012083493470042077;-0.001496628447582991;9.497982731764693e-06;-0.9959980975614444;1.0616748924511312;-0.16557256098623785;9.527892906483729e-06;-0.0014985630915726525;9.507952790004623e-06;-0.9961260859125995;1.0616777557523054;-0.16557533573838012;-9.517922848244122e-06;-3.835002837902085e-05;0.0999018239273497;0.22999279019466476;0.1299556781052018;4.4197640706178376e-05;0.9999453987635952;9.130919118318449e-06;-3.195821691411457e-05;3.195821691411457e-05;0.2299314301492583;0.12990965807114696;4.4197640706178376e-05;0.9999769224869226;0.0;2.739275735495535e-05;-8.217827206486605e-05;-0.005313147336269974;0.04217450113839005
2.359964370727539;-0.14780038182420108;-0.06583114620969527;0.7517613677339579;-0.000605697465734271;0.13013965794228663;-0.0120150806726661;-0.001496628447582991;9.497982731764693e-06;-0.9959980975614444;1.0616748924511312;-0.16557256098623785;9.527892906483729e-06;-0.0014985630915726525;9.507952790004623e-06;-0.9961260859125995;1.0616777557523054;-0.16557533573838012;-9.517922848244122e-06;-3.835002837902085e-05;0.0999018239273497;0.22997745018331314;0.1299556781052018;4.4197640706178376e-05;0.9999453987635952;9.130919118318449e-06;-3.195821691411457e-05;3.195821691411457e-05;0.2299314301492583;0.12990965807114696;4.4197640706178376e-05;0.9999769224869226;0.0;2.739275735495535e-05;-8.217827206486605e-05;-0.005313147336269974;0.04217450113839005
2.3800764083862305;-0.14783417808131974;-0.06584155699949683;0.7517538106712833;-0.0005719108142814916;0.13009183214517697;-0.01200759302266129;-0.001496628447582991;9.497982731764693e-06;-0.9959980975614444;1.0616748924511312;-0.16557256098623785;9.527892906483729e-06;-0.0014985630915726525;9.507952790004623e-06;-0.9961260859125995;1.0616777557523054;-0.16557533573838012;-9.517922848244122e-06;-3.835002837902085e-05;0.0999018239273497;0.22997745018331314;0.1299556781052018;4.4197640706178376e-05;0.9999453987635952;9.130919118318449e-06;-3.195821691411457e-05;3.195821691411457e-05;0.2299314301492583;0.12990965807114696;4.4197640706178376e-05;0.9999769224869226;0.0;4.5654595591592245e-06;-5.935097426906993e-05;-0.005313147336269974;0.04217450113839005
2.399951934814453;-0.14786003836196437;-0.06578509058753315;0.7517536681705526;-0.000628714007418737;0.130061614322655;-0.012073763364141081;-0.001496628447582991;9.497982731764693e-06;-0.9959980975614444;1.0616748924511312;-0.16557256098623785;9.527892906483729e-06;-0.0014985630915726525;9.507952790004623e-06;-0.9961260859125995;1.0616777557523054;-0.16557533573838012;-9.517922848244122e-06;-3.835002837902085e-05;0.0999018239273497;0.22997745018331314;0.1299556781052018;4.4197640706178376e-05;0.9999453987635952;9.130919118318449e-06;-3.195821691411457e-05;3.195821691411457e-05;0.2299314301492583;0.12990965807114696;4.4197640706178376e-05;0.9999769224869226;0.0;2.739275735495535e-05;-8.217827206486605e-05;-0.005313147336269974;0.04217450113839005
2.419938564300537;-0.14788891973101959;-0.06580827349088592;0.7517459579251715;-0.0006274515415801577;0.13002346437610068;-0.012042073203642619;-0.001496628447582991;9.497982731764693e-06;-0.9959980975614444;1.0616748924511312;-0.16557256098623785;9.527892906483729e-06;-0.0014985630915726525;9.507952790004623e-06;-0.9961260859125995;1.0616777557523054;-0.16557533573838012;-9.517922848244122e-06;-3.068002270321252e-05;0.0999094939330255;0.22997745018331314;0.1299556781052018;4.4197640706178376e-05;0.9999453987635952;9.130919118318449e-06;-3.195821691411457e-05;3.195821691411457e-05;0.2299314301492583;0.12990965807114696;4.4197640706178376e-05;0.9999769224869226;0.0;2.739275735495535e-05;-8.217827206486605e-05;-0.005313147336269974;0.04217450113839005
2.439946174621582;-0.14791556461200453;-0.06585196056415829;0.7517267013710608;-0.00039854010654916756;0.13014475154928312;-0.012029127258604748;-0.001496628447582991;9.497982731764693e-06;-0.9962162688016268;1.0616748924511312;-0.16557256098623785;9.527892906483729e-06;-0.0014985630915726525;9.507952790004623e-06;-0.9961260859125995;1.0616777557523054;-0.16557533573838012;-9.517922848244122e-06;-3.068002270321252e-05;0.0999094939330255;0.22997745018331314;0.1299556781052018;4.4197640706178376e-05;0.9999453987635952;9.130919118318449e-06;-3.195821691411457e-05;3.195821691411457e-05;0.2299314301492583;0.12990965807114696;4.4197640706178376e-05;0.9999769224869226;0.0;2.739275735495535e-05;-8.217827206486605e-05;-0.005313147336269974;0.04217450113839005
2.460102081298828;-0.14789302594978276;-0.06584477283136038;0.7517306331225381;-0.00029280032456591404;0.13018472739839815;-0.012060638436041462;-0.001496628447582991;9.497982731764693e-06;-0.9962405100505358;1.0616748924511312;-0.16557256098623785;9.527892906483729e-06;-0.0014985630915726525;9.507952790004623e-06;-0.9961260859125995;1.0616777557523054;-0.16557533573838012;-9.517922848244122e-06;-2.3010017027411123e-05;0.09991716393870133;0.22997745018331314;0.1299556781052018;4.4197640706178376e-05;0.9999453987635952;9.130919118318449e-06;-3.195821691411457e-05;3.195821691411457e-05;0.2299314301492583;0.12990965807114696;4.4197640706178376e-05;0.9999769224869226;0.0;9.130919118318454e-06;-6.391643382822915e-05;-0.005313147336269974;0.04217450113839005
2.4800829887390137;-0.1479424937415391;-0.0658001124306963;0.7517248098594663;-0.00023215848348318792;0.13011275378237067;-0.012134472360654472;-0.001496628447582991;9.497982731764693e-06;-0.9962405100505358;1.0616748924511312;-0.16557256098623785;9.527892906483729e-06;-0.0014985630915726525;9.507952790004623e-06;-0.9961260859125995;1.0616777557523054;-0.16557533573838012;-9.517922848244122e-06;-2.3010017027411123e-05;0.09991716393870133;0.22997745018331314;0.1299556781052018;4.4197640706178376e-05;0.9999453987635952;9.130919118318449e-06;-3.195821691411457e-05;3.195821691411457e-05;0.2299314301492583;0.12990965807114696;4.4197640706178376e-05;0.9999769224869226;0.0;2.739275735495535e-05;-8.217827206486605e-05;-0.005313147336269974;0.04217450113839005
2.5000739097595215;-0.14783968426021799;-0.06584693248741502;0.7517409362595903;-8.481962575294713e-05;0.1302370127150859;-0.012100024548223984;-0.001496628447582991;9.497982731764693e-06;-0.9962405100505358;1.0616748924511312;-0.16557256098623785;9.527892906483729e-06;-0.0014985630915726525;9.507952790004623e-06;-0.9961260859125995;1.0616777557523054;-0.16557533573838012;-9.517922848244122e-06;-2.3010017027411123e-05;0.09991716393870133;0.22997745018331314;0.1299556781052018;4.4197640706178376e-05;0.9999453987635952;9.130919118318449e-06;-3.195821691411457e-05;3.195821691411457e-05;0.2299314301492583;0.12990965807114696;4.4197640706178376e-05;0.9999769224869226;0.0;2.739275735495535e-05;-8.217827206486605e-05;-0.005313147336269974;0.04217450113839005
2.5200905799865723;-0.14783056982678477;-0.06589185315663833;0.7517387926140838;-2.2863785420347708e-05;0.13024427147323628;-0.012050778559480913;-0.001496628447582991;9.497982731764693e-06;-0.9962405100505358;1.0616748924511312;-0.16557256098623785;9.527892906483729e-06;-0.0014985630915726525;9.507952790004623e-06;-0.9961260859125995;1.0616777557523054;-0.16557533573838012;-9.517922848244122e-06;-1.5340011351609728e-05;0.09992483394437712;0.22996211017196155;0.1299556781052018;4.4197640706178376e-05;0.9999453987635952;9.130919118318449e-06;-2.739275735495535e-05;2.739275735495535e-05;0.2299314301492583;0.12990965807114696;4.4197640706178376e-05;0.9999769224869226;0.0;2.739275735495535e-05;-8.217827206486605e-05;-0.005313147336269974;0.04217450113839005
2.5399577617645264;-0.1478772169965207;-0.06586901731944254;0.7517316191695966;1.1107244854108049e-05;0.13017880489853578;-0.012089141705110875;-0.001496628447582991;9.497982731764693e-06;-0.9962405100505358;1.0616748924511312;-0.16557256098623785;9.527892906483729e-06;-0.0014985630915726525;9.507952790004623e-06;-0.9961260859125995;1.0616777557523054;-0.16557533573838012;-9.517922848244122e-06;1.5340011351609728e-05;0.09995551396708033;0.22996211017196155;0.1299556781052018;4.4197640706178376e-05;0.9999453987635952;9.130919118318449e-06;-3.195821691411457e-05;3.195821691411457e-05;0.2299314301492583;0.12990965807114696;4.4197640706178376e-05;0.9999769224869226;0.0;1.3696378677477674e-05;-6.848189338738837e-05;-0.005313147336269974;0.04217450113839005
2.5600781440734863;-0.14783987966503925;-0.0657580640128691;0.7517486767574084;-8.420216983677422e-05;0.13023529587268534;-0.012222528336721848;-0.001496628447582991;9.497982731764693e-06;-0.9962405100505358;1.0616748924511312;-0.16557256098623785;9.527892906483729e-06;-0.0014985630915726525;9.507952790004623e-06;-0.9961260859125995;1.0616777557523054;-0.16557533573838012;-9.517922848244122e-06;8.437006243385002e-05;0.10002454401816258;0.22996211017196155;0.1299556781052018;4.4197640706178376e-05;0.9999453987635952;9.130919118318449e-06;-2.739275735495535e-05;2.739275735495535e-05;0.2299314301492583;0.12990965807114696;4.4197640706178376e-05;0.9999769224869226;0.0;2.739275735495535e-05;-8.217827206486605e-05;-0.005313147336269974;0.04217450113839005
2.5800771713256836;-0.14771233036472275;-0.06577047912061441;0.7517726634715286;3.8949941528271115e-06;0.13039724697458124;-0.01222336619231108;-0.001496628447582991;9.497982731764693e-06;-0.9962405100505358;1.0616748924511312;-0.16557256098623785;9.527892906483729e-06;-0.0014985630915726525;9.507952790004623e-06;-0.9961260859125995;1.0616777557523054;-0.16557533573838012;-9.517922848244122e-06;9.204006810965144e-05;0.10003221402383837;0.22996211017196155;0.1299556781052018;4.4197640706178376e-05;0.9999453987635952;9.130919118318449e-06;-3.195821691411457e-05;3.195821691411457e-05;0.2299314301492583;0.12990965807114696;4.4197640706178376e-05;0.9999769224869226;0.0;2.739275735495535e-05;-8.217827206486605e-05;-0.005313147336269974;0.04217450113839005
2.6000869274139404;-0.14768752781155953;-0.065730264894775;0.7517810535085204;0.00010308732866771358;0.13042070827320015;-0.01229891700717296;-0.001496628447582991;9.497982731764693e-06;-0.9962405100505358;1.0616748924511312;-0.16557256098623785;9.527892906483729e-06;-0.0014985630915726525;9.507952790004623e-06;-0.9961260859125995;1.0616777557523054;-0.16557533573838012;-9.517922848244122e-06;9.204006810965144e-05;0.10003221402383837;0.22996211017196155;0.1299556781052018;4.4197640706178376e-05;0.9999453987635952;9.130919118318449e-06;-3.195821691411457e-05;3.195821691411457e-05;0.2299314301492583;0.12990965807114696;4.4197640706178376e-05;0.9999769224869226;0.0;2.739275735495535e-05;-8.217827206486605e-05;-0.005313147336269974;0.04217450113839005
