flxalr/sts-optimization-reemc/input/498_145/trq.csv
time;base_link_tx;base_link_ty;base_link_tz;base_link_rz;base_link_ry;base_link_rx;leg_left_1_joint;leg_left_2_joint;leg_left_3_joint;leg_left_4_joint;leg_left_5_joint;leg_left_6_joint;leg_right_1_joint;leg_right_2_joint;leg_right_3_joint;leg_right_4_joint;leg_right_5_joint;leg_right_6_joint;torso_1_joint;torso_2_joint;arm_left_1_joint;arm_left_2_joint;arm_left_3_joint;arm_left_4_joint;arm_left_5_joint;arm_left_6_joint;arm_left_7_joint;arm_right_1_joint;arm_right_2_joint;arm_right_3_joint;arm_right_4_joint;arm_right_5_joint;arm_right_6_joint;arm_right_7_joint;head_1_joint;head_2_joint
0.0;16.672494092734894;19.230887489785278;507.3972009797793;5.016998827800265;-13.73423466230279;45.73657677918209;4.081672517848173;10.087623518822861;-13.07608137997659;9.080862070696742;2.1728533220963198;2.0503913739441084;0.7760258114139077;5.087106302371474;33.5488874627189;-3.303599600080079;17.52736416344609;3.5075366556006977;-0.23080558075693167;-28.841524314226895;6.018753128268282;3.611221126188167;0.8320257207286081;5.386369350513403;-0.01871741049333909;0.12157739239640482;0.059456248913732274;6.0767826262727125;4.019515967180077;0.9855040489755014;5.37433788067624;-0.01981805935026449;0.15064349914883415;0.060233291302383106;-0.004880396796210471;-0.5224547367352896
0.020179033279418945;16.53924615777386;19.2294062933327;507.9973873495896;4.988648390078081;-13.772885872242;45.60110378529385;4.070510979590844;10.034665732942146;-13.066964494902646;9.019857196763304;2.167875053448914;2.0389975307107937;0.7790263805139361;5.110996747348992;33.478790757112186;-3.1888191269249226;17.51748320992359;3.4967572782046794;-0.22960522029881478;-28.843858933198113;6.017768603561068;3.6118906648297795;0.832260376510686;5.385903216372187;-0.018707089106784675;0.12163097723139121;0.05946458655914347;6.076114649513987;4.018951284174021;0.985272928223092;5.3742363838046145;-0.01980134845843247;0.1505768510679909;0.06022210221317089;-0.004830789861635888;-0.5225284488445114
0.03999066352844238;16.329870414466647;19.32801470620905;508.18306373445733;4.959399054134664;-13.728698253130048;45.67518019575507;4.119915596241966;10.151096065725302;-13.197728877805337;8.965406478856751;2.1484611843061443;2.06281316315402;0.75047758916266;5.037408826970068;33.64859791882816;-3.0832581099153016;17.533724293735908;3.47406530075375;-0.2284298602994548;-28.85366557927609;6.013708885413721;3.6126902662098535;0.8325232667454092;5.384728451700437;-0.018692727035767798;0.12168418481748638;0.059470163251148296;6.072263443817616;4.018788904476603;0.9851401790439124;5.373224007558401;-0.019831314900176554;0.15055296204043572;0.06020541944294742;-0.0047567859812502585;-0.5210402605054597
0.06013369560241699;16.32990307846903;19.147233251955278;507.3770521435689;4.95166334973886;-13.573431329053882;45.609317557729455;4.119878567103876;10.149867639923938;-13.153188845840477;8.99195543876854;2.1493263437712637;2.0623452141750245;0.7098382941250199;4.950940475242092;33.77449853416499;-3.1218778731286436;17.569892822124352;3.474649071361777;-0.2258226542594414;-28.85330849255284;6.014720984677568;3.614424128611361;0.8331903588254278;5.384852824717941;-0.01869354981255336;0.12182192325077584;0.05948311420338129;6.073037710256108;4.016945658445745;0.9844395380062184;5.373607078608959;-0.019833270224731102;0.15041673870207933;0.06019835191809264;-0.004660032120905094;-0.5227967477245746
0.07999801635742188;16.40653991841862;19.24659491880695;507.5837609177962;5.00164920406628;-13.669541740411425;45.64263417941021;4.117656574231789;10.1450220288746;-13.046607668651912;9.031856181152158;2.1705648021776063;2.06160357101204;0.7519534719055126;5.01288923935116;33.589857923049934;-3.1724218281012146;17.555632803243544;3.4795407189889773;-0.22763672242700983;-28.857759806840903;6.012821140287706;3.6129645340003074;0.8326480289094472;5.384416683506816;-0.01868644149527346;0.12172386759394681;0.05947422101232275;6.071622452162815;4.018549764499808;0.9850170811780812;5.373061814652344;-0.019832584031142804;0.1505135746304186;0.060201016600153;-0.004768544088993625;-0.5229237918622806
0.10018229484558105;16.381691352889533;19.02937283074257;507.37863064106796;4.962446521680469;-13.598651184511638;45.54568134754968;4.113111547422662;10.136569047399885;-13.05724563279262;9.026557139818017;2.169047881536161;2.0602620977875077;0.7047638140568162;4.919284450906311;33.66221405207348;-3.159529683453959;17.5629840656253;3.460529796718393;-0.23069538865228587;-28.853721208095063;6.013768499697283;3.6104938298415132;0.8317442414897374;5.384847000346592;-0.01869166287239106;0.12156720875950841;0.059461894629935896;6.07315347152794;4.020728546805784;0.9858530488464367;5.373250330872779;-0.01980051905689295;0.15064252148214546;0.060215966819542374;-0.004950946920097865;-0.5228162333633779
0.12017202377319336;16.2510805537905;18.92492047512234;507.97704830325836;4.918030461049025;-13.586299283005246;45.47456360009592;4.106230881419365;10.116058994621321;-13.155481917436235;8.996131077394278;2.1572424776374293;2.0486756037420872;0.6833138341969099;4.878714333889342;33.73360380828001;-3.044456749809755;17.583664828365972;3.445867987559028;-0.23323247592691485;-28.84825197737311;6.014607758984411;3.6087244521880564;0.8310956133621134;5.385202002849925;-0.018700935211760507;0.12145661882307153;0.05944822540898562;6.074380152479025;4.0225479994128275;0.9865331448009466;5.373365822660506;-0.019820503656437956;0.15077922474864247;0.06023438563557502;-0.005083275754896991;-0.5209077639844909
0.14006900787353516;16.331221977388626;19.19563910243044;508.1584200097521;4.977644744528508;-13.699033095523646;45.674425111073695;4.108012892527416;10.1270253531771;-13.16381136901944;8.986351396057405;2.1475109988134036;2.059045063952314;0.7619122080638103;5.036988642502953;33.638289792469735;-3.078523209029308;17.563863855191705;3.470428090433823;-0.2338750309193257;-28.849505488310058;6.014567533862908;3.6081651321085424;0.8308977629786106;5.385221066675351;-0.018708600806378983;0.1214303729808117;0.05943847810853634;6.074383773783644;4.022976328015208;0.9866878088945963;5.373244794106445;-0.019810325622616774;0.1507950061050037;0.06024511529651771;-0.005167328073765666;-0.5227141249990552
0.15996074676513672;16.341659049926534;19.079088942405164;507.563123498453;4.981976519059499;-13.634508211055504;45.66859949486275;4.104906074368232;10.120703831228985;-13.05679546744024;9.026770187653414;2.168849171515072;2.057994979423975;0.7536172894611869;5.022008073487356;33.61764341119149;-3.161341470123493;17.545344089565525;3.4834823756613646;-0.23704718180224849;-28.85321398374687;6.012795479137648;3.60635140775956;0.8302023304900948;5.384858504012077;-0.018713934921877173;0.12130184052800519;0.05942137854121031;6.073074380046491;4.025356465884736;0.9875771240362963;5.372613972164479;-0.019799889692765478;0.15095250287165657;0.060260183503553486;-0.005346637338575228;-0.5228355346395661
0.1800527572631836;16.494260670569126;19.069993793581524;508.57750129848546;4.989643273970557;-13.95344665058704;45.64474259355713;4.089128980773946;10.110843534402218;-13.100622898626039;9.029787054382721;2.159640582387411;2.0568233374743072;0.7643050167759019;5.040938676319242;33.343774523815384;-3.2178039250604984;17.48860385914312;3.488329638738868;-0.24026172278203142;-28.85228130644107;6.01278281698915;3.6047945112510793;0.8296012937249214;5.384977794629459;-0.01871931381757791;0.12118398537321017;0.05941009979836141;6.073405261095871;4.027480867797611;0.988410667184316;5.372472382670623;-0.01976665833469203;0.15109536114576322;0.0602775325258344;-0.005515933380003215;-0.5228351386622849
0.19995522499084473;16.477355997143597;19.07408641292475;508.5551087854741;4.987927243240725;-13.950701683729292;45.670352157810505;4.061651394105631;10.04605218597806;-13.163320305093759;8.987493931961026;2.1475207084929506;2.0436587477287524;0.8093844687618121;5.1172122645418705;33.40662253330156;-3.181502483056531;17.492791524443373;3.5049782804904863;-0.24249499880668157;-28.85191373105011;6.012735541636378;3.60381993991749;0.8292048797691289;5.38502554828128;-0.018718846038793008;0.12109361547627333;0.059406544126231496;6.073477835885348;4.028820608205096;0.988936978261981;5.372351409126704;-0.019783225619333746;0.1512197331766547;0.06029002128738869;-0.005613398406809489;-0.5228543795362182
0.22011208534240723;16.36977549256375;19.19518764699461;507.94977688164977;5.024144520081421;-13.737676656481156;45.809404680088434;4.057651986904167;10.03118609870665;-13.095456725934975;9.036513022040403;2.168899474313336;2.0329387877875345;0.8571286510909557;5.20581898799448;33.5432557389873;-3.183683573079395;17.522088902328022;3.5314578335400477;-0.24415888280053988;-28.849932331171686;6.01343209510485;3.6030150845794373;0.8288685561710232;5.385252286761099;-0.018709090525077944;0.12100450516171742;0.05941451121895878;6.074227621461964;4.029606762843263;0.9892792020394551;5.372511645282656;-0.019783342791573517;0.15130522707941382;0.06029513219875399;-0.005660434012701544;-0.5228331293066355
0.23995304107666016;15.976462627442292;19.221899876643537;507.7462886637601;4.998839351803641;-13.442493055688402;45.8031899950455;4.059662239558497;10.040206323211644;-12.999878119600329;9.06561588668341;2.17987488815851;2.0425914529017777;0.8495541636968417;5.210704612980925;33.70403213487338;-3.075243473553792;17.55306109874872;3.534649294070774;-0.24313188861340315;-28.85503695957555;6.01195070370324;3.604891831923597;0.8295089558818026;5.384689430927095;-0.018693417126146722;0.12108542116480785;0.05943300286223269;6.072324167795737;4.028590863188507;0.9889283096186783;5.372114455868974;-0.019786360488202134;0.15126624878105974;0.06028357985363307;-0.0055501596535571665;-0.5230112379236295
0.2600893974304199;16.18650625228676;19.075448644722595;507.5574532950509;4.988394407062354;-13.547016036705102;45.709867198444336;4.045104859557995;9.978855049303554;-13.09594572348596;9.036059445849231;2.168261163125317;2.0293848413882416;0.8322823760271043;5.172140646544667;33.730819058790445;-3.117236969669449;17.567875475760893;3.5362226315332608;-0.2418042314745865;-28.855400065487743;6.012328179203803;3.6064535340891135;0.8300379855002897;5.384653228603917;-0.018671196764844813;0.12113937600673401;0.05946148236814367;6.0722282149864695;4.027115732188609;0.9884358474566598;5.3723021728582205;-0.019776510937340876;0.15119956223620873;0.06026927603112625;-0.005407028727103195;-0.5230589549043981
0.27991223335266113;16.550221640581984;19.315868912368188;507.9719314424926;5.018238807688173;-13.88927605480366;45.77672079876507;4.097021281389482;10.100795433640096;-13.226237811729227;8.949347438267132;2.1433375952038594;2.0541100124241516;0.8192814910719322;5.1360179478531975;33.55890093925525;-3.1696855307621172;17.532409615844138;3.514247397074732;-0.2385985765870699;-28.855714195050023;6.013016870164881;3.609546739263651;0.8311374599634779;5.38461026101223;-0.01865169049256451;0.12129850248395083;0.05949438757971297;6.0720014707431655;4.024172115835183;0.9873783882797506;5.3725802032902275;-0.019801289287663823;0.15105346622947743;0.06025296215066578;-0.005159969302693631;-0.523105177218503
0.29990172386169434;15.853712044430413;19.164899439852523;507.74436678448416;4.969952400509909;-13.359935491807398;45.68492588518705;4.066570810208812;10.029481937003066;-13.103672751907329;9.03206571860117;2.1672265960912367;2.0398358069634703;0.8158690501228255;5.115408917741642;33.87386875116818;-3.001351059858133;17.57073175961712;3.5119252814328332;-0.2414638775143172;-28.857298335707277;6.012866698502571;3.6079564028254607;0.8304610214679878;5.3846883423454415;-0.018629401163166158;0.12111941904942577;0.05950911192272259;6.07199056861844;4.025674027489138;0.9880165908184814;5.372605933062797;-0.019807072400005517;0.1512190910558071;0.06025439780474429;-0.005215460813628413;-0.5231877105753224
0.3199019432067871;16.924088349183595;19.53254208312236;505.29907297903026;5.182263651241622;-13.644327676098072;46.0921494546534;4.113748133583761;10.134311456780566;-12.983125152089205;9.113503899356648;2.190781097026019;2.0533178463526416;0.8997200816878527;5.210871967487721;33.670192478401944;-3.514541128085694;17.576698948481532;3.5398187088687325;-0.24027044276613616;-28.85984148390507;6.01298945543174;3.6096933208668562;0.8310390679998763;5.384663762307117;-0.01861569079061752;0.12118209087649182;0.05952985895013314;6.071407636868967;4.024199314977476;0.9875278956735858;5.372708786995392;-0.019803870793389813;0.15116805251692889;0.060251362150693454;-0.005076062251095165;-0.523298103526617
0.33996105194091797;16.35235967235875;19.43776620511445;507.5999515667189;5.081781965143976;-13.705149664133081;45.77759612121077;4.091593753409534;10.086459907818895;-13.134529506054779;8.976242873080418;2.153616717771343;2.0512514727468854;0.8941285743398297;5.158430953113822;33.64789505569692;-3.135834053609855;17.55720219290794;3.507258285817102;-0.24013305061506474;-28.86434631341597;6.012354767774946;3.6103511774105153;0.8312199788821785;5.3845273999359025;-0.018603815945658013;0.12118907238821686;0.05954320344898261;6.070341007256056;4.023897782561708;0.9874682654227754;5.372595405209217;-0.019784330679248313;0.15117868889386993;0.06025337458451014;-0.005005359369241442;-0.5234606870849295
0.3599710464477539;16.093913801016484;19.34735805520151;506.78704487028585;5.021529186229186;-13.354348908180853;45.77554147363988;4.087837055246717;10.072248826009655;-13.214024656105705;8.921368725330568;2.1307453066037305;2.0406406164484894;0.868432220824658;5.1109083553666865;34.051476402787486;-2.9961754892296897;17.632000943249707;3.4901643863924314;-0.2416565787987301;-28.86292696447636;6.013681388644015;3.6095147849987845;0.8308750071685653;5.385081700721856;-0.018597157127417892;0.12109532955511185;0.05955015365108664;6.071631307529638;4.024604618618217;0.9877786188990996;5.373048080956316;-0.019789229781720562;0.15126770780299195;0.06026997832074515;-0.005049594087253178;-0.5234541075651568
0.3800954818725586;16.486856707441103;19.123064835050265;508.1310866986288;5.018347383713969;-13.858665459146607;45.495557366074394;4.042425188916646;9.96750037017184;-13.241764126779575;8.940952019509908;2.141239531815245;2.0271090479218925;0.8503444151351953;5.041708399449991;33.60384935075436;-3.1109261355091995;17.560152596564635;3.435371482596238;-0.24222920215912017;-28.863338131723875;6.014472948732975;3.6093608994998387;0.8307951859321737;5.385477430720375;-0.01860044573706266;0.12107404763225313;0.05954962432623688;6.072192027228587;4.0247275708861725;0.9878548513341716;5.373312015589593;-0.01977062317004727;0.15128949932241256;0.06029078999997681;-0.005071613907802708;-0.523492821728851
0.3999669551849365;16.62085081414849;19.29614507855351;508.1087008317623;5.09546195458989;-13.986504362863165;45.61975828866302;4.090794004908233;10.080751092493205;-13.095960956692858;9.005463076444713;2.162924703316254;2.0508472830239057;0.8652480907006601;5.042658055802644;33.355252727137966;-3.2548649614383094;17.502643547616934;3.427991233941597;-0.2457822319683307;-28.86760748926578;6.013584630911784;3.6072289387986345;0.8299510045666021;5.385561296543426;-0.01861427964300405;0.12091127802628046;0.05952656136366247;6.071407416273428;4.027275483573493;0.9888405842837453;5.372969697273463;-0.019741827631939664;0.15147660395939216;0.06032697618485587;-0.0052513929939611926;-0.5236318144544286
0.41995787620544434;16.56061720910709;19.260456076176794;507.1382328462922;5.090224683672408;-13.737666519998527;45.76744653193033;4.084385552221196;10.069001161481456;-13.097984980548336;9.005432956808402;2.1627389353012685;2.0491810036330134;0.8885664168277565;5.098610939249104;33.61208963282765;-3.2356364037248846;17.55735105130802;3.4545465057861375;-0.25215470299397663;-28.86775246185019;6.013727347037292;3.6031612677327693;0.8283601144830064;5.386011559927087;-0.01864018027656813;0.12060910012515175;0.05948628636467492;6.0719403573893675;4.03154500215564;0.9905127478647218;5.372794128901007;-0.01969015856723587;0.15178767087191067;0.060381122350890264;-0.005575346514446562;-0.5236509545541467
0.43996357917785645;16.023937294253706;19.10627536876502;509.3182796392541;4.99996210507702;-13.77813095018761;45.56200751821686;4.081378334653458;10.06300684532355;-13.195922376421404;8.97094022063185;2.1426349888956935;2.048142000478067;0.8491995797190738;5.032047318636158;33.55172256216462;-2.968987634767264;17.52129581982197;3.443262688700355;-0.25546975866859967;-28.86686347563925;6.013914148598382;3.601660747907057;0.827718625836996;5.386320894961204;-0.018681173498499133;0.12047707626733692;0.05944210433745237;6.071484958410432;4.033037622911536;0.9911497595391981;5.372477293956862;-0.019644050496913305;0.15192131846683746;0.060434706103414025;-0.005709495570064628;-0.5218678838225076
0.45995044708251953;16.380262675862;19.093376107182053;508.1135171299841;5.033042857823317;-13.765461007157832;45.74520859990253;4.074444996374309;10.050032014235802;-13.204293961776498;8.966590364631646;2.141579491492231;2.0462231462533604;0.8807476759254734;5.111055721450512;33.628843347923464;-3.108164081284078;17.54224339579908;3.4842693542509178;-0.2621105751547678;-28.86246550231168;6.0161416758156605;3.5977924640054444;0.8261864522976036;5.387326379751037;-0.01872620799410355;0.12017261615642409;0.05938991439787122;6.073509773636113;4.036836875906448;0.9926925983744026;5.372645273768043;-0.019604616076116;0.15223948517215385;0.060502249361321994;-0.006049200786230775;-0.5235056951368475
0.47994494438171387;16.624961088504953;19.08206032500928;507.5372867242378;5.082526169765171;-13.774426497453163;45.79689097958381;4.069578487160932;10.04009964154654;-13.044680839285979;9.043237311708385;2.17369623349008;2.0446341966313444;0.8997579407872087;5.144540030554095;33.49395860972275;-3.249869281187764;17.541722337097372;3.492036849178775;-0.26742693610613333;-28.859274906783057;6.017208970914702;3.595000430943394;0.8250399048581305;5.387881940091388;-0.018770675197392832;0.11993284698476844;0.05933913056409465;6.074115067875441;4.039697162815508;0.9938791147682354;5.372464149825279;-0.01955738849170794;0.1524869381890329;0.06056045826780717;-0.0062841271470623575;-0.523414062620776
0.49993348121643066;16.74762004475123;19.080446245059605;507.44630708220757;5.074365302882079;-13.78047515530912;45.84396054722446;4.019173737543961;9.920580546394294;-13.153979749807547;9.00627698935627;2.160361643823646;2.0200144741766803;0.9527759284856552;5.270757470781476;33.59015124841768;-3.233792474822725;17.557883177392874;3.5200450818092404;-0.2689105767437723;-28.84912655475532;6.021033805210377;3.5949627086220755;0.8249512345697655;5.388983192563184;-0.018818117906827643;0.11989555843441117;0.059308448331318646;6.076839757479361;4.040291467979224;0.9942357986182723;5.373083293061718;-0.01949909998946389;0.15257266781645537;0.06060797248916361;-0.0063151049045093;-0.5231303800339324
0.5199096202850342;16.76429937311439;19.27898397867116;507.64959678656044;5.069282448596763;-13.801456044342657;46.021513943572856;4.030656578825234;9.97400989659552;-13.2457646860664;8.979753137472983;2.1499390836726273;2.0315578318374437;0.9737593549226233;5.341954456456607;33.64725931759186;-3.197764081332652;17.56151698987751;3.5354453448092564;-0.27178312614712746;-28.84514405573799;6.022343606805495;3.5936934198364594;0.8243960854562407;5.389429462853803;-0.018843214071949867;0.11976068751530189;0.05927800138698283;6.07763073637239;4.041348105736507;0.9947199830846567;5.373127913693019;-0.019485808026916587;0.15270289878076063;0.06064582461177866;-0.006416609212610501;-0.5230143128976031
0.5400524139404297;16.696278013372925;19.089975673484098;507.44987196978684;5.050979523605362;-13.723352757828643;45.857874895559604;4.041488357366342;9.974889271749015;-13.185058142942296;8.950610788447271;2.147031112980484;2.0315229582059295;0.9400993033765941;5.247319584947737;33.65334782852682;-3.165620773614111;17.553547125214248;3.5320220149668966;-0.27342115827694463;-28.843708019788398;6.022823023094504;3.5932983209316465;0.8241683952924767;5.389564386095083;-0.018864659924853304;0.11968772898264073;0.05925683012348011;6.077549497796158;4.041909940149196;0.9950107552176314;5.373008512403498;-0.019461668161124206;0.15278521396222225;0.06067143166535755;-0.00644677311544326;-0.5229673998616778
0.5599405765533447;17.098466238810378;19.31090942381595;508.06793622878683;5.120955379123609;-14.134684483498638;45.94536839685517;4.067643903769798;10.02854302849691;-13.213573641271509;8.966211959588643;2.148639239925174;2.034077265341932;0.9636304344784062;5.292990373851681;33.312748305127194;-3.334503386931501;17.47690821942457;3.5507854663003044;-0.27063071216807905;-28.84252241359265;6.023698337532161;3.5961848845936317;0.8251760053683896;5.389574123850531;-0.018885532678067987;0.11984463289221975;0.059250263254111146;6.077059382498703;4.038964005339239;0.993978038913384;5.373055622066486;-0.019438181974131268;0.15262116350180335;0.060681676278583105;-0.006246961525044718;-0.5229238370632572
0.579930305480957;17.121412043636703;19.345608829026283;508.0740339398474;5.139926506394275;-14.164920358423764;45.928897927188004;4.068046582440273;10.034535320291647;-13.11712746986668;8.995585613830404;2.1597602857662466;2.0432525683828335;0.9714388149311487;5.306306655878497;33.19194208042974;-3.3839425532409733;17.452027358857322;3.5561170829300814;-0.27104075962793384;-28.844181219800525;6.023151910455991;3.596799840045129;0.8253111067627164;5.389328794916836;-0.018904352392617077;0.11983189471497488;0.05923266594806333;6.0757157514396205;4.038409190225308;0.9938498625404514;5.37266929135647;-0.019403598251640362;0.15262034369462665;0.0606955986658793;-0.006200918831215064;-0.5229521715111655
0.5998954772949219;17.12755028458585;19.351476462481582;508.9711343683039;5.121695726305938;-14.328308156489236;45.86397926517991;4.065348204904022;10.029967442824585;-13.216515305144611;8.960449368372624;2.139597590474739;2.042591330558558;0.9671330414793275;5.276937171971145;33.102469319842754;-3.3361033098268456;17.42776670588346;3.525463789158543;-0.2737281570957885;-28.841345313786594;6.023757073749007;3.595544783872586;0.8247636718529412;5.389515156170491;-0.018922459312163693;0.11969771535981887;0.059211444169836265;6.076061985526838;4.0396658189883805;0.9943562875917247;5.3726120080002495;-0.019402758505572104;0.152754103300983;0.060716199213133475;-0.006281092980016901;-0.5228468002907345
0.6201767921447754;17.046093871253724;19.467210733084343;509.5823935952212;5.125200082914113;-14.335968567848148;45.85465258621778;4.064827829420781;10.028628472181888;-13.222965973007405;8.95649124365082;2.1388050111359327;2.0423043304905706;0.9857001102554288;5.3031490646799995;33.05511389450814;-3.2711204262481246;17.41588928488429;3.5078911697610358;-0.27426335273627467;-28.831679274174107;6.026260430841688;3.5959064002625665;0.8248280524791864;5.3901017945437;-0.01894841784210561;0.11967834338979871;0.05919422308334371;6.077741122417384;4.039001112590178;0.994198413245987;5.373017776192613;-0.019390797065725766;0.15276055272618091;0.06073452934489742;-0.0062256480040882075;-0.5207786118721832
0.6401236057281494;17.206189729731342;19.379187945744974;509.36405096670114;5.140467166565264;-14.365426045668286;45.739620444062716;4.0662918903916445;10.031646419743801;-13.129781996588148;8.988697492054506;2.158084655583464;2.042732596312013;0.9653740271379506;5.219957055687575;32.939202215642496;-3.357056206278064;17.38536244493815;3.4751408969862387;-0.2744986030620182;-28.825773796402988;6.028640261009897;3.5965761007256782;0.8250037659452678;5.390619583830717;-0.01897774258891776;0.11967989408586868;0.059174634758114845;6.0791654047836;4.038046360961605;0.9939321848937476;5.373343400161266;-0.019369421947739496;0.1527390554349923;0.060750653107662526;-0.006207896573727677;-0.5223339936365211
0.6598894596099854;17.46311702945753;19.392761218863697;508.3905954692983;5.142688784623393;-14.260903748679311;45.86206418413015;4.030333777979673;9.97271986062878;-13.246964282159675;8.943352051185755;2.1355254215200774;2.03106571664365;1.0072915052055469;5.292066541033455;33.17961558100342;-3.3750975549653712;17.45377515849662;3.4895447948229013;-0.2764731262426417;-28.811244152877176;6.032689377244452;3.595939110570212;0.8246943049095383;5.391708046945443;-0.01901203551217568;0.11959135796828232;0.05914963592212924;6.0824312082788925;4.038150841299207;0.9940946771475228;5.374083015622904;-0.019332947376892798;0.15279324112526504;0.06077636028218881;-0.006227532598071846;-0.5201257848884031
0.6799497604370117;17.09032895060046;19.086506238270857;508.7779007000872;5.043201283408572;-13.982453447369586;45.6825600204173;4.0284661098384715;9.967944748146357;-13.26999215842389;8.966309815957283;2.146585815296459;2.030117035698814;0.921028705238701;5.153186305224313;33.40583907310928;-3.1890996049301186;17.505373008893905;3.486331230195331;-0.2788026547455795;-28.8067664418179;6.034614771394639;3.5954198205746914;0.8243941387035368;5.392222983080605;-0.019052843565303824;0.11949766602546975;0.05911306987896065;6.083341534871996;4.038471050635461;0.9943175718260541;5.3741341835603915;-0.01932522020884074;0.15288319120732394;0.06080595194687713;-0.006307545688691548;-0.5217271685796137
0.7001407146453857;17.150575280295737;18.977305643166126;507.6607644516853;5.050343114840015;-13.789574838063494;45.68039686893527;4.040852883785343;9.972704921269022;-13.181213134048164;8.990146239001547;2.1564360472909527;2.030798161943025;0.8977235400154777;5.105660447761025;33.52694882151637;-3.253117616031033;17.528681259441008;3.482991858477888;-0.2812623630665298;-28.802398013916687;6.036136368886143;3.594975987635789;0.8241095048518531;5.392665905167816;-0.01909953922027479;0.1194054521635427;0.059070112700809044;6.083637053998458;4.038759795779723;0.9945422226606881;5.374013362631336;-0.019291506623793885;0.15296132724658593;0.06084001564958584;-0.0063665009689024745;-0.5215807451678188
0.7199509143829346;17.06403618247564;19.164556108188215;507.47944108929215;5.034027996786646;-13.702869149695765;45.83157027506541;4.062740873186328;10.026677848991518;-13.209239915359497;8.93793861267058;2.1437551009482623;2.0422646086178045;0.9093461571388646;5.172294427799827;33.63477287147651;-3.178145688307237;17.550058184059083;3.489362388943074;-0.2864769586352669;-28.80365886355127;6.035780340925903;3.592872033511706;0.8231624736224423;5.392740553156375;-0.019150676832916012;0.11917857967805542;0.059011166586262695;6.082465079771806;4.04102199313216;0.995482974654635;5.373348511499502;-0.019250612582972337;0.1531789922193213;0.060884330062927025;-0.006548608194153101;-0.521594167579827
0.7399072647094727;16.960929281709433;19.339882869318437;507.26541992833444;5.051296654449734;-13.576287413137308;46.039267387272076;4.035369193155312;9.963812416427215;-13.247739443204292;8.9432227256037;2.135409775870553;2.029680957900724;0.9879774202728573;5.35582827511049;33.78891650969091;-3.134734328548266;17.590006079926866;3.526115930700216;-0.2922918604345353;-28.80431061478873;6.036244858376232;3.5907324038426855;0.8221465761712146;5.393094927769656;-0.01920815800286526;0.1189303991310718;0.05894786128359885;6.0828111072756;4.0436132310534765;0.9964799053401139;5.3731402243736515;-0.019190863840203118;0.15340927829636303;0.06093737373844362;-0.006742162072258518;-0.5215725163124758
0.7599508762359619;16.782731701868443;19.32666088934446;506.2603515251656;5.032219334875339;-13.278282370958294;46.12368279202194;4.060241068610741;10.023099429197979;-13.201375030707885;8.942694159567985;2.1450594163165735;2.0419555905285205;0.971056132271189;5.325827316898523;34.043498546582114;-3.093049745460874;17.63469127981881;3.535536095653315;-0.29725637481839773;-28.807833746742897;6.035677651711357;3.589527780153558;0.8214745979954238;5.393092667398575;-0.019270837719737977;0.11872958496889338;0.058880652637955604;6.080602463359278;4.045060026223744;0.9971535518415533;5.372248771063861;-0.019152419778954786;0.15360681766049195;0.06098737504122311;-0.006865882782264211;-0.5216634203179498
0.7799293994903564;16.750152717938168;19.225849631140697;506.46082964004177;5.018214256654145;-13.256064569648252;46.09042051743651;4.033504063349061;9.96031458583013;-13.17564461086761;8.995007277637594;2.157487213888773;2.0291532649795467;0.9678042483402202;5.353163215365901;34.02943423037692;-3.092010347242123;17.656351518483387;3.557440538473572;-0.3023440160626547;-28.805887234268063;6.037208386205486;3.5884788668405;0.8208439848627919;5.393671242817085;-0.019337267983058917;0.11852231305816495;0.05881600821021253;6.079920864275088;4.046084773623457;0.9977219245711564;5.371826638172422;-0.019098321019631173;0.1537945026775034;0.06104117173205613;-0.00696777014405929;-0.5216144760299394
0.7999162673950195;16.82613890019158;19.43321799489766;506.2552939201902;5.049420537123322;-13.309759600681481;46.21996721730342;4.061021634687424;10.024785344971693;-13.14613141650236;8.98000978500594;2.1559295577578172;2.0421972926944885;0.9880748922351457;5.411562247641066;33.96890940951804;-3.1339006926249087;17.643856425481136;3.5780382971189866;-0.30564420662479164;-28.807736373849288;6.037771206340912;3.589139163652688;0.820815843553323;5.393860820122207;-0.019407085915947357;0.11841166608677578;0.05875209815779496;6.077620268146469;4.0454764289010265;0.9977304541412908;5.371067025388359;-0.019038837929983503;0.15388972653120916;0.06108980993498799;-0.006951308923140753;-0.5216748640789961
0.8199203014373779;17.072026110501934;19.427248127470918;506.65845184825116;5.037549757303815;-13.629613027322911;46.19047680201149;4.063428676977337;10.030064860298351;-13.24398141838127;8.945042260791737;2.1358500855473737;2.0430213114105524;0.9640858862280481;5.389140865370116;33.78657330758497;-3.231794099097728;17.591062281051286;3.5728527851490366;-0.3093092450388513;-28.810876496161313;6.038022651867286;3.589821596514298;0.8207677252358986;5.393967490207179;-0.019480192027875938;0.11828507144578879;0.058684115928263926;6.07480218858279;4.044878463363872;0.9977747551942705;5.3701630595497125;-0.01896038270479531;0.15399476851492377;0.061141432708696146;-0.006932921845514254;-0.5217750262394915
0.8399143218994141;16.56383914795891;19.126202598478063;508.83702535041243;4.8776594131099085;-13.76751122977521;45.7902073431371;4.026694551601667;9.968636936698028;-13.319128239747773;8.862221092615867;2.121566393150662;2.0309774097697244;0.882992593758416;5.271378240046224;33.63240333731984;-2.968235593109573;17.526830832957952;3.5502935551136092;-0.3176164577052894;-28.81732504240957;6.036759633301253;3.5874807510640863;0.8195344384467182;5.393855798426526;-0.019555716639502223;0.11791728292806397;0.05859742711242931;6.070983470189675;4.047458824052443;0.9990385925454007;5.368726084330914;-0.018900411130873332;0.15436040728519687;0.06120821400134441;-0.007120256773323471;-0.5219689422963945
0.8599615097045898;16.833689512790578;19.24637510155835;508.0311380832504;4.967633672962522;-13.841630412487376;45.90706070275613;4.062593059077839;10.029118520058553;-13.12843704111362;8.989727849084758;2.158294833086468;2.042883457271227;0.8814869418453734;5.269755467573473;33.432985041466054;-3.226811789938724;17.498765324337256;3.5496237904822143;-0.32251216023420465;-28.82033611499746;6.037177630451545;3.5879011169881;0.8193250653528836;5.394014180416626;-0.01964418847376293;0.1177363942718575;0.05851833084617987;6.067904914684755;4.047130466968378;0.9992464330416925;5.36770266753492;-0.018828395814797082;0.15453779588541383;0.0612726125157198;-0.007118027454575899;-0.5220689090698927
0.8799035549163818;17.260454361384394;19.38731908710145;508.24492146458147;5.0501471531584325;-14.22265928351846;45.95125463061625;4.060225095904001;10.023479386563638;-13.133799302748102;8.986348832867339;2.157271529742875;2.041776936835046;0.9416783489693996;5.327976075641182;33.12217833638763;-3.397431065394481;17.452003996911362;3.5553825539471973;-0.3285474885461669;-28.821559236159004;6.038108342409502;3.587574010845319;0.8188274035213029;5.394349137728608;-0.01972384965757494;0.11748758047757688;0.05843663591057994;6.065438966871181;4.047450920494367;0.9997258126537691;5.366795799870074;-0.01875146302356913;0.15477376145770205;0.061341343798769925;-0.00715942540358701;-0.5221179111833318
0.8999412059783936;16.811859115186778;19.51104884452754;507.61897615256896;5.02692027804679;-13.828762178357714;46.08478310850184;4.0598884705139175;10.02404451137434;-13.122904573577095;8.992443349066342;2.158607561940672;2.0416143085688563;0.9695481370012282;5.401112078788817;33.467976909305435;-3.267629610632775;17.50515274085007;3.57962643436897;-0.3335618636787496;-28.825123385909983;6.038106021835925;3.587822860740135;0.8185572928966861;5.394359304801678;-0.01980294776608666;0.11729063199728858;0.05835983297819471;6.06211492739841;4.047296152892791;1.0000067574506621;5.365682495167301;-0.018668855933956;0.1549590029982215;0.06140193722422797;-0.0071608782957801025;-0.5222302524358451
0.9201037883758545;16.63585929184174;19.337407835623118;507.81829606936816;4.975738661546366;-13.739915432581974;45.98432192757059;4.055767554773601;10.017854896144415;-13.163755236900826;8.996402203366767;2.1497585777307515;2.040454080061867;0.9205235452079554;5.318031086672625;33.56905687665951;-3.195208570424806;17.532923037943764;3.579359099425363;-0.33931580185503357;-28.822660555645907;6.039949600034741;3.586888562799627;0.8179065822269128;5.3949592271090046;-0.01986990983128884;0.1170425821159545;0.058295168955570895;6.061365764834418;4.048057747548022;1.000607896767604;5.36525465033691;-0.01860864749037676;0.15519876721587142;0.061460854981312464;-0.007232406785558003;-0.5221739353822957
0.9401109218597412;16.57987637307378;19.46140973927718;508.5982373723929;4.986118833074732;-13.914509466431667;45.93931131064667;4.056630081232569;10.018325153111602;-13.114046067106086;8.996975015089602;2.159613514284452;2.040390465915582;0.9401764352640303;5.352921266071729;33.34478917293425;-3.191033482185637;17.483991597489332;3.5722188262190318;-0.3424546561431975;-28.830117151085524;6.038116248870728;3.587175129975939;0.8177670646109377;5.394435810833723;-0.01991562849652278;0.11691790487090334;0.05824613934686078;6.05746576631225;4.048091471229427;1.0008197796168135;5.364057093105864;-0.018573184045723543;0.15533511165890698;0.06149387588105995;-0.007222754661531851;-0.5223898039927273
0.9599552154541016;16.983669919746312;19.58035431814279;507.4096324667237;5.035486368987913;-14.02635525727402;46.105476804149205;4.0575178996435275;10.020643219258092;-13.108547276250402;9.000241848611749;2.1604039743334336;2.0408885199344216;0.9674634109069631;5.41727020985971;33.31835570760645;-3.4006530059466167;17.475605633983744;3.5835995814944273;-0.34453854465330674;-28.83406723081899;6.0370080864261215;3.586855812730662;0.8175277864044946;5.394129643500023;-0.019930801706903936;0.1168211635505487;0.058226466431087344;6.055570032592621;4.04857320102286;1.0011016561962203;5.363460546007675;-0.018558939165786444;0.15543732691509474;0.06150438588090918;-0.0072389366759938335;-0.5225049064699463
0.9800946712493896;16.716603799385013;19.38810484623217;508.4129418901668;4.97187030450778;-13.992083025732782;45.836951018408676;4.05969329008263;10.025214561564296;-13.127553598807065;8.98878448522877;2.1576040823686258;2.0416287622262925;0.8924638488463558;5.258853020797999;33.30178837318553;-3.249232965115193;17.476476830687492;3.535411615741623;-0.341964653687431;-28.826763370889445;6.039804104775574;3.5884190642452074;0.8181566279179896;5.394762477896125;-0.01991782138059342;0.11694095532746386;0.05825242235873579;6.058211426801713;4.046672228697192;1.0004031987425601;5.364400664867146;-0.018571229314229117;0.1553132149802922;0.06148779104950031;-0.007105599257011216;-0.5223055313315255
0.9999830722808838;16.780173285741814;19.363308808479243;508.68593944638815;4.951509421346777;-14.110943206918094;45.78080678771224;4.065364310747826;10.039363559914285;-13.249085756252434;8.907210922908657;2.134197369712398;2.0444332339408438;0.878065103882423;5.213889064742778;33.30722048411938;-3.2069357500103477;17.464961566684998;3.5197122909385112;-0.3386700559595308;-28.82476622486273;6.039366601354802;3.588877193919512;0.8185048692575234;5.394538891733726;-0.019860751016173413;0.11706337541388036;0.05830804243896663;6.05944080583499;4.046186531091606;1.000071718446163;5.364944774072975;-0.018612236992218964;0.1551917875736112;0.06143585738877277;-0.007004583951701183;-0.5204896343508506
1.020066738128662;16.385141330009986;19.233576423314325;508.16049701377216;4.928681177149331;-13.754102081224474;45.712487720065326;4.052173109010146;10.003920032849166;-13.131732708563671;9.016943584398799;2.1630818164695915;2.0361100718127294;0.8444789425458583;5.159369605817001;33.53420162502122;-3.1605014144644903;17.52414840821624;3.5107598126721724;-0.32881857025242345;-28.838899689954058;6.034714956024739;3.5932018797375664;0.8203921238905217;5.392864751682864;-0.019773932609547004;0.11751504155339938;0.05839656618842489;6.056629044721844;4.0424607146663725;0.9983531326047049;5.364702957534765;-0.018706806531898705;0.1547805000097761;0.06134125537550601;-0.0067001805609471065;-0.522650312830645
1.0401182174682617;16.38808835252494;19.418889123504382;507.34610452257704;4.959068189366846;-13.637150353978221;45.85845506880306;4.084143915227151;10.079513328065127;-13.092935076554816;9.00648335897138;2.1630078474383683;2.051438358893064;0.8496614534672962;5.1814360032556825;33.64517084561558;-3.177607716336735;17.55668043135274;3.5092609272714927;-0.3213258903148427;-28.845679071887236;6.031457520825525;3.594717254086157;0.8213206395541799;5.39176725271567;-0.01966248690770586;0.11781887484616745;0.058501653421203774;6.056701372552597;4.041248523278769;0.9975339423972199;5.365144981314952;-0.018807242320401145;0.15450189301324177;0.06124009316941762;-0.00653902641657777;-0.5228511607680187
1.060133695602417;16.49987827734944;19.21457827485282;506.35837590451416;4.933682712262803;-13.568570184255194;45.77000465375083;4.090323814965871;10.09174981458812;-13.081768273403178;9.013109999477656;2.1647158362958625;2.0533870233823115;0.7771600223627485;5.055715943379642;33.75733336633927;-3.258738354122934;17.582844895136283;3.49580579087;-0.31077258867484736;-28.853407139624327;6.027886584101481;3.5979688350128183;0.8229505936806037;5.390444579810553;-0.019539979668396254;0.11827393434620674;0.05862358961947175;6.056496234083861;4.038353413596355;0.9960285024679378;5.365661652576901;-0.01891347831660807;0.15407110472909621;0.0611213470354429;-0.0062562548410656366;-0.5230807051461186
1.079972505569458;16.179226453843814;18.973635475355863;506.5464254579492;4.851197518399225;-13.362600302861189;45.570078006466055;4.053621492605626;10.001722161577732;-13.118815379152311;9.017373036927648;2.156536814169253;2.0339502192608334;0.7152203078751093;4.989250074952511;33.95739885858405;-3.119378503799954;17.63091380161942;3.483737222231266;-0.2976987448717474;-28.854876039472;6.0265246655121345;3.6024864603418214;0.8251213630804567;5.389637422861533;-0.01941114935858003;0.11885297955319947;0.05876282000175668;6.058535284274422;4.033893426301663;0.9939147503850944;5.366930901901558;-0.01901043930179957;0.15349806397193544;0.060992820558400655;-0.005882686944178375;-0.523137246393269
1.0999338626861572;16.075238686821287;19.134680183014364;506.5358865233786;4.853887263322314;-13.295111396470134;45.6335998615501;4.087816912460883;10.081139316945677;-13.127269655146897;8.97867743032204;2.155246864097408;2.049750332720605;0.708412242032896;4.988832154660775;34.03233991911736;-3.0341553653881723;17.65324761166353;3.477398880996152;-0.28714558876452423;-28.86048748161108;6.023225827823962;3.6050769521722343;0.8265644258647894;5.38840956222536;-0.019280504036162896;0.11929978708784396;0.05889090039470186;6.05924079640828;4.0316095604780715;0.9925718552181793;5.367638045994425;-0.019159642078939533;0.15309340185490303;0.06086985813118127;-0.0056484515755634325;-0.523306710717763
1.119966745376587;16.088721769582587;19.199303137317038;506.02743752948334;4.884595844205976;-13.212384103975218;45.72340964469342;4.117869227907992;10.152723824867603;-13.057373573196198;9.02469042117272;2.168723144510404;2.0643396094313196;0.6911754440700235;4.963943087046731;34.061235150434776;-3.0951154742214237;17.657763418989724;3.473964902804174;-0.2788454440360225;-28.863276236706756;6.020656219101574;3.6061064792875057;0.8274124520204678;5.387490260600309;-0.01915754130462414;0.11964272167592706;0.059007905541635396;6.060885218726265;4.030718612504424;0.991786443566742;5.368455236004061;-0.019275945110884665;0.15277835476189147;0.06075850151851578;-0.005526778670280284;-0.5233947928226562
1.139972448348999;16.307432374898692;19.173121827308144;505.8348518575003;4.913543226945444;-13.32756578589133;45.71298361153581;4.1216806330250035;10.161956661163357;-13.053809572892899;9.026461377484473;2.16937901528227;2.0661567016838003;0.68727808779229;4.936751192247444;33.9746931822291;-3.183592996903947;17.642316295145907;3.4633245007347755;-0.27128553476457984;-28.863116263956535;6.019079385152548;3.6068677731643985;0.828135525991709;5.386857041985478;-0.019044030562642852;0.11993322122375255;0.05911628290739468;6.063278372147934;4.029967633099254;0.9910892973500918;5.3694277509337915;-0.019385255298518173;0.1524910144054659;0.06065642525184762;-0.00542566890166939;-0.5233967912490498
1.1601145267486572;16.307857668045187;19.152930405263202;506.33804334151927;4.913127078260592;-13.394248779544327;45.64207926445825;4.126603892306064;10.173152232562707;-13.05469304188619;9.025567446118888;2.169414874286036;2.0682248934304366;0.6687768528343174;4.902720274945689;33.89035910178878;-3.158488262917082;17.628416996570014;3.452709709377295;-0.26279490220462176;-28.86022435308773;6.018560023583399;3.608511563098878;0.8291750123686529;5.386441481415697;-0.018937148170468973;0.12028456464099352;0.05922512283547756;6.06630635896641;4.028196683159967;0.9900458289623721;5.370629261350021;-0.01946332843884488;0.15212979046299435;0.06055428272272157;-0.005261455995911297;-0.5233184412747335
1.179957389831543;16.421940653167926;19.223251814828384;506.9440296692767;4.941742643533388;-13.586883260271819;45.59852661961523;4.133584224568302;10.187864996128972;-13.051550938708228;9.027113636795034;2.1699474519721997;2.07068911236882;0.6727343093971823;4.897383874244775;33.69404362194747;-3.1983824145962387;17.579798936541952;3.439690374425888;-0.2528491020145646;-28.859014030750828;6.017579631973218;3.6114508221573036;0.8306792214114683;5.385793065159442;-0.01883411666317964;0.1207149147585398;0.05933407133802773;6.0684197517952665;4.025290250042524;0.9885566405308328;5.371651456840969;-0.019594047496832086;0.15172630760863515;0.06045046521222;-0.00500814959646449;-0.5232827234124889
1.2001912593841553;16.716275665635393;18.890654689619613;508.1405392082014;4.915724754969332;-14.02369482711017;45.254355883609776;4.0915293607342855;10.087630554848765;-13.086002008998916;9.033743211266149;2.1622817069111293;2.0497788565780306;0.6166154167751859;4.774370855145654;33.30366213382977;-3.3072504486240155;17.492076901293792;3.4005317829138284;-0.24461588879739107;-28.857234863490465;6.016513780107488;3.6130270178918513;0.8316750229290941;5.385199352760036;-0.01872690769375286;0.12104986836033156;0.05944135490271692;6.070875785949231;4.0236860132285175;0.9875667080737056;5.372669261955254;-0.019701671164929845;0.15139784283568763;0.06034699264431927;-0.004840773055669087;-0.5232269309035107
1.2200744152069092;16.465518991883187;19.071231494023188;507.52290128287837;4.928417818482719;-13.694197147108731;45.369436014735015;4.149348208609928;10.222729602880904;-13.04403278362205;9.029928738766614;2.171408017495062;2.0769143450631997;0.6010951314210866;4.7272601241583025;33.55893182352507;-3.2029020839460087;17.535918758475177;3.3870143842469163;-0.23434138536708052;-28.85490039396477;6.015995900425728;3.6164115792949034;0.8333275054763769;5.38464016908666;-0.018628604124404327;0.1214991102331827;0.059548702274453635;6.073155304379197;4.020260022024996;0.9859148362026091;5.373760174323811;-0.01980107904178506;0.1509538085183375;0.06024388231829371;-0.00455214208743408;-0.5231522600306986
1.2399358749389648;16.684152147654757;18.852849544149173;507.940417493381;4.898281485316518;-13.900585627058305;45.14241435660483;4.130344631164235;10.176569025262156;-13.108832241835207;8.986310799046887;2.1589936447311957;2.0670517997291937;0.5535541482370092;4.620236632196464;33.427321183206985;-3.226331550100378;17.509264774070235;3.353248255912242;-0.2258962094676256;-28.850044831653427;6.016264200950602;3.6184657031043974;0.8344793669083412;5.384405434229489;-0.01853249950843274;0.12185327192297205;0.059650800107439346;6.076459282663163;4.018008561385113;0.9847324273645797;5.375042157222606;-0.019875640347664168;0.15058655425810205;0.06014874404832481;-0.004352590767150952;-0.5230044997600223
1.2599515914916992;16.98530629347345;18.823200349339228;508.6365910849696;4.918427675684529;-14.228989787016793;45.02598576204735;4.136878366968408;10.191755383296545;-13.103129637754506;8.989163577695788;2.1600383589042567;2.069903919211528;0.5257926528402654;4.555342296866579;33.118081681107924;-3.3199988107903393;17.45858087297324;3.3187406690782977;-0.2183520979309158;-28.848960129855325;6.015119377518347;3.6198465624950646;0.8353738623186084;5.383839047457147;-0.018439876089303774;0.12216545535885227;0.05974776317181773;6.0785819348788355;4.016652981742524;0.9838483052161885;5.375932126674567;-0.019995409534053064;0.1502987518143513;0.06005687794713579;-0.004204180929469763;-0.5229586079508004
1.2799217700958252;17.30656608227809;18.89192625774328;508.34323163187514;4.965825319075295;-14.40154432260612;45.07246219783518;4.144485455880038;10.208371023673983;-13.09988398421127;8.990519606582684;2.1606664626939414;2.0728122872729027;0.5355269463471539;4.568204016328658;32.98869990361372;-3.4553220806396423;17.430859182849098;3.316630204932289;-0.20930751033228948;-28.846610860421205;6.014100658512035;3.622367540083669;0.8367019428337227;5.383260532180472;-0.01834244016749332;0.12255575424275372;0.059845000982025866;6.080461031634204;4.014140688765426;0.9825391596799206;5.376844673973242;-0.020085468944538575;0.14991331538049346;0.05996509701383159;-0.003956851667192122;-0.5211138518695745
1.2999703884124756;16.992875464868895;18.850141936097057;508.8305696435189;4.937205630700278;-14.286806508835774;44.99634613189848;4.148503738910407;10.218008659852876;-13.093672545500368;8.993385415799846;2.161562983414836;2.0746911946624675;0.5151462337184969;4.523395236249662;33.05061749263015;-3.3392844125948886;17.429099410475406;3.2953272871577335;-0.20310059053162385;-28.850869889900693;6.011896432845057;3.6229844797655897;0.8373096335052849;5.38251100899141;-0.018247637526369757;0.12281622174111662;0.05993366920672932;6.081675787209488;4.013647200810955;0.9819798375118658;5.377430148564744;-0.020174585714766213;0.14966428206140006;0.059880250299155245;-0.004297095888919046;-0.5229568256929177
1.32008695602417;16.5281550784508;18.59783848779297;507.8809132015795;4.835185087992515;-13.794238557459494;44.88464928679843;4.156848618070039;10.23686986010653;-13.174638163478484;8.90288372842732;2.1382469117373235;2.07817004209008;0.4451889135006024;4.382103642849595;33.580707234333346;-3.1063122263618848;17.516360834420137;3.277153712096445;-0.1949467954739091;-28.849967955923184;6.0111080805170625;3.6244572375171153;0.838263264678111;5.3821325206135935;-0.01815349541227887;0.12315043274441631;0.06002912433645115;6.0841170970863985;4.012098839951565;0.9810327101650347;5.3784568460654985;-0.020243775426378674;0.14932624013146562;0.05979513793460133;-0.0037509611050308878;-0.5229456117340248
1.3399085998535156;16.78117137864632;18.653621444485037;506.2125861517886;4.9635579774726235;-13.623489107662387;45.052940504897165;4.161967471327336;10.247843602340687;-12.878214598121783;9.118436139515433;2.199553977359585;2.0800001842524227;0.473787781678225;4.409079872630185;33.52955128607245;-3.406409793003391;17.545940171876495;3.2765005178568414;-0.18664411811060458;-28.85365157466349;6.008856509930184;3.6264286375709247;0.8393908637653585;5.381329490495984;-0.01806296333366353;0.12351747222182129;0.06011919787785302;6.0849267636291;4.010339100159135;0.9799752109609853;5.379042541806606;-0.020344635212217466;0.14898684934616507;0.05971155629257228;-0.0035916463793756533;-0.5230425601035723
1.360060453414917;17.192213555156563;18.613796804781572;506.1380553672974;4.979663021806623;-13.931619113292449;45.046452978963444;4.140268281932024;10.196644077380821;-12.999175928126133;9.052417449621384;2.1786513504083937;2.0694972049737954;0.49661230195040806;4.428960483544718;33.42149259894896;-3.500986615764681;17.541782223034293;3.2595352671358824;-0.18147327705058208;-28.861366064711696;6.004161572776404;3.626045086991245;0.8396225105403892;5.380015290255261;-0.017967401604504593;0.12371720620833204;0.06019821781853992;6.084018115511702;4.011174777528176;0.9798760745116742;5.37895554510812;-0.02042909133000949;0.14880769110872694;0.05963058859990346;-0.0035767598593782848;-0.5214899311606465
1.3799452781677246;16.366156068645815;18.755260073939464;507.4009058885265;4.8962643225992295;-13.565115350372608;45.06276981659167;4.195145700663128;10.326703024452343;-13.11621257479448;8.97390194076297;2.155948239862569;2.095994055148251;0.4591969388503946;4.378759986558394;33.76824858138952;-3.066670268611275;17.6008870090022;3.246558310333658;-0.17354095893669105;-28.864239062591313;6.002803372290445;3.627621995676442;0.8406170047588327;5.3795055472366915;-0.017876965197198294;0.1240657393082396;0.06028934169489555;6.08587460343897;4.009689423520264;0.9789242354255295;5.3798187972638285;-0.02051306008357915;0.14847094084282617;0.05954867898491505;-0.003479474905741201;-0.5233295228274013
1.3999366760253906;16.839282197515082;18.504546216307485;506.51821588151677;4.900745723555892;-13.705865546352953;44.9658410379932;4.201903357049948;10.340779532197256;-13.146011743100798;8.987980590581373;2.1576348379138466;2.098536325802976;0.38770647706425715;4.214894987385172;33.73560864411693;-3.259230809381812;17.603605594951986;3.19937184114437;-0.16482676002060093;-28.863191077196156;6.002154211538052;3.629581430398187;0.8417726929045883;5.379160643813947;-0.017784646920211325;0.12445079613447683;0.060385904484075895;6.088463627905804;4.00774177185525;0.9777922747419294;5.380923899387025;-0.020587439274028382;0.14808577696120537;0.0594623079832327;-0.003331580454473642;-0.5233024777049401
1.419914722442627;16.941450259506006;18.645670103344962;507.622089436858;4.958500895847484;-13.959697941587699;44.93437755214245;4.209184848213157;10.3549529810545;-13.020325045870106;9.039837430378649;2.1766560931613084;2.101572673370607;0.40610314433854516;4.263057644848543;33.32748471043608;-3.32933526482352;17.51590684799781;3.1885468139653264;-0.1575568732950631;-28.85598436673843;6.0035813164790826;3.6303370362251335;0.8424955047265479;5.379491051347601;-0.017692695314126504;0.12475907063450528;0.060483126423606336;6.093420968510753;4.006753277886685;0.9770249122689849;5.382627509211229;-0.020692338071381253;0.14778904387925348;0.059384830014956536;-0.003264180716180512;-0.5231088010234822
1.440075397491455;17.11582699220122;18.259812585499247;506.72414647341424;4.917256708546052;-13.877007344155068;44.833793733715204;4.16942460207815;10.258148908061086;-13.097591920365467;9.090561716675571;2.182883238854414;2.080996428260885;0.35078001519405055;4.162310312245794;33.53702881620998;-3.4236409055288;17.567592103749018;3.1758798700353017;-0.14886673409379825;-28.860783342921522;6.0009097618053815;3.6325065687969915;0.8437037160541998;5.378574523271955;-0.017604137463568273;0.1251493725924132;0.06057140060445488;6.0938388408212925;4.004868704503735;0.9758997105106273;5.383103575500866;-0.02077441488704565;0.14741181462138114;0.05929929673438329;-0.003115464120414233;-0.5232527459495704
1.4600448608398438;16.713211526201796;18.29969265764552;507.61967072588635;4.861575347445176;-13.786226774430602;44.7468157944061;4.2244865066340145;10.389262505459225;-13.14986723335063;8.98427252955655;2.1578173483837557;2.1078565091873025;0.3015869523310323;4.051281675144374;33.61057130473509;-3.1720503720798945;17.56485631593133;3.141390774720237;-0.14330594776602873;-28.86352973899185;5.999002064635882;3.632998579506709;0.844225567169649;5.378007217624818;-0.017531232391712906;0.12538851055283637;0.060639778034014914;6.0948300652277325;4.00453348124903;0.975429250742275;5.383579412540474;-0.020841318733762368;0.14718212039117876;0.05923588484122566;-0.003087219747797379;-0.5233431056067464
1.4799413681030273;16.935034771218177;18.185699659478175;507.21378358186394;4.883466105191163;-13.849917348214937;44.7238979413234;4.172434345504063;10.265852237892004;-13.158524568979182;8.979506160215395;2.156540125626289;2.082592098653335;0.34691952376986085;4.128381650863274;33.58538399262876;-3.254026174365123;17.562372602894126;3.1585335076954624;-0.1396455453371424;-28.86019779823061;5.999461600817781;3.6327337035184617;0.8444135572092117;5.378177904877622;-0.017478215277366684;0.12554309360812418;0.06069224086868749;6.0976667066995285;4.004635995717124;0.9752182306829733;5.384488469520817;-0.020876936324654066;0.14702034155332774;0.05919525064386324;-0.0031159959732130816;-0.5232668264367011
1.4999256134033203;17.25483557000036;18.226182491767013;506.52823392741175;4.9581173833768695;-13.9323419796319;44.7871733779981;4.179107191152673;10.281128450162075;-13.004896912183538;9.046967403455318;2.1792617233395015;2.0854037906542864;0.36280048970491635;4.152582247833969;33.40612615793916;-3.442894125569134;17.54974898943403;3.1593734119858086;-0.1344687299101613;-28.860171937155137;5.998969409072523;3.633775782577389;0.8450774887958341;5.378002542373998;-0.017431808977694342;0.12578563576689342;0.06074090030327335;6.099086361639285;4.003594625636135;0.974563635892109;5.3850645941843265;-0.020927439937749988;0.14678838606052652;0.05915510482709948;-0.003067577552662372;-0.5232844134354664
1.5202159881591797;17.14137411226639;18.435052599761804;506.92279586508437;4.976087406187967;-13.968222231297645;44.967980341130016;4.229077575258914;10.4022679865169;-12.986212976826458;9.058688816189548;2.1822286370770523;2.110687136392111;0.3628601305662003;4.18487695437471;33.34421741532881;-3.424220434931681;17.528313046956985;3.160528721859712;-0.1343070739324627;-28.868031375790338;5.995173468770503;3.6313178489304896;0.8443897325693633;5.3771492952792155;-0.017383532280554143;0.12576634058090572;0.060768356525186924;6.098045509080054;4.006370641013231;0.9753377517994769;5.384646153302843;-0.02097104583068357;0.1468212141081157;0.0591249939769662;-0.0032646983097406744;-0.5235214686324094
1.5399549007415771;16.84087825794891;17.969062283431406;506.90543815563194;4.877917145549084;-13.74644837943913;44.727184393500096;4.182674973619029;10.292921294883906;-13.02740429543445;9.061683875289376;2.173355237850514;2.088191105886814;0.29504534984673364;4.074406307738718;33.56465824906145;-3.311290062986248;17.56491337166894;3.1584753443646116;-0.13192728658719036;-28.867557563541858;5.994893171865815;3.630980848188325;0.8444713721350718;5.377143943831953;-0.01735246887029806;0.1258746406806994;0.060797093872402765;6.099403012663985;4.006642151400836;0.975249136044744;5.385060484883357;-0.02099679681470315;0.14671428682628573;0.05910423658672944;-0.0033151860392880415;-0.5235269497645655
1.5600707530975342;16.94193978711183;18.209418708377687;507.30684124073287;4.899224002642936;-13.94731245798284;44.887338343281044;4.201937232836699;10.3637165343969;-13.071395940335217;9.029892657314399;2.164156677274034;2.102930707993115;0.3253129504783223;4.149845137832965;33.42815056689999;-3.3449483479296935;17.52055739809586;3.1623353022159666;-0.13048592733566394;-28.87376229115869;5.992257026745715;3.6306329977869063;0.844471891745724;5.376461310214038;-0.017329728489136664;0.12594002948006963;0.06081110658945687;6.098003582928113;4.007223448210833;0.9753098714403345;5.384645696146821;-0.021003788290558704;0.1466479031209768;0.059086004928191375;-0.0033679013194216636;-0.5237145247566612
1.5799119472503662;17.261519067673667;17.937061648536964;507.30263403966427;4.914764052968821;-14.175371863053023;44.65197921226199;4.194620119435028;10.320145325763768;-12.960215350310847;9.071366408942312;2.186145501339645;2.093166795043843;0.28103192978963626;4.029711002524539;33.13772375541666;-3.506874555282768;17.471088403363712;3.12415351573656;-0.129035665630067;-28.87580586361738;5.991347409887093;3.6311082497118012;0.8447092522273757;5.376187725472375;-0.017326450024160042;0.1260173255699116;0.06081407041710522;6.097382008429354;4.006819854996148;0.9750833198000163;5.38446842417865;-0.021005366522569208;0.1465680238810836;0.05908075303273909;-0.0033616247740842755;-0.5237815344989551
1.5998923778533936;17.46672581502242;17.902136100132925;507.10527305393515;4.929066811783313;-14.227572389767452;44.637294738738596;4.199619770974965;10.3317513957565;-12.981111732408094;9.058955249924015;2.1832307152955104;2.0951936383569456;0.27279505474256116;3.998610616213489;33.10804673297035;-3.5618348645733278;17.458545799064048;3.1162651024575942;-0.12818154838887963;-28.8630982868617;5.996229792015761;3.632305531757769;0.8451321505158101;5.377500602010044;-0.0173594678364965;0.12608675549554793;0.06080043967149746;6.101083681019582;4.005043951109274;0.974503595147021;5.385524117165373;-0.020988904069610327;0.14648405396773267;0.05910880858937818;-0.0033054676438165416;-0.5234351022121587
1.6200952529907227;17.473991357384783;17.989575405571046;507.82376647614296;4.915589139464181;-14.362646847869165;44.71173809694906;4.21107552229301;10.386461537057754;-13.075011911818295;9.027352556546614;2.1638333773886314;2.107218574058113;0.28023361915207434;4.011330389667519;33.05363500598965;-3.5154290613112398;17.44976972758276;3.119078654903538;-0.13460137163387612;-28.863918326955066;5.996084274206203;3.6298083872089517;0.843982804583974;5.3776749452428465;-0.017419055978023984;0.12579912358037576;0.06073244539132202;6.099550844193835;4.007555642494365;0.975632749914675;5.384698995790194;-0.020932858045321773;0.1467597107754736;0.0591682118812888;-0.0035188802159088674;-0.5234590228195898
1.6399421691894531;17.386652654909135;18.066419790651846;508.4062387574376;4.910271955503746;-14.374483046400755;44.68804807056445;4.211377019629031;10.386664067835756;-13.038101410934246;9.021000274953535;2.172036534654624;2.1070874709606167;0.2975981587983065;4.04334215269771;32.969661613258026;-3.445384874619694;17.437532706382658;3.1115627814969646;-0.1403656586951061;-28.85955559154639;5.9984815287913005;3.629008341926036;0.8433731501514158;5.378478519588665;-0.017513319253396234;0.1255735958847074;0.06064452991827998;6.098969062714439;4.008135295962008;0.976162077799114;5.384210711370271;-0.02084103603004101;0.1469633217601915;0.05925251123330689;-0.003629024304350277;-0.5233370355414807
1.6599390506744385;17.430588085325965;17.75778693678941;507.80983218983044;4.886051895141317;-14.24036692608032;44.54629874428019;4.191982863848413;10.317314679811583;-12.990924648482768;9.054294960997137;2.1818557335264335;2.092877876797148;0.263561279252816;3.955068780991148;33.0510446316597;-3.485962122244405;17.455724688199382;3.0955927953105262;-0.14997594213744125;-28.850618757338125;6.002639713709637;3.6263990313414056;0.8419929147204137;5.3799300564757715;-0.01763455476548967;0.12516717131621133;0.06052804650044389;6.099604722054507;4.010291871270468;0.97740396527946;5.383874336379185;-0.020715961620597724;0.14733478844637002;0.05936900296494969;-0.0038709011512676117;-0.5230858663125549
1.6799161434173584;17.352442389339966;17.92613865767975;507.60610310727213;4.8955234940263;-14.102483392381835;44.74077752642257;4.1862243232992284;10.308210875546832;-12.99477681543439;9.052848343911835;2.1815119484745793;2.0918404222787443;0.32359600682179984;4.0844261476606265;33.1679484517544;-3.438797067762397;17.47963663854444;3.1124563194013475;-0.16434946666560296;-28.84494973800776;6.005461410116528;3.6209693233367357;0.8394784470799429;5.381220032268605;-0.017766644577524977;0.12452098753106591;0.060386096121340764;6.099089944595863;4.015437293637714;0.9798096447832051;5.382962909207571;-0.020611306413378043;0.14796907001862436;0.05950710447939795;-0.004309395104412861;-0.5229242117996084
1.7001700401306152;17.38277132647156;17.722202558064552;507.2022189080973;4.844189905579696;-14.016433853326959;44.68006062906021;4.180551650203898;10.297474249660358;-13.05771920198664;9.01180938890544;2.1693306278428954;2.0902163265719054;0.29349312299937547;4.008472448420805;33.32062748510054;-3.398214174841197;17.51901674396435;3.1060499564016815;-0.17790278395715692;-28.841955195446168;6.0078658344799;3.61699227744633;0.8374285155320227;5.382305728732672;-0.017911451086493446;0.12392790883274139;0.06023630698192298;6.097178584778069;4.019237976947144;0.9817814533696718;5.381758718104569;-0.02047382653827936;0.14854082379210945;0.059649400916000454;-0.004645116375985709;-0.5228368998440132
1.7199506759643555;17.201861957170046;17.735430791300182;507.00544115473826;4.822476781490052;-13.828420259986729;44.73843209702676;4.179258100418997;10.29467041483417;-13.035795360361028;9.057883864189773;2.172809768263056;2.089672973013082;0.28802962539552096;4.025913116702547;33.45969322810109;-3.366994987068174;17.547337032124908;3.119143618667072;-0.18772956062059273;-28.84000891777304;6.010502467445801;3.6161209058517008;0.8365132956542168;5.383228160232101;-0.01805618445060974;0.12352859405875896;0.06009937489431374;6.094611123901143;4.019985408029859;0.9826466571490636;5.380688731368361;-0.02033135087826804;0.14891902939048657;0.05977907019781342;-0.004752844197388677;-0.5227766621609776
1.7401010990142822;17.01762848262163;17.788461663646764;506.90585998512654;4.803321864506804;-13.645009376604158;44.793835717576236;4.171416018468746;10.27865461400324;-13.037655162376003;9.057688519804936;2.1726096684990273;2.0870486438596725;0.31319639186320897;4.0700425851368385;33.61507032245966;-3.2737999108619444;17.58991368391159;3.1304274517537394;-0.20178942904108835;-28.8383347146963;6.012709680359311;3.6124721204147097;0.8345043798178983;5.384192458366114;-0.018198019254671204;0.12289899718066352;0.05995737450590293;6.0920913195534405;4.023521404241285;0.984597784374287;5.379406934919849;-0.02017792933788346;0.14951741397901833;0.059911577050451005;-0.005022664181377583;-0.5227240052126297
1.7601122856140137;17.028373357957875;17.86207305698832;506.7128205752613;4.786728029604504;-13.563212340264712;44.83912655868324;4.171420583237997;10.277060369351544;-13.077748971941423;9.066295216707749;2.1724513407963326;2.0863812239762143;0.3077018950519418;4.087936620377098;33.72829369236219;-3.257702517876002;17.62121099740512;3.1454394401972903;-0.20893517708008738;-28.832211238305817;6.017201611525527;3.613855525109109;0.8344064968716837;5.3854115996617455;-0.018324604365354262;0.12261668313668544;0.0598467899630673;6.090679253532296;4.021914704600853;0.9846000631132588;5.378884586596116;-0.020084106090304282;0.14979333684786922;0.06002136528296393;-0.004923477796407795;-0.5225472834522565
1.780106782913208;16.940817070301485;18.049445276289813;506.7182076892135;4.784864808824143;-13.498035382269343;44.84192366359974;4.174718710158385;10.281366043280407;-13.051256892264835;9.049105122574904;2.170356926126972;2.086576210833973;0.32590926578385576;4.128892720715897;33.750954175410136;-3.2112532563235185;17.62371033649321;3.1504576333222896;-0.21344226979080566;-28.830146702665505;6.02035623108267;3.617038577757844;0.8349886541638065;5.38609618088932;-0.018443356009371747;0.12246380248805057;0.05975180097226107;6.087780553185933;4.018685414081252;0.9839720001112858;5.3781101662877004;-0.019973275856491703;0.14992941279523672;0.06010940193717702;-0.004686092520157878;-0.5224819471400447
1.7999484539031982;17.045452875332305;18.03153276174526;506.5258344944591;4.763522946570301;-13.51334440921105;44.80594901940542;4.173148367097583;10.277853504273363;-13.059174029939076;9.0448238698139;2.16931361624032;2.08591034971283;0.3013085230521928;4.104473096438992;33.7504053754794;-3.243716037511759;17.624398060853725;3.1626265473473434;-0.22163269202850877;-28.825224737313878;6.023887025594759;3.6168854949180513;0.8343694169121513;5.387098763146847;-0.018545287946459967;0.12210190582685942;0.05966077515995509;6.08657653851495;4.018634105562872;0.9845120314813292;5.377603213602613;-0.019875105148524114;0.1502694641634473;0.06019756318427067;-0.0046625463495334266;-0.522336945242484
1.8198895454406738;17.040340983739373;18.13093186426742;506.5353204188116;4.7542077817695;-13.516111312403453;44.81038811592741;4.16941717135987;10.269440044107611;-13.02262919406284;9.03883309362945;2.177410643048313;2.0843809813427105;0.3103700728835851;4.147059558971344;33.70613026040964;-3.2449865688196775;17.606876117235043;3.1817555362924543;-0.23047681629235584;-28.823401917730727;6.02603788856303;3.615864949700434;0.833453480323548;5.387762138049922;-0.018635327565369175;0.12169690097251301;0.05957398949588563;6.08460713253972;4.0195602698976725;0.9853841894018299;5.37682994061471;-0.019768339202071168;0.1506449865446884;0.060276999461099046;-0.004694641143835981;-0.5222776671733795
1.8400838375091553;17.398370179887557;18.624979356567998;507.1562331561804;4.859164843070841;-13.872367278557476;45.07469852521919;4.214541058037823;10.377743005212164;-12.995547319534563;9.093143843740219;2.1902800800070317;2.106964422039233;0.3679329289538443;4.272550485235694;33.35605543834902;-3.4096666167601652;17.552776136504807;3.199898428162992;-0.23803441073312057;-28.821060521163197;6.028242729925124;3.6151732983869582;0.8327196804131748;5.388396979873472;-0.018708655541682474;0.1213455654114463;0.05950474522236185;6.083165766354176;4.020192751453079;0.9860745071366603;5.37628142251697;-0.019728776938091636;0.15100267544092702;0.06034327459143925;-0.00469198005564672;-0.5222045097358541
1.8599853515625;17.15359168102059;18.523970627957276;507.94567006039733;4.744353317373894;-13.897689173032823;44.844186916392744;4.1693084217811425;10.266410665158583;-13.180911695566781;8.967594175459297;2.1537540153105743;2.0833564986440134;0.3410548428411199;4.263252986381342;33.47533406629493;-3.214874855373876;17.54785975475211;3.202843359650258;-0.23890893582002828;-28.822378154284515;6.02956478052953;3.618601410718402;0.8335901788969802;5.388472428026045;-0.018772452009821;0.12132123105327003;0.05946328311418401;6.08033065165506;4.016594660960553;0.9851110184838011;5.3757089396493;-0.019672298713076818;0.151006469566111;0.06037751825426272;-0.004386481756014675;-0.5222332129613906
1.8800530433654785;17.027699408417867;18.619656011763617;507.53639256449134;4.753040828347388;-13.763109041526207;44.86849377005031;4.184570350776296;10.326238026734426;-13.131736945324588;8.997589334064356;2.1554637179667906;2.0957744119932147;0.33064354486012143;4.218652467269231;33.5548014467652;-3.2292639980837308;17.556516373791105;3.2031691153691377;-0.24062330406305552;-28.822228565922494;6.030975071230469;3.6203160050071035;0.8338989745538818;5.388664855994042;-0.01880764450728426;0.12121403578796405;0.059433402864495714;6.078621526228702;4.0143428671365875;0.9845950949723117;5.375389666381628;-0.019633879900311617;0.15106950136060524;0.060402496513609745;-0.004170493493327307;-0.5222207855983538
1.8999459743499756;17.19885546969089;18.714766119097902;506.74469596760207;4.805963402301412;-13.766658738281414;44.90887888367875;4.193640734069068;10.32122811627055;-12.96586668115826;9.076839178893723;2.1880705115824486;2.0940200998742537;0.3336339302984651;4.258081816567025;33.437593434427995;-3.3990839872946292;17.54354790407449;3.230293631074198;-0.241163250993445;-28.825513496951576;6.030854548384839;3.6226031301137893;0.8344940728915271;5.388397285613859;-0.018835828666154852;0.12120851785889834;0.05941384890033973;6.07605488323705;4.0121714138119575;0.984036204423415;5.374831571328506;-0.019578513798644392;0.15106982124523766;0.06041337069737608;-0.003961885663710729;-0.522303992247527
1.9199788570404053;16.901870523011944;18.682224661038227;507.3305126474777;4.776859124620385;-13.69683430210447;44.80798724105169;4.189124378880726;10.31371507062035;-12.968316710125283;9.075676462211685;2.1874897010955006;2.092776579441386;0.3201968121847933;4.219416961832003;33.460861917920916;-3.2929608994041404;17.53751311200035;3.2229766587629496;-0.24435990543821418;-28.82488756606798;6.031391893297796;3.621500986199832;0.8339302215092659;5.388539497249471;-0.018842666426715927;0.12101230916308967;0.05940222956107289;6.075788186462169;4.0129666443673475;0.9844913866022489;5.374726580224942;-0.01959872461232448;0.15125800359104308;0.06042478604464272;-0.003966784343999368;-0.522277595990589
1.940084457397461;16.843723932459724;18.826926912883156;506.91947481455946;4.756230362752468;-13.649656450502022;44.94274162279868;4.179788619638076;10.31778395667203;-13.111012270743402;9.008850356252703;2.1576047002084824;2.0935184159323152;0.3451509324971783;4.28557755745665;33.67549310727409;-3.2469586484421438;17.573268366062898;3.2449438618694404;-0.24255966323105385;-28.832571219757156;6.029028218418964;3.623422889634544;0.834586112943211;5.387673206596333;-0.018834638144235694;0.12109801422786381;0.059409990718263236;6.072808206901604;4.011358600631336;0.9839276203765355;5.374073758155704;-0.019601537531163164;0.15118651872852096;0.06040787112062886;-0.00380019247936291;-0.5224805578095583
1.9601151943206787;16.778335443283574;18.86377993587176;507.3093036820003;4.772667121625458;-13.741442205109557;44.9089108887026;4.154740978700139;10.256756200485857;-13.104388434366248;9.012171143211093;2.1584489904770936;2.080896982072749;0.3835042695000251;4.348765357599956;33.58088826532423;-3.2479014333321112;17.552825484992944;3.2590330362339706;-0.2406631652590553;-28.837540910464007;6.026503411171562;3.6240619566891086;0.8348627643175287;5.386857866412415;-0.01880768456716394;0.12115696746962636;0.05943084670073644;6.070547728583278;4.0107373846876095;0.9836397307626884;5.373592611457405;-0.01962116638173994;0.15112447321392894;0.060380400282400014;-0.00368582072228626;-0.5208483013446477
1.9801406860351562;17.16965519883228;18.7985377813237;506.4147697193288;4.83189406763769;-13.884008571454913;44.93576664921603;4.160928884543363;10.246057366292131;-13.025446126322121;9.067931235287698;2.1811904607586454;2.078578695912303;0.37959622164600987;4.333798001022822;33.453733048779206;-3.4676796020812337;17.55153588389208;3.2645311868587474;-0.23892859870011487;-28.846202447672265;6.0232621251539085;3.623453627880751;0.8347742752548684;5.385918491958415;-0.01876086588037873;0.12119320397576522;0.059464352859166;6.068587098801504;4.011356953661183;0.9837218854080632;5.373125837895242;-0.019636960596896784;0.1510707813658237;0.06033873691403969;-0.0037080132098835736;-0.522846895017726
2.0001296997070312;17.01976180876055;18.750468340580152;507.1238691496906;4.801337837513978;-13.960635780755197;44.80975392163637;4.168930667689467;10.26476358943469;-13.030116435709559;9.059942525867726;2.171997285768198;2.0820726179426097;0.3339884652838325;4.256996094084115;33.35682561523884;-3.4238862102075887;17.517327644861147;3.227437404030413;-0.23237463448626872;-28.848844125183362;6.021178599043025;3.6253006192885113;0.8357407018595396;5.3851117981375545;-0.018697166996325863;0.12148226682013506;0.059527547002499334;6.067996905584324;4.00969069136952;0.982809717512345;5.373234899530334;-0.019719418875966836;0.1508094925629285;0.060273961622643146;-0.0035634557185472053;-0.5229233944992552
2.0199368000030518;16.705745134094045;18.70017713188607;507.6879961427013;4.740200309757526;-13.831012629915811;44.719350351670826;4.176140390835156;10.280366054523714;-13.139811507983326;8.988911902954099;2.158665525547263;2.0847622236203067;0.30569484422345716;4.198521071489679;33.538568584621856;-3.213547476611076;17.542842116932334;3.204450646759694;-0.22504777705402873;-28.84612780017246;6.020243634421001;3.627215291453094;0.836783397106325;5.384607214973653;-0.018632856055312064;0.12180860503027255;0.05959496895232594;6.069301739429697;4.00775811778923;0.981778602746012;5.373863402918231;-0.019782800972038467;0.15049081230339093;0.06020815355570887;-0.0034011602753962105;-0.5210726708614645
2.0400524139404297;16.519506307948678;18.569652278868716;507.2726618057668;4.729786515479254;-13.579226870047997;44.70135528114308;4.173077293489989;10.275841847592078;-13.100476088254212;9.0132843556074;2.158999609920317;2.084378047120474;0.2885959524121522;4.153522257086166;33.71447603166226;-3.1587707741184023;17.57972866006006;3.1938514022896705;-0.22221583948100335;-28.840342106790224;6.021229601634604;3.625707079476406;0.8365566803218439;5.384884678624337;-0.01857512318098959;0.12190475264127723;0.059647827427423146;6.073530946419499;4.008916034067937;0.9819339430972129;5.375029164039162;-0.019843769690437774;0.15039316582584336;0.060164472223485484;-0.0035267962245824295;-0.5226547983806465
2.060148239135742;16.849997207347794;18.70539160680977;506.87981932686773;4.77219335410593;-13.702281861313118;44.84342262863338;4.190192662070777;10.342770902774115;-13.062633939176026;9.008276739121145;2.167835229383303;2.0984436817169927;0.304069868396002;4.1951104334646985;33.59763582938823;-3.2617753753136354;17.574738475220407;3.1987730631060534;-0.21871550863869757;-28.83715394410642;6.02078712696789;3.624691726379014;0.8364907684531581;5.384741392648578;-0.018527790023359844;0.12203001717135875;0.05968879083072351;6.075933367468011;4.0094864018070435;0.9818706468109233;5.375679573318951;-0.019873586915585495;0.15023736309006847;0.06012465809162775;-0.0035990792561792617;-0.5225534181361599
2.0799429416656494;16.946401727180913;18.46398213790807;506.8799216419467;4.75632801473599;-13.685437448287374;44.774864745166504;4.1869534556622305;10.335799221445928;-13.135799818646502;9.029880005895858;2.1686034039950455;2.097203674418581;0.26229161600780226;4.091952479281334;33.68302830194741;-3.2576273693876523;17.61722999748985;3.1782096850368124;-0.21582870243485713;-28.82961986291088;6.022287035115478;3.6239839464587837;0.8365062206809744;5.385181953056941;-0.018499615019741657;0.12215820881722221;0.059717949694881346;6.079673562565628;4.009848332783808;0.9817765372128624;5.376693907616404;-0.01992271360382529;0.15011778564627712;0.060106328121306625;-0.0036812073597277746;-0.5223402329343382
2.0999584197998047;16.46646697420704;18.486758908474577;506.45894110019674;4.742276942062302;-13.291440183149376;44.85569813163636;4.174575896310261;10.280726121657654;-13.048166624182597;9.049145117094714;2.1697716609269992;2.0854465588856432;0.2951494792866857;4.206216734110739;33.93840635338017;-3.1204395315803435;17.659763427439138;3.2104641167452233;-0.21239831431823517;-28.83331344406642;6.020180990086238;3.624276579714199;0.8368373031694444;5.384597899312562;-0.018485540828197658;0.12233523092787703;0.05972778792407557;6.079182527139903;4.009682050770798;0.9814865986507398;5.376525684858165;-0.019932593352781483;0.14994797631641055;0.06009335832836023;-0.003724225024632563;-0.5224455365363043
2.1200971603393555;16.454739431188408;18.402776078522233;506.44831785015793;4.7089553027496365;-13.27389394250924;44.90281792779298;4.184472187638123;10.33270627880168;-13.1123112224688;9.007235492728457;2.1578068847127696;2.097097390250293;0.2716602091934538;4.168162700728728;34.01745473549724;-3.064871153046121;17.68361910269896;3.202429141680384;-0.21476062596766107;-28.83261586170642;6.019452897837354;3.6205839571769642;0.8356502720093194;5.384742575524111;-0.01848917600255596;0.1222259796112644;0.05971327288200743;6.080620001064994;4.013255694391561;0.9826577103594445;5.376581369072494;-0.019928976740644193;0.15006299756968064;0.06011301569049493;-0.004054419063868572;-0.5224355856919305
2.140052556991577;16.45089226505373;18.21258247247754;505.8443808314877;4.720811795394322;-13.199429869910261;44.89326812696196;4.166356968708544;10.265836438490933;-13.008654358994507;9.045180782335674;2.17845759672117;2.0833473601624783;0.2847570752754566;4.19976767095868;34.00984329518385;-3.139250229980585;17.667784024688835;3.21782724520834;-0.21688622796920226;-28.83657046377204;6.017451772413182;3.6173383882017576;0.834590998704875;5.384542944719965;-0.018498534472137472;0.12212538245974876;0.05968222400004554;6.080154290831376;4.016281826751983;0.9836485246862056;5.376104529432785;-0.01989266734349826;0.1501398137898678;0.06014264320549938;-0.0043581259295733706;-0.5225587556098431
2.1600563526153564;16.538522057270065;18.09645295452157;505.7346959839223;4.72670506984738;-13.27393802549846;44.93898541077725;4.162402848745572;10.259880600347827;-12.998097833466941;9.051636460213855;2.180012536159614;2.0827136558493735;0.29195202450643587;4.211688925631657;33.95661276551938;-3.1865565010693313;17.669902906608872;3.218566005567925;-0.22116040270284676;-28.843447804957606;6.014323525286021;3.613009487097738;0.8330975694644587;5.3841365072544045;-0.018519600797570687;0.12194197988956082;0.05963730380026129;6.078687792737797;4.020820648577112;0.9852047229094932;5.375207420849487;-0.019876613889975824;0.15034278792721273;0.06018374761548761;-0.004766809027123702;-0.5227654238076678
2.180081844329834;16.531615067327117;17.894514603579154;505.5371246177415;4.714036686837149;-13.281196547802487;44.96070513206598;4.120265175619647;10.189347430045956;-12.98865124351129;9.057626222299934;2.1813573789315788;2.0695002452576907;0.32438039088479215;4.257601672671164;33.95767371961081;-3.219196365477636;17.66284929065184;3.2348216175660403;-0.22840307877028007;-28.849699070473214;6.010808055684255;3.6067419140152506;0.8308447486545728;5.383742264006405;-0.018543204211196096;0.12160328410303581;0.05958106455331505;6.077341849920169;4.02726690434019;0.9875109968965639;5.374172607746569;-0.019845910983301386;0.1506890864464423;0.060232767204586035;-0.005304508087153025;-0.522959420717861
2.1999292373657227;16.498818005022837;17.802366239747204;506.4240849814945;4.67312357272526;-13.42042689257351;44.94280600811703;4.144535805711695;10.247865549593344;-13.093405332944679;9.019374014382093;2.1604419909775183;2.081651008476719;0.2760889783692566;4.202698716901148;33.89832323467857;-3.148400289146355;17.652662171494597;3.2330148703910364;-0.22905094525451472;-28.84745591768987;6.0113274837684;3.6055221344143242;0.8304906199481771;5.384096254875479;-0.018575840737256828;0.12161188408981395;0.05954706781988939;6.078228382967076;4.028060389470367;0.987734014170356;5.374167466163849;-0.01981302350965799;0.1506611596885956;0.060268044032477104;-0.005485813867828968;-0.5229068224460217
2.2199625968933105;16.804508347550957;17.63964866512138;506.62857388594387;4.730841734643732;-13.678509443958369;44.90722595004166;4.147162795861491;10.232428757831958;-13.059527276160944;9.077015926156882;2.174184695145536;2.078938072462086;0.28666574377569026;4.155196004607451;33.64145373753911;-3.324358044283179;17.594289520769927;3.206863821662252;-0.23413905652322267;-28.84671488707335;6.010599261993886;3.601170543177334;0.8289287477371559;5.384254040183052;-0.018599287328048532;0.1213766895400338;0.059505814608907914;6.078684143908838;4.032335991364491;0.9892831528165037;5.3737763404577725;-0.01977969755784551;0.15088656027860392;0.06030246166095491;-0.0058606252504875955;-0.5228895690905303
2.24017596244812;16.917587705806113;17.890992409582463;506.83381313229154;4.789961118468585;-13.77131075482955;45.079304522605284;4.143710634882998;10.227754988002413;-12.995811751713498;9.054288233569281;2.1805036018768336;2.0785735457934007;0.3781435281824191;4.336772812059461;33.478373626431505;-3.3377358916340913;17.560332850405366;3.234809978383718;-0.23854853081406882;-28.840604249950815;6.011299944826552;3.5972728330253743;0.827536838436336;5.384712634234653;-0.018613831688964418;0.12116204666260394;0.059478604746468704;6.0807623944630365;4.03600539491793;0.99061280345134;5.373904864066784;-0.01978487036689945;0.15110074399056522;0.060325508341006334;-0.006175722957473099;-0.5227242533755658
2.259920597076416;16.94629050051134;17.958247660561785;507.23453931109;4.809677655367377;-13.838095203016728;45.1276117529731;4.144277393263777;10.229342149308563;-13.041167368374982;9.056688629352857;2.171330941572325;2.0788973295406006;0.4028463960103383;4.3697972131931255;33.43356634398859;-3.3435501815740114;17.53485334259549;3.2337940321141683;-0.2375901888159935;-28.83373791946685;6.01304619899267;3.597466196125354;0.8276653236877087;5.385116404051662;-0.018621090560633893;0.12121392785131571;0.05947726398945536;6.0826285521525865;4.035077755343179;0.990228990718668;5.374347932155926;-0.01979579588230035;0.1510087922836451;0.06032026014377036;-0.006181255573887204;-0.5225251828270405
2.279967784881592;16.981981894299736;17.75772125472179;507.832480220626;4.7642705096059395;-13.916191920417809;44.90985261910267;4.148149184747298;10.237121723095928;-13.048284703322086;9.052078079044332;2.1704196267582367;2.0800717805651208;0.3299635657720082;4.230426513599665;33.33313174831918;-3.3174262489421267;17.512987608100122;3.205732063056946;-0.23441393361562335;-28.8251619892946;6.015618042419839;3.599455273442418;0.8284451838900581;5.385577925649404;-0.01862179381874301;0.12136791384098673;0.059491382514486;6.084817916984333;4.031800564052422;0.9889896983731682;5.3750829890373755;-0.01981138424724592;0.15077447337882882;0.060297944790652834;-0.0060359663482854944;-0.5222738017667127
2.3000667095184326;17.066481049823633;17.80917698477784;507.03769468957705;4.773805472958928;-13.779900970457192;44.96299326111172;4.145777229635985;10.230756399792266;-13.01073663496503;9.046241792604658;2.178698126094369;2.0787183416734236;0.34585409068084033;4.259084674552937;33.440596457123576;-3.3433989501844756;17.528339517164696;3.2143366890286553;-0.233986502327523;-28.819575836594417;6.016942008764813;3.599876724594086;0.828582547963808;5.385772532859557;-0.01861806705803421;0.12137507992608808;0.05949990430185444;6.0859914171776275;4.030784571383362;0.9886375552190753;5.375401275192232;-0.01981967733477949;0.15072104928657173;0.060275276244186514;-0.005978852487466012;-0.5221029337429723
2.3199827671051025;17.10057371246142;17.957735393087514;507.25946605686534;4.799218885313298;-13.74975808543067;45.00764983280471;4.144520158695971;10.227842888785636;-13.032939056291875;9.034229923175868;2.175533478093335;2.078134094821039;0.38265698903344786;4.313390231316386;33.45799461945093;-3.2951584047972124;17.539406835167366;3.2190075107388774;-0.23294252571110888;-28.806782486171123;6.021054799492078;3.6008027706119674;0.8289192837844824;5.386716653795877;-0.018612675789686117;0.1214142448983235;0.05951961066090351;6.08974931489325;4.0295237898944976;0.9882166714355834;5.3765176768849425;-0.019861735694569553;0.1506874547113155;0.06025457357386317;-0.0058706318848936465;-0.5217331598754805
2.339916229248047;17.059684180899467;17.804415730005363;507.4612476205433;4.705890672920806;-13.719683443029787;44.87847066922724;4.145448857720255;10.229213346702853;-13.29839909713129;8.889658384419178;2.1304893295133835;2.0782976817311165;0.33414878418162747;4.1956727022488804;33.73821434803398;-3.10742496902201;17.593876341546917;3.1949509378443013;-0.23204169542393122;-28.80589545569692;6.020974593187902;3.6018020126627524;0.8292472454957472;5.386486016126525;-0.018598766876717132;0.12144198656900897;0.05953639129576707;6.0894349937439225;4.028721179647223;0.9879380024107337;5.376497948965415;-0.019891921059713637;0.15066875861937615;0.06022225638613644;-0.005756034898143195;-0.5216939465869952
2.359964370727539;17.430067493557594;17.976351385906515;506.58099133020573;4.842574648527647;-13.783019906799034;44.947856617342296;4.144960869665494;10.226825911799244;-13.027207392246524;9.017500724498113;2.165084722033182;2.077652724945801;0.3952318596069977;4.2562914658663935;33.451917367273005;-3.390998348564886;17.548262270824974;3.201061458365901;-0.22947229755044093;-28.79906346929038;6.02313475605251;3.6040219808988967;0.8300452716487475;5.386830014597791;-0.018586129625867552;0.12155722662509752;0.059563012387934766;6.091193284720618;4.026430989071844;0.9871260334192284;5.377211515607771;-0.019920537323049832;0.150557601703875;0.06019152291385229;-0.005551260808188076;-0.5214991963325507
2.3800764083862305;18.099277076613024;18.135336451445607;505.3186820995349;4.9194732648038;-13.943174564593605;45.13119841599202;4.145108809950047;10.226340555610255;-13.100874617115817;8.989692338868576;2.162873565940896;2.0773812391479547;0.44756225685735435;4.32596017382963;33.46735700291544;-3.58963797920603;17.58119231073873;3.2142675781752477;-0.22823186139546128;-28.794032944798648;6.024993062479832;3.605144364127014;0.8304414155018165;5.387202753914475;-0.01856900063907091;0.12160193626395573;0.05958895739466596;6.092796079162338;4.02525803805833;0.9867322714717883;5.377831832258839;-0.01992666293481362;0.15050472802167375;0.06016318610702053;-0.005422468362322569;-0.5213501397997458
2.399951934814453;17.08193342784047;18.058891368387158;506.79468533018195;4.780761370154385;-13.467416534972848;44.925522402689964;4.144656794954274;10.226365061883126;-13.16403434322085;8.947809325850336;2.1508132851598867;2.077560553305194;0.39307767016280126;4.236374099206219;33.82533198898332;-3.120919312682842;17.625417334486002;3.17978567256531;-0.22878857039532433;-28.791254417609828;6.026121825738014;3.6048771756251696;0.8303199232157573;5.387521287089947;-0.01854855656836591;0.12155369805514743;0.05961080963112112;6.094089197369749;4.025597141445984;0.9868770581278438;5.378299507787564;-0.019977311989206055;0.15057837445709138;0.06014375599379664;-0.005392761032808523;-0.5212679378830989
2.419938564300537;17.120381149857383;17.80052299383087;506.10468880610244;4.72089739917148;-13.31723097368728;44.7955749312722;4.111034228129452;10.170470640164893;-13.198699482186043;8.959648973514565;2.1516750289958955;2.066130284761186;0.33718128368392664;4.133204354591788;34.024880654022496;-3.1236664249821615;17.68055281410273;3.166326177941982;-0.2273435862830303;-28.79036068087641;6.027300701556557;3.6063425790820585;0.8308334183932425;5.387808636308637;-0.018533755740649492;0.1216201303459579;0.059634491656491116;6.094796860816644;4.024244644734502;0.986409306806913;5.378778454144979;-0.019993153936225576;0.15052632660082954;0.0601265989006361;-0.0052522763685840385;-0.521244050535113
2.439946174621582;17.31530806248101;18.07370411192059;507.23199294524863;4.816148600724937;-13.746100507454258;44.79776535027675;4.144508754123823;10.218562619683885;-13.0579873300029;9.02096609549998;2.172481754201942;2.076027843408852;0.36958806771301017;4.184817900717324;33.47940812235643;-3.28566820518917;17.56396379711902;3.1577871072854933;-0.22692064476731819;-28.79828940599721;6.025755892838363;3.6074932407644265;0.8311799342398508;5.387431197512999;-0.018522999192177182;0.12164282672928843;0.05964582404697158;6.092646031664772;4.023587350291174;0.9862057876865093;5.378448977429489;-0.019996305246396708;0.15052871299292478;0.06011685387006511;-0.005145203212558364;-0.5214703801034456
2.460102081298828;17.40872995372733;18.314552856598052;506.53893045783667;4.866112467564973;-13.71205848329975;45.00864146937402;4.1561753906515975;10.270759193115758;-12.997706778627752;9.062568272013678;2.1845198188468444;2.0872093497603488;0.40663713690413983;4.265393980049783;33.49485921735979;-3.384649448448676;17.574008861597395;3.175703499683063;-0.22771559698268126;-28.80487204319998;6.024758882071079;3.6076378405803635;0.8311644847638012;5.387312929169531;-0.01851222635881182;0.12160408350811626;0.05965465674243625;6.091293792952264;4.023784678037793;0.9863375727253147;5.378290416923628;-0.019976956732645948;0.1505787649167044;0.06011545826525655;-0.005110555647136364;-0.5216659509469014
2.4800829887390137;16.8318773670143;18.141495171021052;507.23579791808555;4.791907679501645;-13.444989952660869;44.86539097986582;4.138511891382057;10.204836385733644;-13.097088557310432;9.031123226930697;2.1724613180263166;2.0736746297315034;0.39016484346644364;4.227369653904889;33.776576652841584;-3.11658744388017;17.62321031775368;3.176137288899245;-0.22953752597801344;-28.807715217342185;6.025089352924021;3.606775653726964;0.8308020004087551;5.3876603305293855;-0.018499477991629563;0.12151062478637828;0.05966497816820624;6.091596741724639;4.02479820723318;0.9867643229370656;5.3785510302053146;-0.019994490996242544;0.15070379185337324;0.0601233375268407;-0.005144712384275604;-0.5217639710557431
2.5000739097595215;16.784921260388764;18.380736901061155;507.0208466119317;4.8161495316525045;-13.49316889067525;45.04321678861153;4.152170214539815;10.261054468930189;-13.155922934597488;8.986915538378891;2.1522292263868046;2.0854742852793677;0.4344799133001448;4.308954851702107;33.8222915082357;-3.126151258206895;17.6164202284196;3.2037574949932672;-0.22861239972661815;-28.82136289250765;6.0219496170692155;3.608061580916415;0.8312288456921139;5.386906731700871;-0.01848550920882741;0.12156584274267207;0.05967552797146693;6.08797531703254;4.024100773763061;0.9865150988468978;5.377853488862341;-0.019986674521686613;0.15067857216014546;0.060119488740148413;-0.005044194754692885;-0.5221670467124302
2.5200905799865723;17.141692666390135;18.206581075636247;505.74067005910223;4.862228319199892;-13.574183652680212;44.96999253072801;4.138532029447754;10.201098220107815;-13.053188416991773;9.023514791849074;2.1727527305401377;2.0725423580506837;0.4274924315691609;4.270665607640434;33.74248955414943;-3.3466946015361416;17.617157830327972;3.204103966190266;-0.22711335618943507;-28.831024661280917;6.019995120841858;3.60943724815552;0.8317274385182808;5.386499501972477;-0.018473351880035523;0.12165250457014726;0.059692648654674614;6.0859136682996064;4.023102879835239;0.9861436277431304;5.377630892061752;-0.019979993035636835;0.15062056931876866;0.06011744323647623;-0.004939284515229143;-0.5224717599999784
2.5399577617645264;17.229681965901733;18.41605162039814;505.74135429296797;4.90050391134156;-13.708596104408556;45.11781225663432;4.137034345759842;10.198647901186227;-13.059891413237036;9.01969966098058;2.1715342485819726;2.0722493607584984;0.4703315713304442;4.3889202663318985;33.652572080173925;-3.4037273693824206;17.607721038857655;3.2209173353023477;-0.22761905734801371;-28.83961204994742;6.018528441946236;3.6090200918322966;0.8315906794494637;5.386375003337181;-0.018448701850743883;0.12162865274105816;0.05970673850897485;6.084719907149892;4.023763137141642;0.9863870452423258;5.377527224380174;-0.019960647240877087;0.15065723293302827;0.06012219583203945;-0.004961413599886665;-0.5227443527963939
2.5600781440734863;18.24641173462031;18.20677779892212;501.73780600511077;4.910912104880793;-13.745366892796817;45.423881198524555;4.100713090946848;10.139115154699185;-13.203622221274678;8.956973595630757;2.1501989976435434;2.060695531452008;0.45782358238785353;4.439842218226232;34.02248426865737;-3.8078123287439407;17.730445472161485;3.2826891480867286;-0.23022792252922272;-28.856934648499323;6.013770426595735;3.607025567130054;0.8308506985071372;5.385462301093497;-0.018427540888299565;0.12150243919392738;0.05971162053160374;6.080824406832272;4.026401039714616;0.9873234733895392;5.3765350768102;-0.01996857671432526;0.15082964139216457;0.06012887259779708;-0.00510115786003099;-0.5232645857243732
2.5800771713256836;17.902101378971384;17.71182324396571;502.62193287303126;4.843817583085829;-13.846484585078677;44.99111323155018;4.133977284065143;10.19234702800885;-13.074987685909331;9.037511390003244;2.165816941686502;2.0714604675031514;0.29432536933633546;4.096380027239197;33.78616912056765;-3.83284839723575;17.662788168916133;3.2132179618018952;-0.23003140175595654;-28.87728832611278;6.008446609184235;3.607330788714806;0.8309569196709727;5.384251120921774;-0.018402711498305836;0.12152182653174373;0.05971824067262495;6.075613490649959;4.026849839273497;0.9874504957850799;5.375348881390889;-0.019953914799634112;0.15084582060943255;0.060131240303889694;-0.005088406077104136;-0.5238735802566574
2.6000869274139404;17.475200331180332;17.830064079893145;506.64951856816185;4.81185188790233;-14.488364897737952;44.626660003910914;4.145462588033472;10.245958888753197;-13.226485462333692;8.901432101392384;2.128988187490613;2.083134163168191;0.30536536841150475;3.981176330797129;33.20171588616771;-3.5695880769648136;17.50241629194279;3.1046779125114434;-0.2316894474044963;-28.89068039240455;6.00541320676964;3.606200009279194;0.8305313822086792;5.383767859564056;-0.01838198305937965;0.12144166338563638;0.05972600560982318;6.0729968384885975;4.028412935058884;0.9880294730307051;5.374807845155451;-0.01994308581230734;0.1509569303444279;0.06014140980889913;-0.00516225564439636;-0.5242904861303922
2.619917631149292;18.636984993728774;17.957906615521757;504.5409104187473;5.009155073655897;-15.014081739441245;44.85309699053028;4.121693721784842;10.186199597811937;-13.125579792756248;9.002769572665885;2.1552181802573407;2.070392083517017;0.4004247546867129;4.092314185226568;32.820601921396374;-4.183106270898381;17.464547354000903;3.1125927546994885;-0.22901700012546253;-28.904809410893268;6.002416068598221;3.608420146761664;0.8313522251820942;5.383027939824751;-0.01836708400936965;0.12159069575617962;0.05974146379488383;6.069485743036006;4.0266736653597555;0.9873712392848387;5.374235507633963;-0.01991491588995334;0.15082853681691613;0.06013895085380398;-0.005008990553299962;-0.5247251615774113
2.6401522159576416;19.874758277300884;17.999172583745665;503.81989571756316;5.19462425421276;-15.893525977447212;44.872362094987196;4.119700091681198;10.181031908673749;-13.064292197962894;9.042734028111825;2.166803196298433;2.0693961814953075;0.4602758201875267;4.07609101344647;32.09987205274862;-4.7863165751104955;17.325074909782916;3.077418599287237;-0.22898161084120167;-28.915263835405263;6.000245334014346;3.608618857858949;0.8314165632779433;5.382623041788438;-0.01835271701783462;0.1215972118492449;0.059750522834167805;6.067374240286063;4.026801217308595;0.9874323542623547;5.373929432924987;-0.01991392640792987;0.1508517707325804;0.060145168422945955;-0.004989831329527074;-0.5250521311117022
2.66009259223938;20.746130014941524;18.1194644646744;505.3244268421755;5.3084028468355084;-16.951857445730113;44.75438969885167;4.141834116647955;10.234125014617739;-13.067086202310868;8.991705119004509;2.163052272268329;2.080622124444314;0.490131625443207;4.046944977280578;31.163826339563172;-5.144784335707225;17.11000380719448;3.040456070027155;-0.2309585083383043;-28.923560206615498;5.998182164266373;3.6071738370957847;0.8308710771545911;5.382307323817693;-0.018338517896836;0.12149328628996402;0.05975309336340331;6.065805547246884;4.0284987310831974;0.9880634913448109;5.373548652021367;-0.019913186422921926;0.1509750300652284;0.06015335351481539;-0.005083535852088842;-0.5253140316350517
2.679901123046875;21.55856133432048;18.13074284289707;503.4200610682399;5.428446128832697;-17.27905869761161;44.915665580431835;4.126471054497033;10.172606001199625;-13.008038323249977;9.028216009037841;2.166036677084124;2.0677415367814755;0.5463281677806539;4.133825074337162;30.951093084462197;-5.600269662995405;17.0564286103665;3.0656032363372043;-0.23111387545814246;-28.932255713416993;5.995731899140217;3.607104902902894;0.8308341782038132;5.381722408133513;-0.018329070656200083;0.1214931049634473;0.05975592614300198;6.063507414388539;4.028874178492161;0.988187876822197;5.372998232596604;-0.019908651683827126;0.15099678208079217;0.0601532366187417;-0.005086625486826694;-0.5255779872885195
2.6999311447143555;22.52435418752993;18.05025789424245;500.7666273671765;5.492935714687732;-17.44522384933999;45.19177493299305;4.123887318551727;10.167112305092864;-13.085212282462862;9.0629515139654;2.1691402070184655;2.0667992478186346;0.5375238670366911;4.1597525911076145;31.047682716282978;-6.032512382964396;17.09674044248191;3.1094114066777228;-0.23177756349526699;-28.93191033699597;5.996061493111609;3.6066484959747767;0.8306549730854835;5.381871755152128;-0.01832549568051705;0.12144297086460071;0.059757886623845485;6.063947910955279;4.029252143842847;0.9883509821046184;5.37314565301715;-0.019898290936479032;0.15102912252450743;0.06015681785126061;-0.00510851260728623;-0.5255805135339516
2.7199456691741943;22.896532382549424;17.777439446794965;501.78329908649505;5.456722839693105;-17.936753330040965;44.87300010449184;4.123522116975366;10.174212490737437;-13.082291779667349;8.983836270618793;2.160916993139701;2.0765618359067943;0.46337064532385386;4.019400097690073;30.559987843849527;-6.142280979254181;16.951746027062562;3.098469241306239;-0.23381145400791525;-28.92105953198245;5.999710729849569;3.6052722755072897;0.8301245201371978;5.382949700705425;-0.018330041010157026;0.12132695628664263;0.059757762068088104;6.067699970491001;4.030120788712034;0.9887470420655318;5.374123593151987;-0.019899860807398258;0.15112805993734052;0.06016920367063197;-0.005182086685474417;-0.5252811259641474
2.739940643310547;23.737560104117776;17.423760959522184;499.06205431340925;5.4530184895911455;-17.960901268453554;44.93140501326138;4.113048360468817;10.171562699184761;-13.156348501911616;9.021072959072193;2.1644511857135154;2.0757282991722397;0.3806429138315333;3.8765026249750845;30.77125562904832;-6.509607214071233;17.015160457845184;3.1192609412649044;-0.23156971372285964;-28.91820000397651;6.000848341211185;3.6076030329878486;0.8309373682047791;5.383064326814559;-0.01834593642021;0.12144359943820243;0.05975493495463505;6.067680697418105;4.027705382335349;0.9878993987009668;5.374233673237583;-0.019901511545294896;0.15100595985056942;0.06016775680232259;-0.005011185769673841;-0.5251923705922945
2.759923219680786;25.13008468505302;17.178348314817043;494.0905915334173;5.5487406773101196;-17.894003552151027;45.048481390144545;4.120787056645836;10.159513403604112;-13.042720040578542;9.008753363429124;2.16107889685607;2.0652496347313165;0.3369628163814294;3.7563337492944986;30.985433883739066;-7.049119608613022;17.146622524200662;3.093736486976348;-0.2322545290024514;-28.90825416647314;6.003932608798078;3.607826106675125;0.8309422470884985;5.383786597167595;-0.01836830300910422;0.12140545036373747;0.05974218725072461;6.0700318864136324;4.02709369640412;0.9877704104438613;5.374817539048877;-0.01989407735345918;0.15102169529391193;0.060179140521253796;-0.004982918793018237;-0.5249013090871988
2.7799484729766846;26.047506307565413;17.2253852870609;492.9921794635022;5.6356486280934615;-18.210375697108248;45.12544763691887;4.115469718981352;10.147378716237247;-13.103940501728324;9.021951966950764;2.160834735747824;2.0629222059258545;0.35787164297411844;3.7183818794374477;30.84059460765096;-7.359209368592317;17.156326092737178;3.0240766356395836;-0.23406825272767728;-28.894236939194023;6.008224470734735;3.6073365731679203;0.8306717119344941;5.384881002753876;-0.01840176812514767;0.12131462464272874;0.05971920087479134;6.073548085184447;4.027010458292098;0.9878703358837755;5.375622535825145;-0.019866767429245077;0.15107470792390382;0.060200696849735905;-0.005012891271413903;-0.5244906651920023
