flxalr/sts-optimization-reemc/input/498_145/vel.csv
time;base_link_tx;base_link_ty;base_link_tz;base_link_rz;base_link_ry;base_link_rx;leg_left_1_joint;leg_left_2_joint;leg_left_3_joint;leg_left_4_joint;leg_left_5_joint;leg_left_6_joint;leg_right_1_joint;leg_right_2_joint;leg_right_3_joint;leg_right_4_joint;leg_right_5_joint;leg_right_6_joint;torso_1_joint;torso_2_joint;arm_left_1_joint;arm_left_2_joint;arm_left_3_joint;arm_left_4_joint;arm_left_5_joint;arm_left_6_joint;arm_left_7_joint;arm_right_1_joint;arm_right_2_joint;arm_right_3_joint;arm_right_4_joint;arm_right_5_joint;arm_right_6_joint;arm_right_7_joint;head_1_joint;head_2_joint
0.0;-4.6966569148484016e-05;0.00042581454574801183;1.706814813156704e-05;0.0037743868963527557;-0.0002063699829116105;-0.0013539599461417358;2.220446049250313e-16;2.220446049250313e-16;0.0014038838809488426;2.220446049250313e-16;2.220446049250313e-16;2.220446049250313e-16;2.220446049250313e-16;-3.859184262943368e-08;0.00012961016317359473;2.220446049250313e-16;2.220446049250313e-16;2.220446049250313e-16;8.430889632509502e-05;8.430889632487297e-05;0.00017088211480792743;-2.881810519173486e-06;3.8200071568533924e-06;-0.0007091028295481143;1.8997176765605786e-07;-2.062807211218452e-06;2.062807210996407e-06;-4.7644831417709385e-05;-2.9777264440375318e-05;-1.4593315177924602e-08;-4.17192803814019e-09;2.220446049250313e-16;4.20941495773348e-05;-4.209414957711275e-05;2.543861765345436e-08;0.0005155032534420685
0.020179033279418945;-4.910415002109304e-05;0.00042628568856701936;1.6657125218213033e-05;0.003777088978599822;-0.000208859452854446;-0.0013551757286423907;2.220446049250313e-16;2.220446049250313e-16;0.0011434721953070878;2.220446049250313e-16;2.220446049250313e-16;2.220446049250313e-16;2.220446049250313e-16;-3.143329702069016e-08;0.00010556828796841272;2.220446049250313e-16;2.220446049250313e-16;2.220446049250313e-16;6.86701229874125e-05;6.867012298719045e-05;0.00013918455052427443;-2.347252679182549e-06;3.111419704301818e-06;-0.000978151484962682;1.5473319207940695e-07;-1.6801693661030922e-06;1.6801693658810474e-06;-3.880701296992066e-05;-2.4253767994588446e-05;-1.1886346420639453e-08;-3.3980614616154226e-09;2.220446049250313e-16;-0.00017538930765525633;0.00017538930765547837;2.0719913070098903e-08;0.00041988062182389866
0.03999066352844238;-5.7091475473018596e-05;0.0004277185958037936;1.5091412878959708e-05;0.0037855980305580394;-0.0002180007472448273;-0.0013589456613364778;2.220446049250313e-16;2.220446049250313e-16;0.0009313652497788432;2.220446049250313e-16;2.220446049250313e-16;2.220446049250313e-16;2.220446049250313e-16;-2.560261688145851e-08;8.598603035207196e-05;2.220446049250313e-16;2.220446049250313e-16;2.220446049250313e-16;5.593224436153674e-05;5.5932244361314684e-05;0.00011336668630546227;-1.9118519775234312e-06;0.0001399035629575848;-0.0007967104979488853;1.2603115203112745e-07;-1.3685084497701005e-06;1.3685084495480557e-06;-3.160855460783143e-05;-1.9754845617642248e-05;-9.68150344927596e-09;-2.767742298369896e-09;2.220446049250313e-16;6.31443301299588e-05;-6.314433012973676e-05;1.6876498695052246e-08;-0.015253342951426
0.06013369560241699;-7.163040910339815e-05;0.00043000767649257663;1.2165017843051851e-05;0.003799504243036727;-0.0002336567876353364;-0.0013650556942513747;2.220446049250313e-16;2.220446049250313e-16;0.0007586028169776787;2.220446049250313e-16;2.220446049250313e-16;2.220446049250313e-16;2.220446049250313e-16;-2.0853491466303465e-08;7.00361591344523e-05;2.220446049250313e-16;2.220446049250313e-16;2.220446049250313e-16;4.555716260901952e-05;4.5557162608797464e-05;9.23378745375884e-05;-1.5572153847676941e-06;0.0001139523264262213;-0.0007974676683897183;1.0265316102405347e-07;4.309407266378405e-05;-4.309407266400609e-05;-2.574536528154499e-05;-1.6090445223354722e-05;-7.885645068831826e-09;-2.2543434004116445e-09;2.220446049250313e-16;4.675481221013234e-05;-4.675481220991029e-05;1.3746013665236897e-08;0.0018223949589124247
0.07999801635742188;-9.074469545699642e-05;0.0004308257259774051;8.021727653909092e-06;0.003816683215593207;-0.0002523535478461463;-0.0013698649659546777;2.220446049250313e-16;2.220446049250313e-16;0.0006178867356959254;2.220446049250313e-16;2.220446049250313e-16;2.220446049250313e-16;2.220446049250313e-16;-1.6985299133625835e-08;-0.00018161204647654152;2.220446049250313e-16;2.220446049250313e-16;2.220446049250313e-16;3.7106593677333294e-05;3.710659367711125e-05;7.520977592258159e-05;-1.2683616634894414e-06;9.281488207619736e-05;-0.0006495424000763527;8.361164123634795e-08;-4.493357587628563e-06;4.49335758740652e-06;-2.0969760930351398e-05;-1.310576819970506e-05;-6.422907193845201e-09;-1.8361767892815367e-09;2.220446049250313e-16;3.808208676274969e-05;-3.808208676252764e-05;1.1196214042920857e-08;0.0014843520840026627
0.10018229484558105;-0.00011320012376071751;0.00042662645473825307;2.537112576340447e-06;0.0038366472103429495;-0.00027148328324473083;-0.0013683932088264714;2.220446049250313e-16;2.220446049250313e-16;0.0005032726080164292;2.220446049250313e-16;2.220446049250313e-16;2.220446049250313e-16;2.220446049250313e-16;-1.3834632302457825e-08;-0.0006060373223951369;2.220446049250313e-16;2.220446049250313e-16;2.220446049250313e-16;0.0001043762132089499;0.00010437621320872786;6.125883255004223e-05;-1.0330885021725469e-06;7.559830154407572e-05;-0.0005290563445021899;6.810220435976312e-08;-3.659867838628981e-06;3.6598678384069366e-06;-1.708000133877703e-05;-1.0674730109711018e-05;-5.231498052556876e-09;-1.4955774709747445e-09;2.220446049250313e-16;-0.00022337297518420165;0.0002233729751844237;9.1193863142968e-09;0.0017710137396252429
0.12017202377319336;-0.00013667250475077908;0.0004157139285926497;-3.993865505934152e-06;0.0038577861587357053;-0.00028763106322461586;-0.0013579670869618644;2.220446049250313e-16;2.220446049250313e-16;0.0004099186846831816;2.220446049250313e-16;2.220446049250313e-16;2.220446049250313e-16;2.220446049250313e-16;-1.1268394476803785e-08;-0.0004896317601639072;2.220446049250313e-16;2.220446049250313e-16;2.220446049250313e-16;8.501507801004284e-05;8.501507800982078e-05;4.989570197971282e-05;0.00013817556281000253;6.157528909703431e-05;-0.00043091969919918665;5.546967108980429e-08;-3.7323312567407372e-06;3.7323312565186926e-06;-1.3911767840442254e-05;-8.694634391422808e-06;-4.261087860670402e-09;-1.2181571974681226e-09;2.220446049250313e-16;6.572876505308943e-05;-6.572876505286739e-05;7.4277971491592076e-09;-0.013655926630261769
0.14006900787353516;-0.00016162691689886917;0.0003979311189823783;-1.1690212722480139e-05;0.003880234542714069;-0.0003011772004014886;-0.0013384054201706402;2.220446049250313e-16;2.220446049250313e-16;0.0003338813306662307;2.220446049250313e-16;2.220446049250313e-16;2.220446049250313e-16;2.220446049250313e-16;-9.17817772882216e-09;-0.00039880812885200335;2.220446049250313e-16;2.220446049250313e-16;2.220446049250313e-16;6.924531238343802e-05;6.924531238321598e-05;4.064036111061346e-05;0.0001125448595060146;5.01534578150913e-05;-0.00035098678824585755;4.5180393788089904e-08;-3.0400071357062784e-06;3.0400071354842338e-06;-1.133122185458922e-05;-7.081834053278822e-06;-3.470682694315172e-09;-9.921966508202696e-10;2.220446049250313e-16;5.35364899405435e-05;-5.353648994032146e-05;6.049987201722357e-09;0.002859723424123477
0.15996074676513672;-0.00018957269690420556;0.0003732103399868952;-2.0860231555262303e-05;0.003903510513899294;-0.00031395966217245857;-0.0013095312156491009;2.220446049250313e-16;2.220446049250313e-16;0.0002719484305859614;2.220446049250313e-16;2.220446049250313e-16;2.220446049250313e-16;2.220446049250313e-16;-7.47568312373645e-09;-0.00032483171350076203;2.220446049250313e-16;2.220446049250313e-16;2.220446049250313e-16;5.640073971953325e-05;5.6400739719311204e-05;3.31018281268516e-05;0.000378044689267506;4.0850304849503195e-05;-0.0002858809326936774;2.2372231114292703e-07;-2.4761048120979555e-06;2.476104811875911e-06;-9.229351020699511e-06;-5.768198097858433e-06;-2.8268927462865463e-09;-8.08150373322177e-10;2.220446049250313e-16;4.36058056596554e-05;-4.360580565943335e-05;4.927752388222869e-09;0.0023292626022199717
0.1800527572631836;-0.0002212097688818372;0.00034191774287360704;-3.16193797694681e-05;0.003925218915573465;-0.00032650155223886134;-0.0012713726536346024;2.220446049250313e-16;2.220446049250313e-16;0.00022150369638995675;2.220446049250313e-16;2.220446049250313e-16;2.220446049250313e-16;2.220446049250313e-16;-6.088990627302862e-09;-0.00026457746084458;2.220446049250313e-16;2.220446049250313e-16;2.220446049250313e-16;4.593875500620367e-05;4.593875500598162e-05;2.696164589574641e-05;0.0007402678415168994;3.327282861432565e-05;-0.00023285180643482954;1.8222322069035867e-07;-2.016802845129454e-06;2.016802844907409e-06;-7.517364089803627e-06;-4.698233401943805e-06;-2.302521809930056e-09;-6.582435300107462e-10;2.220446049250313e-16;-0.0001774651275840715;0.00017746512758429355;4.013685118659952e-09;0.0018971989473994305
0.19995522499084473;-0.0002552761473471704;0.000307188838588334;-4.3386344115825435e-05;0.003942714801651064;-0.000337890431532351;-0.0012276964307497043;2.220446049250313e-16;2.220446049250313e-16;0.00018041614510772212;2.220446049250313e-16;2.220446049250313e-16;2.220446049250313e-16;2.220446049250313e-16;-4.959520922129602e-09;-0.00021549999546704066;2.220446049250313e-16;2.220446049250313e-16;2.220446049250313e-16;0.00010834867199154553;0.00010834867199132348;2.1960429092372304e-05;0.0008820211897434719;2.7100926861547078e-05;-0.0001896592516649588;1.4842195214742642e-07;-1.642698522396316e-06;1.6426985221742712e-06;-6.122940034670614e-06;-3.82674046984199e-06;-1.8754184049493426e-09;-5.361434692158153e-10;2.220446049250313e-16;6.292680407709997e-05;-6.292680407687793e-05;3.2691716146805226e-09;0.0035748249518468655
0.22011208534240723;-0.0002922362679309015;0.0002721052335111398;-5.598779775208496e-05;0.003955083324150828;-0.0003485282878254884;-0.0011825703668311032;2.220446049250313e-16;2.220446049250313e-16;0.00014695007779114657;2.220446049250313e-16;2.220446049250313e-16;2.220446049250313e-16;2.220446049250313e-16;-4.039560788080323e-09;-0.00017552609318287625;2.220446049250313e-16;2.220446049250313e-16;2.220446049250313e-16;8.825067051633438e-05;8.825067051611232e-05;1.7886906748419064e-05;0.0008608694614341553;2.2073874309522974e-05;-0.00015447864585143185;1.208906076612797e-07;-1.3379882133781577e-06;1.337988213156113e-06;-4.9871729266144315e-06;-3.116904029814237e-06;-1.5275400121962705e-09;-4.3669220657296424e-10;2.220446049250313e-16;5.125427521334399e-05;-5.125427521312194e-05;2.6627607124798764e-09;0.002911717265935221
0.23995304107666016;-0.00033151953974539194;0.0002421622459711859;-6.870774406960323e-05;0.003961199986207666;-0.0003596399900864394;-0.001143314032438176;2.220446049250313e-16;2.220446049250313e-16;0.00011969175679887505;2.220446049250313e-16;2.220446049250313e-16;2.220446049250313e-16;2.220446049250313e-16;-3.290247509146348e-09;-0.00014296709993553508;2.220446049250313e-16;2.220446049250313e-16;2.220446049250313e-16;0.00014780252029755915;0.00014780252029733708;1.4568997339754504e-05;0.0011391822284195483;1.7979308586820893e-05;-0.0001258238225375278;9.846615550641016e-08;-1.0902113002660192e-06;1.0902113000439744e-06;-4.062083518558245e-06;-2.5387378129338817e-06;-1.2441908870589379e-09;-3.5568853157997035e-10;2.220446049250313e-16;4.174692750050935e-05;-4.174692750028729e-05;2.168835242569312e-09;0.002371611911337149
0.2600893974304199;-0.00037403968704626634;0.0002204909352546193;-8.144817987520537e-05;0.0039606117043991225;-0.0003724091557056165;-0.001114161645859706;2.220446049250313e-16;2.220446049250313e-16;9.74896839861637e-05;2.220446049250313e-16;2.220446049250313e-16;2.220446049250313e-16;2.220446049250313e-16;-2.679927160246633e-09;-0.00011644759644186786;2.220446049250313e-16;2.220446049250313e-16;2.220446049250313e-16;0.00012038607654813438;0.00012038607654791233;1.1866539389463415e-05;0.0010741303188288953;1.464425921464428e-05;-0.00010248428985570722;8.020129907344299e-08;-8.879839179078932e-07;8.879839176858484e-07;-3.308592413887681e-06;-2.067817815745977e-06;-1.0134012537025494e-09;-2.8971053202520817e-10;2.220446049250313e-16;-0.0001398903058443984;0.00013989030584462043;1.7665298602929703e-09;0.0019316927243585534
0.27991223335266113;-0.0004167738778918263;0.00020979165642593333;-9.321268537947843e-05;0.003953051149868184;-0.00038569067701949076;-0.001098732481714298;2.220446049250313e-16;2.220446049250313e-16;7.940595691725522e-05;2.220446049250313e-16;2.220446049250313e-16;2.220446049250313e-16;2.220446049250313e-16;-2.182817421565633e-09;-9.484729509937913e-05;2.220446049250313e-16;2.220446049250313e-16;2.220446049250313e-16;0.0009694942569738533;0.0009694942569736313;9.665370498589133e-06;0.0010278561250663398;1.1927840656947858e-05;-8.347409461428511e-05;6.532445935343852e-08;-7.232684510560595e-07;7.23268450834015e-07;-2.6948691998141024e-06;-1.684250534786447e-06;-8.254216548985618e-10;-2.3597103902535717e-10;2.220446049250313e-16;6.466136604352974e-05;-6.466136604330771e-05;1.4388496120202507e-09;0.0033263073789395387
0.29990172386169434;-0.00046030908242619223;0.0002089783674841406;-0.00010415847420277187;0.003937037687744934;-0.0004010536311218289;-0.001095236519780211;2.220446049250313e-16;2.220446049250313e-16;6.467664819633511e-05;2.220446049250313e-16;2.220446049250313e-16;2.220446049250313e-16;2.220446049250313e-16;-1.7779184324740931e-09;-7.725371465403867e-05;2.220446049250313e-16;2.220446049250313e-16;2.220446049250313e-16;0.0007896591316443299;0.000789659131644108;7.872504679666464e-06;0.0008371952379673152;9.715300764088137e-06;-6.799017177642654e-05;5.320718042124662e-08;-1.3800606588663129e-05;1.3800606588441082e-05;-2.1949878061810844e-06;-1.371832587149403e-06;-6.723110968002215e-10;-1.9219988610514731e-10;2.220446049250313e-16;5.266708677601333e-05;-5.266708677579128e-05;1.1719520018005694e-09;0.0027092981495673717
0.3199019432067871;-0.0005047326487719041;0.00021666621031552857;-0.00011426851093406272;0.003911902428757095;-0.0004212669116086925;-0.001101614105239598;2.220446049250313e-16;2.220446049250313e-16;5.267953418496615e-05;2.220446049250313e-16;2.220446049250313e-16;2.220446049250313e-16;2.220446049250313e-16;-1.4481256752403513e-09;-6.292363342143105e-05;2.220446049250313e-16;2.220446049250313e-16;2.220446049250313e-16;0.0007102428711690058;0.0007102428711687837;6.412204264742582e-06;0.0008351674333395702;7.913173192979559e-06;-5.537841985047302e-05;4.3337580997983e-08;-1.1240680320277887e-05;1.1240680320055842e-05;-1.7878312868082817e-06;-1.1173662161868582e-06;-5.476015902881353e-10;-1.565480084819306e-10;2.220446049250313e-16;4.289767134837579e-05;-4.2897671348153745e-05;9.545622301665748e-10;0.004123650744083482
0.33996105194091797;-0.0005495919717625254;0.00023105885760292422;-0.00012345335042991215;0.0038794420498651145;-0.00044865448261787144;-0.0011157374874175402;2.220446049250313e-16;2.220446049250313e-16;4.290780984074357e-05;2.220446049250313e-16;2.220446049250313e-16;2.220446049250313e-16;2.220446049250313e-16;-1.1795074132687362e-09;-5.125169269446447e-05;2.220446049250313e-16;2.220446049250313e-16;2.220446049250313e-16;0.0005784972575851205;0.0005784972575848986;5.222780449909487e-06;0.0006802490942515383;6.445329023014307e-06;-4.510606908333434e-05;-9.36060873579688e-05;-1.535769516783465e-05;1.5357695167612604e-05;-1.4561997570508878e-06;0.00015640811636299256;-4.4602491779962536e-10;-1.2750933133358546e-10;2.220446049250313e-16;-9.742775150164728e-05;9.742775150186932e-05;7.774969024846137e-10;0.0033587393038731453
0.3599710464477539;-0.0005923508131007228;0.00024821665348007246;-0.00013136613925365405;0.0038424282957745357;-0.0004835344209017919;-0.0011327013590366013;2.220446049250313e-16;2.220446049250313e-16;-0.00017152813782439486;2.220446049250313e-16;2.220446049250313e-16;2.220446049250313e-16;2.220446049250313e-16;-9.607161600287185e-10;-4.174482402272064e-05;2.220446049250313e-16;2.220446049250313e-16;2.220446049250313e-16;0.00047118963191096106;0.00047118963191073896;4.253987318829088e-06;0.0005540671388247168;5.249760772551547e-06;-3.673917518130758e-05;1.5306060254972453e-06;-1.2508938699816712e-05;1.2508938699594668e-05;-1.1860838033664294e-06;0.00012739538832838468;-3.632900832035311e-10;-1.038571473045262e-10;2.220446049250313e-16;7.475107167901391e-05;-7.475107167879188e-05;6.332760864293583e-10;0.002735714155125326
0.3800954818725586;-0.0006305609654271475;0.0002638382478286703;-0.0001377159465743577;0.003803023859653034;-0.0005261677056610167;-0.0011469833313622344;2.220446049250313e-16;2.220446049250313e-16;-0.0010687076612943779;2.220446049250313e-16;2.220446049250313e-16;2.220446049250313e-16;2.220446049250313e-16;-7.825093168193912e-10;-3.4001420071656105e-05;2.220446049250313e-16;2.220446049250313e-16;2.220446049250313e-16;0.0003837869001266977;0.0003837869001264757;3.4648992586070335e-06;0.00045129114749234943;4.275962960248063e-06;-2.9924287805019898e-05;1.2466881740551657e-06;-1.018860875188818e-05;1.0188608751666132e-05;-9.660726708657275e-07;0.00010376434001464637;-2.9590204333229603e-10;-8.459229558670722e-11;2.220446049250313e-16;6.088521507677542e-05;-6.0885215076553366e-05;5.158073303722524e-10;0.0022282562775630477
0.3999669551849365;-0.0006626742211853303;0.00027320371939644744;-0.00014250887126458325;0.003761573951625258;-0.0005764028621656927;-0.0011521129486886086;2.220446049250313e-16;2.220446049250313e-16;-0.002175350651429789;2.220446049250313e-16;2.220446049250313e-16;2.220446049250313e-16;2.220446049250313e-16;-6.37358729232624e-10;-2.7694369157239333e-05;2.220446049250313e-16;2.220446049250313e-16;2.220446049250313e-16;0.00031259682882134164;0.00031259682882111965;2.8221821017557944e-06;0.00036757946020219036;3.482798555890548e-06;-2.437351944398749e-05;1.0154353095690201e-06;-8.298685507238214e-06;8.29868550701617e-06;-7.86872228374328e-07;0.0002363109299392048;-2.4101406368192594e-10;-6.890095345722043e-11;2.220446049250313e-16;4.959138821264839e-05;-4.9591388212426344e-05;4.2012829438401424e-10;0.0018149286646768363
0.41995787620544434;-0.0006896565308322438;0.00027260465432867725;-0.00014633961341700165;0.003713293455397418;-0.0006337416705060469;-0.0011420152032140193;2.220446049250313e-16;2.220446049250313e-16;-0.0017718367015311343;2.220446049250313e-16;2.220446049250313e-16;2.220446049250313e-16;2.220446049250313e-16;-5.191326684520299e-10;-2.2557236768378664e-05;2.220446049250313e-16;2.220446049250313e-16;2.220446049250313e-16;0.0002546120708051834;0.00025461207080496143;2.2986849605182298e-06;0.00029939576770631024;2.836761191263825e-06;-0.00014699417828545572;8.270784061146516e-07;-6.810246061561234e-06;6.810246061339188e-06;-6.409123479623173e-07;0.00033567278258322584;-1.9630746120682658e-10;-5.612025722186514e-11;2.220446049250313e-16;-9.548812835959966e-05;9.54881283598217e-05;3.421971215776194e-10;0.0014782707406834376
0.43996357917785645;-0.0007113170423947423;0.0002607933222476105;-0.0001494660717381646;0.003653024489094132;-0.0006942736096026823;-0.0011139112425013842;2.220446049250313e-16;2.220446049250313e-16;-0.0014431720673764937;2.220446049250313e-16;2.220446049250313e-16;2.220446049250313e-16;2.220446049250313e-16;-4.2283680303335606e-10;-1.8373010330574217e-05;2.220446049250313e-16;2.220446049250313e-16;2.220446049250313e-16;0.00020738312299628495;0.0002073831229960629;1.872293267123101e-06;0.00024385972402033785;2.3105597200418307e-06;-0.00011972767692711792;1.2041927158338889e-06;-5.546987981200103e-06;5.5469879809780575e-06;-5.22027113117482e-07;0.00027340757936892857;-1.5989365407459278e-10;-4.571030025881679e-11;2.220446049250313e-16;-2.1249220083193084e-05;2.1249220083415128e-05;2.787216942569808e-10;-0.014021533536905051
0.45995044708251953;-0.0007261802291252472;0.0002383529923036775;-0.00015170866205927222;0.0035755302575543584;-0.0007527975033641838;-0.0010675142709272731;2.220446049250313e-16;2.220446049250313e-16;-0.0011754726687035748;2.220446049250313e-16;2.220446049250313e-16;2.220446049250313e-16;2.220446049250313e-16;-3.444032188006875e-10;-1.4964931745567263e-05;2.220446049250313e-16;2.220446049250313e-16;2.220446049250313e-16;0.00016891484982501346;0.00016891484982479142;1.5249945679046847e-06;0.00019862526933784024;1.881965332972321e-06;-9.751894115511833e-05;9.808224932511764e-07;-4.51805637938296e-06;4.518056379160915e-06;-4.25194346303646e-07;0.0003794026155619208;-1.3023438057909379e-10;-3.723132525018289e-11;2.220446049250313e-16;5.875569053786311e-05;-5.875569053764106e-05;2.270205619829e-10;0.0028209602303795136
0.47994494438171387;-0.0007327055491259149;0.00020692882212399735;-0.00015274795776794783;0.003477305508376742;-0.000804765736488271;-0.001004346655346837;2.220446049250313e-16;2.220446049250313e-16;-0.0009574298353632412;2.220446049250313e-16;2.220446049250313e-16;2.220446049250313e-16;2.220446049250313e-16;-2.8051857423327744e-10;-1.2189030437587946e-05;2.220446049250313e-16;2.220446049250313e-16;2.220446049250313e-16;0.0001375822009003054;0.00013758220090008335;1.2421176067744152e-06;0.00016178152328360422;1.532872525989286e-06;-7.942978706422606e-05;7.988860508936658e-07;-3.679985158880385e-06;3.6799851586583395e-06;-3.4632345252898396e-07;0.00046127660429860057;-1.0607671694655048e-10;-3.032514711205677e-11;2.220446049250313e-16;4.7856877166175955e-05;-4.78568771659539e-05;1.8490966661358442e-10;0.0041732901859830186
0.49993348121643066;-0.0007298321567807611;0.00017038110847244765;-0.00015214316029502222;0.0033578495797306246;-0.0008468913238709637;-0.0009295902304074045;2.220446049250313e-16;2.220446049250313e-16;-0.0007798325848398308;2.220446049250313e-16;2.220446049250313e-16;8.788864778159872e-05;2.220446049250313e-16;-2.2848413195409342e-10;-9.928041472855614e-06;2.220446049250313e-16;2.220446049250313e-16;2.220446049250313e-16;0.00011206156252207495;0.0001120615625218529;1.0117125539528031e-06;0.00013177206184901611;1.2485342528715606e-06;-6.469605799998126e-05;6.506976814907089e-07;4.39766884273465e-05;-4.3976688427568546e-05;-2.820826166064357e-07;0.0009620228575769804;-8.640014893244625e-11;-2.470002185493969e-11;2.220446049250313e-16;-0.00013551658714868142;0.0001355165871489035;1.5061007914218078e-10;0.00339917093954683
0.5199096202850342;-0.000718004830626247;0.0001322879712654827;-0.00014974873644189228;0.0032185671955497854;-0.0008784519882824922;-0.0008484651390657282;2.220446049250313e-16;2.220446049250313e-16;-0.0006351785143056972;2.220446049250313e-16;2.220446049250313e-16;7.158585292216078e-05;2.220446049250313e-16;-1.8610175350243375e-10;-8.086451829900102e-06;2.220446049250313e-16;2.220446049250313e-16;2.220446049250313e-16;9.127484305901639e-05;9.127484305879436e-05;8.240461983980202e-07;0.00010732916795141016;1.0169389523029665e-06;-5.269534359134723e-05;5.299973284346915e-07;-3.142531970624202e-06;3.1425319704021574e-06;-2.2975805424229565e-07;0.0007835736301393103;-7.037346130640829e-11;-2.0118322175984964e-11;2.220446049250313e-16;7.696464411144879e-05;-7.696464411122676e-05;1.2267285077430087e-10;0.002768645975079265
0.5400524139404297;-0.0006993341305978303;9.523217518973658e-05;-0.00014577872356650096;0.0030598187796180318;-0.0009017607016303096;-0.0007646459370139376;2.220446049250313e-16;2.220446049250313e-16;-0.0005173568697677049;2.220446049250313e-16;2.220446049250313e-16;5.830712461668071e-05;2.220446049250313e-16;-1.5158104136369168e-10;-6.58646555577757e-06;2.220446049250313e-16;2.220446049250313e-16;2.220446049250313e-16;7.434393013935855e-05;7.43439301391365e-05;6.711907788839274e-07;8.742027810372325e-05;8.28303132519218e-07;-4.292068670104976e-05;1.229608083222525e-05;-2.5596119309188227e-06;2.5596119306967772e-06;-1.8713937116818878e-07;0.0007770134750926754;-5.731962406820271e-11;-1.6386499151853348e-11;2.220446049250313e-16;6.268818365782134e-05;-6.26881836575993e-05;9.991780366098538e-11;0.002255079450739405
0.5599405765533447;-0.0006759731979501709;6.347914749457294e-05;-0.0001403977105648516;0.002885954530926525;-0.0009179696949535606;-0.0006849427404895537;2.220446049250313e-16;2.220446049250313e-16;-0.00042139040390623154;2.220446049250313e-16;2.220446049250313e-16;4.7491517419815276e-05;2.220446049250313e-16;-1.234637055722354e-10;-5.364717360590553e-06;2.220446049250313e-16;2.220446049250313e-16;2.220446049250313e-16;6.0553595748091505e-05;6.055359574786946e-05;5.466890843433268e-07;7.120436289222071e-05;6.746580783314812e-07;-3.49591675722969e-05;1.0015234688352665e-05;-2.0848199153285423e-06;2.0848199151064977e-06;-1.5242618743755952e-07;0.0006328823317972034;-4.668719205120152e-11;-1.3346905974804248e-11;2.220446049250313e-16;5.105991739046393e-05;-5.105991739024189e-05;8.138367556814547e-11;0.0018367763068738122
0.579930305480957;-0.0006482780042524842;3.799969841724316e-05;-0.00013355687568310318;0.002693137082132259;-0.0009277542901884271;-0.0006099299410135242;2.220446049250313e-16;2.220446049250313e-16;-0.00034322511767164994;2.220446049250313e-16;2.220446049250313e-16;3.8682137760423416e-05;2.220446049250313e-16;-1.0056195983674552e-10;-4.3695958196845075e-06;2.220446049250313e-16;2.220446049250313e-16;2.220446049250313e-16;4.932128219681454e-05;4.93212821965925e-05;4.4528167600441677e-07;5.799639860298184e-05;5.495132214139811e-07;-2.847446048243315e-05;8.157471248880045e-06;-1.6980988511801625e-06;1.6980988509581175e-06;-1.2415208233156368e-07;0.0005154866147633958;-3.8027009720653956e-11;-1.0871138334640401e-11;2.220446049250313e-16;-8.888359577953528e-05;8.888359577975733e-05;6.628751239822677e-11;0.0014960657818006374
0.5998954772949219;-0.0006150111768403704;1.778462655829697e-05;-0.00012514669630166227;0.0024822317925351856;-0.0009287537329271131;-0.0005384032749302402;2.220446049250313e-16;2.220446049250313e-16;-0.00027955900350054433;2.220446049250313e-16;2.220446049250313e-16;3.1506842969225876e-05;2.220446049250313e-16;-8.190834479927819e-11;0.00021985462316517675;2.220446049250313e-16;2.220446049250313e-16;2.220446049250313e-16;4.017249260733976e-05;4.0172492607117716e-05;3.626847081160724e-07;4.723842913961996e-05;4.4758195329932136e-07;-2.3192626028319808e-05;6.6443113164081005e-06;-1.3831121274246555e-06;1.3831121272026111e-06;-1.0112264700957318e-07;0.00041986706951612797;0.00015821203937553904;-8.854610118179195e-12;2.220446049250313e-16;7.83938285799476e-05;-7.839382857972555e-05;5.3991593145308176e-11;0.0012185549296877555
0.6201767921447754;-0.000572025296858962;1.8691000379172872e-06;-0.00011438998346633203;0.0022493335020598417;-0.0009159448480829176;-0.00046820884371227324;2.220446049250313e-16;2.220446049250313e-16;-0.00022770255559496515;2.220446049250313e-16;2.220446049250313e-16;2.5662520516203025e-05;2.220446049250313e-16;-6.671485876616708e-11;0.0003858244797788101;2.220446049250313e-16;2.220446049250313e-16;2.220446049250313e-16;3.272074630677762e-05;3.2720746306555575e-05;2.9540896153996673e-07;3.847599577440257e-05;3.645582983495052e-07;-1.8890538853979158e-05;5.4118330941601235e-06;-1.1265534722587723e-06;1.1265534720367277e-06;-8.236502800584116e-08;0.0003419843522900707;0.00012886469489662258;-7.212135282570192e-12;2.220446049250313e-16;0.00010789658016336438;-0.00010789658016314234;4.3976490064310665e-11;-0.01381498384509638
0.6401236057281494;-0.0005178305836122863;-9.30704041239695e-06;-0.00010108380511935199;0.002000948265022777;-0.0008856778288486038;-0.0004012912163783531;2.220446049250313e-16;2.220446049250313e-16;-0.0001854651546730715;2.220446049250313e-16;2.220446049250313e-16;2.090228335120058e-05;2.220446049250313e-16;-5.4339669432910356e-11;0.00031425645018283937;2.220446049250313e-16;2.220446049250313e-16;2.220446049250313e-16;2.6651252371555372e-05;2.665125237133333e-05;2.4061244548031237e-07;3.133893903322448e-05;2.969350124950367e-07;-1.5386461962433864e-05;4.40797187915026e-06;-2.259041861412848e-06;2.259041861190804e-06;-6.708683009218265e-08;0.00027854839234246433;0.0001049610993976422;-5.874329263498938e-12;2.220446049250313e-16;4.868559112306779e-05;-4.868559112284575e-05;3.581912601044393e-11;0.0022041996274742657
0.6598894596099854;-0.00045098459030292365;-1.7161739948195355e-05;-8.504842782941701e-05;0.001734452610066051;-0.0008361685843277777;-0.0003351573103099507;2.220446049250313e-16;2.220446049250313e-16;-0.00015106252763843345;2.220446049250313e-16;2.220446049250313e-16;1.7025040428823813e-05;2.220446049250313e-16;-4.426000037603943e-11;0.0002559638427767362;2.220446049250313e-16;2.220446049250313e-16;2.220446049250313e-16;2.1707611626979766e-05;2.1707611626757722e-05;1.9598034067149868e-07;2.552576171093029e-05;2.4185542352103537e-07;-1.2532369433789646e-05;3.59032064539213e-06;-1.8400037151529926e-06;1.8400037149309482e-06;-5.4642642402770843e-08;0.00022687940649038926;8.549147146625079e-05;-4.78467789967778e-12;2.220446049250313e-16;-0.00013357210936355759;0.00013357210936377966;2.917490200504415e-11;-0.014140487607892504
0.6799497604370117;-0.0003710550972627825;-2.352386424932751e-05;-6.628108338024079e-05;0.001440462388642418;-0.0007673754348177169;-0.00026537200574198744;2.220446049250313e-16;2.220446049250313e-16;-0.0001230413729023017;2.220446049250313e-16;2.220446049250313e-16;1.3867001835779675e-05;2.220446049250313e-16;-3.605004693128645e-11;0.00020848414971566892;2.220446049250313e-16;2.220446049250313e-16;2.220446049250313e-16;1.768098534276828e-05;1.7680985342546234e-05;1.5962721235406483e-07;2.079089244956341e-05;1.969927540542803e-07;-1.0207693231130627e-05;2.924338605175924e-06;-1.4986945260359256e-06;1.498694525813881e-06;-4.4506773753571855e-08;0.0001847946945827126;6.963333783095794e-05;-3.8971500535244246e-12;2.220446049250313e-16;6.947669591075743e-05;-6.94766959105354e-05;2.3763140026245986e-11;0.001852769404230029
0.7001407146453857;-0.000282169375080071;-2.998086052321465e-05;-4.577324365332316e-05;0.0011179208960323582;-0.0006839482505494708;-0.00018958322055918745;2.220446049250313e-16;2.220446049250313e-16;-0.00010021796723750536;2.220446049250313e-16;2.220446049250313e-16;1.1294759664004018e-05;2.220446049250313e-16;-2.936298853832613e-11;0.00016981164296934808;2.220446049250313e-16;2.220446049250313e-16;2.220446049250313e-16;1.4401273067863748e-05;1.4401273067641705e-05;1.3001736213246302e-07;1.6934311843247206e-05;1.6045182938192414e-07;-8.31422993483859e-06;2.381892071032072e-06;-5.671775325722167e-06;5.671775325500123e-06;-3.625104538962022e-08;0.00015051643370446054;5.671678887167666e-05;-3.1742530757834773e-12;2.220446049250313e-16;5.658920304868196e-05;-5.6589203048459926e-05;1.935522607100252e-11;0.001509092259554135
0.7199509143829346;-0.0001911944807735324;-3.812499192506716e-05;-2.5121920517697527e-05;0.0007715518066437799;-0.0005935215456746133;-0.00010663890545764944;2.220446049250313e-16;2.220446049250313e-16;-8.162816067724335e-05;2.220446049250313e-16;2.220446049250313e-16;9.199652338579172e-06;2.220446049250313e-16;-2.391633768314499e-11;0.00013831264452130254;2.220446049250313e-16;2.220446049250313e-16;2.220446049250313e-16;1.172992692175229e-05;1.1729926921530244e-05;1.0589995406540444e-07;1.3793102835773867e-05;1.3068901785551082e-07;-6.771992245863123e-06;1.9400659786810656e-06;-4.619696451417084e-06;4.61969645119504e-06;0.00015187508590175602;0.00012259657597999375;0.0001809193472832808;-2.5854489693073655e-12;2.220446049250313e-16;4.60922595656911e-05;-4.609225956546905e-05;1.576495260499449e-11;0.001229165077233465
0.7399072647094727;-9.97150605261449e-05;-4.8957471034832164e-05;-4.659027469574324e-06;0.000387188745881189;-0.000498105774773549;-1.2285466111053924e-05;2.220446049250313e-16;2.220446049250313e-16;-6.648664704761892e-05;2.220446049250313e-16;2.220446049250313e-16;7.49317432759985e-06;2.220446049250313e-16;-1.9480006520032108e-11;0.00011265651341662914;2.220446049250313e-16;2.220446049250313e-16;2.220446049250313e-16;9.554098789831093e-06;9.554098789609047e-06;8.62561744609848e-08;1.123456846663054e-05;0.00012816099728663442;-5.515830009207048e-06;2.747965573602604e-06;-7.993657752329527e-06;7.993657752107483e-06;0.0008046007749209817;9.985567736430475e-05;0.0007480618271768282;-2.1058643445569078e-12;2.220446049250313e-16;-9.428080743184526e-05;9.428080743206729e-05;1.284065242772179e-11;0.0010011626376883896
0.7599508762359619;-1.098201941425846e-05;-6.123694779147908e-05;1.5036582521785836e-05;-4.048537310055958e-05;-0.00040066181236091776;9.281360502147668e-05;2.220446049250313e-16;2.220446049250313e-16;-5.415378956182964e-05;2.220446049250313e-16;2.220446049250313e-16;6.1032373221696225e-06;2.220446049250313e-16;-1.5866587060606903e-11;9.175943428105328e-05;2.220446049250313e-16;2.220446049250313e-16;2.220446049250313e-16;7.781873177455454e-06;7.781873177233411e-06;7.025619319956249e-08;9.150626232123488e-06;0.00010438793329619677;-4.492678016436699e-06;2.2382351344841558e-06;-6.510884199653944e-06;6.5108841994318985e-06;0.0008071407839578008;8.133307331120974e-05;0.0007402875071898184;-1.7152396702937546e-12;2.220446049250313e-16;7.573842403078436e-05;-7.573842403056232e-05;1.045879165645707e-11;0.0008154532256636787
0.7799293994903564;7.229083953226242e-05;-7.215250826054973e-05;3.36010875675709e-05;-0.0005150687054609724;-0.0003030936468150026;0.00020548765379735492;2.220446049250313e-16;2.220446049250313e-16;-4.4108600059295e-05;2.220446049250313e-16;2.220446049250313e-16;4.9711249441404215e-06;2.220446049250313e-16;-1.2923434327033446e-11;7.473863271838214e-05;2.220446049250313e-16;2.220446049250313e-16;2.220446049250313e-16;6.33838433976542e-06;6.338384339543374e-06;5.722410846225113e-08;7.4532422574785325e-06;8.502462409433535e-05;-3.659314323625294e-06;1.8230565060069348e-06;-9.768735048687294e-06;9.76873504846525e-06;0.0006574212131635284;6.624629654368852e-05;0.0007309950308493288;-1.397073431702202e-12;2.220446049250313e-16;6.168941973824463e-05;-6.168941973802259e-05;8.518751171632135e-12;0.0006641917488857266
0.7999162673950195;0.00014842800121457432;-7.85512147717214e-05;5.092496637819678e-05;-0.0010444717947528247;-0.00020589969025576585;0.0003229857751425457;2.220446049250313e-16;2.220446049250313e-16;-3.592673042704614e-05;2.220446049250313e-16;2.220446049250313e-16;4.049012336533274e-06;2.220446049250313e-16;-1.0526218030833283e-11;6.087508346557673e-05;2.220446049250313e-16;2.220446049250313e-16;2.220446049250313e-16;5.162653659661652e-06;5.162653659439606e-06;4.6609393993181415e-08;6.0707124014803724e-06;6.925308772873673e-05;-2.980534387307324e-06;1.4848909182458103e-06;-7.956695751770448e-06;7.956695751548403e-06;0.000535473687004276;5.395802257418769e-05;0.000595400021345721;-1.1379250418303912e-12;2.220446049250313e-16;5.024641793569421e-05;-5.0246417935472166e-05;6.9385760714891945e-12;0.0005409883306658547
0.8199203014373779;0.00021452374592924816;-7.80796257778342e-05;6.65545376930992e-05;-0.0016344912879948143;-0.00011084209915502351;0.0004432147737391026;2.220446049250313e-16;2.220446049250313e-16;-2.926254647489424e-05;2.220446049250313e-16;2.220446049250313e-16;3.297945854433453e-06;2.220446049250313e-16;-8.5736703749764e-12;4.95831359519839e-05;2.220446049250313e-16;2.220446049250313e-16;2.220446049250313e-16;4.2050136724003815e-06;4.205013672178336e-06;3.796364271615872e-08;4.9446331929582714e-06;5.640707278685435e-05;-2.427663886801735e-06;1.2094529334794514e-06;-6.48077841918607e-06;6.480778418964025e-06;0.00043614666477552645;4.394914662431695e-05;0.0004849570386362231;-9.26847058602365e-13;2.220446049250313e-16;-9.548991821237337e-05;9.548991821259543e-05;0.001657467208991568;0.00044063837650440516
0.8399143218994141;0.0002675564777584942;-7.001880951556204e-05;7.98414181790005e-05;-0.0022911023633628447;-1.9338443190513094e-05;0.0005663667328612493;2.220446049250313e-16;2.220446049250313e-16;-2.3834526994716826e-05;2.220446049250313e-16;2.220446049250313e-16;2.6861975105976367e-06;2.220446049250313e-16;-6.98330810585812e-12;4.038577412749058e-05;2.220446049250313e-16;2.220446049250313e-16;2.220446049250313e-16;3.4250099175261562e-06;3.425009917304111e-06;3.092162426507825e-08;4.027434639621968e-06;4.594391332909777e-05;-1.9773474086993063e-06;9.851069733998473e-07;-5.278634527312767e-06;5.2786345270907225e-06;0.00035524418437632107;3.5796854607672546e-05;0.0003950005389506952;-7.549227220257426e-13;2.220446049250313e-16;3.012140500304013e-05;-3.0121405002818085e-05;0.0013500174008936885;0.0021942536637239926
0.8599615097045898;0.00030585241053434503;-5.300008665670744e-05;9.044275833403629e-05;-0.003022874997769407;6.949625713386956e-05;0.0006922790172139492;2.220446049250313e-16;2.220446049250313e-16;0.0004746393256315457;2.220446049250313e-16;2.220446049250313e-16;2.1879246611162157e-06;2.220446049250313e-16;-5.687948097897098e-12;3.289446543792937e-05;2.220446049250313e-16;2.220446049250313e-16;2.220446049250313e-16;2.789691984157632e-06;2.7896919839355873e-06;2.518585622405788e-08;3.2803706854385897e-06;3.7421604556008444e-05;-1.6105618228068883e-06;8.023757867527593e-07;4.222406291801844e-05;-4.222406291824048e-05;0.0002893486084506658;2.9156761808290584e-05;0.0003217304077287096;-6.148892753569798e-13;2.220446049250313e-16;6.222143915979238e-05;-6.222143915957032e-05;0.0010995976106366644;0.0017872333231885899
0.8799035549163818;0.00032890502822703794;-2.5309024788434107e-05;9.827914187140576e-05;-0.0038276556680588783;0.00015706924279803672;0.0008181421739217912;2.220446049250313e-16;2.220446049250313e-16;0.00041215439012593397;2.220446049250313e-16;2.220446049250313e-16;1.7820783110082897e-06;2.220446049250313e-16;-4.6328692754127985e-12;2.6792747689602452e-05;2.220446049250313e-16;2.220446049250313e-16;2.220446049250313e-16;2.2722215566918856e-06;2.2722215564698414e-06;2.0514037306096544e-08;2.6718824256065157e-06;3.0480130795897333e-05;-1.311812670687603e-06;6.535400931587895e-07;-3.328230731204573e-06;3.3282307309825286e-06;0.0002356762500118701;2.374836472261397e-05;0.00026205142791008217;-5.00831157836231e-13;2.220446049250313e-16;5.067975107966623e-05;-5.067975107944418e-05;0.0008956291263486295;0.0014557127119453762
0.8999412059783936;0.0003366200727521754;1.3908274192505858e-05;0.00010331125059096412;-0.004712894132964629;0.00024558580580188826;0.000944291882275123;2.220446049250313e-16;2.220446049250313e-16;0.00122686152327438;2.220446049250313e-16;2.220446049250313e-16;1.4515139223056956e-06;2.220446049250313e-16;-3.773500980256695e-12;2.182286044785425e-05;2.220446049250313e-16;2.220446049250313e-16;2.220446049250313e-16;1.8507386593308643e-06;1.8507386591088199e-06;1.6708811598548798e-08;2.1762649349216657e-06;2.4826257034075853e-05;-1.0684796191042442e-06;5.323124905034161e-07;-2.7108647320287887e-06;2.710864731806744e-06;0.0001919597786112308;1.9343191493848598e-05;0.00021344252585418641;-4.0793010825234655e-13;2.220446049250313e-16;-4.919581560619989e-05;4.919581560642193e-05;0.0007294955210929982;0.0011856871020839582
0.9201037883758545;0.0003292917358508184;6.4149173608456e-05;0.00010549414972644174;-0.005673706383763454;0.0003360046298209796;0.0010704284804676982;2.220446049250313e-16;2.220446049250313e-16;0.0018247369381345078;2.220446049250313e-16;2.220446049250313e-16;1.1822671616800032e-06;2.220446049250313e-16;-3.0735401328002036e-12;1.7774856227655085e-05;2.220446049250313e-16;2.220446049250313e-16;2.220446049250313e-16;1.5074382051622032e-06;1.5074382049401588e-06;1.3609431477090482e-08;1.7725813911495404e-06;2.022114151836124e-05;-8.702833277580259e-07;4.3357185046809796e-07;-2.148104821807352e-06;2.148104821585308e-06;0.00015635243942746372;1.5755150366686514e-05;0.00017385027132402135;-3.3226162273471275e-13;2.220446049250313e-16;-2.160047192493485e-05;2.1600471925156895e-05;0.0005941786612772539;0.000965749555191772
0.9401109218597412;0.0003083809767318568;0.00012335309497771323;0.00010505185025253662;-0.00668302285945069;0.00042576712981798526;0.0011939072984191708;2.220446049250313e-16;2.220446049250313e-16;0.00148625964071642;2.220446049250313e-16;2.220446049250313e-16;9.62963992358123e-07;2.220446049250313e-16;-2.5034176477915955e-12;1.4477731490276487e-05;2.220446049250313e-16;2.220446049250313e-16;2.220446049250313e-16;1.2278178396139904e-06;1.2278178393919458e-06;1.1084966997036927e-08;1.4437786217249947e-06;1.6470246148839718e-05;-7.088512097297106e-07;7.378152553606633e-06;-1.7496448030378185e-06;1.7496448028157739e-06;0.0001273500391164156;1.2832668443355956e-05;0.00014160213255761116;-2.706291683525656e-13;2.220446049250313e-16;6.067019318981039e-05;-6.0670193189588344e-05;0.000483962233226956;0.0007866090486384181
0.9599552154541016;0.0002765413755785986;0.00018956770831102758;0.00010251645232080007;-0.007718502228028638;0.0005131978248836151;0.0013129121440783582;2.220446049250313e-16;2.220446049250313e-16;0.0012105677664862784;2.220446049250313e-16;2.220446049250313e-16;7.843401903006432e-07;2.220446049250313e-16;-2.039049320486553e-12;1.1792202784652009e-05;2.220446049250313e-16;2.220446049250313e-16;2.220446049250313e-16;1.0000653042476863e-06;1.0000653040256421e-06;9.02877490013031e-09;1.1759667110113942e-06;1.3415118427268374e-05;-5.7736374064491e-07;6.009551368366062e-06;-1.4250966273749157e-06;1.4250966271528709e-06;0.00010372740279806497;1.0452288651291196e-05;0.00011533582198150275;-2.2042914905546681e-13;2.220446049250313e-16;4.941625154182859e-05;-4.9416251541606543e-05;0.0003941902637273133;0.0006406979864225454
0.9800946712493896;0.0002373345801868893;0.0002627966417062538;9.86737556673965e-05;-0.008778457662341504;0.0006013529093361252;0.001427137206799481;2.220446049250313e-16;2.220446049250313e-16;0.0009860150118516141;2.220446049250313e-16;2.220446049250313e-16;6.388499871260632e-07;2.220446049250313e-16;-1.6608184155945502e-12;9.604822869366463e-06;2.220446049250313e-16;2.220446049250313e-16;2.220446049250313e-16;-7.338632257015939e-05;-7.338632257038145e-05;7.3539935859992605e-09;9.57832235910724e-07;1.092669780350026e-05;-4.7026637527865803e-07;4.894817149230209e-06;-1.1607501098713834e-06;1.1607501096493388e-06;8.448661787529141e-05;8.513454433280747e-06;9.394174785282136e-05;-1.7954091958785933e-13;2.220446049250313e-16;-3.917152362931235e-06;3.9171523631532796e-06;0.00032107043349504494;0.0005218525143035783
0.9999830722808838;0.0001936758798679139;0.00033910507222999653;9.393209622244094e-05;-0.009804883100056287;0.0006857098567614992;0.0015302452561674566;2.220446049250313e-16;2.220446049250313e-16;0.0008031153897469634;2.220446049250313e-16;2.220446049250313e-16;5.203473073265978e-07;2.220446049250313e-16;-1.3527469796168582e-12;7.823188257241916e-06;2.220446049250313e-16;2.220446049250313e-16;2.220446049250313e-16;-5.977361839789028e-05;-5.977361839811233e-05;5.98987373825631e-09;7.801603426007591e-07;8.899863652812233e-06;-3.830349018293123e-07;3.986859160655188e-06;-9.454382191990221e-07;9.454382189769778e-07;6.881487830078655e-05;6.934261844997375e-06;7.651614076204706e-05;-1.4623720113505878e-13;2.220446049250313e-16;-0.0001236599347486142;0.00012365993474883623;0.0002615138747719234;-0.014731218075381887
1.020066738128662;0.00014225362780243103;0.0004185269139133137;8.767548317901641e-05;-0.010791746157584225;0.0007607866059155054;0.0016209399755285135;2.220446049250313e-16;2.220446049250313e-16;0.0006541425044200874;2.220446049250313e-16;2.220446049250313e-16;4.238261339881846e-07;2.220446049250313e-16;-1.1018208695665536e-12;6.372035730450147e-06;2.220446049250313e-16;2.220446049250313e-16;2.220446049250313e-16;-4.868598577017602e-05;-4.868598577039806e-05;4.878789596520627e-09;6.354454750504593e-07;7.2489945693633895e-06;-3.1198432150811126e-07;3.247321704223403e-06;-7.700653385470671e-07;7.700653383250227e-07;5.605014846898e-05;5.647999611886893e-06;6.232287487656707e-05;-1.1911111430701244e-13;2.220446049250313e-16;5.6089578064164696e-05;-5.6089578063942665e-05;0.00021300468546344887;0.00231206413174231
1.0401182174682617;8.208041359247415e-05;0.0004989376681729908;7.962933330713587e-05;-0.011706467851283061;0.000820496845056136;0.0016955248052609232;2.220446049250313e-16;2.220446049250313e-16;0.0005328031582408137;2.220446049250313e-16;2.220446049250313e-16;3.4520903504671376e-07;2.220446049250313e-16;-8.974399846423926e-13;5.19006292767496e-06;2.220446049250313e-16;2.220446049250313e-16;2.220446049250313e-16;-3.965503969719884e-05;-3.965503969742088e-05;3.973804618801028e-09;5.175743109628179e-07;5.904351382962539e-06;-2.54113179770366e-07;2.6449638238506128e-06;7.347904171018704e-07;-7.347904173239151e-07;4.565319624141214e-05;4.600330983879448e-06;5.0762371104931845e-05;-9.701674704752603e-14;2.220446049250313e-16;4.568531189314564e-05;-4.568531189292359e-05;0.00017349364758926326;0.0018831906857049343
1.060133695602417;1.4321847169575092e-05;0.000579139459493023;6.997311409317083e-05;-0.012535370308954847;0.0008641739011656368;0.0017528867967904795;2.220446049250313e-16;2.220446049250313e-16;0.0004339715024068816;2.220446049250313e-16;2.220446049250313e-16;2.811749166020173e-07;2.220446049250313e-16;-7.309704764911325e-13;4.227338692484552e-06;2.220446049250313e-16;2.220446049250313e-16;2.220446049250313e-16;-3.229927767734596e-05;-3.2299277677568e-05;3.236688698292305e-09;4.215675111186587e-07;4.8091311036191295e-06;-2.0697677313033668e-07;2.154339565550223e-06;5.984913871489865e-07;-5.984913873710311e-07;3.7184813671106704e-05;3.74699833843846e-06;4.1346268529786386e-05;-7.902074682487899e-14;2.220446049250313e-16;-7.049412553676558e-06;7.049412553898602e-06;0.00014131166029675234;0.0015338705834484546
1.079972505569458;-5.801278027541527e-05;0.0006579892201641602;5.92611478347286e-05;-0.013263054700339592;0.000893300889394892;0.0017915017174317085;2.220446049250313e-16;2.220446049250313e-16;0.00035347250103229505;2.220446049250313e-16;2.220446049250313e-16;2.290187269155718e-07;2.220446049250313e-16;-5.953800216675053e-13;3.443193785895495e-06;2.220446049250313e-16;2.220446049250313e-16;2.220446049250313e-16;-9.279013927263036e-05;-9.27901392728524e-05;2.636303174063446e-09;3.4336937260309194e-07;3.9170673409671785e-06;-1.6858387531949124e-07;1.7547230407629417e-06;4.874749753834251e-07;-4.874749756054697e-07;3.0287263140201838e-05;3.05195356539774e-06;3.3676794131689316e-05;-6.436289216853157e-14;2.220446049250313e-16;-0.00021606980314044786;0.00021606980314066988;0.00011509923050958159;0.0012493471769099128
1.0999338626861572;-0.0001336335579182507;0.0007346883002244337;4.7650154387155796e-05;-0.013894678225801012;0.0009104905076499252;0.0018135310851224282;2.220446049250313e-16;2.220446049250313e-16;0.00028790556129393573;2.220446049250313e-16;2.220446049250313e-16;1.8653718443977639e-07;2.220446049250313e-16;-4.849407487733185e-13;-0.00022961183302084513;2.220446049250313e-16;2.220446049250313e-16;2.220446049250313e-16;3.09806606603764e-06;-0.00015425436281807419;2.147285412169515e-09;2.7967650004379715e-07;3.1904758308886477e-06;-1.3731262009694637e-07;1.4292328837204203e-06;-5.286188110156724e-06;5.286188109934678e-06;2.4669165123089027e-05;2.4858352537262434e-06;2.7429959300224263e-05;-5.2423977939345005e-14;2.220446049250313e-16;5.687931298684098e-05;-5.687931298661893e-05;9.374904262024488e-05;0.0010176010840129792
1.119966745376587;-0.0002103167255600652;0.0008063864795936737;3.534990004202615e-05;-0.014428133720536597;0.0009180747884046816;0.0018224926851816378;2.220446049250313e-16;2.220446049250313e-16;0.00023450087908366874;2.220446049250313e-16;2.220446049250313e-16;1.5193570258360061e-07;2.220446049250313e-16;-3.9498727075554777e-13;-0.0004267270030568708;2.220446049250313e-16;2.220446049250313e-16;2.220446049250313e-16;2.523394173700573e-06;-0.00012564114260508905;1.7489773887458954e-09;2.27798257263798e-07;2.5986625047327463e-06;-1.118419872728384e-07;-8.911684412019341e-05;-4.305633254418933e-06;4.305633254196888e-06;2.0093189175038026e-05;2.0247283506303602e-06;2.2341873287278285e-05;-4.269965768145861e-14;2.220446049250313e-16;4.6328555923508725e-05;-4.632855592328669e-05;7.635918114570581e-05;0.0008288424429353468
1.139972448348999;-0.00028475057591538825;0.0008715335579851779;2.290073373408122e-05;-0.01486541239808269;0.0009201541381853453;0.0018209523345017718;2.220446049250313e-16;2.220446049250313e-16;0.0001910024316441424;2.220446049250313e-16;2.220446049250313e-16;1.237525793524838e-07;2.220446049250313e-16;-3.217196007008357e-13;-0.00034757181103359035;2.220446049250313e-16;2.220446049250313e-16;2.220446049250313e-16;-7.289682093922701e-05;-0.00017728763717390604;1.424553014242211e-09;1.8554310428047137e-07;2.1166268517454757e-06;-9.109599764614732e-08;3.417389864472861e-06;-3.5069651959526543e-06;3.5069651957306092e-06;1.6366028165500814e-05;1.6491538961406196e-06;1.8197595429196202e-05;-3.477913805440854e-14;2.220446049250313e-16;3.773489835319297e-05;-3.7734898352970926e-05;6.219503028805953e-05;0.0006750973500361081
1.1601145267486572;-0.0003545897054380889;0.0009314146006346573;1.0853040538409083e-05;-0.015215021744183948;0.0009209904305715089;0.0018088846833339664;2.220446049250313e-16;2.220446049250313e-16;0.00015557267433935175;2.220446049250313e-16;2.220446049250313e-16;1.00797249336219e-07;2.220446049250313e-16;-2.6204262551833504e-13;-0.00028309941241067823;2.220446049250313e-16;2.220446049250313e-16;2.220446049250313e-16;-5.937491626013126e-05;-0.00014440188852587874;1.1603073335566196e-09;1.5112601808084565e-07;1.7240057996645131e-06;-7.419825943277228e-08;2.783485403299798e-06;-2.856445070656505e-06;2.8564450704344602e-06;1.3330232228476445e-05;1.343246155618385e-06;1.4822055212051737e-05;-2.8327825314928588e-14;2.220446049250313e-16;-0.00022109816624166464;0.00022109816624188663;5.0658240888563784e-05;0.0005498710109628477
1.179957389831543;-0.00041648326809162436;0.0009864528398059124;-1.4393977859820484e-08;-0.015473904953947747;0.0009233049041953857;0.0017851129410442024;2.220446049250313e-16;2.220446049250313e-16;0.00012671491557861658;2.220446049250313e-16;2.220446049250313e-16;8.209998956715872e-08;2.220446049250313e-16;-2.1343535625109334e-13;-0.00023058624077982492;2.220446049250313e-16;2.220446049250313e-16;2.220446049250313e-16;-4.836124038710352e-05;-0.00011761624071613147;9.450775751027014e-10;1.2309308626446181e-07;1.4042134988629937e-06;-6.043494604711446e-08;2.267166257771456e-06;-1.1766084531927948e-06;1.1766084529707502e-06;1.0857557464045489e-05;1.094082389039647e-06;1.2072656608061216e-05;-2.307319076791755e-14;2.220446049250313e-16;6.510024347164035e-05;-6.51002434714183e-05;4.126145381774075e-05;0.0004478733751230579
1.2001912593841553;-0.0004715180942164698;0.0010394880500750588;-9.781480500634917e-06;-0.015652094399666756;0.0009285536089516705;0.0017477528896824295;2.220446049250313e-16;2.220446049250313e-16;0.00010321009070700554;2.220446049250313e-16;2.220446049250313e-16;6.687095462738555e-08;2.220446049250313e-16;-1.7384443163749204e-13;-0.00018781393427917223;2.220446049250313e-16;2.220446049250313e-16;2.220446049250313e-16;-3.939053255304823e-05;-9.579916316479356e-05;7.697715916559946e-10;1.0026008809419328e-07;1.143740671158276e-06;-4.9224641273787525e-08;1.8466210867439618e-06;-9.583549389489577e-07;9.583549387269131e-07;8.843548414199198e-06;8.911369438877239e-07;9.833254261369658e-06;-1.8793258087911144e-14;2.220446049250313e-16;5.302455518419334e-05;-5.30245551839713e-05;3.3607712018636195e-05;0.00036479566324632506
1.2200744152069092;-0.0005170761373075042;0.0010893559844922505;-1.7891977140146095e-05;-0.015745368992062466;0.0009373467877917498;0.001697574429162466;2.220446049250313e-16;2.220446049250313e-16;8.406526394392293e-05;2.220446049250313e-16;2.220446049250313e-16;5.446681048747194e-08;2.220446049250313e-16;-1.4159737609643502e-13;-0.00015297562330747502;2.220446049250313e-16;2.220446049250313e-16;2.220446049250313e-16;-3.2083834955286244e-05;-7.80290171424941e-05;6.269837724762552e-10;8.1662468378271e-08;9.315839250376104e-07;-4.009377797150788e-08;1.5040844165347488e-06;-7.805860875128882e-07;7.805860872908438e-07;7.203125455542836e-06;7.258366104024503e-07;8.00924705372472e-06;-1.5307226170466667e-14;2.220446049250313e-16;4.3188831601015975e-05;-4.3188831600793924e-05;2.7373691487379292e-05;0.00029712834768702703
1.2399358749389648;-0.0005541278069988924;0.0011371988932597091;-2.4476142909686263e-05;-0.015760751048502084;0.0009497237298269306;0.0016344236799478262;2.220446049250313e-16;2.220446049250313e-16;6.847168289022487e-05;2.220446049250313e-16;2.220446049250313e-16;4.4363557559611435e-08;2.220446049250313e-16;-1.153319478141469e-13;-0.00012459960128158404;2.220446049250313e-16;2.220446049250313e-16;2.220446049250313e-16;-9.416724207587308e-05;-0.00013158988012474258;5.106822013304878e-10;6.651459088452906e-08;7.587809293426652e-07;-3.265663274390549e-08;1.225086157795156e-06;-6.357922469628885e-07;6.357922467408439e-07;5.8669907030737365e-06;5.911984556516106e-07;6.523581783052869e-06;-1.2467831386008664e-14;2.220446049250313e-16;-0.00018325774750815125;0.0001832577475083733;2.229604280204223e-05;0.0002420128962432565
1.2599515914916992;-0.0005841689524102911;0.001182141805604053;-2.9906620084250902e-05;-0.015698727981694156;0.0009637882531091818;0.0015595986479208554;2.220446049250313e-16;2.220446049250313e-16;5.57706136621062e-05;2.220446049250313e-16;2.220446049250313e-16;3.613439490453824e-08;2.220446049250313e-16;-9.393859231929645e-14;-0.0001014871539913582;2.220446049250313e-16;2.220446049250313e-16;2.220446049250313e-16;-0.0001525694554996817;-0.00018305042808197363;4.1595384474744057e-10;5.417654999164194e-08;6.18031809330409e-07;-2.6599031473865663e-08;9.978403323126405e-07;4.4642450240548766e-05;-4.464245024077081e-05;4.778700596345451e-06;4.815348371185847e-07;5.3134981346827046e-06;-1.0155126587850218e-14;2.220446049250313e-16;6.239866724548675e-05;-6.239866724526472e-05;1.8160266212530904e-05;0.0001971210165707339
1.2799217700958252;-0.0006091249841514786;0.0012225073063159761;-3.463184591578062e-05;-0.015559526028843165;0.0009756990841848162;0.001475453061617351;2.220446049250313e-16;2.220446049250313e-16;4.542551339412088e-05;2.220446049250313e-16;2.220446049250313e-16;2.9431690489714546e-08;2.220446049250313e-16;-7.651357056026893e-14;-8.266192122067368e-05;2.220446049250313e-16;2.220446049250313e-16;2.220446049250313e-16;-0.00012426877506358758;-0.00014909571773794302;3.3879700625831987e-10;4.4127138571629806e-08;5.033907713984263e-07;-2.166507737941029e-08;8.127471871707225e-07;-1.6602677994505726e-06;1.6602677992285278e-06;3.8922815026020964e-06;3.922131344258192e-07;4.3278774400624035e-06;-8.271414075345175e-15;2.220446049250313e-16;5.082410446313983e-05;-5.0824104462917795e-05;1.4791650331770248e-05;-0.015584924153644781
1.2999703884124756;-0.000631764611889145;0.001257091567384254;-3.926410382805067e-05;-0.015342762985222967;0.0009811240045360966;0.0013835597469551238;2.220446049250313e-16;2.220446049250313e-16;3.699936456897017e-05;2.220446049250313e-16;2.220446049250313e-16;2.397229585193805e-08;2.220446049250313e-16;-6.232078143115503e-14;-6.732865147124632e-05;2.220446049250313e-16;2.220446049250313e-16;2.220446049250313e-16;-0.0001751429994049367;-0.00019536469938159093;2.759522790786906e-10;3.594183016120853e-08;4.100149294963393e-07;-1.76463409322633e-08;6.619876636204731e-07;-1.3522984993468315e-06;1.352298499124787e-06;3.1702876106287984e-06;3.1946004932191984e-07;3.5250832241648284e-06;-6.737118460706614e-15;2.220446049250313e-16;4.139655073590088e-05;-4.139655073567883e-05;-0.01570289352461019;0.0019846292928126703
1.32008695602417;-0.000654381520011758;0.0012843505259520895;-4.430944696899343e-05;-0.015047400367326135;0.0009755672657563764;0.001285830920280378;2.220446049250313e-16;2.220446049250313e-16;3.013621368745475e-05;2.220446049250313e-16;2.220446049250313e-16;1.9525584798252613e-08;2.220446049250313e-16;-5.076066598055971e-14;-5.4839607427401816e-05;2.220446049250313e-16;2.220446049250313e-16;2.220446049250313e-16;-0.001065188753734585;-0.0010816594547511948;2.247648560113377e-10;2.9274845302742856e-08;3.339597226680777e-07;-1.437305497895928e-08;2.694118145191911e-06;-1.5414802121443566e-06;1.5414802119223118e-06;2.5822190731547217e-06;2.60202206798012e-07;2.871202317852403e-06;-5.4874250932359155e-15;2.220446049250313e-16;-0.00013958014279698272;0.00013958014279720477;0.0015832620851007498;0.0016164929629289993
1.3399085998535156;-0.0006778171914367433;0.0013029969502793349;-4.990084041432038e-05;-0.014679424937245417;0.0009559755450629983;0.001185257781005795;2.220446049250313e-16;2.220446049250313e-16;2.454613439976744e-05;2.220446049250313e-16;2.220446049250313e-16;1.5903710853081743e-08;2.220446049250313e-16;-4.134487969532826e-14;-4.466720299716519e-05;2.220446049250313e-16;2.220446049250313e-16;2.220446049250313e-16;-0.0008676028973465304;-0.0008810183862664403;1.830723800015846e-10;2.38445444668672e-08;2.720122813614159e-07;-1.1706943111955953e-08;2.1943760674972183e-06;-1.255545267063498e-06;1.2555452668414535e-06;2.103233573953728e-06;2.1193632370077318e-07;2.3386122329052684e-06;-4.469542034847486e-15;2.220446049250313e-16;6.189102635314759e-05;-6.189102635292555e-05;0.0012895768637025925;0.0013166436213866881
1.360060453414917;-0.00070318131424227;0.0013120700381433338;-5.6301397721411295e-05;-0.014227046787008231;0.0009191409052946317;0.0010807663288604306;2.220446049250313e-16;2.220446049250313e-16;1.9992979881950575e-05;2.220446049250313e-16;2.220446049250313e-16;1.2953671888027908e-08;2.220446049250313e-16;-3.3675662917342965e-14;-3.638171601120977e-05;2.220446049250313e-16;2.220446049250313e-16;2.220446049250313e-16;-0.0007066679824068573;-0.0007175949819789295;1.4911359771366563e-10;1.9421530496666245e-08;2.2155570324563173e-07;-9.53537833308257e-09;1.7873330218269058e-06;-6.3792819938909815e-06;6.379281993668938e-06;1.7130968911951481e-06;1.7262346025630282e-07;1.9048142800277957e-06;-3.6404699220209936e-15;2.220446049250313e-16;5.041062778357401e-05;-5.041062778335196e-05;0.0010503684153411596;-0.012283858874492336
1.3799452781677246;-0.0007272300727464675;0.001310632052193634;-6.27464229528757e-05;-0.013702493811342423;0.0008668741988561765;0.0009761411449558505;2.220446049250313e-16;2.220446049250313e-16;1.6284407069973004e-05;2.220446049250313e-16;2.220446049250313e-16;1.0550846713248029e-08;2.220446049250313e-16;-2.742903791906907e-14;-2.9633135076855424e-05;2.220446049250313e-16;2.220446049250313e-16;2.220446049250313e-16;-0.0006515842588485928;-0.0006604843682937932;1.2145395729776634e-10;1.5818957974100254e-08;1.8045850501671227e-07;-7.766625248410334e-09;1.455793917109401e-06;-5.19596505455726e-06;5.195965054335215e-06;1.395328124734018e-06;1.4060288727538525e-07;1.55148313617189e-06;-2.9651855044231107e-15;2.220446049250313e-16;4.105977139616527e-05;-4.105977139594321e-05;0.0008555316390979702;0.0034756789541724037
1.3999366760253906;-0.0007452997592903568;0.0012990662090634347;-6.815295448198526e-05;-0.013094468682241543;0.000802026313485971;0.0008685667824422746;2.220446049250313e-16;2.220446049250313e-16;-0.00048232836198139383;2.220446049250313e-16;2.220446049250313e-16;8.593730590732478e-09;2.220446049250313e-16;-2.2341122816568745e-14;-2.413637372719297e-05;2.220446049250313e-16;2.220446049250313e-16;2.220446049250313e-16;-0.00045960577008179334;-0.000609082327154599;9.892500730626378e-11;1.2884640138391992e-08;1.4698458020176844e-07;-6.325964806238018e-09;1.1857532441975886e-06;-4.2321460117390725e-06;4.232146011517028e-06;1.1365034783966371e-06;1.1452193045384672e-07;1.2636927111816051e-06;-2.4151621257620266e-15;2.220446049250313e-16;-9.812582317319141e-05;9.812582317341344e-05;0.0006968358671180409;0.002830962231166886
1.419914722442627;-0.000752806138271762;0.00127681059891837;-7.150657389605296e-05;-0.012404113541994662;0.000727975334240207;0.000759054894312037;2.220446049250313e-16;2.220446049250313e-16;-0.0019316038438724824;2.220446049250313e-16;2.220446049250313e-16;6.9996472769677935e-09;2.220446049250313e-16;-1.819698416611284e-14;-1.965922725313446e-05;2.220446049250313e-16;2.220446049250313e-16;2.220446049250313e-16;-0.0003743517722676837;-0.0004961013622319658;8.05750367322475e-11;1.049461992172114e-08;1.197198592279667e-07;-5.152537871960904e-09;9.65803428356712e-07;-3.447109377494641e-06;3.447109377272596e-06;9.256891863008007e-07;9.327882811672348e-08;1.0292856113368623e-06;-1.967164646196456e-15;2.220446049250313e-16;7.196025943583227e-05;-7.196025943561024e-05;0.0005675771689918138;0.002305836430799373
1.440075397491455;-0.0007502146682532942;0.0012428689002096725;-7.29927120049516e-05;-0.011624279234665497;0.000643594473458151;0.0006475217854139592;2.220446049250313e-16;2.220446049250313e-16;-0.0017760750347753226;2.220446049250313e-16;2.220446049250313e-16;5.701256454885748e-09;2.220446049250313e-16;-1.4821557334449945e-14;-1.601256346784835e-05;2.220446049250313e-16;2.220446049250313e-16;2.220446049250313e-16;-0.000304911858210605;-0.00040407766017144987;6.562887101239516e-11;8.547933517616378e-09;9.751257359029903e-08;-4.1967743000738535e-09;7.86652928667969e-07;-6.008682919224732e-06;6.008682919002688e-06;7.539796277994166e-07;7.597618849374699e-08;8.383595634689448e-07;-1.6022678991060513e-15;2.220446049250313e-16;5.8612081062127457e-05;-5.8612081061905405e-05;0.0004622951515011384;0.001878118184363782
1.4600448608398438;-0.0007411876546717873;0.0011974721177244654;-7.349700728385062e-05;-0.010776615362492694;0.0005492468442818073;0.0005380321165062731;2.220446049250313e-16;2.220446049250313e-16;-0.0014466242162934676;2.220446049250313e-16;2.220446049250313e-16;4.643709015357284e-09;2.220446049250313e-16;-1.2072251083642823e-14;-1.3042333023084152e-05;2.220446049250313e-16;2.220446049250313e-16;2.220446049250313e-16;-0.0002483526142116516;-0.000329123779695022;5.345512562003967e-11;6.962345274683024e-09;7.942460064288346e-08;-3.4182988972495286e-09;6.407337269808647e-07;-4.894109791997381e-06;4.8941097917753374e-06;6.141211192152982e-07;6.1883080379335e-08;6.828491041927271e-07;-1.3050572179962484e-15;2.220446049250313e-16;4.773990635063002e-05;-4.773990635040798e-05;0.000376542290242374;0.0015297389994029526
1.4799413681030273;-0.0007275566174592543;0.0011403010983521869;-7.357350426827019e-05;-0.009870452537181428;0.0004462512163865537;0.00043290862614517105;2.220446049250313e-16;2.220446049250313e-16;-0.0011782844655723811;2.220446049250313e-16;2.220446049250313e-16;3.782330016189853e-09;2.220446049250313e-16;-9.83292395919635e-15;-1.0623061761883434e-05;2.220446049250313e-16;2.220446049250313e-16;2.220446049250313e-16;-0.00020228475647922893;-0.0002680733755852184;4.353953391205742e-11;5.670873740887289e-09;6.469183362738257e-08;-2.784225816177849e-09;5.218816252117077e-07;-3.976649889620183e-06;3.9766498893981396e-06;5.002054898578556e-07;5.040415573822072e-08;5.561848631718774e-07;-1.0629772606655567e-15;2.220446049250313e-16;-9.68609661538802e-05;9.686096615410224e-05;0.00030669604879172757;0.001245981975882451
1.4999256134033203;-0.0007109254338470873;0.0010702916544149384;-7.374830308967365e-05;-0.008905819036212185;0.0003345513894353315;0.00033361438460517245;2.220446049250313e-16;2.220446049250313e-16;-0.0009597200614866137;2.220446049250313e-16;2.220446049250313e-16;3.080731437749235e-09;2.220446049250313e-16;-8.008978020540168e-15;-8.652550199190068e-06;2.220446049250313e-16;2.220446049250313e-16;2.220446049250313e-16;-0.00016476219843205992;-0.0002183474398727577;3.546322249345772e-11;4.618962104913576e-09;5.269190281346328e-08;-2.267769328688209e-09;4.2507584549509347e-07;-3.239006189178044e-06;3.2390061889559985e-06;4.0742049777353493e-07;4.1054499874754134e-08;4.5301604720888883e-07;-8.65801622419975e-16;2.220446049250313e-16;2.5026361448033708e-05;-2.5026361447811664e-05;0.000249805848591167;0.0010148601067436053
1.5202159881591797;-0.0006938950549322506;0.0009844315487238713;-7.486956858456051e-05;-0.00787269342654463;0.00021110614161640648;0.0002422592392318998;2.220446049250313e-16;2.220446049250313e-16;-0.0007816979883312311;2.220446049250313e-16;2.220446049250313e-16;2.5092750106182382e-09;2.220446049250313e-16;-6.523362653842595e-15;-7.047556215679053e-06;2.220446049250313e-16;2.220446049250313e-16;2.220446049250313e-16;-0.00013419984038665295;-0.00017784535444786035;2.888501636606189e-11;3.762173502965263e-09;4.2917884165958415e-08;-1.84711229177485e-09;1.1636679807592446e-05;-2.6381907848947917e-06;2.6381907846727475e-06;3.318465418146552e-07;3.3439146738611446e-08;3.689844018019349e-07;-7.052008327212097e-16;2.220446049250313e-16;5.970832463590844e-05;-5.970832463568639e-05;0.0002034684249640592;0.0008266098998183334
1.5399549007415771;-0.0006782732560580151;0.0008865145715260422;-7.718298854409627e-05;-0.0068217566230880326;8.196071799040916e-05;0.00016389543728697318;2.220446049250313e-16;2.220446049250313e-16;-0.0006366978971082146;2.220446049250313e-16;2.220446049250313e-16;2.0438201791173702e-09;2.220446049250313e-16;-5.31331965257138e-15;-5.740278584896936e-06;2.220446049250313e-16;2.220446049250313e-16;2.220446049250313e-16;-0.00010930660874393124;-0.0001448561527312475;2.352702636150969e-11;3.0643138317495995e-09;3.4956884889949165e-08;-1.5044845061024389e-09;9.47814843253284e-06;-2.1488228830098067e-06;2.1488228827877625e-06;2.7029108234892297e-07;2.7236394013266134e-08;3.0054010142018717e-07;-5.743904857566295e-16;2.220446049250313e-16;4.863280359299697e-05;-4.8632803592774935e-05;0.00016572630381088218;0.0006732789297139063
1.5600707530975342;-0.0006629164351419375;0.0007746083869211676;-8.055631490258139e-05;-0.005714633995682675;-5.616401336446707e-05;9.339403473978723e-05;2.220446049250313e-16;2.220446049250313e-16;-0.0005185944165564977;2.220446049250313e-16;2.220446049250313e-16;1.6647043097672171e-09;2.220446049250313e-16;-4.3277320652672174e-15;-4.675492784139708e-06;2.220446049250313e-16;2.220446049250313e-16;2.220446049250313e-16;-8.903091598823663e-05;-0.00011798624175055564;1.9162910015364406e-11;2.495902767921497e-09;2.847260122339416e-08;-1.225412033248599e-09;7.720011136725701e-06;-1.7502296683751003e-06;1.7502296681530555e-06;2.201537758924624e-07;2.2184213151267846e-08;2.4479179098237636e-07;-4.678446405893107e-16;2.220446049250313e-16;-4.811842564004769e-05;4.811842564026973e-05;0.00013498511024336233;0.0005483898962452872
1.5799119472503662;-0.0006467068553503659;0.0006552672217443112;-8.435667314898686e-05;-0.004600406679694334;-0.00019461080258970846;3.1680745102267105e-05;2.220446049250313e-16;2.220446049250313e-16;-0.0004223983935003707;2.220446049250313e-16;2.220446049250313e-16;1.3559120647073345e-09;2.220446049250313e-16;-3.524964815485555e-15;-3.8082180945116935e-06;2.220446049250313e-16;2.220446049250313e-16;2.220446049250313e-16;-7.251623751564366e-05;-9.61005313198385e-05;1.56083099757019e-11;2.032928403864358e-09;2.3191111650212184e-08;-9.981057599061914e-10;6.287997320932685e-06;-1.4979071956462714e-06;1.4979071954242261e-06;1.7931662642550987e-07;1.806918026303985e-08;1.9938444370383914e-07;-3.810623837889972e-16;2.220446049250313e-16;-2.2271366954237725e-05;2.227136695445977e-05;0.0001099462159501576;0.0004466669979286378
1.5998923778533936;-0.0006251913592932083;0.0005297280683182171;-8.756779426116283e-05;-0.0034773646017093322;-0.00032822276197861484;-2.3305221743508336e-05;2.220446049250313e-16;2.220446049250313e-16;-0.00034404613149601116;2.220446049250313e-16;2.220446049250313e-16;1.104398851154528e-09;2.220446049250313e-16;-2.871105873243081e-15;-3.101817439342864e-06;2.220446049250313e-16;2.220446049250313e-16;2.220446049250313e-16;-5.9064928682976205e-05;-7.827448338832919e-05;1.2713066027146544e-11;1.6558328907500434e-09;1.8889305383545637e-08;-8.129633796045923e-10;5.121613117882927e-06;-1.2200547727944542e-06;1.2200547725724094e-06;1.4605451295249294e-07;1.4717460256622604e-08;1.623998755495501e-07;-3.103776932360368e-16;2.220446049250313e-16;5.748799264006602e-05;-5.748799263984397e-05;8.955188005525303e-05;0.0003638130614816125
1.6200952529907227;-0.0005966584842379545;0.00039947880830522417;-8.973333580522444e-05;-0.002368675307613579;-0.0004524715073778489;-6.891273069892755e-05;2.220446049250313e-16;2.220446049250313e-16;-0.0002802277243918229;2.220446049250313e-16;2.220446049250313e-16;8.995397667581827e-10;2.220446049250313e-16;-2.3385336781681966e-15;-2.5264496907037587e-06;2.220446049250313e-16;2.220446049250313e-16;2.220446049250313e-16;-4.810875356808839e-05;-6.37550559353153e-05;1.0354871735773529e-11;1.3486862384714776e-09;1.5385457293056564e-08;-6.621637537090627e-10;4.171585894597631e-06;-9.93742237804007e-07;9.937422375819622e-07;1.1896231364051144e-07;1.1987463363145713e-08;1.3227571363433072e-07;-2.5280457100133468e-16;2.220446049250313e-16;4.682432930530836e-05;-4.682432930508631e-05;7.294056600425393e-05;0.00029632801240840763
1.6399421691894531;-0.0005623677336916953;0.0002695702174947724;-9.077983232582001e-05;-0.0013318014294919404;-0.0005617721223392019;-0.00010043016500973283;2.220446049250313e-16;2.220446049250313e-16;-0.0002282472329404172;2.220446049250313e-16;2.220446049250313e-16;7.326807621480818e-10;2.220446049250313e-16;-1.9047502967034848e-15;0.00021781402832207457;2.220446049250313e-16;2.220446049250313e-16;2.220446049250313e-16;-3.918488046091778e-05;-5.192889152841389e-05;8.434107746735885e-12;1.0985133705240087e-09;1.2531551124302653e-08;-5.393365159194921e-10;3.3977827835616106e-06;-8.094092636009438e-07;8.094092633788991e-07;9.68955479746568e-08;9.7638638309282e-09;1.0773939547837255e-07;2.220446049250313e-16;2.220446049250313e-16;-6.171025643445201e-06;6.171025643667247e-06;5.941054688900232e-05;0.00024136101815672555
1.6599390506744385;-0.0005204934509966166;0.00013789714816110307;-9.045295195537588e-05;-0.00036228805448411784;-0.0006554690967778193;-0.00011585990915222618;2.220446049250313e-16;2.220446049250313e-16;-0.00018590879777517563;2.220446049250313e-16;2.220446049250313e-16;5.967730600243759e-10;2.220446049250313e-16;-1.5514310213543425e-15;0.00041063634543983367;2.220446049250313e-16;2.220446049250313e-16;2.220446049250313e-16;-3.191633004092041e-05;-4.2296406705465146e-05;6.869633472889794e-12;8.947460060003708e-10;1.0207026712939034e-08;-4.392929630696508e-10;2.7675153133533285e-06;-5.549972568869384e-06;5.549972568647339e-06;7.89220294225328e-08;7.952728114439959e-09;8.775441098835617e-08;2.220446049250313e-16;2.220446049250313e-16;-0.00012280850969867928;0.00012280850969890132;4.839026175701044e-05;0.00019659005779501643
1.6799161434173584;-0.00047159795053007206;5.61309721156981e-06;-8.880106362905582e-05;0.0005136649577177969;-0.0007312702168700704;-0.00011146698070457368;2.220446049250313e-16;2.220446049250313e-16;-0.0001514238777178666;2.220446049250313e-16;2.220446049250313e-16;4.860753872214791e-10;2.220446049250313e-16;-1.2636502633369953e-15;0.00033446586983790336;2.220446049250313e-16;2.220446049250313e-16;2.220446049250313e-16;-2.5996050295392427e-05;-3.4450687614143274e-05;5.595359398877942e-12;7.287762140498394e-10;8.313687051605797e-09;-3.578068640012497e-10;2.254158519696994e-06;-4.52048734469326e-06;4.520487344471216e-06;6.428248622733685e-08;6.477546753762061e-09;7.147651621508476e-08;2.220446049250313e-16;2.220446049250313e-16;5.621899086696326e-05;-5.6218990866741226e-05;3.941417064022098e-05;0.00016012383076190206
1.7001700401306152;-0.00041681865732001776;-0.00012688015897668978;-8.596634597202758e-05;0.001293487542181143;-0.0007912678896392105;-8.727133766977427e-05;2.220446049250313e-16;2.220446049250313e-16;-0.00012333569480043805;2.220446049250313e-16;2.220446049250313e-16;3.9591144086306483e-10;2.220446049250313e-16;-1.0292510373021284e-15;0.00027242454139465876;2.220446049250313e-16;2.220446049250313e-16;2.220446049250313e-16;5.179490740205943e-05;-0.00010102915322148819;4.557455201382327e-12;5.935927811949318e-10;6.771550064076994e-09;-2.914359270219178e-10;1.836026202783949e-06;-8.391568100584295e-06;8.391568100362249e-06;5.2358486797704787e-08;5.2760023156064095e-09;5.821806918541287e-08;2.220446049250313e-16;2.220446049250313e-16;4.579071942985508e-05;-4.579071942963304e-05;3.210308832502648e-05;0.00013042186092951147
1.7199506759643555;-0.0003601116513716409;-0.0002489101279071443;-8.193728385043828e-05;0.0019390814179616558;-0.0008348941639060421;-5.0227295119464035e-05;2.220446049250313e-16;2.220446049250313e-16;-0.00010045769426304928;2.220446049250313e-16;2.220446049250313e-16;3.2247234302947166e-10;2.220446049250313e-16;-8.383314027015667e-16;0.0002218914916193333;2.220446049250313e-16;2.220446049250313e-16;2.220446049250313e-16;4.218727579714865e-05;-8.228887673110973e-05;3.7120757456209136e-12;4.834850302381543e-10;5.51546984937861e-09;-2.37376384033896e-10;4.103050627445418e-06;-6.83498466524713e-06;6.834984665025084e-06;4.264631473727302e-08;4.297336861075892e-09;4.741898121445118e-08;0.0001517559891301439;2.220446049250313e-16;-7.868447834584207e-06;7.868447834806253e-06;2.614816608503609e-05;0.00010622942086371789
1.7401010990142822;-0.00030009989908956236;-0.0003593906981492964;-7.621155999809312e-05;0.002471009525621119;-0.0008645916599307009;-5.995023893783544e-06;2.220446049250313e-16;2.220446049250313e-16;-8.182341983784277e-05;2.220446049250313e-16;2.220446049250313e-16;2.6265573884964855e-10;2.220446049250313e-16;-6.828261670716929e-16;0.00018073200674576954;2.220446049250313e-16;2.220446049250313e-16;2.220446049250313e-16;3.4361799807251304e-05;-6.702480440296843e-05;3.023508895281643e-12;3.9380157891041565e-10;4.492384664005436e-09;-1.933445483980084e-10;3.3419603801207143e-06;3.8450257266664867e-05;-3.845025726688691e-05;3.473568989297598e-08;3.5002077317016944e-09;3.862305656780307e-08;0.00012360620162143427;2.220446049250313e-16;-0.00021801215253242412;0.0002180121525326462;2.1297844702299928e-05;8.652452722737859e-05
1.7601122856140137;-0.00023817786672473995;-0.0004484058616198712;-6.831045580111101e-05;0.002870300370477311;-0.0008786356975886236;3.5623476609650313e-05;2.220446049250313e-16;2.220446049250313e-16;-6.664568685429692e-05;2.220446049250313e-16;2.220446049250313e-16;2.1393474089140654e-10;2.220446049250313e-16;-5.561661807434379e-16;0.0001472073490694714;2.220446049250313e-16;2.220446049250313e-16;2.220446049250313e-16;2.7987900704254963e-05;-5.4592122091245285e-05;2.462666892137493e-12;3.207538472824017e-10;3.659075386236577e-09;-1.5748034307360528e-10;2.7220476168606967e-06;-8.992160838114712e-06;8.992160837892668e-06;2.829243651589076e-08;2.850941073769353e-09;3.1458720968579145e-08;0.00010067802375941833;2.220446049250313e-16;6.392711664860188e-05;-6.392711664837984e-05;1.7347227621552678e-05;7.047476820499505e-05
1.780106782913208;-0.00017417503953565667;-0.0005103228363029573;-5.7720298099104154e-05;0.0031430180124339736;-0.0008772116333890749;6.564292343950491e-05;2.220446049250313e-16;2.220446049250313e-16;-5.428332847836767e-05;2.220446049250313e-16;2.220446049250313e-16;1.7425118354818116e-10;2.220446049250313e-16;-4.530008302541598e-16;0.00011990130586301611;2.220446049250313e-16;2.220446049250313e-16;2.220446049250313e-16;2.279632004799507e-05;-4.446562464408235e-05;2.005857575314064e-12;2.6125601332306157e-10;2.9803397713108555e-09;-1.282687236855957e-10;2.2171247967306422e-06;-7.324171203670264e-06;7.324171203448219e-06;2.304436636992124e-08;2.322109322966848e-09;2.5623324845913763e-08;8.200287958969469e-05;2.220446049250313e-16;5.206903605478586e-05;-5.206903605456382e-05;1.4129425317927288e-05;5.740213917026971e-05
1.7999484539031982;-0.00010943297667349568;-0.000543433438533205;-4.462660508753858e-05;0.003294670595667719;-0.0008613827897324548;8.059392631693754e-05;2.220446049250313e-16;2.220446049250313e-16;-4.4214110316433445e-05;2.220446049250313e-16;2.220446049250313e-16;1.4192867806989068e-10;2.220446049250313e-16;-3.6897200749720215e-16;9.766036300858826e-05;2.220446049250313e-16;2.220446049250313e-16;2.220446049250313e-16;1.856774515609228e-05;-3.621752918275909e-05;1.6337835317031503e-12;2.127946557017169e-10;2.427505370856262e-09;-1.044756771214407e-10;1.8058620039670879e-06;-5.965583221480046e-06;5.965583221258001e-06;1.8769780435590655e-08;1.891372556739766e-09;2.087035823277704e-08;6.679185794380375e-05;2.220446049250313e-16;-2.9358389900542005e-06;2.935838990276245e-06;1.1508505230360012e-05;4.6754401117554495e-05
1.8198895454406738;-4.463661238578469e-05;-0.0005493569408850127;-2.9330518539028534e-05;0.0033355451976874377;-0.0008325394543608597;8.062136454675318e-05;2.220446049250313e-16;2.220446049250313e-16;-3.601266919092451e-05;2.220446049250313e-16;2.220446049250313e-16;1.1560179534216391e-10;2.220446049250313e-16;-3.0053000618151787e-16;7.954497604776393e-05;2.220446049250313e-16;2.220446049250313e-16;2.220446049250313e-16;1.512354447804438e-05;-2.9499403878914667e-05;1.3307268977192893e-12;1.7332257703564656e-10;1.9772182964709934e-09;-8.509609198839546e-11;1.4708858888687176e-06;-4.859004818811225e-06;4.85900481858918e-06;1.5288103475916308e-08;1.5405347685430188e-09;1.699903722033585e-08;5.440238574434029e-05;2.220446049250313e-16;-0.00021513987794819568;0.00021513987794841768;9.373749438285918e-06;3.808175192525511e-05
1.8400838375091553;1.834137895673379e-05;-0.000527695850988239;-1.2234700689185857e-05;0.0032735180807995567;-0.0007926827598864615;6.358160219498187e-05;2.220446049250313e-16;2.220446049250313e-16;-2.9332544135190447e-05;2.220446049250313e-16;2.220446049250313e-16;9.415838481741335e-11;2.220446049250313e-16;-2.447835683473849e-16;6.4789880147004e-05;2.220446049250313e-16;2.220446049250313e-16;2.220446049250313e-16;1.2318221499520133e-05;-2.402744883065023e-05;1.0838853752354715e-12;1.4117232226164059e-10;1.6104566600899766e-09;-6.9311298775123e-11;1.1980457495203756e-06;-3.957689793722454e-06;3.957689793500409e-06;1.2452255831780555e-08;1.254775197320592e-09;1.3845822059946173e-08;4.4311083203676055e-05;2.220446049250313e-16;5.9948463109625134e-05;-5.994846310940309e-05;7.634977503417868e-06;3.101782495406981e-05
1.8599853515625;7.499332586475882e-05;-0.00047774326770214884;5.654500781087292e-06;0.0031230075359817444;-0.0007459453643684882;2.5567382014579703e-05;2.220446049250313e-16;2.220446049250313e-16;-2.3891540526513463e-05;2.220446049250313e-16;2.220446049250313e-16;7.669259292368826e-11;2.220446049250313e-16;2.220446049250313e-16;5.2771762316485666e-05;2.220446049250313e-16;2.220446049250313e-16;2.220446049250313e-16;1.0033268400243518e-05;-1.95705072441198e-05;8.828314124128866e-13;-0.00015133401682279499;1.3117270149974116e-09;-5.645448604795502e-11;9.758157507702805e-07;4.1805027047735e-05;-4.180502704795705e-05;1.014244020158421e-08;1.0220222405626052e-09;1.1277508604214028e-08;3.609165421366416e-05;2.220446049250313e-16;4.88283978807047e-05;-4.882839788048265e-05;6.21873689514325e-06;2.526421228649582e-05
1.8800530433654785;0.00012352952957517165;-0.0003985821680851529;2.3990717403819387e-05;0.002895263736818398;-0.0006944403678762139;-3.696672666305867e-05;2.220446049250313e-16;2.220446049250313e-16;-1.9459809080973505e-05;2.220446049250313e-16;2.220446049250313e-16;6.246659626504986e-11;2.220446049250313e-16;2.220446049250313e-16;4.298293023029204e-05;2.220446049250313e-16;2.220446049250313e-16;2.220446049250313e-16;7.967480977446593e-05;-8.744295042054593e-05;7.190717031066237e-13;-0.00040065631408546976;1.0684098520092353e-09;-4.5982531726597156e-11;7.948080278508355e-07;-4.020958012961879e-06;4.020958012739834e-06;8.261080934441598e-09;8.324435025772452e-10;9.1856012425611e-09;2.9396877929868294e-05;2.220446049250313e-16;3.977103525134132e-05;-3.9771035251119267e-05;5.065200068199771e-06;2.0577858808677635e-05
1.8999459743499756;0.0001598589735069394;-0.00029483278990171736;4.1375983008738024e-05;0.0026094938162995567;-0.0006419994932865024;-0.00012156787742663417;2.220446049250313e-16;2.220446049250313e-16;0.0004328229139567602;2.220446049250313e-16;2.220446049250313e-16;5.087943307410975e-11;2.220446049250313e-16;2.220446049250313e-16;3.5009865315886805e-05;2.220446049250313e-16;2.220446049250313e-16;2.220446049250313e-16;6.489563052886359e-05;-7.122282963597479e-05;5.856883963784893e-13;-0.00032633707192457806;8.70226502023097e-10;-3.7453059482136675e-11;-9.008609306834328e-05;-3.2750954325656238e-06;3.27509543234358e-06;6.728702052858522e-09;6.780304356210573e-10;7.48172962207378e-09;2.3943940804364773e-05;2.220446049250313e-16;-0.00022348796148012216;0.00022348796148034423;4.125637113049138e-06;1.676079461128548e-05
1.9199788570404053;0.00018171394389575148;-0.00017049332840445724;5.689076539714526e-05;0.00227950101199445;-0.000590704713459478;-0.00022553620353160062;2.220446049250313e-16;2.220446049250313e-16;0.0010266566614123456;2.220446049250313e-16;2.220446049250313e-16;4.14416162353191e-11;2.220446049250313e-16;2.220446049250313e-16;2.851575411144802e-05;2.220446049250313e-16;2.220446049250313e-16;2.220446049250313e-16;5.285789666345019e-05;-5.8011439881186696e-05;4.770468594027568e-13;-0.00040792232080609535;7.088049248134501e-10;-3.050575102982208e-11;2.5570131303205747e-06;-2.6675856991917483e-06;2.667585698969704e-06;5.480569876441094e-09;5.522600275035736e-10;6.093915537989229e-09;1.950248943478513e-05;2.220446049250313e-16;6.32859540251997e-05;-6.328595402497766e-05;3.3603572138104802e-06;1.3651771965858345e-05
1.940084457397461;0.0001863777700515385;-3.131002538547949e-05;6.942363505984246e-05;0.0019269638513138253;-0.0005447748078215872;-0.0003453663808212573;2.220446049250313e-16;2.220446049250313e-16;0.0018993821744508622;2.220446049250313e-16;2.220446049250313e-16;3.375445543376886e-11;2.220446049250313e-16;2.220446049250313e-16;2.3226259947237605e-05;2.220446049250313e-16;2.220446049250313e-16;2.220446049250313e-16;4.305308719423433e-05;-4.7250680354725814e-05;3.8855764852641663e-13;-0.00033225527981106966;5.773260412913351e-10;-2.4847124874734018e-11;2.082703175978172e-06;-2.172765224422892e-06;2.1727652242008474e-06;4.463958417922998e-09;4.4981924402683266e-10;4.9635322926643394e-09;1.5884899535191454e-05;2.220446049250313e-16;5.15468050907584e-05;-5.1546805090536356e-05;2.737031952881222e-06;1.1119453589766406e-05
1.9601151943206787;0.00017340933906195675;0.00011666770082923393;7.84541313707282e-05;0.0015756567408539946;-0.0005085361821076615;-0.0004775566465327952;2.220446049250313e-16;2.220446049250313e-16;0.0015477541534490273;2.220446049250313e-16;2.220446049250313e-16;2.7493214916151197e-11;2.220446049250313e-16;2.220446049250313e-16;1.891793389114969e-05;2.220446049250313e-16;2.220446049250313e-16;2.220446049250313e-16;3.506700860149882e-05;-3.848597446567639e-05;3.164826332100695e-13;-0.00040561011283428037;4.702356689195503e-10;-2.023813850500132e-11;1.6963747537290709e-06;-1.638744093394865e-06;1.6387440931728202e-06;-0.00015167834545468516;3.663805856301302e-10;4.042828074451934e-09;1.2938349952035532e-05;2.220446049250313e-16;4.198519491397512e-05;-4.1985194913753085e-05;2.22932963207146e-06;-0.0151778158089584
1.9801406860351562;0.0001457483473869302;0.00026810497137685484;8.426814777382225e-05;0.0012454493512664697;-0.00048285912545633416;-0.0006187927176516797;2.220446049250313e-16;2.220446049250313e-16;0.0012606554314476914;2.220446049250313e-16;2.220446049250313e-16;2.239339538179837e-11;2.220446049250313e-16;2.220446049250313e-16;1.5408775391428245e-05;2.220446049250313e-16;2.220446049250313e-16;2.220446049250313e-16;2.8562297674724543e-05;-3.134706673963382e-05;2.577770827660591e-13;-0.0004823538814923458;3.8300989130790436e-10;-1.648409030068923e-11;1.3817078392545387e-06;-1.3347673062412948e-06;1.3347673060192502e-06;-0.0003953644428853105;2.984192768744012e-10;3.292908734316565e-09;1.053836690062014e-05;2.220446049250313e-16;-0.00018006805037721203;0.00018006805037743407;1.815802918632404e-06;0.0014058696068200642
2.0001296997070312;0.00010855180409193964;0.0004174580646543966;8.754619224600235e-05;0.0009604302145563667;-0.00046564878184357636;-0.0007663353236337395;2.220446049250313e-16;2.220446049250313e-16;0.001026811728010591;2.220446049250313e-16;2.220446049250313e-16;1.8239560497195904e-11;2.220446049250313e-16;2.220446049250313e-16;1.2550543861164498e-05;2.220446049250313e-16;2.220446049250313e-16;2.220446049250313e-16;2.3264169970423613e-05;-2.5532381778598866e-05;2.099610450197224e-13;-0.0003928802511872749;3.1196395028210886e-10;-1.3426394575475753e-11;1.125409670746817e-06;-1.626901665694163e-06;1.6269016654721184e-06;-0.0007431649886759737;2.430643661346801e-10;2.6820947447804304e-09;8.58356570534823e-06;2.220446049250313e-16;7.121179251945164e-05;-7.121179251922958e-05;1.4789828259943343e-06;0.0011450895814399847
2.0199368000030518;6.843048019810301e-05;0.0005593319565131922;8.926131737037763e-05;0.0007390816693958342;-0.000452258668261712;-0.0009165163327003054;2.220446049250313e-16;2.220446049250313e-16;0.0008363445700379263;2.220446049250313e-16;2.220446049250313e-16;1.485623602221917e-11;2.220446049250313e-16;2.220446049250313e-16;1.0222496415817617e-05;2.220446049250313e-16;2.220446049250313e-16;2.220446049250313e-16;1.894881184197234e-05;-2.079628453605489e-05;1.7101458342509521e-13;-0.00032000342009360527;2.540965872794668e-10;-1.0935882296691096e-11;9.166532106337246e-07;-1.3251215748639e-06;1.3251215746418552e-06;-0.0007401629073005464;1.9797744536898528e-10;2.184582932715815e-09;6.991367914291789e-06;2.220446049250313e-16;5.8002450080817184e-05;-5.800245008059514e-05;1.2046407554150476e-06;-0.014354554344657563
2.0400524139404297;2.991695235465014e-05;0.0006925636386850176;9.022928848293035e-05;0.0005802018221659898;-0.00043701524514328546;-0.0010674921589469372;2.220446049250313e-16;2.220446049250313e-16;0.0006812078794494537;2.220446049250313e-16;2.220446049250313e-16;1.210049709157265e-11;2.220446049250313e-16;2.220446049250313e-16;8.326287221286046e-06;2.220446049250313e-16;2.220446049250313e-16;2.220446049250313e-16;1.5433925675360473e-05;-1.6938703731395053e-05;1.3929244704088642e-13;-0.00026064478568761705;2.0696325844279612e-10;-8.90734447991925e-12;7.466197691437348e-07;-4.195557864890219e-06;4.195557864668173e-06;-0.0006028673140144657;1.6125386661207204e-10;1.7793564523403604e-09;5.694512862240128e-06;2.220446049250313e-16;4.724335810615919e-05;-4.724335810593714e-05;9.81187424290277e-07;0.002530596555473569
2.060148239135742;-3.5197130492341747e-06;0.0008107200517816065;9.06933665009631e-05;0.00048570241199877415;-0.00041754048973547135;-0.001210803095251537;2.220446049250313e-16;2.220446049250313e-16;0.0005548480753608263;2.220446049250313e-16;2.220446049250313e-16;9.855930509192744e-12;2.220446049250313e-16;2.220446049250313e-16;6.781812981032616e-06;2.220446049250313e-16;2.220446049250313e-16;2.220446049250313e-16;1.257102892461658e-05;-1.3796680056119588e-05;1.1345456869259597e-13;-0.0003545676662606993;1.685728675220227e-10;-7.255087749797228e-12;6.08126468341129e-07;-3.417308103210331e-06;3.417308102988286e-06;-0.0004910391951854946;1.3134228219219893e-10;1.4492969514090505e-09;4.638216316999972e-06;2.220446049250313e-16;-0.00013516101771778494;0.00013516101771800698;7.991832895058325e-07;0.002061186710661693
2.0799429416656494;-3.153352379283773e-05;0.0009102110207692165;9.051835059930288e-05;0.00044941468145536233;-0.0003946627400205782;-0.0013402598238631271;2.220446049250313e-16;2.220446049250313e-16;0.00045192722518186407;2.220446049250313e-16;2.220446049250313e-16;8.027716999303172e-12;2.220446049250313e-16;2.220446049250313e-16;5.523829059382196e-06;2.220446049250313e-16;2.220446049250313e-16;2.220446049250313e-16;1.023918162803098e-05;-1.1237482134959756e-05;9.240945529117372e-14;-0.00028879758021725367;1.3730365417710946e-10;-5.909314316508277e-12;4.953228092542767e-07;-2.783418808261053e-06;2.7834188080390088e-06;-0.00039995449347355515;1.0697910973480973e-10;1.1804614250286175e-09;3.7778561790484573e-06;2.220446049250313e-16;7.020630061341308e-05;-7.020630061319104e-05;6.509397841980599e-07;0.0016788494582508904
2.0999584197998047;-5.759940888317404e-05;0.000991541231496277;8.902278996641778e-05;0.0004616663954983962;-0.00037137478051747845;-0.0014545918049915698;2.220446049250313e-16;2.220446049250313e-16;0.0003680975494557856;2.220446049250313e-16;2.220446049250313e-16;6.5386256691636785e-12;2.220446049250313e-16;2.220446049250313e-16;4.499193292798418e-06;2.220446049250313e-16;2.220446049250313e-16;2.220446049250313e-16;8.339877430916406e-06;-9.15299943318806e-06;7.526807889375658e-14;-0.0002352274340718294;1.1183468447509424e-10;-4.813173444010469e-12;8.874005205229094e-06;-2.267112015716773e-06;2.267112015494729e-06;-0.00032576543464979483;8.713515349843834e-11;9.614932085697154e-10;3.077087469436087e-06;2.220446049250313e-16;5.7183470639024387e-05;-5.718347063880234e-05;5.301945226029709e-07;0.001367433376554464
2.1200971603393555;-8.505814503535567e-05;0.001049773727473179;8.516498867076971e-05;0.0005159785585487661;-0.0003522498171289666;-0.0015456922635399667;2.220446049250313e-16;2.220446049250313e-16;0.0002998177546414215;2.220446049250313e-16;2.220446049250313e-16;5.325751473944248e-12;2.220446049250313e-16;2.220446049250313e-16;3.664621056942392e-06;2.220446049250313e-16;2.220446049250313e-16;2.220446049250313e-16;6.792882291715355e-06;-7.455175244578133e-06;6.13063206844578e-14;-0.00019159421522296798;9.10900494717422e-11;-3.920359852480552e-12;7.227932702191629e-06;4.230086902855132e-05;-4.230086902877337e-05;-0.00026533798255622446;7.097212711918739e-11;7.831422277125863e-10;2.5063069756523768e-06;2.220446049250313e-16;4.657629423219744e-05;-4.65762942319754e-05;4.318467523758861e-07;0.001113783031662214
2.140052556991577;-0.00011624031760302129;0.0010800735636293582;7.813923716889027e-05;0.0006037490582351166;-0.00034081203602551825;-0.0016051686553856341;2.220446049250313e-16;2.220446049250313e-16;0.0002442034350164042;2.220446049250313e-16;2.220446049250313e-16;4.337857861474301e-12;2.220446049250313e-16;2.220446049250313e-16;-0.0001927870087426664;2.220446049250313e-16;2.220446049250313e-16;2.220446049250313e-16;5.532845082116479e-06;-6.0722868315541676e-06;4.9934381361995163e-14;-0.0002913173377810443;7.419341460754321e-11;-3.1931576020944863e-12;5.887196360514468e-06;-5.8022430289585126e-06;5.802243028736468e-06;-0.00021611944515443577;5.780724111437262e-11;6.378742391108247e-10;2.041402696087458e-06;2.220446049250313e-16;-9.159626242070784e-05;9.159626242092988e-05;3.517418788523614e-07;0.0009071832404328211
2.1600563526153564;-0.0001538430654038643;0.0010803305221501831;6.720387571749335e-05;0.0007202356410629731;-0.0003396830315029719;-0.0016291663700289498;2.220446049250313e-16;2.220446049250313e-16;0.00019890522409233004;2.220446049250313e-16;2.220446049250313e-16;3.5332123397824516e-12;2.220446049250313e-16;2.220446049250313e-16;-0.00015702622353970638;2.220446049250313e-16;2.220446049250313e-16;2.220446049250313e-16;4.506536899665633e-06;-4.945915576093565e-06;4.067186570922856e-14;-0.00023727979235602169;6.043099990668524e-11;-2.600846824140972e-12;4.795158230616287e-06;-4.725963211126232e-06;4.725963210904188e-06;-0.00017603063882482012;4.708435918291346e-11;5.195525544697609e-10;1.6627352547300846e-06;2.220446049250313e-16;6.265763761145236e-05;-6.265763761123031e-05;2.8649595871199105e-07;0.0007389064192277853
2.180081844329834;-0.00019782881995605264;0.0010492605013176053;5.226810228597517e-05;0.0008604600607030394;-0.0003485404807886732;-0.0016149296377626725;2.220446049250313e-16;2.220446049250313e-16;0.00016200954818085337;2.220446049250313e-16;2.220446049250313e-16;2.87782353332993e-12;2.220446049250313e-16;2.220446049250313e-16;-0.00012789884048698796;2.220446049250313e-16;2.220446049250313e-16;2.220446049250313e-16;3.6706024706332816e-06;-4.028479148700559e-06;-0.0001423963250445131;-0.00019326587387268187;4.9221427117744535e-11;-2.118405993555472e-12;3.905686348575907e-06;-4.907153537228417e-06;4.907153537006373e-06;-0.00014337805551430859;3.835050483172791e-11;4.2317880281908567e-10;1.354308257072996e-06;2.220446049250313e-16;5.10350374447836e-05;-5.1035037444561546e-05;2.3335274897065865e-07;0.0006018438966261513
2.1999292373657227;-0.0002443357111764003;0.0009904678664388194;3.444929570876405e-05;0.001017631742283644;-0.0003623888840371859;-0.0015660722266114652;2.220446049250313e-16;2.220446049250313e-16;0.00013195778955298117;2.220446049250313e-16;2.220446049250313e-16;-8.294819554254662e-05;2.220446049250313e-16;2.220446049250313e-16;-0.00010417440494440472;2.220446049250313e-16;2.220446049250313e-16;2.220446049250313e-16;2.989728653596248e-06;-3.281221444611284e-06;-0.00011598269672578746;-0.00015741626218101104;4.009116002132241e-11;-1.7254549217883908e-12;3.1812059414547538e-06;-3.9969072258027484e-06;3.996907225580703e-06;-0.00011678232232925132;-0.00015095089554648732;3.4468177976366283e-10;1.1030925398125617e-06;2.220446049250313e-16;4.156835696778085e-05;-4.1568356967558796e-05;1.9006727249128246e-07;0.000490205615326354
2.2199625968933105;-0.00028961808662440806;0.0009073800933988668;1.472450242881191e-05;0.0011902804069691122;-0.0003751339855064771;-0.0014870244498421466;2.220446049250313e-16;2.220446049250313e-16;0.00010748044432708784;2.220446049250313e-16;2.220446049250313e-16;-6.756182369562635e-05;2.220446049250313e-16;2.220446049250313e-16;-0.00030610957051785864;2.220446049250313e-16;2.220446049250313e-16;2.220446049250313e-16;2.435152674158229e-06;-2.672575374269919e-06;-9.44686313750084e-05;-0.0001282165293980721;3.2654500407117235e-11;-1.4053938178899056e-12;2.5911121218520307e-06;-4.379126891238019e-06;4.379126891015975e-06;-9.511993142668972e-05;-0.00012295044786571108;2.8074546387862686e-10;8.984757680057051e-07;2.220446049250313e-16;-0.00010234636708494552;0.00010234636708516756;1.5481098136460259e-07;0.00039927553746841097
2.24017596244812;-0.00032901484230146304;0.000804285849185271;-5.606560071061443e-06;0.001375735574610929;-0.00038057206378961777;-0.0013831301754109804;2.220446049250313e-16;2.220446049250313e-16;8.754349365719008e-05;2.220446049250313e-16;2.220446049250313e-16;-5.502952766148575e-05;2.220446049250313e-16;2.220446049250313e-16;-0.0002493281583716116;2.220446049250313e-16;2.220446049250313e-16;2.220446049250313e-16;1.9834470728060908e-06;-2.1768293459389382e-06;-0.00020803025252088132;-0.00010443316454803844;2.659729467222453e-11;-1.1447020483826896e-12;2.110477017699241e-06;-3.566826222477031e-06;3.5668262222549856e-06;-7.74757786466102e-05;-0.0001001439082269208;2.2866893498829083e-10;7.318141285141969e-07;2.220446049250313e-16;1.806154423883285e-05;-1.8061544238610808e-05;1.2609451189010231e-07;0.00032521242074012987
2.259920597076416;-0.00035704856751978426;0.0006927503089509286;-2.4328918905153806e-05;0.001565680300558736;-0.0003730864191012576;-0.0012685917151502271;2.220446049250313e-16;2.220446049250313e-16;7.130472273061668e-05;2.220446049250313e-16;2.220446049250313e-16;-4.482189421482802e-05;2.220446049250313e-16;2.220446049250313e-16;-0.00020307934329466735;2.220446049250313e-16;2.220446049250313e-16;2.220446049250313e-16;1.615530037344766e-06;-1.7730411074506767e-06;-0.00016944194086733607;-8.506146523165572e-05;2.166366274361858e-11;-9.32366972795503e-13;1.7189967213973915e-06;-2.905202250892025e-06;2.90520225066998e-06;-6.310450593128055e-05;-0.0003563579439136163;1.862522767288065e-10;5.960671815131163e-07;2.220446049250313e-16;5.5808335599348704e-05;-5.580833559912666e-05;1.0270476802518763e-07;0.0002648875492704653
2.279967784881592;-0.0003718130508914125;0.000577584220001547;-4.076044535194622e-05;0.0017636023860296392;-0.00034858937593878933;-0.0011507405510778946;2.220446049250313e-16;2.220446049250313e-16;5.807814231860433e-05;2.220446049250313e-16;2.220446049250313e-16;-3.650771297481626e-05;2.220446049250313e-16;2.220446049250313e-16;-0.0001654093943594021;2.220446049250313e-16;2.220446049250313e-16;2.220446049250313e-16;1.3158593124800449e-06;-1.4441530635254975e-06;-0.00013801151984857562;-6.928309506534125e-05;1.7645188702569478e-11;-7.594187266355171e-13;1.4001335733076842e-06;-2.3663053908862154e-06;2.3663053906641708e-06;-5.139901448419007e-05;-0.0008629991189483095;1.5170364347234243e-10;4.855004447623178e-07;2.220446049250313e-16;4.54562381477876e-05;-4.545623814756556e-05;8.365367546131548e-08;0.0002157525644279769
2.3000667095184326;-0.0003713460638224695;0.0004667370510947294;-5.37411682919477e-05;0.0019604883444163143;-0.0003051727404250775;-0.0010386684793086997;2.220446049250313e-16;2.220446049250313e-16;4.730500990689271e-05;2.220446049250313e-16;2.220446049250313e-16;-2.9735760391193928e-05;2.220446049250313e-16;2.220446049250313e-16;-0.00013472698551444774;2.220446049250313e-16;2.220446049250313e-16;2.220446049250313e-16;1.0717756341356995e-06;-1.176271696198165e-06;-0.00011241124548866392;-5.64315139500646e-05;1.4372116480672225e-11;-6.185512992116701e-13;1.1404175462939414e-06;-2.802818979945226e-06;2.802818979723181e-06;-4.1864818541213343e-05;-0.0009690405401755018;1.235635657559946e-10;3.9544314663668743e-07;2.220446049250313e-16;-9.820891012884296e-05;9.8208910129065e-05;6.813644149871307e-08;0.00017573181218011482
2.3199827671051025;-0.00035502170947305915;0.00036561527444360143;-6.258811487310848e-05;0.00214864239746297;-0.00024291621180464184;-0.0009382329626585771;2.220446049250313e-16;2.220446049250313e-16;3.8530226225476034e-05;2.220446049250313e-16;2.220446049250313e-16;-2.4219962687129896e-05;2.220446049250313e-16;2.220446049250313e-16;-0.00010973597174517713;2.220446049250313e-16;2.220446049250313e-16;2.220446049250313e-16;7.666360093847562e-05;7.483255233762288e-05;-9.155966202080103e-05;-4.596382080928979e-05;1.1706178699235529e-11;-5.038138991535252e-13;9.288772190660793e-07;-2.2829135768046045e-06;2.28291357658256e-06;-3.409915635693415e-05;-0.0007892895764763223;1.0064329658054357e-10;3.2209091445524826e-07;2.220446049250313e-16;7.027114175100855e-05;-7.02711417507865e-05;5.549755745346116e-08;0.00014313465934452958
2.339916229248047;-0.00032390469679341395;0.00027578975616048375;-6.734153057488712e-05;0.002328909820578798;-0.00016388762884001954;-0.000851758205101665;2.220446049250313e-16;2.220446049250313e-16;3.138311007456413e-05;2.220446049250313e-16;2.220446049250313e-16;-1.972731098343409e-05;2.220446049250313e-16;2.220446049250313e-16;-8.938063483627017e-05;2.220446049250313e-16;2.220446049250313e-16;2.220446049250313e-16;6.244298211189425e-05;6.095158158244593e-05;-7.457591696383004e-05;-3.743781932304659e-05;9.534755714144207e-12;-4.10359569697416e-13;7.565763004119407e-07;-1.859447376537799e-06;1.8594473763157542e-06;-2.777397597245009e-05;-0.0006428812930998173;8.197459408545636e-11;2.6234506289201505e-07;2.220446049250313e-16;4.709111751634273e-05;-4.709111751612068e-05;4.520310740557818e-08;0.00011658407462774023
2.359964370727539;-0.0002795988353138972;0.00019875217704516676;-6.81130816158869e-05;0.002501618745881431;-7.154155154507944e-05;-0.000781352166736508;2.220446049250313e-16;2.220446049250313e-16;2.5561739300170444e-05;2.220446049250313e-16;2.220446049250313e-16;-1.6068018091700714e-05;2.220446049250313e-16;2.220446049250313e-16;-7.280108570310978e-05;2.220446049250313e-16;2.220446049250313e-16;2.220446049250313e-16;5.086019919877605e-05;4.9645444146287094e-05;-0.00019109411959986197;-3.049333782499221e-05;7.766118121393669e-12;-3.342404342658559e-13;6.162361252874031e-07;-2.8452807964873907e-06;2.8452807962653457e-06;-2.262207701691042e-05;-0.000523630831237883;6.676881922381723e-11;2.1368169338218936e-07;2.220446049250313e-16;3.8356009536566215e-05;-3.835600953634417e-05;3.681821350126471e-08;9.495845743476084e-05
2.3800764083862305;-0.00022320860972438298;0.0001350830106502338;-6.494984666991695e-05;0.002666779788494128;3.057425943199271e-05;-0.0007278012357208823;2.220446049250313e-16;2.220446049250313e-16;2.082019642085945e-05;2.220446049250313e-16;2.220446049250313e-16;-1.3087501160803302e-05;2.220446049250313e-16;2.220446049250313e-16;-5.929693931196854e-05;2.220446049250313e-16;2.220446049250313e-16;2.220446049250313e-16;4.142595012364808e-05;4.043652454117674e-05;-0.000155647354752335;-2.483701424181756e-05;6.3255517481134006e-12;-2.722409227122537e-13;5.019281755223729e-07;-2.3174989917645507e-06;2.317498991542506e-06;-1.842582311825489e-05;-0.0004265005847359508;5.438362056291925e-11;1.7404507477037686e-07;2.220446049250313e-16;-0.0001814165264581478;0.00018141652645836984;2.998866501061448e-08;7.734425707097166e-05
