flxalr/sts-optimization-reemc/input/498_104/acc.csv
time;base_link_tx;base_link_ty;base_link_tz;base_link_rz;base_link_ry;base_link_rx;leg_left_1_joint;leg_left_2_joint;leg_left_3_joint;leg_left_4_joint;leg_left_5_joint;leg_left_6_joint;leg_right_1_joint;leg_right_2_joint;leg_right_3_joint;leg_right_4_joint;leg_right_5_joint;leg_right_6_joint;torso_1_joint;torso_2_joint;arm_left_1_joint;arm_left_2_joint;arm_left_3_joint;arm_left_4_joint;arm_left_5_joint;arm_left_6_joint;arm_left_7_joint;arm_right_1_joint;arm_right_2_joint;arm_right_3_joint;arm_right_4_joint;arm_right_5_joint;arm_right_6_joint;arm_right_7_joint;head_1_joint;head_2_joint
0.0;0.0;0.0;0.0;0.0;0.0;0.0;-0.0005628518412699594;-2.160599328294104e-36;-0.0024945437229398583;1.3776048736423367e-29;-2.50397945381261e-30;-7.863424521519932e-21;-4.253702537319369e-10;3.9380732881316116e-35;5.062277997418857e-30;2.199472638450208e-07;8.488718943343335e-10;3.4484138947054166e-37;3.2085775733196234e-05;2.4012080786336154e-05;-2.1567160169498557e-08;-1.2833589740764038e-05;-0.000392366802015806;2.9655322881417878e-05;-3.753322703479717e-05;-2.6568366624252936e-05;2.6568366624251557e-05;-0.0007776817466945751;0.0004102533785737697;-1.5869593348350198e-06;0.001426497617153284;0.0;-0.00014549383594731694;0.0001454938359473235;-0.0008245803157988892;0.011982420295925519
0.019660472869873047;-0.00017988720555682286;0.00014929169528729008;-1.9692598707048203e-05;2.7698184123881267e-05;-0.00018103410410112768;-0.00015564563591146231;-0.0005790668364451274;-9.638008030920376e-36;-0.002495853330914732;1.3580354281712872e-29;-2.4652491567595294e-30;-7.90372420566592e-21;-4.246497756013296e-10;1.928666222400579e-34;5.205998954734178e-30;2.201050730786474e-07;8.485840032240513e-10;1.4510383189257144e-36;3.209494386838677e-05;2.4069958905524774e-05;-2.161039602438933e-08;-1.2804731244430726e-05;-0.00039148449889846496;2.960647178340568e-05;-3.742161690018219e-05;-2.492706902594397e-05;2.4927069025945337e-05;-0.0007787996875563795;0.00040931459132073346;-1.5810572321840544e-06;0.00145005234840522;0.0;-0.00014462943924150535;0.00014462943924151286;-0.0008150430496167571;0.011927856196748837
0.03950762748718262;-0.0005329110291787475;0.0003018147036647934;-7.002863337210817e-05;7.794889644685638e-05;-0.0005477870433580341;-0.0002717445689273059;-0.0006399904246904331;-1.8682951349507692e-35;-0.002500270320689394;1.3345850854518578e-29;4.5192692333025517e-32;-8.064206554392976e-21;-4.2156371260519104e-10;4.452776654981349e-34;5.5053747109507565e-30;2.206609921419727e-07;8.470906068250393e-10;2.4505507498217002e-36;3.2071207435972945e-05;2.424693512059845e-05;-2.1777246541015543e-08;-1.270009121619973e-05;-0.0003882852947373572;2.9427290125726772e-05;-3.696794351418524e-05;-2.1077879263800774e-05;2.1077879263800435e-05;-0.0007830455780682887;0.0004059914278631688;-1.556503897564285e-06;0.0015422003026617263;0.0;-0.00013884520810678098;0.00013884520810678166;-0.000776034026627942;0.011717948991564182
0.05953407287597656;-0.0010083809727921824;0.0004833397793285358;-0.00013327843118235766;6.706014292800182e-06;-0.0010384815950789127;-0.0004602555767733374;-0.0007336165154164447;-2.5074066694509465e-35;-0.0025078332107078436;1.4393467346495763e-29;-2.3750987119556614e-30;-8.422123555128545e-21;-4.1406227755121326e-10;7.737302832696462e-34;5.991901014625197e-30;2.216940441438062e-07;8.427705197389123e-10;2.3954207016374174e-36;3.185611477168649e-05;2.4498700484102402e-05;-2.2134240034578375e-08;-1.2492589813529118e-05;-0.0003819412661122075;2.9065425572360067e-05;-3.592716620692353e-05;-1.708035513815494e-05;1.7080355138157298e-05;-0.0007919258515717539;0.00039963664645262004;-1.4987497003856918e-06;0.001722613490481198;0.0;-0.00012673302565448453;0.00012673302565448588;-0.0006860979393503528;0.011267658671957923
0.07960295677185059;-0.0014736514216850106;0.0006979790379952784;-0.00018644469134827002;-0.0002873728047778086;-0.001486824049999536;-0.0007439332567512806;-0.0008054483485350541;-2.4459815749049776e-35;-0.0025166057259108283;1.5563530727603738e-29;-2.3494669783778257e-30;-9.046309637888629e-21;-3.997929615955617e-10;1.1452999491127217e-33;1.712796354989369e-30;2.2309881602650133e-07;8.333379349652529e-10;3.558107323160855e-37;3.11908874892192e-05;2.4684521562746235e-05;-2.2727915791013255e-08;-1.2172857024012312e-05;-0.0003721659398777315;2.8493665023684053e-05;-3.405067529666921e-05;-1.399693894575617e-05;1.3996938945755144e-05;-0.0008062783159405992;0.0003903039581356706;-1.392284754999329e-06;0.001971671620971967;0.0;-0.0001160690990645742;0.00011606909906456947;-0.0005236210164701766;0.010509699199564107
0.0995187759399414;-0.001926643455048995;0.0009371401143517719;-0.0002299862563899413;-0.0007419531505426231;-0.0019157046255106206;-0.0011073814259911566;-0.0008069431463499655;-1.3271239518119771e-35;-0.002522677595141134;1.6534916432494822e-29;-2.2880344365365385e-30;-9.989097309152457e-21;-3.7632073140784227e-10;1.5571678352344676e-33;-2.4232231709915672e-30;2.2457909005129398e-07;8.160211764260291e-10;-4.553570785880819e-36;2.974759506654151e-05;2.45862933884866e-05;-2.3578079289533536e-08;-1.1747151880979576e-05;-0.00035915067642350144;2.770688227616182e-05;-3.1108559316589084e-05;-1.0272532707499729e-05;1.027253270750074e-05;-0.0008261176325317759;0.00037863287006658036;-1.2221890548716397e-06;0.0022509976612068113;0.0;-0.0001090278285467927;0.00010902782854678393;-0.0002691032977463815;0.00939894854976936
0.11949658393859863;-0.0024974190743804;0.0010779017435281974;-0.00029755113844846164;-0.0014777157568649473;-0.0025020065699065982;-0.0013036425699503784;-0.0007259635361847718;1.3039015446354513e-35;-0.0025203644080474415;1.7462512289616868e-29;-4.6756154856249584e-30;-1.1312220149512771e-20;-3.4049547480685335e-10;1.9828661491297377e-33;-8.81812138389251e-30;2.2569263942917356e-07;7.871066608038897e-10;-1.33446700598591e-35;2.710293088714991e-05;2.3918887641264135e-05;-2.4701523036966108e-08;-1.1221510764857993e-05;-0.0003430800289573084;2.6693299595175244e-05;-2.6806514125743223e-05;-5.271928664931819e-06;5.271928664933417e-06;-0.0008511903700489195;0.00036537218313109946;-9.695188362010894e-07;0.0025297191315141955;0.0;-9.959885172782502e-05;9.959885172783574e-05;0.0001017756462219459;0.007878209004442078
0.13954997062683105;-0.003179859738603086;0.0011887306206248205;-0.000386577114441731;-0.0024295369092962177;-0.003263693567705414;-0.0013620000629435496;-0.0005974473658215837;5.854072895407883e-35;-0.002501829859059905;1.9702513529166998e-29;-2.1533493433372907e-30;-1.306652580353969e-20;-2.888942059167398e-10;2.384850319093536e-33;-1.2659887209145068e-29;2.2579836202763563e-07;7.42210978012614e-10;-2.685286949944276e-35;2.2764581802877662e-05;2.2329531769401705e-05;-2.609226603190217e-08;-1.0609328266026579e-05;-0.0003243635164295944;2.5447889915037686e-05;-2.0842930118181288e-05;-9.383067362924079e-07;9.383067362901168e-07;-0.0008804861700881897;0.00035158267453671584;-6.146624789147414e-07;0.002783978897965048;0.0;-8.882595218118448e-05;8.882595218118205e-05;0.0006129783150572386;0.0059000307724198986
0.1595761775970459;-0.003804706610711758;0.0012364116395431725;-0.0004743528764348395;-0.003318243355911417;-0.0040210209006674045;-0.001279091861999677;-0.00047499019031888587;1.265405451087658e-34;-0.002457416176922386;2.326947227212848e-29;-4.569390706161131e-30;-1.528149821520243e-20;-2.1819026039831757e-10;2.734075821966971e-33;-2.3898383745757924e-29;2.2407603698132354e-07;6.766465857839819e-10;-4.5764312276878913e-35;1.621786621384572e-05;1.942613374999473e-05;-2.7714767055926368e-08;-9.930770810509221e-06;-0.0003036176960182452;2.3973132145770213e-05;-1.2946048817718488e-05;1.8063964269428486e-06;-1.8063964269397946e-06;-0.0009121200327872934;0.00033855262555213526;-1.3975510377406566e-07;0.0029954704675761805;0.0;-7.960200329724456e-05;7.960200329724537e-05;0.001284766606922318;0.0037035780393641173
0.17950439453125;-0.004247423771480267;0.0012026669716627377;-0.0005424322533841088;-0.004128459677002244;-0.004629625658072693;-0.0010454547563311521;-0.0003975864058174541;2.2407398836211183e-34;-0.0023759659437085326;2.5232801758184764e-29;-4.445947138789763e-30;-1.797126225768244e-20;-1.2508024711113543e-10;3.0539307987917843e-33;-3.69044488246497e-29;2.1956130306668688e-07;5.854337694533291e-10;-7.197100534740309e-35;6.9362279460961655e-06;1.4793968320378483e-05;-2.951120625235966e-08;-9.206993153646631e-06;-0.00028148934151456435;2.2269553043399165e-05;-4.615184666672893e-06;4.668857605012664e-06;-4.6688576050113195e-06;-0.0009435315295952157;0.00032759753511268447;4.7203485157621427e-07;0.003152215728199518;0.0;-6.825936608332008e-05;6.825936608332362e-05;0.0021349600981095417;0.0017641714991745105
0.19961309432983398;-0.004514898310633803;0.0010798739232663636;-0.0005905783028482503;-0.004805760667344736;-0.005126721751639116;-0.0006702109946905514;-0.00038764289241362905;3.4806328301955237e-34;-0.0022424381968666153;2.779731183278595e-29;-5.669868180657004e-30;-2.119084111497812e-20;-4.158922966591552e-12;3.215179008232626e-33;-5.08665625073254e-29;2.109918411138075e-07;4.611087297055688e-10;-1.040416169351122e-34;-5.840722011729687e-06;7.876483235281275e-06;-3.1434826051142255e-08;-8.445741210685493e-06;-0.0002582152727223224;2.029923365821074e-05;2.9208422036158628e-06;8.385690205304482e-06;-8.385690205305592e-06;-0.0009719693037131472;0.0003198867707638067;1.2501612942251927e-06;0.0032509829760091363;0.0;-5.2936986047533544e-05;5.29369860475283e-05;0.002893466622165874;0.00018167046476020942
0.2194972038269043;-0.004627834408095858;0.0008201898773355519;-0.0006192623309777913;-0.005475868752914922;-0.0055458975666438665;-0.0001514475770055598;-0.00043176936212952074;5.112032283785589e-34;-0.0020444698164501403;3.2355532459117133e-29;-6.793908532190772e-30;-2.487368188585916e-20;1.4602408362663516e-10;3.2968576728159184e-33;-6.866328662669769e-29;1.9722461732971227e-07;2.9992480587553246e-10;-1.4557690732406989e-34;-2.2467300236952382e-05;-1.679076857273478e-06;-3.335178623735061e-08;-7.67915471658106e-06;-0.00023477811171993256;1.8083613938119065e-05;1.0038347001751385e-05;1.1005267322193048e-05;-1.100526732219364e-05;-0.0009930114055268827;0.0003168172300659296;2.1976529397867155e-06;0.003289783366887248;0.0;-4.101443229556862e-05;4.1014432295568195e-05;0.003302441266490074;-0.0008900801876193255
0.23948216438293457;-0.004502209709198214;0.00042830309008660495;-0.000611454349272597;-0.006227251743790921;-0.005794404891653962;0.00047540968951281397;-0.00047734368390915086;7.12542517040776e-34;-0.0017622951835262943;3.705497412388347e-29;-7.943052924147424e-30;-2.905854191948314e-20;3.316601218707772e-10;3.202505290166505e-33;-9.150743233683479e-29;1.7657368916686693e-07;9.281225618863533e-11;-1.9584779074405e-34;-4.3817273240570975e-05;-1.4528853991602256e-05;-3.517258178115159e-08;-6.910064243940392e-06;-0.00021126439951816593;1.556242375277173e-05;1.7340533122076026e-05;1.176055145588515e-05;-1.1760551455886832e-05;-0.0010023996339495488;0.00031949567286807445;3.346792543675476e-06;0.003273013978275699;0.0;-3.372353772453709e-05;3.372353772453671e-05;0.00345451083843151;-0.0013431048118466124
0.2594928741455078;-0.004214546895993614;1.3770891149495617e-05;-0.0005683220988270407;-0.006914817168006841;-0.006010501034247471;0.001050853303487836;-0.00047168481394873826;9.538498142399698e-34;-0.0013774617470977387;4.190445769249415e-29;-9.120895614227665e-30;-3.3697715071812354e-20;5.562781674740252e-10;-1.2304176586787667e-30;-1.1458278060184654e-28;1.4738771965557347e-07;-1.6689540442705797e-10;-2.551325412011326e-34;-7.048622174739951e-05;-3.118999265040327e-05;-3.674227338049329e-08;-6.154660722433513e-06;-0.00018816914875815496;1.2708803359902587e-05;2.5239780206285212e-05;1.2482453438905796e-05;-1.2482453438907133e-05;-0.0009945395466226887;0.00032906697085273375;4.7117967907236015e-06;0.003205698493685953;0.0;-2.4762201802435877e-05;2.4762201802434875e-05;0.0034145363638446165;-0.0013303011392499689
0.2794811725616455;-0.0037832078232386502;-0.0003009782460771694;-0.000486483035061923;-0.007547173356730646;-0.006200786509189716;0.0014644538350963238;-0.0003956747772361339;1.241305251077069e-33;-0.0008748879807971869;4.918151069526091e-29;-1.1517606436100562e-29;-3.872056641935112e-20;8.22973726923957e-10;2.360913676347783e-33;-1.4227680124187986e-28;1.0793345550832581e-07;-4.856632062433011e-10;-3.248585098827442e-34;-0.00010301653258512955;-5.2154888709228186e-05;-3.788221025946342e-08;-5.425922741258581e-06;-0.00016588915976683307;9.489620364953652e-06;3.2319860454857905e-05;1.4025791525630914e-05;-1.4025791525631817e-05;-0.000963213931554022;0.00034647944164913004;6.303410375533388e-06;0.0030948501229574464;0.0;-1.4969842061349895e-05;1.4969842061342175e-05;0.003237778188050929;-0.0009812223313621206
0.29949116706848145;-0.0033891760504112228;-0.0003833392625358235;-0.0003980548617588286;-0.008227044915205494;-0.00634906945128283;0.0016301184211561892;-0.00027897834342384273;1.5721185245329858e-33;-0.00027058888085220513;5.172402977949748e-29;-1.2722871167598113e-29;-4.405168096067239e-20;1.1355210242933784e-09;1.534793960005705e-33;-1.7408766585687845e-28;5.620351936785123e-08;-8.711440676705307e-10;-4.040526638352573e-34;-0.00014203726926756178;-7.798465749587412e-05;-3.839061644954364e-08;-4.731269289759293e-06;-0.000144651256914044;5.8525332673155875e-06;3.7203947140191515e-05;1.4644937890867e-05;-1.4644937890869083e-05;-0.0009013252617472602;0.0003725820458036236;8.135375711484421e-06;0.0029478025449413254;0.0;-8.764348464093202e-06;8.764348464087563e-06;0.002968385289879581;-0.0003996968139939991
0.31948089599609375;-0.0029045772401249514;-0.00020202347853694018;-0.00028433707370438164;-0.008675008342899072;-0.006251495095384913;0.0014627714451545262;-0.00017195794790652547;1.9534015801038495e-33;0.0003858015031333609;5.669964872225132e-29;-1.3912909367184997e-29;-4.956293526844333e-20;1.495793747280484e-09;3.8508633066984344e-34;-2.079801227459629e-28;-9.695608454283811e-09;-1.3290820369675347e-09;-4.943268115138654e-34;-0.00018794759715393925;-0.00010910398618769755;-3.803253805948812e-08;-4.0790926336245524e-06;-0.00012471202074921595;1.756391092017297e-06;4.028116500063008e-05;1.360699870702898e-05;-1.3606998707029273e-05;-0.0008041968377845739;0.0004079371627641479;1.0209079058438724e-05;0.0027726045485108597;0.0;-3.844116510174459e-06;3.844116510162113e-06;0.0026422077814992053;0.00029700465788455057
0.33949780464172363;-0.0022093074665127514;0.00021083363705893713;-0.00012884836087574455;-0.008915059054799883;-0.005764491727625429;0.000997199802287878;-0.00011058264933672708;2.3900529458340778e-33;0.0010523390487532094;6.159585296586696e-29;-1.6301043381747045e-29;-5.511525148887326e-20;1.906295823430546e-09;-1.1473740350667707e-33;-2.4604599108708786e-28;-9.197644073535608e-08;-1.8664639419768074e-09;-5.96615560773135e-34;-0.00024123315388913374;-0.0001460116171076665;-3.654186489213991e-08;-3.472869774816154e-06;-0.00010617775542406713;-2.859043395319084e-06;4.1895374809346406e-05;1.2778554361433547e-05;-1.2778554361437203e-05;-0.0006684788664258852;0.00045302166268372724;1.2528299693379128e-05;0.0025764015471655155;0.0;1.8317721355252509e-06;-1.8317721355233347e-06;0.0022860964528651734;0.000984343537273807
0.3596012592315674;-0.0013715332585597562;0.0009525851623521844;6.881627534068306e-05;-0.008884847136770707;-0.005001958773557748;7.904949083475527e-05;-0.00011541322810206708;2.833506907327504e-33;0.0016991813871481034;6.762557048251395e-29;-1.77569969468486e-29;-6.053236594093043e-20;2.3691019017035613e-09;-3.067878796218798e-33;-2.8756077522918356e-28;-1.9307582575072628e-07;-2.490387613197239e-09;-6.9865061904457696e-34;-0.0003023430475266209;-0.00018920739385618824;-3.360747122564957e-08;-2.914462205926109e-06;-8.910537337910167e-05;-8.061216677812717e-06;4.2318955338289966e-05;1.2988271620423888e-05;-1.298827162042511e-05;-0.000500850161924784;0.000508170398811263;1.5092510542133442e-05;0.0023656129583563834;0.0;1.174262602401425e-06;-1.1742626023981e-06;0.0019200695063692442;0.001834840980723887
0.3795022964477539;-0.0005766927774963234;0.0017139267500094549;0.00025840794408723644;-0.008542494077824788;-0.004218537857753363;-0.000932646307302893;-0.00017812511575741;3.3452009077871996e-33;0.0022948451075553056;6.805507091871752e-29;-1.9023678199825522e-29;-6.550475274415702e-20;2.8760423702028023e-09;-5.4579061274870375e-33;-3.2827122760452956e-28;-3.1332485086473294e-07;-3.194426650756228e-09;-8.155045818684844e-34;-0.0003703706225759268;-0.00023824065289328915;-2.8963431638484358e-08;-2.4131161242129537e-06;-7.37775616427131e-05;-1.3814578290183176e-05;4.1776409995963254e-05;1.244092412819568e-05;-1.2440924128195708e-05;-0.0003196673952107859;0.000572308332371343;1.784362496112879e-05;0.0021498250332308553;0.0;-6.413485875042697e-06;6.413485875044691e-06;0.0015650901633446047;0.002927093383186642
0.3994455337524414;0.00026774504248762947;0.0023908393534906474;0.00045006594499313976;-0.008059329632192505;-0.0032872448496577065;-0.0019433488917088761;-0.00024880622981923413;3.8989387361291e-33;0.002831397955102767;7.107422943108141e-29;-2.153728376689673e-29;-6.981640653234139e-20;3.4297995971997874e-09;-8.375636970573358e-33;-3.725384259248538e-28;-4.5575656973048147e-07;-3.987503021430929e-09;-9.40279322781626e-34;-0.00044586205540425193;-0.00029371539844667236;-2.222529446413508e-08;-1.9623763588202896e-06;-5.999696379991017e-05;-2.0218769787709293e-05;4.0442514192449155e-05;1.0377036320327121e-05;-1.037703632032774e-05;-0.00013618578849937317;0.0006455446464027099;2.0781674264380382e-05;0.0019322269066327277;0.0;-1.3112548513045838e-05;1.3112548513045481e-05;0.0012279982935333327;0.004030978228713678
0.41945505142211914;0.0010040006986314944;0.002982965253608091;0.0006196420311765697;-0.007449959546551612;-0.002422138320385873;-0.0029324870105491008;-0.0002688545132627729;4.473446996205568e-33;0.0032979155264752777;7.201463210116218e-29;-2.1682290479704817e-29;-7.313263173656583e-20;4.026167885588166e-09;-1.183703390640142e-32;-4.14483259581568e-28;-6.222758623145529e-07;-4.870069029851896e-09;-1.0675317097662366e-33;-0.0005284771911910826;-0.0003556407968370371;-1.2995783597737476e-08;-1.5613344101499118e-06;-4.7735803417761806e-05;-2.7310669861098405e-05;3.8431789535479515e-05;8.635835308185811e-06;-8.635835308184744e-06;3.8423089125462186e-05;0.0007270513317744555;2.3866244077132113e-05;0.0017175656200821828;0.0;-1.839169064564157e-05;1.839169064564191e-05;0.0009162597189279212;0.004949252228538181
0.43948817253112793;0.0016662273456412367;0.0034846851672521084;0.0007685765664117067;-0.006750847755272663;-0.0015757415052578922;-0.0038440450953725024;-0.00021180535621026422;5.035898940141395e-33;0.0036849304170812227;7.111128770545772e-29;-2.324272131245672e-29;-7.504904334996397e-20;4.6561633197090095e-09;-1.5793518527708724e-32;-4.573042524670749e-28;-8.138799221328574e-07;-5.836430422872959e-09;-1.1892338618053772e-33;-0.0006172411235799153;-0.0004235852076911061;-8.875680903192603e-10;-1.209490677926914e-06;-3.697880497711129e-05;-3.508637243134191e-05;3.582277410605015e-05;8.055077740898317e-06;-8.055077740895979e-06;0.00019642772140412995;0.0008152275850792853;2.7029621070266205e-05;0.0015105952839706974;0.0;-2.5487742780498734e-05;2.548774278049891e-05;0.0006355504134977103;0.005513000905899577
0.4594404697418213;0.0023140040780981336;0.003883897402515463;0.0008972122194290615;-0.005991617673526302;-0.0006641304083210642;-0.004557925596897864;-0.00010493347825829085;5.632312131978723e-33;0.003984570002621434;6.75319546456677e-29;-2.3467733761400012e-29;-7.51160760822226e-20;5.305242851760058e-09;-2.045108646111507e-32;-4.96256267950298e-28;-1.0301548325339812e-06;-6.872971965119438e-09;-1.3159400339741767e-33;-0.0007104091693327607;-0.0004965493987478858;1.4421775026519107e-08;-9.060645536036859e-07;-2.7702100944349125e-05;-4.3486579369597894e-05;3.26698406976747e-05;6.868905393443075e-06;-6.868905393440924e-06;0.00033306172866867656;0.0009075587319148735;3.0174483383627674e-05;0.001315872288324389;0.0;-3.125255020745369e-05;3.1252550207453544e-05;0.0003897124468691753;0.005581954899670831
0.4794604778289795;0.0029901005834389043;0.004169162519621789;0.0010110302977088825;-0.004987275935820773;0.0003582302014289405;-0.005093223570882394;7.019774823952701e-08;6.191996576256184e-33;0.004193555465551597;5.710643277047143e-29;-2.2620368769000987e-29;-7.282836498833455e-20;5.963332604431219e-09;-2.566961321240874e-32;-5.2819298895648135e-28;-1.2727323036829848e-06;-7.97442199723726e-09;-1.430542919516713e-33;-0.0008069171654361486;-0.0005741123082156603;3.344361158910138e-08;-6.457983484504017e-07;-1.974494459284299e-05;-5.252853161164483e-05;2.910754560981366e-05;4.293664901028037e-06;-4.293664901028691e-06;0.0004478480176292231;0.001002056660158845;3.322179020312436e-05;0.0011347792212497059;0.0;-3.227546765298418e-05;3.227546765298622e-05;0.00017761970501226098;0.005037419262594236
0.4994828701019287;0.0035875661739353908;0.004268450037934875;0.0010875594306010302;-0.003580278922180334;0.0013430592940271656;-0.0053751900054881865;6.23697743261358e-05;6.838585965340616e-33;0.004304879333031012;4.644278618548278e-29;-2.1488910545806402e-29;-6.761447590408185e-20;6.609239655613222e-09;-3.213170275874738e-32;-5.554727008706129e-28;-1.540181295038157e-06;-9.119144695731656e-09;-1.5607430681247814e-33;-0.0009041515704294773;-0.0006546920177905717;5.6523449796132326e-08;-4.264506680262225e-07;-1.3038806401312214e-05;-6.210614494793452e-05;2.5396892912586245e-05;2.161431533846782e-06;-2.1614315338437855e-06;0.0005406997243058954;0.0010950468517776986;3.603473602233482e-05;0.0009701940316842147;0.0;-3.435881130861007e-05;3.435881130861474e-05;-4.742552404392536e-07;0.004077132935447135
0.5198938846588135;0.004060079857639604;0.004290268320390166;0.0011300627933021148;-0.002065101783870379;0.002273183151360457;-0.00552445127885019;5.448615797189692e-05;6.993035756386977e-33;0.004310762663485723;3.2685379088857747e-29;-2.036609547940694e-29;-5.864158164040654e-20;7.230401250084674e-09;-3.709245567317777e-32;-5.6869114074045865e-28;-1.8365406528739542e-06;-1.0304911041011135e-08;-1.5745102555027446e-33;-0.0010009495045333928;-0.0007380600202377286;8.45999480976708e-08;-2.4131721570195976e-07;-7.37871158773484e-06;-7.229347357477338e-05;2.163854709611119e-05;1.2940479482005495e-06;-1.2940479481996915e-06;0.0006146541697933365;0.0011839697973521802;3.850260680589684e-05;0.0008211332812154801;0.0;-3.875163617522653e-05;3.875163617523132e-05;-0.00014867551619438297;0.003185072017027251
0.5394761562347412;0.004271407873147051;0.004290780818473782;0.0011284056214090916;-0.0006032028512949199;0.002965852850172794;-0.00564931751343005;-1.941816582595706e-05;7.500989712472626e-33;0.004206290210672088;8.319736998215477e-30;-1.6919311777452563e-29;-4.590967611516312e-20;7.762950812801284e-09;-4.488323677590747e-32;-5.7125964450993825e-28;-2.1404646967933627e-06;-1.1429588576856408e-08;-1.6630262531163896e-33;-0.0010880722391157173;-0.0008169612517416835;1.1615655123976034e-07;-9.667750873589582e-08;-2.9566393318889812e-06;-8.230352884202787e-05;1.8155712239434997e-05;2.48036603628489e-10;-2.4803660145966116e-10;0.0006686952876111739;0.0012588699553135563;4.031635693150749e-05;0.0006969911616860915;0.0;-3.858848823170287e-05;3.858848823170755e-05;-0.0002614346712644731;0.0025762409457305833
0.5595703125;0.004337326605149853;0.004108000897913702;0.0010902942163570535;0.000765918183802194;0.0035929611425231907;-0.005603088240196438;-0.0001144647565457642;7.728918406567092e-33;0.003981269294081167;-1.744399380121069e-29;-1.155509563516568e-29;-2.791506639696013e-20;8.209657595433634e-09;1.1669325153296977e-30;-5.519945969694026e-28;-2.4677522323173717e-06;-1.2529853908173772e-08;-1.6814368131477646e-33;-0.0011671024295165765;-0.0008938748889553275;1.5349240710301816e-07;2.1892897314841068e-08;6.68414835762002e-07;-9.258332359620532e-05;1.475567226843538e-05;-2.4857137468496442e-06;2.485713746851952e-06;0.00071050850101914;0.0013191002406941273;4.139924764205349e-05;0.0005895322456629138;0.0;-3.435429299518752e-05;3.4354292995189474e-05;-0.000349980740175023;0.0020638005541103823
0.5797848701477051;0.0041223410739235486;0.0037253053072352727;0.0009932658398361651;0.002127810248899355;0.0039758921284484714;-0.0053665689498633455;-0.00016457186343761263;-1.2389563782282597e-30;0.003630457290522117;-5.227869476169175e-29;-6.350594468721688e-30;-4.0058271969819705e-21;8.515634401774444e-09;-5.898886528813051e-32;-5.139966360622023e-28;-2.8065069346784426e-06;-1.353191503637731e-08;-1.6034417021898583e-33;-0.0012321321653453916;-0.0009650237643078048;1.9627247286541522e-07;1.1430988807631784e-07;3.4938854569066017e-06;-0.00010263408263636435;1.15154175030857e-05;-4.154468280681834e-06;4.154468280679727e-06;0.0007398953160755797;0.0013587018187181871;4.144660448423045e-05;0.0005021455165152017;0.0;-3.0200629337833646e-05;3.020062933783422e-05;-0.00041435342012298773;0.0015426829348030152
0.5995616912841797;0.003499785651290838;0.003135122452138421;0.0008189179203299066;0.0032609067028082153;0.0038864792196026342;-0.004855899018889755;-0.0001343598605008422;7.416526732808337e-33;0.003167343752277509;-9.321572864818211e-29;2.3948771315247416e-30;2.5787217819147584e-20;8.629264330041531e-09;-6.776098435331293e-32;-4.471276197545116e-28;-3.1391723162097253e-06;-1.435256746432288e-08;-1.52568948571695e-33;-0.0012796437369141985;-0.001025626340776774;2.432251668946957e-07;1.8204355303159351e-07;5.5647240247576584e-06;-0.00011182325853800898;8.486391201055448e-06;-4.1705977345577915e-06;4.170597734556715e-06;0.0007556389534154782;0.001374535576070086;4.021050511760958e-05;0.0004367805802658;0.0;-2.4095745173227728e-05;2.4095745173235016e-05;-0.0004564073632206519;0.0009254498174995955
0.6196784973144531;0.0028032311001292584;0.002477489260516682;0.0006261419103644239;0.00431149807218811;0.0036520594300849065;-0.004183240401753952;-4.2406436072205465e-05;6.740599806645787e-33;0.0025980099901900806;-1.4597285470418341e-28;1.265927354284393e-29;6.338025377566589e-20;8.5015804173429e-09;2.416335643838846e-30;-3.488743667572111e-28;-3.4683357221503235e-06;-1.495459983508559e-08;-1.3221364413374223e-33;-0.001309212335425434;-0.0010725884368582388;2.960338988707894e-07;2.312351890442239e-07;7.068696625032014e-06;-0.00012006122610575712;5.483314387056018e-06;-4.46896158013714e-06;4.468961580137747e-06;0.0007587033358623219;0.0013626785091064104;3.733913650878648e-05;0.0003904558157667226;0.0;-1.3892362709651353e-05;1.3892362709654605e-05;-0.0004810819244940954;9.597457820291938e-05
0.6394741535186768;0.0023147711413745845;0.0018554827049308794;0.00047273613430391865;0.005082133091574083;0.003506914635470777;-0.003457428231576358;5.8624135771831007e-05;5.902997934419784e-33;0.0019894854937702205;-2.024492905946948e-28;2.456669371092572e-29;1.0829283044046782e-19;8.076785936292212e-09;-8.268728625565545e-32;-2.1579820231500663e-28;-3.7705963422090084e-06;-1.5238480786189857e-08;-1.0684766748881624e-33;-0.001315639171141832;-0.0010982740689193453;3.5265994153447174e-07;2.632197730905518e-07;8.046624354965014e-06;-0.00012654836013709322;2.518996342632192e-06;-5.88468529100124e-06;5.884685291001489e-06;0.000749857469875766;0.0013198358919467362;3.259130336115208e-05;0.0003642253315944685;0.0;-6.675549496664819e-06;6.675549496665311e-06;-0.0004904590556355302;-0.0007036399367540429
0.6595430374145508;0.0018163762325260524;0.00134550208875908;0.0003300089158020992;0.005608537578226354;0.003234012500636892;-0.0027886346513099573;0.00013034234010499073;4.524592777754913e-33;0.0013721707596619768;-2.6898709442197225e-28;4.040400940448289e-29;1.625595984105972e-19;7.275125326888608e-09;-8.943300183108998e-32;-3.595366657511742e-29;-4.039422994323211e-06;-1.5120303811380946e-08;-6.86818979393458e-34;-0.0012946587161814232;-0.0010980552766694542;4.142315638285057e-07;2.8183207797845227e-07;8.615758423581273e-06;-0.00013084748439912242;-6.021621221656324e-07;-6.694950548625958e-06;6.69495054862552e-06;0.0007302203851041933;0.0012416594203568884;2.5459107659481913e-05;0.00035648769651206737;0.0;-3.573252613767104e-06;3.5732526137702715e-06;-0.0004876988395671036;-0.0012952811067796974
0.679602861404419;0.0013611347817761243;0.0010738275592541376;0.00021731274819109143;0.005779210419101601;0.002925120094594448;-0.0023448910653446303;0.0001420049844396982;2.6386829323090468e-33;0.0007849646951346213;-3.496195982847188e-28;5.850811674122625e-29;2.2621425136939284e-19;6.026419351307962e-09;2.360045524790228e-30;1.9207336573520667e-28;-4.251693363997298e-06;-1.448856398777282e-08;-1.8178227786689527e-34;-0.0012411264526645369;-0.0010664166886337968;4.791322025564909e-07;2.890755203574469e-07;8.837358058563732e-06;-0.0001321180985202963;-3.797679662666579e-06;-6.1495447786990035e-06;6.149544778699232e-06;0.0007014362147287438;0.0011258570626397557;1.5600937905613674e-05;0.00036675954373288476;0.0;1.6868730398048478e-06;-1.6868730397990066e-06;-0.00047518590130146953;-0.0017817010174056304
0.6996831893920898;0.0009307652467424568;0.0009660222518053284;0.00012751743525970483;0.005774148229871328;0.0025603442557179416;-0.002094743426230775;8.898129915478324e-05;1.688364557528697e-34;0.0002471873514124389;-4.370162201003441e-28;7.953593669134062e-29;2.998548505144268e-19;4.248185620912066e-09;-9.78929157817012e-32;4.750370246231679e-28;-4.385755373578806e-06;-1.322418514480409e-08;4.540036725134835e-34;-0.0011494572889609767;-0.0009983924173695502;5.462914481127552e-07;2.8723373842663024e-07;8.781251225947336e-06;-0.00012951637600910822;-6.909732597421031e-06;-6.120933694175418e-06;6.120933694175645e-06;0.0006651423277654324;0.0009697321888738472;2.5818175992313226e-06;0.0003938673190202504;0.0;8.305028009806518e-06;-8.305028009808849e-06;-0.0004552415826363439;-0.0022630202936045713
0.7194318771362305;0.0005533775204357731;0.0007927609396414128;4.9830082543949244e-05;0.005643737633273751;0.002191156484791091;-0.001819844883341604;1.2241206817814948e-05;-1.2350760453111271e-30;-0.00022113849413854772;-5.3395143480165335e-28;1.0374717036296144e-28;3.8226563242555045e-19;1.9012626142875012e-09;2.3629052901230368e-30;8.14282279382008e-28;-4.416495003026261e-06;-1.1238468703341676e-08;1.2540373379015682e-33;-0.0010162353986129591;-0.0008912379335949423;6.129733484277644e-07;2.785070558538054e-07;8.514713740675647e-06;-0.00012225653492524015;-9.784481518894852e-06;-7.391906486709852e-06;7.391906486709727e-06;0.0006237837093380437;0.000774593677442583;-1.3714873738615782e-05;0.0004355327784938099;0.0;1.1575662974799046e-05;-1.1575662974800674e-05;-0.0004304061971456825;-0.002813915208245196
0.7394392490386963;0.0002678714372165675;0.00039125067171846205;-2.5224898825214867e-05;0.00532146346216933;0.0018982919473579662;-0.0012931760661900483;-2.7641458992934096e-05;-6.877554211516808e-33;-0.0006285684609378327;-6.394339018667632e-28;1.2921442719226792e-28;4.759287222530273e-19;-1.1689598282327877e-09;2.3427039018577502e-30;1.2213947316980913e-27;-4.316788907176485e-06;-8.337400532066425e-09;2.2499262273624096e-33;-0.0008327255721220961;-0.0007354861612388845;6.791932948894983e-07;2.644200285572391e-07;8.084374009164914e-06;-0.0001091033456766021;-1.2449682681015568e-05;-8.165836345537019e-06;8.165836345535708e-06;0.0005777552545191664;0.0005380408245123408;-3.418607343790799e-05;0.0004911934846379429;0.0;1.3810504739532307e-05;-1.3810504739535268e-05;-0.00040176186398869736;-0.00321096889011382
0.7596085071563721;0.00011317049303114589;-0.00022085156161134948;-9.318926580065426e-05;0.004761833150057778;0.0017516154987277479;-0.0005023652284535624;1.3636737198420584e-05;-1.1515426716519283e-32;-0.0009699695492235202;-7.558799848502607e-28;1.6139941399993053e-28;5.804809351831732e-19;-5.059635722831052e-09;2.3722958398767436e-30;1.7065181169595534e-27;-4.050573568381004e-06;-4.357827401106385e-09;3.3949943656183284e-33;-0.0005984559381517864;-0.0005268848156774382;7.421046172076623e-07;2.4639269361934996e-07;7.533658372498788e-06;-8.878509386384466e-05;-1.4858053432525781e-05;-7.59042211048176e-06;7.590422110480433e-06;0.0005286392581270184;0.0002675558431022503;-5.9280130895058046e-05;0.0005589436780881057;0.0;1.8116876119865998e-05;-1.811687611987376e-05;-0.00037088047349687395;-0.0032074893027872714
0.7795746326446533;-3.966368636696866e-05;-0.0008270888670317936;-0.00016297363172317877;0.004138364982992893;0.001575703130835379;0.000350693197827342;0.00011894728405690728;-1.703277988533265e-32;-0.0012418287987873927;-8.768628774763838e-28;1.9267423209466106e-28;6.933919067389895e-19;-9.785644348791185e-09;2.386614926501964e-30;2.2598216070779734e-27;-3.5878477552379115e-06;7.783110707593154e-10;4.745303403685644e-33;-0.00033474947148057655;-0.0002840151469121897;7.975952706035088e-07;2.260310497393751e-07;6.911669314568469e-06;-6.297991001021117e-05;-1.696361828333206e-05;-7.4182309417632596e-06;7.418230941764137e-06;0.0004786424778901521;-1.4971177714860775e-05;-8.891736293417336e-05;0.0006351216582343615;0.0;1.8514821505002044e-05;-1.8514821505007116e-05;-0.00033958975848148655;-0.002897573755811132
0.7994894981384277;-0.00014006904992942688;-0.0015001028203749467;-0.00023416614389340707;0.0036780446204172316;0.0014305639416588686;0.0013299043766790764;0.00023482653548837098;-2.3957339672642235e-32;-0.001452394901358078;-1.0036223995767237e-27;2.2898864355274014e-28;8.142764406023212e-19;-1.5449683165618285e-08;2.3566036532122908e-30;2.8856958915015948e-27;-2.8904774793056864e-06;7.243504999325197e-09;6.433016291638512e-33;-6.649228748068639e-05;-3.082516194772195e-05;8.426542534635663e-07;2.042827566256166e-07;6.247391604200526e-06;-3.485867289182209e-05;-1.8799453330953926e-05;-8.387580612537384e-06;8.387580612536563e-06;0.00042854154217092236;-0.00028936877333411487;-0.00012357162375070338;0.0007173161308940365;0.0;1.4063715437255068e-05;-1.4063715437250682e-05;-0.000308679871233636;-0.0023814694632128854
0.8197429180145264;-0.000251462213843062;-0.00227707956464296;-0.00031986071496566457;0.0034131557908114725;0.001238433232389171;0.0024819822737750814;0.00031952876020157673;-3.076071732508803e-32;-0.0016112436393714378;-1.1330009569316396e-27;2.7048181702934155e-28;9.440243269869738e-19;-2.2260945245240287e-08;2.4445742058343526e-30;3.6029800717990755e-27;-1.8973464506864818e-06;1.5353204235901585e-08;8.044506888774775e-33;0.0001928447769124904;0.00021934586957911392;8.736354716345876e-07;1.815779381241399e-07;5.5539992067518345e-06;-6.247375557134537e-06;-2.0416531526173755e-05;-8.650001637757538e-06;8.650001637757386e-06;0.0003783280379935575;-0.0005454660091558581;-0.00016430852043458283;0.0008038779401514428;0.0;1.1812655820628316e-05;-1.1812655820630374e-05;-0.0002783595762118357;-0.001727098292534352
0.8394491672515869;-0.00033584344913372235;-0.002921957859970351;-0.0003929277255366591;0.0031593569734485695;0.0010759399520068387;0.00349748668890623;0.0003395702081671655;-3.97066197838497e-32;-0.0017197054415125505;-1.2588975638505619e-27;3.07297666880203e-28;1.0746490680075503e-18;-2.996729994460101e-08;2.4323544990407897e-30;4.376408783297074e-27;-6.13727111103333e-07;2.4875490795066153e-08;1.0176344538924183e-32;0.00042032521679863887;0.0004434550372613521;8.846629986220798e-07;1.595957727442256e-07;4.882801697828601e-06;1.9985914795093195e-05;-2.1770563584962017e-05;-7.4325034379629325e-06;7.432503437962096e-06;0.00033094370063889965;-0.0007631475238246917;-0.00020942926193462602;0.0008872013765881326;0.0;1.1651760168101205e-05;-1.1651760168099848e-05;-0.00025049943858145116;-0.001037777926708795
0.8594470024108887;-0.0002674050156547416;-0.0035632546968251255;-0.000445106789467256;0.002919945976229554;0.0011159627516549218;0.00453063509994378;0.00028439445628128195;-4.940653482513967e-32;-0.001791437970274137;-1.3797260730593794e-27;3.5089601303375044e-28;1.2086024570948973e-18;-3.8921785456927235e-08;2.4611593921022285e-30;5.230617885947182e-27;1.054123306463141e-06;3.632234658849841e-08;1.2453011645113704e-32;0.0006189347961092046;0.0006432235722614971;8.709950390443942e-07;1.379431811802823e-07;4.221821160500518e-06;4.389275023800497e-05;-2.2945121142131077e-05;-6.576204195631962e-06;6.5762041956324735e-06;0.0002849540908243176;-0.0009470360307802846;-0.0002607891447557618;0.000966335206866052;0.0;9.5001877953749e-06;-9.500187795370177e-06;-0.00022426505345795643;-0.00038249043886420646
0.8794803619384766;-0.000105383655515551;-0.004318933850805814;-0.0004881839392873471;0.002577895476383911;0.0012980877500108502;0.005653877110136457;0.00018666806301429313;-5.991848380395963e-32;-0.001832776282818458;-1.4899692735172112e-27;3.9177561671530627e-28;1.3403439478270901e-18;-4.905969392330187e-08;2.508632018059593e-30;6.147448926276911e-27;3.1393802706082092e-06;4.9709116031392976e-08;1.488939047968623e-32;0.0007820298956576985;0.0008106166379390847;8.259381495468856e-07;1.1732327866400251e-07;3.5925467692028145e-06;6.445167976658952e-05;-2.3936545739098104e-05;-6.932347162499532e-06;6.932347162498347e-06;0.00024145492652125;-0.0010918753466824724;-0.0003177429244137896;0.0010349434344153765;0.0;7.786878398528785e-06;-7.786878398527463e-06;-0.00020024800224866969;0.00012116687936946423
0.8994696140289307;0.00017339951951274464;-0.005084095169048396;-0.00050920743265034;0.0021249164107847354;0.0016576410906311962;0.006719231968632177;0.00011166570561752527;1.1587550446127847e-30;-0.001851520751752565;-1.5820077720102332e-27;4.290231667013244e-28;1.4645375601673513e-18;-6.033108920878246e-08;2.555062043017242e-30;7.11645140328532e-27;5.678132917239968e-06;6.50703787005736e-08;1.7579658490387563e-32;0.0009085737849166861;0.0009426968073376962;7.427519696932179e-07;9.811213864083929e-08;3.006470580712739e-06;8.127223624235256e-05;-2.4748785450730648e-05;-6.716747754570449e-06;6.716747754571629e-06;0.0002009341581179585;-0.001197492733987378;-0.0003797290983580197;0.0010894926704303953;0.0;9.502202715688192e-06;-9.502202715682493e-06;-0.0001785874482868343;0.00034780990813675804
0.9195053577423096;0.00043235535263173055;-0.005973871633032878;-0.0005399593453434145;0.0016797040733560614;0.002007057115141397;0.007884519585383165;0.000108027873720094;-8.42607211540822e-32;-0.00185523103725394;-1.650251406067206e-27;4.696297172525617e-28;1.575844330617409e-18;-7.273917432100733e-08;2.613337767355881e-30;8.120531259501663e-27;8.724260267464715e-06;8.252575590956868e-08;2.0438549388653922e-32;0.0010008750485707054;0.0010395789367212652;6.134297917221391e-07;8.04208244377848e-08;2.4669883723116404e-06;9.437181197842857e-05;-2.538214726210935e-05;-5.176524402084976e-06;5.176524402086064e-06;0.00016340562950745084;-0.001266428033014999;-0.0004464431212628622;0.0011283199681472909;0.0;8.542716032185325e-06;-8.542716032189103e-06;-0.00015908546327391692;0.00016149852807055505
0.9395835399627686;0.0008761820071000146;-0.006796542267048911;-0.0005412156107831661;0.0011804861700285818;0.0026255896097060367;0.009002855714427025;0.00017249896330820058;1.1447874125169277e-30;-0.0018506107238354642;-1.6811066160760914e-27;5.008169064362699e-28;1.6670672853922801e-18;-8.619227813994959e-08;2.302650443329166e-31;9.13680394119004e-27;1.2318309996357268e-05;1.0208299730316427e-07;2.310937920939468e-32;0.001061976797802735;0.0011017954234285785;4.2945798846674283e-07;6.43794870859257e-08;1.9780687462775592e-06;0.00010384916184379283;-2.58186413510341e-05;-4.193555932264815e-06;4.1935559322657445e-06;0.00012899263905066016;-0.0013016305922045176;-0.0005170099809582592;0.0011476268249260013;0.0;3.4320095207008615e-06;-3.4320095206951495e-06;-0.0001415289020532337;-0.0002819207901629431
0.9594464302062988;0.0014541700528997925;-0.007421090947637066;-0.0005106428684679888;0.0007296293644049356;0.003436379020796036;0.009905364737693522;0.00025625065740811397;-1.1038249195175061e-31;-0.0018436762631173342;-1.6694716087893007e-27;5.241426181238871e-28;1.7291061195059478e-18;-1.0035262980934335e-07;2.7841126971820772e-30;1.01219485313691e-26;1.6437403485137397e-05;1.233971195399465e-07;2.620553863819424e-32;0.0010942967963865824;0.0011320313997459986;1.8533991625697916e-07;5.022002734879304e-08;1.546763347093554e-06;0.00010987919679364645;-2.6024122287134432e-05;-4.60450638664192e-06;4.604506386641059e-06;9.810725520411382e-05;-0.0013069124010561567;-0.0005892497130173779;0.0011421963861502722;0.0;6.817477082810334e-07;-6.817477082801142e-07;-0.0001257741720171763;-0.0008601934856511543
0.9794459342956543;0.0019481632395862045;-0.007801824588223318;-0.00047606038166214746;0.00046751490356986035;0.004135447408665525;0.010507914356488943;0.0003141288035057159;2.314688453627737e-30;-0.0018392904453208951;-1.6026266203710442e-27;5.396215167977398e-28;1.7536173488002036e-18;-1.1524384691881784e-07;4.242661503694442e-31;1.1064644073755994e-26;2.1171960968005428e-05;1.466848248598149e-07;2.942743959492351e-32;0.0011008536815578318;0.0011357555021998225;-1.3187891823401806e-07;3.767588712830405e-08;1.1649249748408918e-06;0.00011292402913559288;-2.5926867959816818e-05;-4.612347006724678e-06;4.61234700672315e-06;7.013082640139954e-05;-0.00128676792794843;-0.0006627764505118498;0.001105289271012932;0.0;-3.661554892235142e-07;3.6615548922575925e-07;-0.00011108004626239993;-0.001775184813138003
0.999652624130249;0.002320048837580211;-0.007911085146563917;-0.00043974825299922916;0.00041447010600873674;0.004669030368416965;0.010758620319229818;0.00031105802840735363;-1.3601554915179787e-31;-0.0018414958486754575;-1.4621139419895287e-27;5.411284941579763e-28;1.7285593849159101e-18;-1.3062839772622917e-07;5.294915436063147e-31;1.1913028454513536e-26;2.6561698822086053e-05;1.718245065053463e-07;-1.2129412087292546e-30;0.0010841817603901448;0.00111679535211287;-5.34444641962853e-07;2.6698857096257284e-08;8.310525508571952e-07;0.00011330482791938015;-2.5399329926046757e-05;-3.4395918083051576e-06;3.439591808303948e-06;4.494462294020297e-05;-0.0012448496139496155;-0.0007357189627120099;0.0010276583314377278;0.0;-3.8406765462305545e-06;3.840676546234197e-06;-9.687045344946457e-05;-0.0031997728542098175
1.019460678100586;0.0026491744951833932;-0.0076838099170066405;-0.0003825799997736092;0.0003074856798977394;0.0051621622193881896;0.01058696399697837;0.0002304734813365949;2.2927639902492672e-30;-0.001852890736725128;-1.2455145557767129e-27;5.269201165732941e-28;1.6432449392273317e-18;-1.456537260881066e-07;-1.775797332324071e-30;1.2592369109707759e-26;3.2427381939757565e-05;1.9768199378579136e-07;3.46910893208688e-32;0.001048703468294607;0.001079982191086502;-1.0179864005317633e-06;1.7516088402443453e-08;5.519944410103566e-07;0.00011144341044227244;-2.43401225632098e-05;-2.967705214350014e-06;2.9677052143494913e-06;2.31325852447433e-05;-0.0011868516265972878;-0.0008033111484772725;0.0009055383735762139;0.0;-7.020428471416457e-06;7.020428471411977e-06;-8.29442311044663e-05;-0.004910437351195579
1.039635419845581;0.002816302088891931;-0.0071650563834819835;-0.0003180909035817764;0.000125262118862738;0.005455767525108522;0.009950162170760498;0.00010065043266097529;2.3227077510849984e-30;-0.0018755429276141624;-9.22694740994414e-28;4.897789091087554e-28;1.4805660213136135e-18;-1.6039503643001446e-07;-1.684049859104081e-30;1.3072718805072988e-26;3.896336317590785e-05;2.2474444758013948e-07;3.6220916673427426e-32;0.0009971005589212907;0.0010275126522191456;-1.6097027783347277e-06;9.664997846307386e-09;3.1361581969525814e-07;0.00010768154586380622;-2.257202571013127e-05;-3.97443903260786e-06;3.974439032607335e-06;3.6971321958203706e-06;-0.0011146056990563866;-0.000864891376709101;0.000731648842232505;0.0;-6.777280382677549e-06;6.7772803826791354e-06;-6.804917109634172e-05;-0.0065119048915819565
1.0594961643218994;0.0029578670506114507;-0.006460350570282514;-0.00023437681930584496;-0.000295000921271572;0.005740784711069925;0.009003216131439359;-7.206409264146646e-06;2.2938989091084408e-30;-0.001909103291323968;-4.914786219295928e-28;4.295644675972971e-28;1.2309294792594395e-18;-1.737497066301088e-07;-3.969967447354118e-30;1.3255566234402652e-26;4.589600710511516e-05;2.514543379913524e-07;-1.193927975093376e-30;0.0009350290856103379;0.0009640287111648356;-2.297659225418041e-06;3.300793793256158e-09;1.2053736780943725e-07;0.00010251861102680891;-2.0008113284956217e-05;-4.596369066201043e-06;4.59636906620018e-06;-1.2839861507506228e-05;-0.0010340727639777075;-0.0009145490850407599;0.0005210284110582647;0.0;-9.012623120078672e-06;9.012623120076868e-06;-5.19324403738182e-05;-0.007543524473264803
1.07950758934021;0.003041636401819794;-0.005671661449657089;-0.00014682238629990107;-0.0008070002179140099;0.005958187493533164;0.007887818432553899;-4.480031451651696e-05;2.256352976847955e-30;-0.001953290179914602;7.377735395683713e-29;3.381793099737872e-28;8.733818664909179e-19;-1.8530343747769656e-07;-6.166462296193951e-30;1.3072916243577483e-26;5.329409872223494e-05;2.7759850295609703e-07;3.9099277690726396e-32;0.0008638783909861642;0.0008919254655777634;-3.103142003164349e-06;-1.8687050446574484e-09;-3.622125893575245e-08;9.62119932764131e-05;-1.6441065007452523e-05;-4.004501744099861e-06;4.00450174410009e-06;-2.7034271169168614e-05;-0.0009467328631264004;-0.0009490234573058359;0.00028824871146647624;0.0;-1.5330251443401376e-05;1.533025144340095e-05;-3.341753000773716e-05;-0.007965185060338295
1.0997610092163086;0.0030844494061272464;-0.004812226108431249;-5.962906960436619e-05;-0.0015032251778152013;0.006132726943206952;0.0067155511291034226;-5.471758844381852e-06;2.291516180996035e-30;-0.002006276460343946;7.97517059794958e-28;2.1056093708192574e-28;3.8567796804735794e-19;-1.9415856422396644e-07;-8.581375429599067e-30;1.24160563929113e-26;6.107764774786804e-05;3.022185069524723e-07;-1.1963355687323773e-30;0.0007846043863944425;0.0008149567324262908;-4.037877496532011e-06;-5.962517845396156e-09;-1.6040076151033273e-07;8.903300690859456e-05;-1.1654926077475161e-05;-3.953266788215865e-06;3.953266788214235e-06;-3.899556783160046e-05;-0.0008548843471852821;-0.0009626372749733231;5.0242642924342614e-05;0.0;-1.9591295288296117e-05;1.959129528829144e-05;-1.1481770954346001e-05;-0.008013644669358064
1.119729995727539;0.003056468903392998;-0.003927059133856759;1.5069098023653424e-05;-0.002285375404369001;0.00620638227072157;0.005591296219426854;6.762835072957895e-05;2.320828682600837e-30;-0.002062947013319584;1.6777514735163893e-27;4.3745026044465957e-29;-2.3686648867859353e-19;-1.990733028533343e-07;-1.2256999161556035e-29;1.1195043479183585e-26;6.88779530442728e-05;3.2342900293434003e-07;-1.2106241488522944e-30;0.0007010429415653435;0.0007383862983379144;-5.079334626239632e-06;-9.006270035050799e-09;-2.5292469488003986e-07;8.14586617087175e-05;-5.602697507188321e-06;-5.1727089944562524e-06;5.1727089944567505e-06;-4.850517978342775e-05;-0.0007633155757604008;-0.0009518927023256833;-0.0001717727959040338;0.0;-2.2614958501927795e-05;2.26149585019248e-05;1.4169982515427147e-05;-0.00788316532897251
1.139502763748169;0.003157624154405475;-0.0031566282849552012;9.499530952285484e-05;-0.0030453815327178765;0.006427788179963256;0.004683188894532426;0.00012443083659323856;4.765706092834762e-30;-0.002118264150579749;2.7299138247834183e-27;-1.659860011510285e-28;-1.0097046669979203e-18;-1.990492209981284e-07;-1.3140872591223586e-29;9.324540693112518e-27;7.651416416302082e-05;3.3996475020581525e-07;3.3263232718091027e-32;0.0006148857673211444;0.0006642522336617945;-6.226757701077292e-06;-1.1171669360042094e-08;-3.1915576980789914e-07;7.371882519294699e-05;1.8724538802604659e-06;-5.809056596340097e-06;5.809056596340244e-06;-5.573331671369195e-05;-0.0006736075745251008;-0.0009159436135392331;-0.0003697340217652402;0.0;-2.729366813563394e-05;2.7293668135629814e-05;4.4376660704809965e-05;-0.007727329994425786
1.1595005989074707;0.0033887440916854977;-0.002423393704829583;0.0001881019986680471;-0.003690693781774331;0.006777621667476474;0.0038661681749604503;0.0001292062345153862;4.744031429012018e-30;-0.0021666455701982476;3.990773125062483e-27;-4.279507919237764e-28;-1.967523581803537e-18;-1.9274256170349423e-07;-1.773082677175046e-29;6.62769169099708e-27;8.388025984796941e-05;3.5042076879006396e-07;-1.1950413695966143e-30;0.000526260206616687;0.0005926061344890436;-7.499760935408253e-06;-1.2621051103597571e-08;-3.6420968072655575e-07;6.58593053489125e-05;9.27748829134675e-06;-5.060446781481315e-06;5.060446781481708e-06;-6.083214029681928e-05;-0.000585446938296152;-0.0008505818273653476;-0.0005424131299228401;0.0;-2.9910800809100882e-05;2.9910800809098822e-05;8.066387609764018e-05;-0.007388409146559411
1.1796531677246094;0.0036721357175505953;-0.0016238790474487007;0.0002942300771725429;-0.004030799846038658;0.007119763238322923;0.0029524765495273267;5.801209225775829e-05;2.3386964792734824e-30;-0.002199248657130833;5.476093644271395e-27;-7.5540329230153565e-28;-3.1292386757356193e-18;-1.7849054943627423e-07;-2.1374675598511261e-29;2.971734764258728e-27;9.060759616808012e-05;3.525436818534187e-07;-1.2095808240907451e-30;0.00043745285372188606;0.0005247631777712923;-8.886955136228692e-06;-1.3439001153935145e-08;-3.908605060085052e-07;5.808304118259163e-05;1.49709797144653e-05;-4.6872020303274525e-06;4.687202030327677e-06;-6.367423495340007e-05;-0.0005004724834655626;-0.0007502793222306333;-0.0006862731613616485;0.0;-2.753240803656946e-05;2.7532408036568414e-05;0.00012391198462747798;-0.006725022919961427
1.1996943950653076;0.0038875668570741264;-0.0007235736817394626;0.0004073657904268904;-0.004012567615717672;0.007273560661541164;0.0017799787885342806;-6.432048649540189e-05;4.900283117905072e-30;-0.0022055235013591665;7.172282970787229e-27;-1.1358908939803533e-27;-4.495673623063488e-18;-1.5480862626678294e-07;-2.5293080548051806e-29;-1.7422481762286976e-27;9.620814535820344e-05;3.4397711485841273e-07;-1.23562422361106e-30;0.00035163744146452365;0.0004620032094082012;-1.0354309319064534e-05;-1.3713063200366159e-08;-4.019520914545104e-07;5.0632944463062106e-05;1.91448459007205e-05;-5.449513828941237e-06;5.449513828943779e-06;-6.411661639433846e-05;-0.0004207429970302645;-0.000610056669030502;-0.0007996680176293049;0.0;-2.6262953555939975e-05;2.626295355594576e-05;0.00017434352087106046;-0.005887986729296137
1.219482660293579;0.004146974815671327;0.00012260228965825894;0.0005324255510109103;-0.0038581991345643723;0.007395833784022714;0.0005703024010965468;-0.0001727727217261426;4.893341910780609e-30;-0.0021745994081736964;9.075329184702327e-27;-1.583668584008819e-27;-6.06419417667085e-18;-1.2036976095282333e-07;-2.977341119421875e-29;-7.577568909499725e-27;0.00010021232602296653;3.225424444918647e-07;-1.2346946356074103e-30;0.0002713008156969009;0.0004044991052271218;-1.1866396867992469e-05;-1.3544127248124894e-08;-4.0071846194338314e-07;4.365927797848191e-05;2.2045534073596677e-05;-5.511585710168474e-06;5.511585710169625e-06;-6.20721468254919e-05;-0.00034732152277892496;-0.00043350924478884577;-0.0008847329887236553;0.0;-2.7566431124769643e-05;2.756643112476725e-05;0.00023205904757898183;-0.00501962359837429
1.2394957542419434;0.0044545796694304895;0.0007477863469543603;0.0006548161968503337;-0.0033940480067455045;0.007456579967531463;-0.0004568001880206037;-0.00021622595858650023;4.92946542000758e-30;-0.0020923542093056425;1.12195431141767e-26;-2.1042263763453105e-27;-7.881610317941436e-18;-7.245998516554162e-08;-3.316869241703894e-29;-1.481364381897679e-26;0.00010217606951776526;2.8490349835372546e-07;-1.9789334885564417e-32;0.00019647464527383098;0.0003502614338635633;-1.3428300735045032e-05;-1.3008263915687682e-08;-3.897927142855227e-07;3.707136566126238e-05;2.39537589325076e-05;-4.1263433193338715e-06;4.1263433193350124e-06;-5.729221618005533e-05;-0.00027882637168014405;-0.0002324877673115161;-0.0009470552696514228;0.0;-2.5142489703066957e-05;2.514248970307333e-05;0.0002989664117156322;-0.004259450966341617
1.2596275806427002;0.004692373547637787;0.0011396651144626028;0.0007516715903029153;-0.002550848737257699;0.00727431302120669;-0.0012213044857575482;-0.00018170879059000648;5.082469652257402e-30;-0.001942657938590377;1.3602994318419528e-26;-2.699344487129454e-27;-9.948862499449611e-18;-8.981405840093504e-09;-3.992375462357455e-29;-2.3578338137994625e-26;0.00010140751184248077;2.277255880561065e-07;-1.2826661223093911e-30;0.00012972632438863643;0.00029869578352417206;-1.4991598245608233e-05;-1.216806230528226e-08;-3.7132487316768104e-07;3.096980802352401e-05;2.50111630346989e-05;-3.170977690002855e-06;3.170977690003335e-06;-4.9474746754156335e-05;-0.0002159762718152096;-2.6608269413115935e-05;-0.000990075938838547;0.0;-1.9733465062949528e-05;1.973346506295189e-05;0.00037527979248021254;-0.003462536975562442
1.2794640064239502;0.00480606935131035;0.0012139251174429178;0.0008033429432149007;-0.0014734454728189883;0.006781479763558088;-0.0015231541892263322;-0.00010712747045878741;2.660757292971951e-30;-0.0017129646731489949;1.6148977893989988e-26;-3.3613985998662506e-27;-1.2218595190287442e-17;7.058212934460356e-08;-4.2967223781525137e-29;-3.3781129737869874e-26;9.726574176484833e-05;1.4916772086176284e-07;-1.2893614203691317e-30;7.430094040391658e-05;0.00024953750612901314;-1.6473688885396592e-05;-1.1102358807475196e-08;-3.4778189532121554e-07;2.5504088654436086e-05;2.5351932727079697e-05;-3.4911926881901194e-06;3.4911926881902524e-06;-3.8522478336474794e-05;-0.0001600305612690449;0.00016667116882593692;-0.0010151955042099166;0.0;-1.6020683294379285e-05;1.6020683294382964e-05;0.0004594162777396941;-0.002494458857647021
1.299605369567871;0.004651705723981128;0.0011713297279554024;0.0008085943026149673;-5.846392091427664e-05;0.005737744863978603;-0.001653671430969861;-4.039341902164834e-05;5.285944865081523e-30;-0.0013777573135403801;1.891287574816733e-26;-4.103212056114784e-27;-1.4749913873862813e-17;1.7073639112278753e-07;-4.7410613722998276e-29;-4.5838677225973206e-26;8.882944399652993e-05;4.329204250867306e-08;-9.388379950308764e-32;2.9095455004400502e-05;0.00020121156021510165;-1.7855368913267384e-05;-9.828324350780219e-09;-3.201984395983971e-07;2.0522186005927374e-05;2.510541008129669e-05;-3.2683958075425988e-06;3.268395807541722e-06;-2.3754734725241073e-05;-0.00010922513428841491;0.00034416055992418507;-0.0010231745752986223;0.0;-1.170083695513561e-05;1.170083695513388e-05;0.0005537342332597519;-0.001473249135653344
1.3194983005523682;0.004465259239073669;0.0012828481475548772;0.0008249117232578015;0.0014598565926115489;0.0045126235505497225;-0.001953703240557656;-2.1356332934335388e-05;2.9290139405095024e-30;-0.0009309403167779141;2.177669267999458e-26;-4.905294742488857e-27;-1.7455106069283323e-17;2.9078595206046265e-07;-5.332399443259973e-29;-5.94902484156687e-26;7.546346958275286e-05;-9.067042887424094e-08;-1.357132325147314e-30;-5.19372178724525e-06;0.0001559415427778987;-1.902286244730501e-05;-8.419924883523354e-09;-2.907547237308288e-07;1.6160989812699734e-05;2.4365321243544838e-05;-1.7429197243135443e-06;1.7429197243146205e-06;-5.19300546059717e-06;-6.482347184971121e-05;0.0004955350786133437;-0.001014717323997162;0.0;-4.650178417869305e-06;4.6501784178642225e-06;0.0006551285705622228;-0.0005460935203808087
1.339571237564087;0.004195616671342588;0.001635270153101593;0.0008409261950472369;0.0026844289249831708;0.0033470450037387115;-0.0025000143599604725;-7.250634652697022e-05;3.107654714965041e-30;-0.0003870279899698497;2.4747553117796908e-26;-5.772973069632256e-27;-2.03600855541336e-17;4.3508251269349045e-07;-5.538150997254073e-29;-7.506390679835957e-26;5.5969692983599146e-05;-2.5912299338812867e-07;-1.6716117924117379e-31;-2.938040936056262e-05;0.00011294924054916554;-1.9911320654858642e-05;-6.8803871275927695e-09;-2.6004066089743215e-07;1.2308898020964446e-05;2.3183441839698595e-05;-7.583690437773099e-07;7.583690437768768e-07;1.793763969134755e-05;-2.5624989757804155e-05;0.0006213903113565707;-0.000991402345557052;0.0;-1.4672005885010485e-06;1.4672005885000064e-06;0.000764735503256928;0.00020564079194832922
1.3594839572906494;0.003857628276421959;0.0021099681927488996;0.0008550039658269714;0.0036313433286781953;0.002252600628506885;-0.003221198434804599;-0.00017526994098354494;8.21137791002843e-31;0.000194951481085756;2.770583129856336e-26;-6.684042305513743e-27;-2.337138681451745e-17;6.0282636876314e-07;-5.930365454715422e-29;-9.227722048357377e-26;2.9690912935673905e-05;-4.6279125736741974e-07;1.019676316671453e-30;-4.257141680033801e-05;7.2620876648295e-05;-2.0400898252143637e-05;-5.26132326602451e-09;-2.2954110193561428e-07;9.008038874712274e-06;2.1662148836465705e-05;-1.1379451035665272e-06;1.137945103565684e-06;4.564483283817494e-05;7.932291256382357e-06;0.0007187986917181878;-0.0009556388236919806;0.0;-3.2646821312394934e-06;3.2646821312425262e-06;0.0008792045985615859;0.0006988479527607092
1.3794925212860107;0.0033525514335002544;0.0027123891179567762;0.0008570452698582759;0.004155119954613817;0.0010854976044488076;-0.004139299192277607;-0.0002749025516760398;-1.434434620134172e-30;0.0007853255620274798;3.059149774126867e-26;-7.63077780611814e-27;-2.646599606022188e-17;7.973367370655349e-07;-6.125580954283969e-29;-1.1127836894895777e-25;-2.369155758865787e-06;-7.074767175716767e-07;-2.61954543972665e-31;-4.559063284391531e-05;3.512964611323425e-05;-2.0378586931624552e-05;-3.5629224651701023e-09;-1.996351689899369e-07;6.182089519052828e-06;1.9880389785914807e-05;-1.0676903808605776e-06;1.0676903808590723e-06;7.864503418769458e-05;3.654131521895275e-05;0.0007898451879312264;-0.0009092737319969891;0.0;-3.1542525328168754e-06;3.1542525328138096e-06;0.000997853808807028;0.0008943717242610576
1.3994872570037842;0.002841051410152452;0.003236151935603169;0.0008517522596766301;0.004246680968500208;5.038955055569141e-05;-0.004958724681809452;-0.00031897283565348976;-3.651291954657445e-30;0.0013547478972035757;3.327756791648389e-26;-8.590382830966009e-27;-2.9547984787215285e-17;1.0185045709611917e-06;-6.075520828262468e-29;-1.3182421891000092e-25;-3.6885091440446926e-05;-9.950622704783387e-07;9.126522183930984e-31;-3.981787287821548e-05;2.2724036612013695e-06;-1.9704481447528105e-05;-1.8104424959159109e-09;-1.7107972614944653e-07;3.8133403789238035e-06;1.7908000325841752e-05;2.2754039605684972e-07;-2.2754039605901066e-07;0.00011713485860482132;6.022453176523106e-05;0.0008356937529321355;-0.0008547723760397734;0.0;-1.476536166190242e-06;1.4765361661952988e-06;0.0011172404082678224;0.0007619218001207629
1.4195282459259033;0.002383457369741561;0.0036575405855565225;0.000843335819882008;0.004039024867253874;-0.0007978812666344459;-0.0056240713214208435;-0.00028437728320504984;-5.876923087557423e-30;0.0018868427530568874;3.5639327204413174e-26;-9.535120113271317e-27;-3.2525749133298796e-17;1.2672240430440946e-06;-6.076876413271895e-29;-1.537448744408186e-25;-7.155296901579817e-05;-1.3289423700498621e-06;2.0907177085153648e-30;-2.5875386589397246e-05;-2.5225864985650994e-05;-1.822127657953497e-05;-1.2161318706857355e-11;-1.442257067016732e-07;1.8562036286124268e-06;1.5770202672161924e-05;9.064734642144266e-07;-9.064734642138608e-07;0.00016152814321473123;7.920947681074946e-05;0.0008588208422369541;-0.0007941631714808832;0.0;-2.3102875878664407e-06;2.310287587866422e-06;0.0012341023939564891;0.00028823928034574567
1.439516305923462;0.001975434061391006;0.004026677469013534;0.0008292933062363996;0.003659500725495114;-0.001485721689331769;-0.006129794104590332;-0.00019771194943397617;-8.077419100866816e-30;0.0023671662826591747;3.7492059517774076e-26;-1.0428796251624418e-26;-3.526087203227041e-17;1.5416042608120149e-06;-5.59782158179816e-29;-1.7659730015964056e-25;-0.000104410095946151;-1.7090616721698377e-06;2.0303282844551468e-30;-3.838625036887889e-06;-4.702554251704857e-05;-1.5768267735028042e-05;1.8107909511174319e-09;-1.1950160859487398e-07;2.791595301499747e-07;1.348316403313193e-05;1.7919012728522597e-07;-1.791901272880321e-07;0.00021179248961097409;9.35127602901456e-05;0.0008619045558146169;-0.0007297986939233898;0.0;-3.0433263846652158e-06;3.0433263846658714e-06;0.0013433731720148157;-0.0005535420464307495
1.4594850540161133;0.0015604678581668733;0.004352815496573545;0.0008026544548210691;0.003215936412650921;-0.0021067046932108017;-0.006505476013706813;-0.00011048888896727393;-1.2660116275402735e-29;0.0027893461978266277;3.865634382761609e-26;-1.1230632160166785e-26;-3.760995056419769e-17;1.8403134840408812e-06;-5.0014133168976187e-29;-1.9995112958779135e-25;-0.00013419653186750135;-2.136365930609555e-06;4.4136214308223876e-30;2.538532620847865e-05;-6.20310116506829e-05;-1.2164065747325548e-05;3.6491143462608415e-09;-9.703709846922487e-08;-9.637556722493037e-07;1.1128473988186075e-05;-1.30192509262476e-07;1.3019250926003866e-07;0.0002680418504119831;0.00010321965576928226;0.0008480154304133015;-0.0006634381874074193;0.0;-3.595802528759144e-07;3.595802528843442e-07;0.0014398168232847878;-0.0018060584285243665
1.4795258045196533;0.001165679456115404;0.004601820106121173;0.0007650095643021495;0.002620513918922379;-0.002621606267963865;-0.006697502924479645;-6.184536571174087e-05;-1.7099918989696857e-29;0.0031505122696510682;3.8903945519997996e-26;-1.1893641120589318e-26;-3.9404126988201484e-17;2.1619272467074817e-06;-4.1839044813980384e-29;-2.233153052836659e-25;-0.000160049050123598;-2.612198519277902e-06;3.0820602599141e-30;6.030265322612096e-05;-6.830857299949267e-05;-7.191672164592943e-06;5.497552349314863e-09;-7.682695789911579e-08;-1.917712077922288e-06;8.844590233951926e-06;7.553183594283851e-07;-7.553183594302803e-07;0.0003304507457685571;0.00010831087769486378;0.0008200154084945491;-0.0005963967733797846;0.0;-1.840120731433217e-08;1.8401207318674273e-08;0.0015172683672973833;-0.003500807074040719
1.4997224807739258;0.000776666877857834;0.0047458019841437596;0.0007131353953941399;0.0018700660861567103;-0.00305052453207737;-0.006685385511600727;-7.60500079200198e-05;-2.2082444645254253e-29;0.0034481901037457844;3.797607240239562e-26;-1.2358824301930509e-26;-4.0430543829509105e-17;2.5037516006779074e-06;-2.7111923924742194e-29;-2.460148375353555e-25;-0.00018125098430618868;-3.1368163293491186e-06;6.797694198307744e-30;0.00010028980802793323;-6.450363550540512e-05;-5.988771105722517e-07;7.347030447613907e-09;-5.8838222914192335e-08;-2.6214882031373086e-06;6.724573714285723e-06;9.991854915854254e-07;-9.991854915866466e-07;0.0003990575321268218;0.00010859264867641622;0.0007804765046741385;-0.0005297884650689742;0.0;-3.288262907772133e-06;3.2882629077697206e-06;0.0015679188399582667;-0.005349802209489834
1.5196120738983154;0.0002196638651315777;0.00462348747068134;0.0006114625285836964;0.000827076596859758;-0.0036109205816446336;-0.006286993175702192;-0.00014552674236611567;-2.6820678905667575e-29;0.0036741129883159883;3.5613490373540453e-26;-1.2551424659877765e-26;-4.04381375784143e-17;2.8517447102154855e-06;-8.46728257618195e-30;-2.6660789697990974e-25;-0.0001967875511905404;-3.6931485799318624e-06;6.754536508238996e-30;0.00014414472781479722;-5.0214016738135716e-05;7.65379798931414e-06;9.13451155466686e-09;-4.34076311022164e-08;-3.0985020330732698e-06;4.874051978795955e-06;-1.6973384225543156e-07;1.6973384225439638e-07;0.0004716478276057418;0.0001038906906576279;0.0007331005367092275;-0.00046625470194522014;0.0;-3.4877383072010075e-06;3.4877383071979095e-06;0.0015821191803901808;-0.007025384034460072
1.5394480228424072;-0.00034006008997610447;0.004261456091089131;0.0004911102202237289;-0.00044175509211650534;-0.004085638184378448;-0.005614371184290217;-0.00022307928860668943;-3.365592714420768e-29;0.003830661757851545;3.152693067136672e-26;-1.2402714369407272e-26;-3.918705759717656e-17;3.2020819281761603e-06;1.328618612579064e-29;-2.8429184888094317e-25;-0.000206505975923227;-4.2802228929607985e-06;9.093708649915031e-30;0.00019253169640518646;-2.5421014297886093e-05;1.7831808156614802e-05;1.0857216853540257e-08;-3.018144653281394e-08;-3.3947187244509223e-06;3.290044006771846e-06;-9.374386489868863e-07;9.374386489865538e-07;0.0005481216579861018;9.396990335370126e-05;0.0006799359205211477;-0.00040582196119644693;0.0;-1.1936148234549534e-06;1.193614823454606e-06;0.0015510247269575636;-0.008303072229559191
1.5594446659088135;-0.0008838584664891953;0.0037034590447249573;0.00035789250302575745;-0.0018933301880725475;-0.004445028723444562;-0.0047282715230578505;-0.0002510624424033176;-3.949698606621109e-29;0.003915846110323519;2.5307861104876741e-26;-1.1821113062028535e-26;-3.635198019564781e-17;3.5482967324177033e-06;4.213652188223824e-29;-2.97892199785273e-25;-0.00020999694849565726;-4.894675173157665e-06;9.029298006570086e-30;0.0002465698561753648;9.954604607070586e-06;3.0264834584869255e-05;1.249933718973516e-08;-1.890384856976616e-08;-3.5434198228840694e-06;1.959054982060784e-06;-5.520155033123001e-07;5.520155033121521e-07;0.0006280688470080126;7.828251912119484e-05;0.0006225397671743901;-0.0003485479139750356;0.0;-6.090078459027525e-07;6.090078458956471e-07;0.0014625958698901596;-0.008993191152790314
1.5794622898101807;-0.0013540399332968823;0.0030348267436229857;0.0002238290879015648;-0.003680542368214426;-0.00458958157661589;-0.0036730330087765307;-0.00020059090657092505;-4.796822908582748e-29;0.00392365130067618;1.661384838630994e-26;-1.0706369334133778e-26;-3.159859614223008e-17;3.875058762557586e-06;7.706650137303956e-29;-3.0569468676898313e-25;-0.0002066723786293988;-5.519159372871506e-06;1.1470801624308074e-29;0.0003067205362278511;5.519682780177328e-05;4.508541212625918e-05;1.4005569885696964e-08;-9.527233394080388e-09;-3.570086661259391e-06;8.75053010874694e-07;-8.396693682606607e-07;8.39669368260864e-07;0.0007092658178186196;5.6385706483699256e-05;0.0005631581119378584;-0.0002953746896983073;0.0;5.371254837210361e-07;-5.371254837240731e-07;0.001304106149047694;-0.00892189898807099
1.599449634552002;-0.0016792108999993571;0.002352988538237331;0.00010068182963625835;-0.005312914554277631;-0.004456934347264941;-0.002561893337547536;-9.664314911031049e-05;-5.503053197333843e-29;0.0038479919817739146;5.079439955265074e-27;-8.956425753386721e-27;-2.4579510662484888e-17;4.165934418673681e-06;1.198086213496895e-28;-3.0588402674716054e-25;-0.00019602702056437565;-6.134845824892083e-06;1.387171670117546e-29;0.0003736894212302833;0.0001092753710045524;6.241931411140063e-05;1.531977428699294e-08;-1.904864812206664e-09;-3.500216960625694e-06;5.615655084507241e-09;-2.587746091383277e-06;2.587746091383659e-06;0.0007893043556050442;2.780192215834264e-05;0.0005035517316110945;-0.00024675279509185996;0.0;5.141037194288146e-06;-5.141037194293191e-06;0.001062306239786939;-0.007927808952456471
1.6194889545440674;-0.0018716145279647099;0.0016217880834062824;-1.7351333497353218e-05;-0.006701462764459574;-0.004054071577759618;-0.0013592822468856212;1.0844012257560526e-05;-6.254151500318649e-29;0.00368030327864892;-9.747720049431149e-27;-6.4473756056620225e-27;-1.4874667032628038e-17;4.403300813514181e-06;1.682589351684129e-28;-2.9640200837016845e-25;-0.00017742230258914222;-6.722561311971602e-06;1.3917641046985243e-29;0.0004486269055401629;0.00017123406591916675;8.2472005358113e-05;1.6383303568899573e-08;4.169723219059869e-09;-3.355911630652991e-06;-7.002891195121084e-07;-3.960238431941009e-06;3.9602384319410595e-06;0.0008657383425081014;-8.183835677919235e-06;0.0004448088904869053;-0.0002026558057073993;0.0;7.078218413658731e-06;-7.0782184136617505e-06;0.0007516433471695078;-0.006150695921744619
1.6394648551940918;-0.0021025857346581053;0.0009470645304788731;-0.0001463441382575523;-0.007745635814906539;-0.003605129211061865;-0.00022570763104435836;8.062741920204984e-05;-7.166873919680555e-29;0.0034114527274260826;-2.8177879264855655e-26;-3.072836840166287e-27;-2.1379826765769477e-18;4.5638995300217275e-06;2.2560287196503122e-28;-2.750336629920533e-25;-0.0001524207274705499;-7.252534081474734e-06;1.868400009321266e-29;0.0005305551896697993;0.00024054059866038412;0.00010520523789825889;1.7114799511838062e-08;8.841389919973285e-09;-3.157532585529154e-06;-1.2958994607101756e-06;-4.091789469568084e-06;4.091789469568646e-06;0.0009347499407861584;-5.1963583227771834e-05;0.00038832997193327716;-0.00016337069665077703;0.0;4.8855339372066505e-06;-4.885533937200221e-06;0.00041320055289147383;-0.003761205495031599
1.6596300601959229;-0.0024192529925873897;0.00032343803853184894;-0.00029182451557021314;-0.008472781953575915;-0.0031814239268899286;0.0008324352001640577;8.618656180104539e-05;-8.036386194083049e-29;0.0030287244408831477;-5.087505104955386e-26;1.3500743849064129e-27;1.4243525074005567e-17;4.623190476852379e-06;2.924398385319299e-28;-2.388443512228357e-25;-0.00012378441894787814;-7.69866671337252e-06;1.6547036748987998e-29;0.0006187558369114045;0.0003187478937450729;0.00013094678795135304;1.7430500231789188e-08;1.233447250023056e-08;-2.9190078738110052e-06;-1.826468522549598e-06;-4.705503965936195e-06;4.70550396593813e-06;0.0009930089696276504;-0.00010477582913363045;0.00033425510901343965;-0.0001283744160135339;0.0;5.050913752997072e-06;-5.050913752998741e-06;7.139274250744933e-05;-0.0008972993387423607
1.6795177459716797;-0.0028627911844505568;-7.732911025341777e-05;-0.0004370625893595461;-0.008760462787650913;-0.002926502839053504;0.0015105645885130723;2.9526666292387113e-05;-8.746164785122524e-29;0.0025436264046695247;-7.766487647855886e-26;6.836633366182589e-27;3.4281098456231433e-17;4.55168873510479e-06;3.658930949815193e-28;-1.860595923487421e-25;-9.449501321466199e-05;-8.014049337111555e-06;2.1447215882477746e-29;0.000709514852212829;0.0004038328817829609;0.00015901316288982593;1.7224788564697423e-08;1.4743181874191657e-08;-2.6600464099016806e-06;-2.30202212745823e-06;-6.453698782367484e-06;6.453698782367884e-06;0.0010344752296434843;-0.0001658951006912633;0.0002844146702075472;-9.829344413074247e-05;0.0;6.9363560273007315e-06;-6.936356027296974e-06;-0.0002461361999548105;0.002189383429862929
1.6995408535003662;-0.0033992797483635715;-0.00023609086817005215;-0.0005608918786950451;-0.008761158303401852;-0.00297842985158095;0.001733580217209845;-4.685358315396123e-05;-9.465686380569467e-29;0.0019795008237066553;-1.0937141985903307e-25;1.3620063175588352e-26;5.875689695687334e-17;4.316442474176581e-06;4.460350165505066e-28;-1.1283939641298894e-25;-6.565180567731879e-05;-8.162761012858527e-06;2.171548100421065e-29;0.0008029874112015513;0.0004966002844563257;0.00018978368130722543;1.638260553150259e-08;1.6288395173200414e-08;-2.3872376302171705e-06;-2.7678101895541404e-06;-7.4328203290872145e-06;7.432820329086255e-06;0.0010545587025712407;-0.00023697166333464296;0.00023814924136151053;-7.223389079595937e-05;0.0;6.384508533215785e-06;-6.38450853321321e-06;-0.0005330201862295016;0.0053919812173514724
1.7194581031799316;-0.0039809216484174795;-0.0003406237503214072;-0.0006737606045842689;-0.008573555546079142;-0.003250284578123352;0.0017725421257834772;-8.366341014432748e-05;-9.982648746383487e-29;0.0013901198944799944;-1.4590554629054394e-25;2.1741979892275386e-26;8.776055378613862e-17;3.883932709584532e-06;5.383525090824722e-28;-1.6983204646749985e-26;-3.8773968740734694e-05;-8.093121941570506e-06;2.180768955023045e-29;0.0008962003932100176;0.0005943928853135162;0.0002225954958327069;1.4784410986812725e-08;1.7095789655065005e-08;-2.1132400027632826e-06;-3.2622038794875035e-06;-6.753403327225778e-06;6.753403327226261e-06;0.0010466096700809434;-0.00031751131472095896;0.00019626827630049842;-5.025203695506975e-05;0.0;5.923967886515304e-06;-5.923967886513087e-06;-0.0007779992434139124;0.008511249343159855
1.739473819732666;-0.004567307771280514;-0.00039041796741932325;-0.0007727123908233015;-0.008127558802022157;-0.0036689052926871177;0.0016403963313863848;-4.198971008695475e-05;-1.0577049235784938e-28;0.0008034167107053259;-1.8780591506328829e-25;3.1398112775090754e-26;1.2191885976178923e-16;3.2100742041712163e-06;6.338516252693137e-28;1.0563298442013152e-25;-1.4361036611026775e-05;-7.748075104232538e-06;2.454280177644499e-29;0.0009879100851898925;0.000695940378135742;0.0002573327459733865;1.2271741458325118e-08;1.7308984700952925e-08;-1.8427811765942617e-06;-3.841896379893286e-06;-6.1280638936013595e-06;6.128063893600994e-06;0.0010033049266446078;-0.00040849125167009907;0.00015844496955795854;-3.18167491834575e-05;0.0;8.732089325370758e-06;-8.732089325370416e-06;-0.000979870456102743;0.011418076911007696
1.7594892978668213;-0.005063528202651527;-0.00023756823623725818;-0.0008401436451515023;-0.0074838951747455175;-0.004085989156959133;0.0012625261008777098;6.263851432649178e-05;-1.0723609761268286e-28;0.0002455647489989233;-2.3497554084715914e-25;4.2644263041576294e-26;1.6136150014397934e-16;2.253681074253825e-06;7.361254108345951e-28;2.5776264305479127e-25;6.991204729728235e-06;-7.064539092271516e-06;2.2453890982705237e-29;0.0010749932372820215;0.0007977789794273157;0.00029321000933046416;8.696430655782449e-09;1.7043791520872505e-08;-1.5830302439089733e-06;-4.561238033846484e-06;-6.261102604238293e-06;6.26110260423733e-06;0.0009165267638411061;-0.00050944069598207;0.0001248859954687168;-1.6722341356017217e-05;0.0;8.895075984920452e-06;-8.895075984916054e-06;-0.001136621794886134;0.013977485568900608
1.779479742050171;-0.005624399426088317;2.3910954688532703e-05;-0.0009077593506427689;-0.006625462708397973;-0.004690722743082693;0.0007638878306704343;0.00017773345915579922;-1.0632869066772322e-28;-0.00026800613128978237;-2.8726017683047335e-25;5.55331421970593e-26;2.061933692851382e-16;9.712639367819405e-07;8.44780736427365e-28;4.422270965875767e-25;2.5052062464937198e-05;-5.975217178498805e-06;2.2858242985605782e-29;0.0011541182088787686;0.0008960447915953145;0.000329350336135472;3.901615434615118e-09;1.6408939917155846e-08;-1.3385778494818912e-06;-5.4787529500320955e-06;-5.250171020553315e-06;5.250171020552685e-06;0.000777613273657114;-0.0006197954228721621;9.551976397800237e-05;-4.648363142005924e-06;0.0;5.126313430270713e-06;-5.126313430275814e-06;-0.0012496545706308967;0.016098673770097757
1.799494981765747;-0.006207464408256456;0.00046645796854763173;-0.0009637143744816236;-0.00563814172329469;-0.005402635635297707;5.85724566500757e-05;0.000261061528578674;-1.036166199914231e-28;-0.0007303123393533758;-3.4451694795574433e-25;7.013327133530468e-26;2.565615087403083e-16;-6.874206190030657e-07;9.523424008266028e-28;6.623548511573629e-25;3.984223377809224e-05;-4.402915782255777e-06;2.0944370180182613e-29;0.0012215566814396286;0.000986439966400333;0.00036477899217501804;-2.295033555594551e-09;1.5497090704394517e-08;-1.1118181022417181e-06;-6.657950104486226e-06;-2.2334583540388595e-06;2.233458354039025e-06;0.000591617980848458;-0.0007390040241514592;7.009427639541439e-05;4.769471197011386e-06;0.0;4.022602037034784e-06;-4.022602037030416e-06;-0.0013222946377814105;0.017719744605095757
1.8194842338562012;-0.006730387729469356;0.001109734438451685;-0.0009940840817159722;-0.004630001419797977;-0.006088451520816744;-0.0008761033632631362;0.00028183475908006737;-9.499731022764198e-29;-0.0011369028734557498;-4.0610165427540516e-25;8.640028690428186e-26;3.1220903050086122e-16;-2.7657801915351377e-06;1.0597934385218318e-27;9.200910399548061e-25;5.1436086937939066e-05;-2.2727101920517427e-06;1.9095614640670653e-29;0.0012724459463239678;0.0010633626556230298;0.00039808356843165963;-1.0050529600386557e-08;1.4391614183479663e-08;-9.052295857711993e-07;-8.156622842533225e-06;1.0127647973099918e-06;-1.0127647973073797e-06;0.00037866713162682783;-0.0008654477007201916;4.8440656472688645e-05;1.1834174658596804e-05;0.0;5.006906784052469e-06;-5.006906784050827e-06;-0.001358383784314174;0.018753004824177848
1.839484691619873;-0.0070864638760843686;0.001870317479089124;-0.0009892602651243646;-0.0035701935569423648;-0.006595455800288485;-0.001960838134221635;0.0002299140601077128;-8.076846098965311e-29;-0.001488950325555184;-4.713476231491531e-25;1.0429206451255389e-25;3.7290085229570213e-16;-5.314325792828981e-06;1.1605767550994594e-27;1.217852050550161e-24;6.006598595330277e-05;5.012161217062018e-07;1.4904940694538065e-29;0.0013013444844187274;0.0011207016539139388;0.0004277153586443382;-1.9548627633196666e-08;1.3159543062140501e-08;-7.194054387889146e-07;-1.003612721522709e-05;3.761024935850808e-06;-3.7610249358507917e-06;0.00015731284628291934;-0.000997450116703658;3.024248854132938e-05;1.687644867898964e-05;0.0;3.8782640403750905e-06;-3.878264040373972e-06;-0.001362621549912213;0.0191001225875042
1.8594787120819092;-0.007477565147689363;0.002682591120344348;-0.0009771991581587081;-0.0026931507460312577;-0.007161015086818803;-0.003177122356376426;0.00014293727487002005;-6.212950441214525e-29;-0.0017890156603348139;-5.391076199347374e-25;1.2366424460743948e-25;4.3800508298575648e-16;-8.37579590229116e-06;1.2576512361186619e-27;1.5566308946674711e-24;6.599311846525536e-05;4.000760147861662e-06;8.359991691240757e-30;0.0013017546517505006;0.0011512078367352369;0.00045172080375821473;-3.0944297145305175e-08;1.1859349911222974e-08;-5.54776955221101e-07;-1.2293643645297903e-05;7.003204627934167e-06;-7.00320462793145e-06;-5.6584946582086354e-05;-0.0011323095973096722;1.5220695314988586e-05;2.0189647157190893e-05;0.0;3.1936689138605345e-06;-3.1936689138597696e-06;-0.0013398178734693568;0.018672572030401013
1.8794515132904053;-0.007948974080775887;0.0033930504880056505;-0.0009786565222478696;-0.001980383098404545;-0.007836868064368063;-0.004318063279209368;8.671588214519039e-05;-3.531725528282904e-29;-0.002041488900089329;-6.078561564652347e-25;1.4428352071609022e-25;5.065901395650302e-16;-1.1987338911753171e-05;1.3333969883213644e-27;1.9363732408625284e-24;6.952481555829807e-05;8.30530663604938e-06;1.979015210171453e-30;0.0012663305346387239;0.0011467810874183026;0.00046783392463614675;-4.4371929669640765e-08;1.0539077400550587e-08;-4.110944229507303e-07;-1.487381366769908e-05;1.0715760600747742e-05;-1.071576060074645e-05;-0.00025229467556736867;-0.0012665496108055204;3.071143054382791e-06;2.205408147122192e-05;0.0;6.115714683910236e-06;-6.115714683905952e-06;-0.0012948529770807724;0.01767083818212952
1.8995790481567383;-0.008343696530636418;0.0038828360681177625;-0.0009836164657004358;-0.0012660942432418305;-0.008420777030739235;-0.005221396820159787;0.00010684113055932224;9.130971925460196e-31;-0.0022535612913520634;-6.762960694636845e-25;1.660261085658786e-25;5.780585537527359e-16;-1.6220575476797292e-05;1.3941028673382213e-27;2.3598596734129927e-24;7.099514789987604e-05;1.3542201435587801e-05;-6.905979626870307e-30;0.001185917262998467;0.0010978112942213983;0.0004734664163387399;-6.009405047597952e-08;9.224950400420691e-09;-2.8650843797150347e-07;-1.776017997305402e-05;1.3180501388265718e-05;-1.318050138826332e-05;-0.00042465680570277954;-0.0013970248674326088;-6.600394849446479e-06;2.273388630470997e-05;0.0;6.620926987825979e-06;-6.620926987824392e-06;-0.0012317885407807498;0.01620734399690588
1.919494390487671;-0.008711435987335495;0.004308141490064251;-0.0009946620776798898;-0.0005575185365491762;-0.008973985911844192;-0.005973859502899256;0.0001885932882245434;4.3826631533903314e-29;-0.0024271241025552452;-7.4082044346193955e-25;1.8806559711027048e-25;6.494839318505373e-16;-2.10198780915252e-05;1.4207598645639633e-27;2.8167098455175876e-24;7.070790615399471e-05;1.9685246839660852e-05;-1.8005815335127252e-29;0.001054299325780789;0.0009967832911425528;0.0004684497218512465;-7.790081792448928e-08;7.969921435753358e-09;-1.8208998312193458e-07;-2.0862279526196604e-05;1.364414761247083e-05;-1.364414761247087e-05;-0.00056710883365647;-0.0015161384180952956;-1.393374423143557e-05;2.2458158766683354e-05;0.0;3.385707116340872e-06;-3.3857071163420146e-06;-0.0011561280122550784;0.014391360732072284
1.9394586086273193;-0.009133580986381203;0.004644857131106867;-0.0010257786822975054;0.0002360542752295607;-0.009610195037480354;-0.006557715343481382;0.00027795566875394554;1.0079345668221748e-28;-0.0025702392683232688;-7.994083778908233e-25;2.1012638131003023e-25;7.197132658692121e-16;-2.6451994988010787e-05;1.4135327153557301e-27;3.308083947573293e-24;6.899378191876648e-05;2.6865911017845798e-05;-3.387725818416551e-29;0.0008642238322569044;0.0008361130689448562;0.0004547098870530883;-9.803691310562504e-08;6.7789152403471945e-09;-9.487936966651949e-08;-2.4180606783998605e-05;1.4020680143688489e-05;-1.4020680143686845e-05;-0.0006806469129658103;-0.0016191996768579178;-1.934846341469667e-05;2.1451819881357144e-05;0.0;3.0323268051409364e-06;-3.03232680514344e-06;-0.0010709488643272768;0.012583992006804183
1.9594616889953613;-0.009555578684130536;0.004979682668012207;-0.0010613377870316305;0.0011599712370932885;-0.01026119065259818;-0.007097352417817365;0.0003304846550134184;1.6623763341316815e-28;-0.00268729315402289;-8.484901625940597e-25;2.314850398206372e-25;7.861070014737784e-16;-3.251295180991313e-05;1.3561353825649456e-27;3.827341021249335e-24;6.613883054661543e-05;3.513444613714613e-05;-4.729025890989328e-29;0.0006222139164863152;0.0006215431768221388;0.000432719650844087;-1.2048438345161803e-07;5.668612204598905e-09;-2.3522194627043244e-08;-2.7512596692390278e-05;1.5141285303606738e-05;-1.514128530360612e-05;-0.0007655349203612863;-0.0016984735272128034;-2.3109383957968483e-05;1.990742019508228e-05;0.0;4.976511035654545e-06;-4.976511035661124e-06;-0.000979698748768938;0.010802210775996395
1.9794507026672363;-0.009950388127454865;0.005282967055331732;-0.001098648292775523;0.0021193254919938047;-0.01088383199899429;-0.007556342401445485;0.00031603134253912406;2.4563826392477388e-28;-0.002781558979662234;-8.837980086043033e-25;2.5121702451241856e-25;8.453203278163304e-16;-3.9161533529513646e-05;1.2445862044034976e-27;4.363945597328531e-24;6.241862985103119e-05;4.4496675643076875e-05;-7.003766080349007e-29;0.00035249675781220057;0.000376437808940096;0.0004018982960787064;-1.4508737254057675e-07;4.6523678421077456e-09;3.3358105311264786e-08;-3.050754618708183e-05;1.5198292721478376e-05;-1.519829272147541e-05;-0.0008232415793240949;-0.0017448587821058956;-2.5464416357647655e-05;1.800585968198659e-05;0.0;4.8860143116894275e-06;-4.886014311690749e-06;-0.0008856088104245863;0.008737011776126416
1.9995296001434326;-0.01018307312848573;0.005495238685351801;-0.0011215633870669162;0.0030429009749153605;-0.011295378795939733;-0.007865966227317934;0.00022496230932829311;3.3829931350877706e-28;-0.00285574141294322;-9.006027506590032e-25;2.6833884324261462e-25;8.938062621414605e-16;-4.6383128844806155e-05;1.0596833698025163e-27;4.908435256318909e-24;5.8053364485854226e-05;5.500530224721738e-05;-8.940600513149026e-29;7.821169446475183e-05;0.0001232132524785153;0.0003604142327815689;-1.7178828124503267e-07;3.7312419215281685e-09;7.760907076969354e-08;-3.287414151282048e-05;1.3471100327929922e-05;-1.3471100327931013e-05;-0.0008565197786445538;-0.001748138400310754;-2.6659317576509686e-05;1.5896986496908357e-05;0.0;5.02168305863068e-06;-5.021683058639776e-06;-0.0007907314601480652;0.00641495974025666
2.019596576690674;-0.010148349239776738;0.005649633181277857;-0.001103847465583398;0.003998331499113985;-0.011368882661311138;-0.008186672197731178;9.491270235433631e-05;4.442395685084296e-28;-0.002910137258747072;-8.931765061463855e-25;2.8149223161833214e-25;9.267721310570565e-16;-5.406045864699785e-05;7.93952292371736e-28;5.4422623604203325e-24;5.3276062502426184e-05;6.657556190366469e-05;-1.1614771861023226e-28;-0.00018170439738917472;-0.0001202091876206493;0.000305951262237289;-2.0014955166664186e-07;2.91256673669558e-09;1.1054202015852762e-07;-3.431793128276665e-05;1.1933514675482997e-05;-1.1933514675483417e-05;-0.0008681887170360136;-0.0016963981309949042;-2.6899492129118067e-05;1.3736204851855145e-05;0.0;8.3008869618546e-06;-8.300886961851693e-06;-0.0006976493330082297;0.004206974696602641
2.039482593536377;-0.009708736363299924;0.005703767537233969;-0.0010290837247693327;0.004796904680949013;-0.010911098132804544;-0.008430989675280085;-6.536888761897983e-06;5.681050224966796e-28;-0.0029436453087321366;-8.557810739312673e-25;2.8916536003973305e-25;9.390447780004389e-16;-6.200310230449609e-05;4.312475494211742e-28;5.941631202936736e-24;4.8314847271566185e-05;7.901388572328295e-05;-1.4550097513807968e-28;-0.00041348987991398354;-0.00034107847143738455;0.00023602175561310713;-2.2946370686345945e-07;2.200874945368239e-09;1.335726028561234e-07;-3.457982445856637e-05;1.1419399220754653e-05;-1.141939922075575e-05;-0.0008618223768899292;-0.0015804424341257111;-2.6388673228142507e-05;1.1672621099882572e-05;0.0;8.68035674952098e-06;-8.680356749518105e-06;-0.0006087766703340037;0.0024372915310337303
2.059518814086914;-0.009191645225997417;0.005541653821351748;-0.0009558370314298099;0.005557386891644158;-0.01037808153704577;-0.00844209831731432;-3.32141778349261e-05;7.011500758831911e-28;-0.00295406442533496;-7.809168215824616e-25;2.8979716117237505e-25;9.249567795876763e-16;-7.017886224606e-05;-4.038458666739532e-29;6.3909079764796114e-24;4.3242907020571664e-05;9.239032812621557e-05;-1.76595674357528e-28;-0.000613519574919315;-0.0005365955797004741;0.00015107144776289105;-2.596066428391766e-07;1.5808393511561662e-09;1.4857352545522067e-07;-3.340945459610306e-05;1.002509128686054e-05;-1.0025091286861637e-05;-0.0008408578769804516;-0.0013916034806594503;-2.5291535409914916e-05;9.791682479877391e-06;0.0;4.835163922611603e-06;-4.835163922612808e-06;-0.0005239160085537958;0.0010466600456232348
2.0794992446899414;-0.008511942293742565;0.0053661401424738705;-0.0008599031049329008;0.006158463667282088;-0.00965737859285687;-0.008384824627053145;1.5057939802697491e-05;8.510277475600699e-28;-0.002936375808340888;-6.615312409328186e-25;2.8141728430349797e-25;8.778518501294982e-16;-7.8293438870329e-05;-6.383788760722204e-28;6.75655746922999e-24;3.8238739243858357e-05;0.00010637700872462136;-2.113568496322461e-28;-0.0007753447471049424;-0.0007014922308318193;5.728649981754019e-05;-2.8948649630133205e-07;1.0545524923713425e-09;1.5668672357410372e-07;-3.0552912237001373e-05;6.904092706264207e-06;-6.904092706264617e-06;-0.0008088400123975666;-0.0011307560305904092;-2.376325174897833e-05;8.223305254214816e-06;0.0;3.297990130403828e-06;-3.297990130398988e-06;-0.0004449103323883775;-0.0002519668018263456
2.0996530055999756;-0.007596073405781164;0.005218692415059933;-0.0007288169073117749;0.006560918427408505;-0.00866298376568124;-0.00827312237641728;9.430308400730276e-05;1.016795854416531e-27;-0.002883226978100134;-4.875464591962682e-25;2.616712328650971e-25;7.894311253953123e-16;-8.616807081303617e-05;-1.383227835737175e-27;7.00790349021118e-24;3.3348642182134624e-05;0.00012086603741777082;-2.487936262824867e-28;-0.0008988022879290588;-0.0008368905918626812;-4.015555303376403e-05;-3.184360303219776e-07;6.104562639875501e-10;1.5920531597082264e-07;-2.5697949428526217e-05;3.809927109381073e-06;-3.809927109381478e-06;-0.0007686444207051602;-0.0008074015830687321;-2.191151790045945e-05;7.054751939422514e-06;0.0;2.5580334294932586e-06;-2.5580334294924717e-06;-0.00037154822241561726;-0.0014237894441362768
2.119591236114502;-0.006381157450889132;0.005049472670905577;-0.0005573780554964166;0.006759487736780624;-0.00732194839804388;-0.008037221579858525;0.0001554776298203415;1.189327241967778e-27;-0.0027869096474048096;-2.538204818597734e-25;2.286252108759806e-25;6.535194901782842e-16;-9.332377304746849e-05;-2.272200741377578e-27;7.101658274425611e-24;2.8744615202919072e-05;0.00013522387393469554;-2.8798759873771516e-28;-0.000983118855662888;-0.0009403327962992014;-0.00013245002560883685;-3.4468312727395947e-07;2.4979017271485274e-10;1.5721313315908795e-07;-1.867890814440211e-05;1.61803935777469e-06;-1.618039357777213e-06;-0.0007241289173654684;-0.0004540474746523881;-1.9879913356159758e-05;6.400793697844133e-06;0.0;6.121467794933994e-08;-6.121467794857809e-08;-0.0003055962447925692;-0.0023783975188912884
2.13950514793396;-0.004771081151501605;0.00467651474459599;-0.0003465392483234614;0.006914645946629412;-0.005537792369790424;-0.007458518320926916;0.00016268978529755337;1.3724578240549035e-27;-0.0026363680368470107;4.982512675700422e-26;1.7963492146881854e-25;4.610595545799689e-16;-9.944475946099716e-05;-3.328065212056139e-27;6.997202100423339e-24;2.443588619958048e-05;0.0001491397716028185;-3.29928645018348e-28;-0.0010336171160364243;-0.0010136573301669503;-0.00021592732997434048;-3.67054687775549e-07;-3.9872875246681595e-11;1.5176267501164016e-07;-1.0958696768755973e-05;-1.4584751595386192e-06;1.4584751595403552e-06;-0.0006777447960704788;-9.642182809157053e-05;-1.77413763926885e-05;6.33361112428395e-06;0.0;4.88359871406024e-07;-4.883598714080065e-07;-0.00024645290476141616;-0.00335135232877708
2.159475326538086;-0.0027850651867839527;0.003979004551927073;-0.00010713666049668818;0.006662404190078502;-0.003322306447630284;-0.00634202931632959;9.632265261617524e-05;1.5623787136290035e-27;-0.0024178873800978213;4.340432320079018e-25;1.1172609981074235e-25;2.019828843589753e-16;-0.00010408322418594043;-4.564522689722587e-27;6.643659348561552e-24;2.0445496014196596e-05;0.00016211354644632658;-3.6991701494622222e-28;-0.0010546544535959335;-0.001058718566226338;-0.00028805969877151186;-3.838897878050693e-07;-2.6731054737658226e-10;1.4369417505528702e-07;-3.882860720963741e-06;-6.1562425266489856e-06;6.156242526648275e-06;-0.0006318074361457435;0.00024440030426075275;-1.555971727191019e-05;6.9365890511936495e-06;0.0;5.584124451945014e-06;-5.584124451944989e-06;-0.0001938642206127732;-0.004269592699458519
2.179492712020874;-0.0003733132032118653;0.0028643982338020482;0.00016843676117021225;0.006149404197530217;-0.0006427540301946222;-0.004687876906834985;-1.467214073403983e-05;1.7498559802186412e-27;-0.002116071139502004;9.085191033871483e-25;2.1879043357366618e-26;-1.3365068818029443e-16;-0.00010667507147613757;-5.988334068252024e-27;5.9835884070466446e-24;1.680228070972684e-05;0.00017345629808755364;-4.116308490731778e-28;-0.0010503773252171598;-0.0010778020927376508;-0.00034724874330517943;-3.930989192280485e-07;-4.397110520500471e-10;1.3374614023248732e-07;3.027743858362151e-06;-1.0589166615471574e-05;1.0589166615469519e-05;-0.0005885515362420987;0.0005532180783065556;-1.3394097035368124e-05;8.291871625532691e-06;0.0;8.329530410510185e-06;-8.329530410510871e-06;-0.00014772893487008306;-0.0050862267995348135
2.199449062347412;0.0023169926399627693;0.0015482371726058476;0.00048033011683196473;0.00526337416740678;0.0022957144927094443;-0.002793037506888559;-0.00010313024337915272;1.937450164916216e-27;-0.0017159466814353247;1.4794423403214494e-24;-9.235439129168613e-26;-5.53595802880283e-16;-0.00010657890674695867;-7.599782725562228e-27;4.960277816643743e-24;1.3536898216807694e-05;0.00018230864253739957;-4.493561166080168e-28;-0.0010251421347450707;-0.001073884637248289;-0.00039274853823764456;-3.9230990160271996e-07;-5.637424159219853e-10;1.22613538217648e-07;1.0177167219425114e-05;-1.3853034749351333e-05;1.385303474934888e-05;-0.000550093578068815;0.0008195506449739335;-1.1301703540497838e-05;1.0462417170772415e-05;0.0;7.093108471326621e-06;-7.093108471324631e-06;-0.00010799936075546273;-0.005742933210728142
2.2195026874542236;0.005021092373010622;5.527399016418403e-06;0.000786949830743833;0.003978342378515562;0.0051165442339848755;-0.0005905799539268597;-0.00011976853040301838;2.1098196370993956e-27;-0.0011956413195192556;2.1597938450497745e-24;-2.3496285335395e-25;-1.0710356727349257e-15;-0.00010306687813880441;-9.410865738486294e-27;3.498737820792829e-24;1.0625035645971119e-05;0.00018778935814866535;-4.836514695944005e-28;-0.0009828373526169494;-0.0010502243705665672;-0.0004251976248365684;-3.7882623483754894e-07;-6.475266748729222e-10;1.107440664444655e-07;1.8026883758414855e-05;-1.7686343365576667e-05;1.7686343365575068e-05;-0.0005177267342320137;0.0010411244970412706;-9.301012980813838e-06;1.3532512221597105e-05;0.0;7.867488137148684e-06;-7.86748813714605e-06;-7.399874493287071e-05;-0.006188492956254054
2.2395286560058594;0.007609052096198804;-0.0015558289240986825;0.0010740715362010686;0.0024376854020756503;0.007811682876085714;0.0016877149051041005;-6.095180804840619e-05;2.2649312798794507e-27;-0.0005618563175275731;2.9528688520175543e-24;-4.0812232681156455e-25;-1.6923795172280826e-15;-9.534143814361024e-05;-1.140599541632742e-26;1.53629012347162e-24;8.078655590681529e-06;0.00018876049428771563;-5.132212020543681e-28;-0.0009274729266321612;-0.0010102710117820505;-0.00044516611347617083;-3.4970151537834045e-07;-6.97132456637535e-10;9.864891824282859e-08;2.509652804510791e-05;-2.2716027787685155e-05;2.271602778768384e-05;-0.0004929516595343072;0.0012155446354637257;-7.4305353139139265e-06;1.7543718239168764e-05;0.0;8.819589003670054e-06;-8.819589003668826e-06;-4.5532452335729986e-05;-0.006663440000468587
2.2597994804382324;0.010056784981575506;-0.0031308341523244255;0.0013305429849757733;0.0008291968706678431;0.01041875578017118;0.004061646957923752;3.2682759043861466e-05;2.387318057788286e-27;0.00016046577686686125;3.876671968016038e-24;-6.1748471330347405e-25;-2.436248675643333e-15;-8.232539663771349e-05;-1.3601159957842793e-26;-1.035894003791634e-24;5.853775185569628e-06;0.0001838988089378265;-5.331569327278135e-28;-0.0008616330393579523;-0.00095660591358883;-0.0004539373791208668;-3.0094578654384705e-07;-7.191145221629881e-10;8.652063210237664e-08;3.0030891996906546e-05;-2.6997920244861168e-05;2.6997920244860517e-05;-0.00047652994299701056;0.0013462284073057253;-5.6851686291179364e-06;2.2612129859090467e-05;0.0;7.346301984482225e-06;-7.346301984472753e-06;-2.1816678013171234e-05;-0.007070198754208035
2.2795357704162598;0.012082396082411538;-0.004600935866310829;0.0015239248776190524;-0.00047139491935692434;0.012577735083956803;0.006305337628600955;0.00010822387876157774;2.4688476709283973e-27;0.0009025892637468172;4.895909239769768e-24;-8.566120565270223e-25;-3.27833058722196e-15;-6.369479462279355e-05;-1.5887232875192844e-26;-4.17804405219346e-24;4.0089340769742025e-06;0.00017216483503043433;-5.410341183192734e-28;-0.0007910580094396099;-0.0008946156709501465;-0.00045277267644371576;-2.313904427393083e-07;-7.188303926322003e-10;7.509117207819026e-08;3.3072157127185054e-05;-2.9505078630191997e-05;2.9505078630191157e-05;-0.0004695345634098491;0.001432578169267292;-4.140326915082974e-06;2.8551481211213246e-05;0.0;8.349924978424258e-06;-8.349924978423085e-06;-3.1722394128811685e-06;-0.0072929945101373635
2.299607276916504;0.013683410008037435;-0.006039074015711939;0.0016480496466574203;-0.0013375619978625718;0.014267510165676683;0.008493748245051284;0.00013226529671411905;2.4891144710772675e-27;0.0016584846952531283;6.053458394233336e-24;-1.1374357700456318e-24;-4.258948728366074e-15;-3.9713972431791236e-05;-1.832638480237793e-26;-8.092046825998867e-24;2.4342084946843938e-06;0.00015160594374444522;-5.355557641321685e-28;-0.000715425333556928;-0.0008245912431076933;-0.00044326230311627686;-1.3449920036261735e-07;-7.018105245157958e-10;6.405882312118275e-08;3.4716605038506056e-05;-3.2139991367791974e-05;3.2139991367794976e-05;-0.0004718517899463903;0.001483763919219776;-2.7326757953351096e-06;3.562109497392544e-05;0.0;1.3789128404154308e-05;-1.3789128404151787e-05;1.1792139015148854e-05;-0.007545670858683845
2.3194782733917236;0.014708945606332565;-0.007299839967812374;0.0016947212807698247;-0.0018350869199077933;0.015294348665585242;0.010423116564266898;8.00913010803294e-05;2.4415338244830565e-27;0.002376056676782124;7.315600988961577e-24;-1.454037550147683e-24;-5.355487304204315e-15;-1.3513699312601673e-05;-2.081114919575983e-26;-1.2748635943822779e-23;1.149241572516933e-06;0.00012104651371481993;-5.0947714585175835e-28;-0.0006389479565432595;-0.0007508389953997732;-0.0004270472500100798;-8.703938011623406e-09;-6.728728842792514e-10;5.386846000552499e-08;3.5177426303759165e-05;-3.55142195682343e-05;3.551421956823437e-05;-0.0004835244675588533;0.0015033627041795958;-1.5049901835629466e-06;4.3632686910655674e-05;0.0;1.6739118623014836e-05;-1.6739118623017788e-05;2.3118362686011552e-05;-0.007983046872406918
2.339447259902954;0.015077528361081158;-0.008504658485153936;0.0016486199500892202;-0.002231364260013885;0.015557812282639704;0.012207912695067404;-3.16040718900378e-05;2.3032037777402862e-27;0.003042337055549364;8.691515927581624e-24;-1.8111987460255846e-24;-6.582413492205612e-15;1.3412349390343264e-05;-2.3319032029619447e-26;-1.8274094100148316e-23;1.0564805467064075e-07;7.832950394323426e-05;-4.623073910796541e-28;-0.0005623703893112046;-0.000674501406866295;-0.0004053767774059113;1.5169767158643657e-07;-6.357152226482764e-10;4.4457180127548964e-08;3.469365690267452e-05;-3.7717483062415946e-05;3.771748306241703e-05;-0.0005043360816629241;0.0014975971940881538;-4.3886549395294936e-07;5.266046129394172e-05;0.0;1.575919523720776e-05;-1.5759195237205308e-05;3.147305238246946e-05;-0.00874332860025183
2.3594791889190674;0.014726715135485364;-0.009733397958432304;0.0014969193891849566;-0.0026667403682695467;0.014983132143263432;0.013933969561741245;-0.0001434731742742692;2.0518801875295163e-27;0.0036374761272040834;1.0165380049540063e-23;-2.207920246434263e-24;-7.933797071421958e-15;3.971390203610862e-05;-2.576798733537025e-26;-2.4721336585286398e-23;-7.191103145862683e-07;2.7495712214976567e-05;-3.861678326432599e-28;-0.0004873617197840807;-0.0005975818384133905;-0.0003795762148139029;3.508938117273026e-07;-5.938248835629971e-10;3.5905087916297056e-08;3.343034203330666e-05;-3.779714705507682e-05;3.779714705507828e-05;-0.0005336921286583254;0.001471895030896458;4.6176592248480006e-07;6.26272739776584e-05;0.0;1.690431801669754e-05;-1.6904318016694436e-05;3.725009276610272e-05;-0.009622772919228407
2.379577875137329;0.013864891121224052;-0.010977168040718518;0.001269551541241936;-0.0032733036707346622;0.013858446541733467;0.015628344362101865;-0.0001998672539377205;1.6676864402304908e-27;0.004146790210475855;1.171661963522263e-23;-2.6423627724644696e-24;-9.400466504407933e-15;6.451163232552645e-05;-2.805998816029479e-26;-3.213839278083557e-23;-1.3502041417444385e-06;-2.5089448175645796e-05;-2.7718807422638745e-28;-0.0004151411809068896;-0.0005216522932172462;-0.0003508405415358148;5.93255134766206e-07;-5.501870373429353e-10;2.8237623426170675e-08;3.151229732213182e-05;-3.741871938606605e-05;3.741871938606677e-05;-0.0005706336214023759;0.0014316189925376603;1.1958413157232006e-06;7.342801664087148e-05;0.0;1.8374125823590334e-05;-1.8374125823588565e-05;4.084246052766315e-05;-0.01043536524054219
2.399491310119629;0.012537052695961132;-0.012018202969975241;0.0009881444124224493;-0.004155193012878283;0.01225355283342528;0.017066485754871033;-0.00018183026394385764;1.1316814730772374e-27;0.004553135314377645;1.3295686166606145e-23;-3.104753061741692e-24;-1.0946349222292006e-14;8.697622685543551e-05;-3.005520703925438e-26;-4.0441729132876707e-23;-1.8072684391818218e-06;-7.642108907034511e-05;-1.3371224661486196e-28;-0.0003474990390766304;-0.00044892383111205873;-0.0003206376934817376;8.789852937284555e-07;-5.078871677605236e-10;2.1532697478401672e-08;2.9060293145570673e-05;-3.7196441480057204e-05;3.719644148005593e-05;-0.000613202486632808;0.001382512350814027;1.7557667610984663e-06;8.475663223444836e-05;0.0;1.7413791690361262e-05;-1.7413791690362214e-05;4.260122640351485e-05;-0.011016175784440883
2.4194817543029785;0.010898150079213671;-0.012801661946982876;0.0006740771441846635;-0.005000504231969901;0.010353449962431729;0.018206720833801114;-0.00011922020287321356;4.126408509262429e-28;0.0048520398785335955;1.4884076026311207e-23;-3.594787488429709e-24;-1.2566759320688663e-14;0.00010713166775481393;-3.1643784929082146e-26;-4.972530928105804e-23;-2.122329925608711e-06;-0.00012561154556278982;5.605169887660772e-29;-0.0002841820458157531;-0.00037942775264362136;-0.0002895288323988632;1.2146454187100724e-06;-4.684675384175609e-10;1.566201834679162e-08;2.6102303281091997e-05;-3.5948242874056616e-05;3.594824287405467e-05;-0.0006600375114977239;0.0013286697822943617;2.1495188451723183e-06;9.653413349477649e-05;0.0;1.8642696453137886e-05;-1.8642696453134762e-05;4.29074560758091e-05;-0.011210341170879634
