flxalr/sts-optimization-reemc/input/498_104/augmented.txt
time, StatePelvisPosX, StatePelvisPosZ, StatePelvisRotY, StateHipRotY, StateKneeRotY, StateAnkleRotY, StateMiddleTrunkRotY, StateLShoulderRotY, StateLElbowRotY, StateRShoulderRotY, StateRElbowRotY, StateHeadRotY, StatePelvisVelX, StatePelvisVelZ, StatePelvisRotVelY, StateHipRotVelY, StateKneeRotVelY, StateAnkleRotVelY, StateMiddleTrunkRotVelY, StateLShoulderRotVelY, StateLElbowRotVelY, StateRShoulderRotVelY, StateRElbowRotVelY, StateHeadRotVelY, StateHipTorque, StateKneeTorque, StateAnkleTorque, StateMiddleTrunkTorque, StateShoulderTorque, StateElbowTorque, StateHeadTorque, ControlHipDTorque, ControlKneeDTorque, ControlAnkleDTorque, ControlMiddleTrunkDTorque, ControlShoulderDTorque, ControlElbowDTorque, ControlHeadDTorque, TauPelvisPosX, TauPelvisPosZ, TauPelvisRotY, Tauleg_3_joint, Tauleg_4_joint, Tauleg_5_joint, Tautorso_2_joint, Tauarm_1_joint, Tauarm_4_joint, Tauarm_1_joint, Tauarm_4_joint, Tauhead_2_joint, Heel_Fx, Heel_Fy, Heel_Fz, Toe_Fx, Toe_Fy, Toe_Fz, CoP, Hand_x, Hand_y, Hand_z, Box_Hand_Fx, Box_Hand_Fz, Box_Hand_Ty, Phase
0, -0.0208823, 0.744785, 0.1, -0.951335, 1.1436, -0.292266, 0.1, 0.23, 1, 0.23, 1, 0.03, 1.02726e-17, -1.14902e-18, 6.54919e-18, -1.69972e-18, -3.34879e-18, -1.35624e-18, 1.67897e-18, 4.58063e-19, 7.96935e-18, 5.11306e-18, 7.58428e-18, 9.45184e-19, 12.2559, -11.2286, -1.32308, -18.8905, 15.5429, 10.9976, -0.29045, 15.1662, -2.27498, -0.713336, -1.20762, -3.07593, 0.773867, 0.447087, 4.64667e-310, 0, 0, 12.2559, -11.2286, -1.32308, -18.8905, 7.77144, 5.4988, 7.77144, 0, 0, -14.7331, 0, 107.596, 0, 0, 54.0266, 0.000141536, 0, 0, 0, 0, 0, 0, 0
0.000139998, -0.0208823, 0.744785, 0.1, -0.951335, 1.1436, -0.292266, 0.1, 0.23, 1, 0.23, 1, 0.0299999, 7.99158e-05, -8.01833e-06, 0.000559583, -0.000559583, -3.33263e-18, 7.77023e-19, -0.00030777, -2.827e-06, -1.085e-05, -3.3263e-06, -1.01861e-05, -0.000749294, 12.2581, -11.2289, -1.32317, -18.8907, 15.5424, 10.9977, -0.290386, 15.6156, -2.44033, -0.652327, -1.3337, -3.09746, 0.772397, 0.463677, 4.64667e-310, 0, 0, 12.2581, -11.2289, -1.32317, -18.8907, 7.77122, 5.49885, 7.77122, 0, 0, -14.7293, 0, 107.61, 0, 0, 54.0281, 0.000138182, 0, 0, 0, 0, 0, 0, 0
0.000279996, -0.0208823, 0.744785, 0.1, -0.951335, 1.1436, -0.292266, 0.0999999, 0.23, 1, 0.23, 1, 0.0299998, 0.000159815, -1.6035e-05, 0.00111905, -0.00111905, -1.44264e-18, 2.33805e-18, -0.000615317, -5.68612e-06, -2.14542e-05, -6.68473e-06, -2.01264e-05, -0.00149831, 12.2603, -11.2292, -1.32326, -18.8908, 15.542, 10.9978, -0.29032, 16.065, -2.60569, -0.591318, -1.45977, -3.11899, 0.770928, 0.480267, 4.64667e-310, 0, 0, 12.2603, -11.2292, -1.32326, -18.8908, 7.771, 5.4989, 7.771, 0, 0, -14.7255, 0, 107.624, 0, 0, 54.0298, 0.000134849, 0, 0, 0, 0, 0, 0, 0
0.000419994, -0.0208823, 0.744785, 0.1, -0.951335, 1.1436, -0.292266, 0.0999998, 0.23, 1, 0.23, 1, 0.0299995, 0.000239696, -2.405e-05, 0.00167839, -0.00167839, 1.06622e-18, 6.074e-18, -0.000922639, -8.57698e-06, -3.18105e-05, -1.00749e-05, -2.9819e-05, -0.00224702, 12.2626, -11.2296, -1.32334, -18.8911, 15.5416, 10.9979, -0.290252, 16.5144, -2.77104, -0.530309, -1.58584, -3.14052, 0.769458, 0.496857, 4.64667e-310, 0, 0, 12.2626, -11.2296, -1.32334, -18.8911, 7.77079, 5.49896, 7.77079, 0, 0, -14.7216, 0, 107.638, 0, 0, 54.0317, 0.00013154, 0, 0, 0, 0, 0, 0, 0
0.000559992, -0.0208822, 0.744785, 0.100001, -0.951336, 1.1436, -0.292266, 0.0999996, 0.23, 1, 0.23, 1, 0.0299991, 0.00031956, -3.20631e-05, 0.00223761, -0.00223761, 2.92703e-18, 8.71989e-18, -0.00122972, -1.15002e-05, -4.1907e-05, -1.34975e-05, -3.92516e-05, -0.00299538, 12.2649, -11.23, -1.32341, -18.8913, 15.5411, 10.998, -0.290181, 16.9638, -2.9364, -0.4693, -1.71192, -3.16205, 0.767989, 0.513447, 4.64667e-310, 0, 0, 12.2649, -11.23, -1.32341, -18.8913, 7.77057, 5.49901, 7.77057, 0, 0, -14.7177, 0, 107.653, 0, 0, 54.0338, 0.000128253, 0, 0, 0, 0, 0, 0, 0
0.00069999, -0.0208822, 0.744785, 0.100001, -0.951336, 1.1436, -0.292266, 0.0999995, 0.23, 1, 0.23, 1, 0.0299987, 0.000399404, -4.00745e-05, 0.00279669, -0.00279669, 4.0648e-18, 1.22779e-17, -0.00153656, -1.44544e-05, -5.17458e-05, -1.6951e-05, -4.84267e-05, -0.00374336, 12.2673, -11.2304, -1.32347, -18.8915, 15.5407, 10.9981, -0.290108, 17.4132, -3.10175, -0.408291, -1.83799, -3.18358, 0.766519, 0.530037, 4.64667e-310, 0, 0, 12.2673, -11.2304, -1.32347, -18.8915, 7.77034, 5.49907, 7.77034, 0, 0, -14.7137, 0, 107.668, 0, 0, 54.0361, 0.000124991, 0, 0, 0, 0, 0, 0, 0
0.000839988, -0.0208821, 0.744785, 0.100001, -0.951336, 1.1436, -0.292266, 0.0999992, 0.23, 1, 0.23, 1, 0.0299981, 0.00047923, -4.80841e-05, 0.00335565, -0.00335565, 4.71301e-18, 1.46063e-17, -0.00184317, -1.74387e-05, -6.13289e-05, -2.04347e-05, -5.73461e-05, -0.00449094, 12.2698, -11.2309, -1.32352, -18.8918, 15.5402, 10.9982, -0.290032, 17.8627, -3.2671, -0.347282, -1.96406, -3.20511, 0.76505, 0.546627, 4.64667e-310, 0, 0, 12.2698, -11.2309, -1.32352, -18.8918, 7.77012, 5.49912, 7.77012, 0, 0, -14.7097, 0, 107.683, 0, 0, 54.0386, 0.000121752, 0, 0, 0, 0, 0, 0, 0
0.000979986, -0.020882, 0.744785, 0.100002, -0.951337, 1.1436, -0.292266, 0.0999989, 0.23, 1, 0.23, 1, 0.0299974, 0.000559036, -5.60918e-05, 0.00391446, -0.00391446, 5.22584e-18, 1.29867e-17, -0.00214953, -2.04521e-05, -7.06589e-05, -2.39474e-05, -6.60125e-05, -0.00523809, 12.2723, -11.2314, -1.32356, -18.8921, 15.5398, 10.9983, -0.289955, 18.3121, -3.43246, -0.286273, -2.09014, -3.22664, 0.76358, 0.563217, 4.64667e-310, 0, 0, 12.2723, -11.2314, -1.32356, -18.8921, 7.76989, 5.49917, 7.76989, 0, 0, -14.7057, 0, 107.699, 0, 0, 54.0413, 0.000118537, 0, 0, 0, 0, 0, 0, 0
0.00111998, -0.020882, 0.744785, 0.100003, -0.951338, 1.1436, -0.292266, 0.0999986, 0.23, 1, 0.23, 1, 0.0299966, 0.000638823, -6.40978e-05, 0.00447315, -0.00447315, 4.37462e-18, 1.05909e-17, -0.00245566, -2.34925e-05, -7.97407e-05, -2.74872e-05, -7.44306e-05, -0.00598477, 12.2749, -11.2319, -1.3236, -18.8924, 15.5393, 10.9985, -0.289875, 18.7615, -3.59781, -0.225264, -2.21621, -3.24816, 0.762111, 0.579807, 4.64667e-310, 0, 0, 12.2749, -11.2319, -1.3236, -18.8924, 7.76967, 5.49923, 7.76967, 0, 0, -14.7016, 0, 107.715, 0, 0, 54.0441, 0.000115346, 0, 0, 0, 0, 0, 0, 0
0.00125998, -0.0208819, 0.744785, 0.100003, -0.951338, 1.1436, -0.292266, 0.0999982, 0.23, 1, 0.23, 1, 0.0299957, 0.000718591, -7.2102e-05, 0.00503169, -0.00503169, 1.62852e-18, 8.46327e-18, -0.00276155, -2.65588e-05, -8.85772e-05, -3.10528e-05, -8.26035e-05, -0.00673096, 12.2776, -11.2324, -1.32363, -18.8927, 15.5389, 10.9986, -0.289792, 19.2109, -3.76317, -0.164255, -2.34228, -3.26969, 0.760641, 0.596397, 4.64667e-310, 0, 0, 12.2776, -11.2324, -1.32363, -18.8927, 7.76944, 5.49928, 7.76944, 0, 0, -14.6974, 0, 107.731, 0, 0, 54.0472, 0.00011218, 0, 0, 0, 0, 0, 0, 0
0.00139998, -0.0208818, 0.744785, 0.100004, -0.951339, 1.1436, -0.292266, 0.0999978, 0.23, 1, 0.23, 1, 0.0299947, 0.000798339, -8.01044e-05, 0.0055901, -0.0055901, -1.90069e-18, 7.24691e-18, -0.0030672, -2.96499e-05, -9.71705e-05, -3.46433e-05, -9.05333e-05, -0.00747664, 12.2803, -11.2329, -1.32365, -18.893, 15.5384, 10.9987, -0.289708, 19.6603, -3.92852, -0.103246, -2.46836, -3.29122, 0.759172, 0.612986, 4.64667e-310, 0, 0, 12.2803, -11.2329, -1.32365, -18.893, 7.76921, 5.49933, 7.76921, 0, 0, -14.6933, 0, 107.748, 0, 0, 54.0504, 0.000109037, 0, 0, 0, 0, 0, 0, 0
0.00153998, -0.0208816, 0.744785, 0.100005, -0.95134, 1.1436, -0.292266, 0.0999974, 0.23, 1, 0.23, 1, 0.0299936, 0.000878067, -8.8105e-05, 0.00614838, -0.00614838, -4.29857e-18, 7.30149e-18, -0.00337262, -3.27653e-05, -0.000105522, -3.8258e-05, -9.82218e-05, -0.0082218, 12.2831, -11.2335, -1.32366, -18.8934, 15.538, 10.9988, -0.289621, 20.1097, -4.09388, -0.0422374, -2.59443, -3.31275, 0.757702, 0.629576, 4.64667e-310, 0, 0, 12.2831, -11.2335, -1.32366, -18.8934, 7.76898, 5.49939, 7.76898, 0, 0, -14.6891, 0, 107.765, 0, 0, 54.0539, 0.000105918, 0, 0, 0, 0, 0, 0, 0
0.00167998, -0.0208815, 0.744785, 0.100006, -0.951341, 1.1436, -0.292266, 0.0999969, 0.23, 1, 0.23, 1, 0.0299924, 0.000957776, -9.61038e-05, 0.00670651, -0.00670651, -5.54523e-18, 9.65583e-18, -0.0036778, -3.59036e-05, -0.000113636, -4.18957e-05, -0.000105672, -0.00896641, 12.2859, -11.2341, -1.32366, -18.8938, 15.5375, 10.9989, -0.289531, 20.5591, -4.25923, 0.0187716, -2.7205, -3.33428, 0.756233, 0.646166, 4.64667e-310, 0, 0, 12.2859, -11.2341, -1.32366, -18.8938, 7.76875, 5.49944, 7.76875, 0, 0, -14.6848, 0, 107.782, 0, 0, 54.0575, 0.000102823, 0, 0, 0, 0, 0, 0, 0
0.00181997, -0.0208814, 0.744785, 0.100007, -0.951342, 1.1436, -0.292266, 0.0999964, 0.23, 1, 0.23, 1, 0.0299911, 0.00103746, -0.000104101, 0.00726451, -0.00726451, -5.24059e-18, 1.4276e-17, -0.00398274, -3.90637e-05, -0.000121514, -4.55551e-05, -0.000112887, -0.00971044, 12.2888, -11.2347, -1.32365, -18.8942, 15.537, 10.999, -0.28944, 21.0085, -4.42459, 0.0797806, -2.84658, -3.35581, 0.754763, 0.662756, 4.64667e-310, 0, 0, 12.2888, -11.2347, -1.32365, -18.8942, 7.76851, 5.49949, 7.76851, 0, 0, -14.6805, 0, 107.8, 0, 0, 54.0613, 9.97515e-05, 0, 0, 0, 0, 0, 0, 0
0.00195997, -0.0208812, 0.744785, 0.100008, -0.951343, 1.1436, -0.292266, 0.0999958, 0.23, 1, 0.23, 1, 0.0299897, 0.00111713, -0.000112096, 0.00782236, -0.00782236, -6.20627e-18, 1.22996e-17, -0.00428745, -4.22435e-05, -0.000129161, -4.92342e-05, -0.000119871, -0.0104538, 12.2918, -11.2353, -1.32364, -18.8946, 15.5366, 10.9991, -0.289346, 21.4579, -4.58994, 0.14079, -2.97265, -3.37734, 0.753294, 0.679346, 4.64667e-310, 0, 0, 12.2918, -11.2353, -1.32364, -18.8946, 7.76828, 5.49954, 7.76828, 0, 0, -14.6762, 0, 107.818, 0, 0, 54.0653, 9.67046e-05, 0, 0, 0, 0, 0, 0, 0
0.00209997, -0.0208811, 0.744785, 0.100009, -0.951344, 1.1436, -0.292266, 0.0999952, 0.23, 1, 0.23, 1, 0.0299882, 0.00119678, -0.00012009, 0.00838007, -0.00838007, -7.06317e-18, 6.37558e-18, -0.00459193, -4.54423e-05, -0.00013658, -5.29323e-05, -0.000126626, -0.0111966, 12.2948, -11.2359, -1.32361, -18.895, 15.5361, 10.9992, -0.28925, 21.9073, -4.7553, 0.201799, -3.09872, -3.39887, 0.751824, 0.695936, 4.64667e-310, 0, 0, 12.2948, -11.2359, -1.32361, -18.895, 7.76804, 5.4996, 7.76804, 0, 0, -14.6718, 0, 107.836, 0, 0, 54.0695, 9.36816e-05, 0, 0, 0, 0, 0, 0, 0
0.00223997, -0.0208809, 0.744785, 0.10001, -0.951345, 1.1436, -0.292266, 0.0999945, 0.23, 1, 0.23, 1, 0.0299866, 0.00127641, -0.000128081, 0.00893764, -0.00893764, -7.55601e-18, 2.27755e-18, -0.00489617, -4.86584e-05, -0.000143774, -5.66476e-05, -0.000133157, -0.0119387, 12.2979, -11.2366, -1.32358, -18.8954, 15.5356, 10.9993, -0.289151, 22.3567, -4.92065, 0.262808, -3.22479, -3.4204, 0.750355, 0.712526, 4.64667e-310, 0, 0, 12.2979, -11.2366, -1.32358, -18.8954, 7.7678, 5.49965, 7.7678, 0, 0, -14.6674, 0, 107.854, 0, 0, 54.0739, 9.06828e-05, 0, 0, 0, 0, 0, 0, 0
0.00237997, -0.0208807, 0.744785, 0.100011, -0.951346, 1.1436, -0.292266, 0.0999938, 0.23, 1, 0.23, 1, 0.0299849, 0.00135602, -0.000136071, 0.00949506, -0.00949506, -7.6377e-18, 8.50137e-19, -0.00520018, -5.18905e-05, -0.000150747, -6.0379e-05, -0.000139466, -0.0126802, 12.3011, -11.2373, -1.32354, -18.8959, 15.5351, 10.9994, -0.28905, 22.8062, -5.08601, 0.323817, -3.35087, -3.44192, 0.748885, 0.729116, 4.64667e-310, 0, 0, 12.3011, -11.2373, -1.32354, -18.8959, 7.76756, 5.4997, 7.76756, 0, 0, -14.663, 0, 107.873, 0, 0, 54.0785, 8.7708e-05, 0, 0, 0, 0, 0, 0, 0
0.00251996, -0.0208805, 0.744785, 0.100013, -0.951348, 1.1436, -0.292266, 0.099993, 0.23, 1, 0.23, 1, 0.029983, 0.0014356, -0.000144059, 0.0100523, -0.0100523, -7.27631e-18, 2.57894e-18, -0.00550395, -5.51374e-05, -0.0001575, -6.41251e-05, -0.000145557, -0.0134209, 12.3043, -11.238, -1.32349, -18.8964, 15.5346, 10.9995, -0.288947, 23.2556, -5.25136, 0.384826, -3.47694, -3.46345, 0.747416, 0.745706, 0, 0, 0, 12.3043, -11.238, -1.32349, -18.8964, 7.76732, 5.49975, 7.76732, 0, 0, -14.6585, 0, 107.892, 0, 0, 54.0833, 8.47573e-05, 0, 0, 0, 0, 0, 0, 0
0.00265996, -0.0208803, 0.744785, 0.100014, -0.951349, 1.1436, -0.292266, 0.0999922, 0.23, 1, 0.23, 1, 0.0299811, 0.00151517, -0.000152046, 0.0106095, -0.0106095, -6.71778e-18, 4.65493e-18, -0.0058075, -5.83977e-05, -0.000164039, -6.78846e-05, -0.000151433, -0.0141608, 12.3076, -11.2388, -1.32343, -18.8969, 15.5342, 10.9996, -0.288841, 23.705, -5.41672, 0.445834, -3.60301, -3.48498, 0.745946, 0.762296, 0, 0, 0, 12.3076, -11.2388, -1.32343, -18.8969, 7.76708, 5.49981, 7.76708, 0, 0, -14.654, 0, 107.911, 0, 0, 54.0883, 8.18307e-05, 0, 0, 0, 0, 0, 0, 0
0.00279996, -0.0208801, 0.744785, 0.100016, -0.951351, 1.1436, -0.292266, 0.0999914, 0.23, 1, 0.23, 1, 0.0299791, 0.00159471, -0.00016003, 0.0111665, -0.0111665, -6.06431e-18, 6.13063e-18, -0.00611081, -6.16702e-05, -0.000170365, -7.16562e-05, -0.000157096, -0.0149, 12.311, -11.2396, -1.32336, -18.8974, 15.5337, 10.9997, -0.288733, 24.1544, -5.58207, 0.506843, -3.72909, -3.50651, 0.744477, 0.778886, 0, 0, 0, 12.311, -11.2396, -1.32336, -18.8974, 7.76683, 5.49986, 7.76683, 0, 0, -14.6494, 0, 107.931, 0, 0, 54.0935, 7.89283e-05, 0, 0, 0, 0, 0, 0, 0
0.00293996, -0.0208798, 0.744785, 0.100017, -0.951352, 1.1436, -0.292266, 0.0999905, 0.23, 1, 0.23, 1, 0.0299769, 0.00167424, -0.000168013, 0.0117233, -0.0117233, -5.28774e-18, 7.74657e-18, -0.00641389, -6.49536e-05, -0.000176482, -7.54387e-05, -0.00016255, -0.0156384, 12.3144, -11.2404, -1.32329, -18.8979, 15.5332, 10.9998, -0.288623, 24.6038, -5.74743, 0.567852, -3.85516, -3.52804, 0.743007, 0.795476, 0, 0, 0, 12.3144, -11.2404, -1.32329, -18.8979, 7.76658, 5.49991, 7.76658, 0, 0, -14.6448, 0, 107.951, 0, 0, 54.0988, 7.605e-05, 0, 0, 0, 0, 0, 0, 0
0.00307996, -0.0208796, 0.744785, 0.100019, -0.951354, 1.1436, -0.292266, 0.0999896, 0.23, 1, 0.23, 1, 0.0299747, 0.00175374, -0.000175994, 0.01228, -0.01228, -4.43765e-18, 9.237e-18, -0.00671674, -6.82465e-05, -0.000182392, -7.92307e-05, -0.000167798, -0.0163759, 12.3179, -11.2412, -1.32321, -18.8985, 15.5327, 10.9999, -0.288511, 25.0532, -5.91278, 0.628861, -3.98123, -3.54957, 0.741538, 0.812066, 0, 0, 0, 12.3179, -11.2412, -1.32321, -18.8985, 7.76634, 5.49996, 7.76634, 0, 0, -14.6401, 0, 107.971, 0, 0, 54.1044, 7.31958e-05, 0, 0, 0, 0, 0, 0, 0
0.00321996, -0.0208794, 0.744785, 0.100021, -0.951356, 1.1436, -0.292266, 0.0999887, 0.23, 1, 0.23, 1, 0.0299723, 0.00183322, -0.000183974, 0.0128365, -0.0128365, -3.56359e-18, 1.03361e-17, -0.00701937, -7.15477e-05, -0.0001881, -8.30309e-05, -0.000172844, -0.0171126, 12.3214, -11.242, -1.32311, -18.899, 15.5322, 11, -0.288396, 25.5026, -6.07814, 0.68987, -4.10731, -3.5711, 0.740068, 0.828656, 0, 0, 0, 12.3214, -11.242, -1.32311, -18.899, 7.76609, 5.50001, 7.76609, 0, 0, -14.6354, 0, 107.992, 0, 0, 54.1101, 7.03658e-05, 0, 0, 0, 0, 0, 0, 0
0.00335995, -0.0208791, 0.744785, 0.100023, -0.951358, 1.1436, -0.292266, 0.0999877, 0.23, 1, 0.23, 1, 0.0299699, 0.00191267, -0.000191951, 0.0133929, -0.0133929, -3.17177e-18, 1.26051e-17, -0.00732176, -7.48559e-05, -0.000193608, -8.6838e-05, -0.000177689, -0.0178485, 12.325, -11.2429, -1.32301, -18.8996, 15.5317, 11.0001, -0.288279, 25.952, -6.24349, 0.750879, -4.23338, -3.59263, 0.738599, 0.845246, 0, 0, 0, 12.325, -11.2429, -1.32301, -18.8996, 7.76584, 5.50007, 7.76584, 0, 0, -14.6307, 0, 108.013, 0, 0, 54.1161, 6.756e-05, 0, 0, 0, 0, 0, 0, 0
0.00349995, -0.0208788, 0.744785, 0.100024, -0.95136, 1.1436, -0.292266, 0.0999866, 0.23, 1, 0.23, 1, 0.0299673, 0.00199211, -0.000199927, 0.0139491, -0.0139491, -3.17813e-18, 1.52436e-17, -0.00762393, -7.81697e-05, -0.00019892, -9.06508e-05, -0.000182338, -0.0185834, 12.3287, -11.2438, -1.3229, -18.9002, 15.5312, 11.0002, -0.288159, 26.4014, -6.40885, 0.811888, -4.35945, -3.61416, 0.737129, 0.861836, 0, 0, 0, 12.3287, -11.2438, -1.3229, -18.9002, 7.76558, 5.50012, 7.76558, 0, 0, -14.6259, 0, 108.034, 0, 0, 54.1222, 6.47784e-05, 0, 0, 0, 0, 0, 0, 0
0.00363995, -0.0208785, 0.744784, 0.100026, -0.951362, 1.1436, -0.292266, 0.0999855, 0.23, 1, 0.23, 1, 0.0299647, 0.00207152, -0.000207901, 0.0145052, -0.0145052, -3.66677e-18, 1.81241e-17, -0.00792587, -8.1488e-05, -0.000204037, -9.44679e-05, -0.000186794, -0.0193174, 12.3324, -11.2447, -1.32278, -18.9008, 15.5307, 11.0003, -0.288037, 26.8508, -6.5742, 0.872897, -4.48553, -3.63568, 0.735659, 0.878426, 4.64667e-310, 0, 0, 12.3324, -11.2447, -1.32278, -18.9008, 7.76533, 5.50017, 7.76533, 0, 0, -14.6211, 0, 108.056, 0, 0, 54.1285, 6.2021e-05, 0, 0, 0, 0, 0, 0, 0
0.00377995, -0.0208782, 0.744784, 0.100029, -0.951364, 1.1436, -0.292266, 0.0999844, 0.23, 1, 0.23, 1, 0.0299619, 0.00215092, -0.000215874, 0.0150611, -0.0150611, -4.74522e-18, 2.12126e-17, -0.00822758, -8.48093e-05, -0.000208965, -9.82881e-05, -0.000191059, -0.0200504, 12.3362, -11.2456, -1.32266, -18.9015, 15.5302, 11.0004, -0.287913, 27.3003, -6.73956, 0.933906, -4.6116, -3.65721, 0.73419, 0.895016, 4.64667e-310, 0, 0, 12.3362, -11.2456, -1.32266, -18.9015, 7.76508, 5.50022, 7.76508, 0, 0, -14.6162, 0, 108.078, 0, 0, 54.135, 5.92878e-05, 0, 0, 0, 0, 0, 0, 0
0.00391995, -0.0208779, 0.744784, 0.100031, -0.951366, 1.1436, -0.292266, 0.0999832, 0.23, 1, 0.23, 1, 0.0299591, 0.00223028, -0.000223844, 0.0156169, -0.0156169, -5.41888e-18, 2.39084e-17, -0.00852906, -8.81324e-05, -0.000213705, -0.00010211, -0.000195137, -0.0207824, 12.34, -11.2466, -1.32252, -18.9021, 15.5296, 11.0005, -0.287787, 27.7497, -6.90491, 0.994915, -4.73767, -3.67874, 0.73272, 0.911606, 4.64667e-310, 0, 0, 12.34, -11.2466, -1.32252, -18.9021, 7.76482, 5.50027, 7.76482, 0, 0, -14.6113, 0, 108.1, 0, 0, 54.1417, 5.65788e-05, 0, 0, 0, 0, 0, 0, 0
0.00405994, -0.0208776, 0.744784, 0.100033, -0.951368, 1.1436, -0.292266, 0.099982, 0.23, 0.999999, 0.23, 1, 0.0299561, 0.00230963, -0.000231813, 0.0161725, -0.0161725, -5.41917e-18, 2.5984e-17, -0.00883032, -9.1456e-05, -0.000218261, -0.000105932, -0.00019903, -0.0215135, 12.344, -11.2475, -1.32238, -18.9028, 15.5291, 11.0006, -0.287658, 28.1991, -7.07027, 1.05592, -4.86375, -3.70027, 0.731251, 0.928196, 4.64667e-310, 0, 0, 12.344, -11.2475, -1.32238, -18.9028, 7.76456, 5.50032, 7.76456, 0, 0, -14.6064, 0, 108.122, 0, 0, 54.1486, 5.38941e-05, 0, 0, 0, 0, 0, 0, 0
0.00419994, -0.0208773, 0.744784, 0.100035, -0.95137, 1.1436, -0.292266, 0.0999807, 0.23, 0.999999, 0.23, 1, 0.0299531, 0.00238896, -0.00023978, 0.0167279, -0.0167279, -5.05297e-18, 2.75082e-17, -0.00913135, -9.47787e-05, -0.000222635, -0.000109754, -0.000202743, -0.0222435, 12.3479, -11.2485, -1.32223, -18.9035, 15.5286, 11.0007, -0.287527, 28.6485, -7.23562, 1.11693, -4.98982, -3.7218, 0.729781, 0.944786, 4.64667e-310, 0, 0, 12.3479, -11.2485, -1.32223, -18.9035, 7.7643, 5.50037, 7.7643, 0, 0, -14.6014, 0, 108.145, 0, 0, 54.1557, 5.12337e-05, 0, 0, 0, 0, 0, 0, 0
0.00433994, -0.0208769, 0.744784, 0.100038, -0.951373, 1.1436, -0.292266, 0.0999794, 0.23, 0.999999, 0.23, 0.999999, 0.0299499, 0.00246826, -0.000247746, 0.0172832, -0.0172832, -4.21819e-18, 2.83394e-17, -0.00943216, -9.80994e-05, -0.000226832, -0.000113573, -0.000206278, -0.0229724, 12.352, -11.2496, -1.32207, -18.9042, 15.5281, 11.0009, -0.287393, 29.0979, -7.40098, 1.17794, -5.11589, -3.74333, 0.728312, 0.961376, 4.64667e-310, 0, 0, 12.352, -11.2496, -1.32207, -18.9042, 7.76404, 5.50043, 7.76404, 0, 0, -14.5964, 0, 108.168, 0, 0, 54.163, 4.85975e-05, 0, 0, 0, 0, 0, 0, 0
0.00447994, -0.0208766, 0.744784, 0.10004, -0.951375, 1.1436, -0.292266, 0.0999781, 0.23, 0.999999, 0.23, 0.999999, 0.0299466, 0.00254753, -0.000255709, 0.0178383, -0.0178383, -2.81272e-18, 2.83358e-17, -0.00973274, -0.000101417, -0.000230854, -0.000117388, -0.000209639, -0.0237002, 12.3561, -11.2506, -1.3219, -18.9049, 15.5276, 11.001, -0.287258, 29.5473, -7.56633, 1.23895, -5.24197, -3.76486, 0.726842, 0.977966, 4.64667e-310, 0, 0, 12.3561, -11.2506, -1.3219, -18.9049, 7.76378, 5.50048, 7.76378, 0, 0, -14.5914, 0, 108.192, 0, 0, 54.1705, 4.59856e-05, 0, 0, 0, 0, 0, 0, 0
0.00461994, -0.0208762, 0.744784, 0.100043, -0.951378, 1.1436, -0.292266, 0.0999767, 0.23, 0.999999, 0.23, 0.999999, 0.0299433, 0.00262679, -0.000263671, 0.0183933, -0.0183933, -7.34479e-19, 2.73558e-17, -0.0100331, -0.000104729, -0.000234705, -0.000121199, -0.000212828, -0.0244269, 12.3602, -11.2517, -1.32172, -18.9057, 15.527, 11.0011, -0.28712, 29.9967, -7.73169, 1.29996, -5.36804, -3.78639, 0.725373, 0.994556, 4.64667e-310, 0, 0, 12.3602, -11.2517, -1.32172, -18.9057, 7.76351, 5.50053, 7.76351, 0, 0, -14.5863, 0, 108.215, 0, 0, 54.1782, 4.33979e-05, 0, 0, 0, 0, 0, 0, 0
0.00475993, -0.0208759, 0.744784, 0.100045, -0.95138, 1.1436, -0.292266, 0.0999753, 0.23, 0.999999, 0.23, 0.999999, 0.0299398, 0.00270602, -0.000271631, 0.0189481, -0.0189481, 2.11864e-18, 2.52578e-17, -0.0103332, -0.000108036, -0.000238386, -0.000125004, -0.000215848, -0.0251525, 12.3645, -11.2528, -1.32153, -18.9064, 15.5265, 11.0012, -0.286979, 30.4461, -7.89704, 1.36097, -5.49411, -3.80792, 0.723903, 1.01115, 4.64667e-310, 0, 0, 12.3645, -11.2528, -1.32153, -18.9064, 7.76325, 5.50058, 7.76325, 0, 0, -14.5811, 0, 108.239, 0, 0, 54.186, 4.08346e-05, 0, 0, 0, 0, 0, 0, 0
0.00489993, -0.0208755, 0.744784, 0.100048, -0.951383, 1.1436, -0.292266, 0.0999738, 0.23, 0.999999, 0.23, 0.999999, 0.0299362, 0.00278523, -0.00027959, 0.0195027, -0.0195027, 3.55302e-18, 2.4739e-17, -0.0106332, -0.000111335, -0.000241903, -0.000128802, -0.000218703, -0.0258769, 12.3688, -11.2539, -1.32134, -18.9072, 15.526, 11.0013, -0.286837, 30.8955, -8.0624, 1.42198, -5.62019, -3.82944, 0.722434, 1.02774, 4.64667e-310, 0, 0, 12.3688, -11.2539, -1.32134, -18.9072, 7.76298, 5.50063, 7.76298, 0, 0, -14.5759, 0, 108.264, 0, 0, 54.1941, 3.82956e-05, 0, 0, 0, 0, 0, 0, 0
0.00503993, -0.0208751, 0.744784, 0.100051, -0.951386, 1.1436, -0.292266, 0.0999723, 0.23, 0.999999, 0.23, 0.999999, 0.0299325, 0.00286441, -0.000287546, 0.0200572, -0.0200572, 4.22175e-18, 2.49765e-17, -0.0109328, -0.000114625, -0.000245257, -0.00013259, -0.000221396, -0.0266001, 12.3731, -11.255, -1.32114, -18.908, 15.5254, 11.0014, -0.286691, 31.3449, -8.22775, 1.48299, -5.74626, -3.85097, 0.720964, 1.04433, 4.64667e-310, 0, 0, 12.3731, -11.255, -1.32114, -18.908, 7.76271, 5.50068, 7.76271, 0, 0, -14.5707, 0, 108.288, 0, 0, 54.2023, 3.57808e-05, 0, 0, 0, 0, 0, 0, 0
0.00517993, -0.0208747, 0.744784, 0.100053, -0.951389, 1.1436, -0.292266, 0.0999708, 0.23, 0.999999, 0.23, 0.999999, 0.0299288, 0.00294357, -0.000295502, 0.0206115, -0.0206115, 4.4999e-18, 2.5491e-17, -0.0112323, -0.000117906, -0.000248452, -0.000136369, -0.00022393, -0.0273221, 12.3775, -11.2562, -1.32092, -18.9088, 15.5249, 11.0015, -0.286544, 31.7943, -8.39311, 1.544, -5.87233, -3.8725, 0.719495, 1.06092, 4.64667e-310, 0, 0, 12.3775, -11.2562, -1.32092, -18.9088, 7.76244, 5.50073, 7.76244, 0, 0, -14.5655, 0, 108.313, 0, 0, 54.2108, 3.32904e-05, 0, 0, 0, 0, 0, 0, 0
0.00531993, -0.0208743, 0.744784, 0.100056, -0.951391, 1.1436, -0.292266, 0.0999692, 0.23, 0.999999, 0.23, 0.999999, 0.0299249, 0.00302271, -0.000303455, 0.0211656, -0.0211656, 4.30079e-18, 2.63743e-17, -0.0115316, -0.000121175, -0.00025149, -0.000140136, -0.000226307, -0.0280428, 12.382, -11.2574, -1.3207, -18.9096, 15.5243, 11.0016, -0.286394, 32.2438, -8.55846, 1.60501, -5.99841, -3.89403, 0.718025, 1.07751, 4.64667e-310, 0, 0, 12.382, -11.2574, -1.3207, -18.9096, 7.76217, 5.50078, 7.76217, 0, 0, -14.5602, 0, 108.339, 0, 0, 54.2194, 3.08243e-05, 0, 0, 0, 0, 0, 0, 0
0.00545992, -0.0208738, 0.744784, 0.100059, -0.951394, 1.1436, -0.292266, 0.0999675, 0.23, 0.999999, 0.23, 0.999999, 0.0299209, 0.00310182, -0.000311406, 0.0217196, -0.0217196, 3.53778e-18, 2.7718e-17, -0.0118306, -0.000124432, -0.000254376, -0.000143891, -0.000228532, -0.0287623, 12.3866, -11.2586, -1.32047, -18.9105, 15.5238, 11.0017, -0.286242, 32.6932, -8.72382, 1.66601, -6.12448, -3.91556, 0.716556, 1.0941, 4.64667e-310, 0, 0, 12.3866, -11.2586, -1.32047, -18.9105, 7.7619, 5.50083, 7.7619, 0, 0, -14.5548, 0, 108.364, 0, 0, 54.2282, 2.83826e-05, 0, 0, 0, 0, 0, 0, 0
0.00559992, -0.0208734, 0.744784, 0.100062, -0.951398, 1.1436, -0.292266, 0.0999659, 0.23, 0.999999, 0.23, 0.999999, 0.0299168, 0.00318091, -0.000319356, 0.0222734, -0.0222734, 2.1242e-18, 2.96139e-17, -0.0121294, -0.000127675, -0.000257112, -0.000147632, -0.000230608, -0.0294804, 12.3912, -11.2598, -1.32024, -18.9114, 15.5232, 11.0018, -0.286088, 33.1426, -8.88917, 1.72702, -6.25055, -3.93709, 0.715086, 1.11069, 4.64667e-310, 0, 0, 12.3912, -11.2598, -1.32024, -18.9114, 7.76162, 5.50088, 7.76162, 0, 0, -14.5494, 0, 108.39, 0, 0, 54.2373, 2.59652e-05, 0, 0, 0, 0, 0, 0, 0
0.00573992, -0.0208729, 0.744784, 0.100066, -0.951401, 1.1436, -0.292266, 0.0999641, 0.23, 0.999999, 0.23, 0.999999, 0.0299127, 0.00325997, -0.000327304, 0.022827, -0.022827, -2.66146e-20, 3.21539e-17, -0.012428, -0.000130903, -0.000259701, -0.000151358, -0.000232536, -0.0301972, 12.3959, -11.2611, -1.31999, -18.9122, 15.5227, 11.0019, -0.285931, 33.592, -9.05452, 1.78803, -6.37663, -3.95862, 0.713617, 1.12728, 4.64667e-310, 0, 0, 12.3959, -11.2611, -1.31999, -18.9122, 7.76134, 5.50093, 7.76134, 0, 0, -14.544, 0, 108.416, 0, 0, 54.2465, 2.35721e-05, 0, 0, 0, 0, 0, 0, 0
0.00587992, -0.0208725, 0.744784, 0.100069, -0.951404, 1.1436, -0.292266, 0.0999624, 0.23, 0.999999, 0.23, 0.999999, 0.0299084, 0.00333901, -0.000335251, 0.0233805, -0.0233805, -3.00132e-18, 3.54297e-17, -0.0127264, -0.000134115, -0.000262146, -0.000155067, -0.000234321, -0.0309127, 12.4006, -11.2624, -1.31974, -18.9131, 15.5221, 11.002, -0.285772, 34.0414, -9.21988, 1.84904, -6.5027, -3.98015, 0.712147, 1.14387, 4.64667e-310, 0, 0, 12.4006, -11.2624, -1.31974, -18.9131, 7.76107, 5.50098, 7.76107, 0, 0, -14.5386, 0, 108.443, 0, 0, 54.2559, 2.12033e-05, 0, 0, 0, 0, 0, 0, 0
0.00601992, -0.020872, 0.744784, 0.100072, -0.951407, 1.1436, -0.292266, 0.0999606, 0.23, 0.999999, 0.23, 0.999999, 0.029904, 0.00341802, -0.000343196, 0.0239337, -0.0239337, -6.11356e-18, 3.89189e-17, -0.0130245, -0.000137308, -0.000264451, -0.000158758, -0.000235966, -0.0316268, 12.4054, -11.2637, -1.31947, -18.9141, 15.5216, 11.0021, -0.285611, 34.4908, -9.38523, 1.91005, -6.62877, -4.00168, 0.710678, 1.16046, 4.64667e-310, 0, 0, 12.4054, -11.2637, -1.31947, -18.9141, 7.76079, 5.50103, 7.76079, 0, 0, -14.5331, 0, 108.47, 0, 0, 54.2655, 1.8859e-05, 0, 0, 0, 0, 0, 0, 0
0.00615991, -0.0208715, 0.744784, 0.100076, -0.951411, 1.1436, -0.292266, 0.0999587, 0.23, 0.999999, 0.23, 0.999999, 0.0298995, 0.00349701, -0.000351139, 0.0244868, -0.0244868, -8.55571e-18, 4.2003e-17, -0.0133225, -0.000140483, -0.000266619, -0.00016243, -0.000237474, -0.0323394, 12.4102, -11.265, -1.3192, -18.915, 15.521, 11.0022, -0.285448, 34.9402, -9.55059, 1.97106, -6.75484, -4.0232, 0.709208, 1.17705, 4.64667e-310, 0, 0, 12.4102, -11.265, -1.3192, -18.915, 7.76051, 5.50108, 7.76051, 0, 0, -14.5275, 0, 108.497, 0, 0, 54.2753, 1.6539e-05, 0, 0, 0, 0, 0, 0, 0
0.00629991, -0.020871, 0.744784, 0.100079, -0.951414, 1.1436, -0.292266, 0.0999568, 0.23, 0.999999, 0.229999, 0.999999, 0.029895, 0.00357597, -0.00035908, 0.0250398, -0.0250398, -1.12976e-17, 4.54751e-17, -0.0136202, -0.000143637, -0.000268652, -0.000166082, -0.000238847, -0.0330507, 12.4152, -11.2663, -1.31892, -18.916, 15.5204, 11.0023, -0.285282, 35.3896, -9.71594, 2.03207, -6.88092, -4.04473, 0.707739, 1.19364, 4.64667e-310, 0, 0, 12.4152, -11.2663, -1.31892, -18.916, 7.76022, 5.50113, 7.76022, 0, 0, -14.5219, 0, 108.524, 0, 0, 54.2852, 1.42433e-05, 0, 0, 0, 0, 0, 0, 0
0.00643991, -0.0208705, 0.744784, 0.100083, -0.951418, 1.1436, -0.292266, 0.0999549, 0.23, 0.999999, 0.229999, 0.999999, 0.0298903, 0.00365491, -0.000367019, 0.0255925, -0.0255925, -1.43414e-17, 4.93601e-17, -0.0139177, -0.00014677, -0.000270555, -0.000169712, -0.00024009, -0.0337604, 12.4202, -11.2677, -1.31863, -18.9169, 15.5199, 11.0024, -0.285113, 35.839, -9.8813, 2.09308, -7.00699, -4.06626, 0.706269, 1.21023, 4.64667e-310, 0, 0, 12.4202, -11.2677, -1.31863, -18.9169, 7.75994, 5.50118, 7.75994, 0, 0, -14.5163, 0, 108.552, 0, 0, 54.2954, 1.1972e-05, 0, 0, 0, 0, 0, 0, 0
0.00657991, -0.02087, 0.744784, 0.100086, -0.951421, 1.1436, -0.292266, 0.0999529, 0.23, 0.999999, 0.229999, 0.999999, 0.0298855, 0.00373382, -0.000374957, 0.0261451, -0.0261451, -1.76893e-17, 5.36826e-17, -0.014215, -0.00014988, -0.000272329, -0.000173318, -0.000241205, -0.0344687, 12.4252, -11.2691, -1.31834, -18.9179, 15.5193, 11.0025, -0.284943, 36.2884, -10.0467, 2.15409, -7.13306, -4.08779, 0.7048, 1.22682, 4.64667e-310, 0, 0, 12.4252, -11.2691, -1.31834, -18.9179, 7.75965, 5.50123, 7.75965, 0, 0, -14.5106, 0, 108.58, 0, 0, 54.3058, 9.72507e-06, 0, 0, 0, 0, 0, 0, 0
0.00671991, -0.0208695, 0.744784, 0.10009, -0.951425, 1.1436, -0.292266, 0.0999509, 0.229999, 0.999999, 0.229999, 0.999999, 0.0298806, 0.00381271, -0.000382894, 0.0266975, -0.0266975, -2.13435e-17, 5.84672e-17, -0.0145121, -0.000152965, -0.000273979, -0.000176901, -0.000242195, -0.0351754, 12.4303, -11.2705, -1.31803, -18.9189, 15.5187, 11.0026, -0.28477, 36.7379, -10.212, 2.2151, -7.25914, -4.10932, 0.70333, 1.24341, 4.64667e-310, 0, 0, 12.4303, -11.2705, -1.31803, -18.9189, 7.75937, 5.50128, 7.75937, 0, 0, -14.5049, 0, 108.608, 0, 0, 54.3163, 7.50252e-06, 0, 0, 0, 0, 0, 0, 0
0.0068599, -0.0208689, 0.744784, 0.100094, -0.951429, 1.1436, -0.292266, 0.0999489, 0.229999, 0.999999, 0.229999, 0.999999, 0.0298757, 0.00389157, -0.000390828, 0.0272497, -0.0272497, -2.53064e-17, 6.37386e-17, -0.0148089, -0.000156025, -0.000275506, -0.000180457, -0.000243063, -0.0358807, 12.4355, -11.272, -1.31771, -18.9199, 15.5182, 11.0027, -0.284595, 37.1873, -10.3774, 2.2761, -7.38521, -4.13085, 0.701861, 1.26, 4.64667e-310, 0, 0, 12.4355, -11.272, -1.31771, -18.9199, 7.75908, 5.50133, 7.75908, 0, 0, -14.4992, 0, 108.637, 0, 0, 54.3271, 5.30434e-06, 0, 0, 0, 0, 0, 0, 0
0.0069999, -0.0208684, 0.744783, 0.100098, -0.951433, 1.1436, -0.292266, 0.0999468, 0.229999, 0.999999, 0.229999, 0.999999, 0.0298706, 0.00397041, -0.000398761, 0.0278017, -0.0278017, -2.95799e-17, 6.95215e-17, -0.0151056, -0.000159058, -0.000276916, -0.000183987, -0.000243813, -0.0365843, 12.4407, -11.2734, -1.31739, -18.921, 15.5176, 11.0028, -0.284417, 37.6367, -10.5427, 2.33711, -7.51128, -4.15238, 0.700391, 1.27659, 4.64667e-310, 0, 0, 12.4407, -11.2734, -1.31739, -18.921, 7.75879, 5.50138, 7.75879, 0, 0, -14.4934, 0, 108.666, 0, 0, 54.338, 3.13053e-06, 0, 0, 0, 0, 0, 0, 0
0.0071399, -0.0208678, 0.744783, 0.100101, -0.951437, 1.1436, -0.292266, 0.0999447, 0.229999, 0.999999, 0.229999, 0.999999, 0.0298654, 0.00404922, -0.000406692, 0.0283536, -0.0283536, -3.41664e-17, 7.58406e-17, -0.015402, -0.000162063, -0.000278209, -0.000187488, -0.000244448, -0.0372864, 12.446, -11.2749, -1.31706, -18.9221, 15.517, 11.0028, -0.284237, 38.0861, -10.7081, 2.39812, -7.63736, -4.17391, 0.698922, 1.29318, 4.64667e-310, 0, 0, 12.446, -11.2749, -1.31706, -18.9221, 7.7585, 5.50142, 7.7585, 0, 0, -14.4876, 0, 108.695, 0, 0, 54.3492, 9.81097e-07, 0, 0, 0, 0, 0, 0, 0
0.0072799, -0.0208673, 0.744783, 0.100105, -0.951441, 1.1436, -0.292266, 0.0999425, 0.229999, 0.999999, 0.229999, 0.999999, 0.0298601, 0.004128, -0.000414621, 0.0289052, -0.0289052, -3.90681e-17, 8.27204e-17, -0.0156982, -0.000165038, -0.000279391, -0.00019096, -0.000244971, -0.0379868, 12.4514, -11.2764, -1.31672, -18.9231, 15.5164, 11.0029, -0.284055, 38.5355, -10.8734, 2.45913, -7.76343, -4.19543, 0.697452, 1.30977, 4.64667e-310, 0, 0, 12.4514, -11.2764, -1.31672, -18.9231, 7.7582, 5.50147, 7.7582, 0, 0, -14.4817, 0, 108.725, 0, 0, 54.3605, -1.14396e-06, 0, 0, 0, 0, 0, 0, 0
0.0074199, -0.0208667, 0.744783, 0.10011, -0.951445, 1.1436, -0.292266, 0.0999403, 0.229999, 0.999999, 0.229999, 0.999999, 0.0298548, 0.00420676, -0.000422549, 0.0294567, -0.0294567, -4.42872e-17, 9.01858e-17, -0.0159942, -0.000167983, -0.000280463, -0.000194401, -0.000245384, -0.0386856, 12.4568, -11.278, -1.31637, -18.9242, 15.5158, 11.003, -0.28387, 38.9849, -11.0388, 2.52014, -7.8895, -4.21696, 0.695983, 1.32636, 4.64667e-310, 0, 0, 12.4568, -11.278, -1.31637, -18.9242, 7.75791, 5.50152, 7.75791, 0, 0, -14.4758, 0, 108.755, 0, 0, 54.372, -3.24464e-06, 0, 0, 0, 0, 0, 0, 0
0.00755989, -0.0208661, 0.744783, 0.100114, -0.951449, 1.1436, -0.292266, 0.099938, 0.229999, 0.999999, 0.229999, 0.999999, 0.0298493, 0.00428548, -0.000430475, 0.030008, -0.030008, -4.98259e-17, 9.82614e-17, -0.01629, -0.000170895, -0.000281429, -0.00019781, -0.000245692, -0.0393827, 12.4623, -11.2795, -1.31601, -18.9253, 15.5152, 11.0031, -0.283684, 39.4343, -11.2041, 2.58115, -8.01558, -4.23849, 0.694513, 1.34295, 4.64667e-310, 0, 0, 12.4623, -11.2795, -1.31601, -18.9253, 7.75761, 5.50157, 7.75761, 0, 0, -14.4698, 0, 108.785, 0, 0, 54.3837, -5.32094e-06, 0, 0, 0, 0, 0, 0, 0
0.00769989, -0.0208655, 0.744783, 0.100118, -0.951453, 1.1436, -0.292266, 0.0999357, 0.229999, 0.999999, 0.229999, 0.999999, 0.0298438, 0.00436419, -0.000438399, 0.0305591, -0.0305591, -5.56864e-17, 1.06972e-16, -0.0165856, -0.000173774, -0.000282292, -0.000201185, -0.000245897, -0.040078, 12.4679, -11.2811, -1.31565, -18.9265, 15.5146, 11.0032, -0.283494, 39.8837, -11.3695, 2.64216, -8.14165, -4.26002, 0.693044, 1.35954, 4.64667e-310, 0, 0, 12.4679, -11.2811, -1.31565, -18.9265, 7.75732, 5.50162, 7.75732, 0, 0, -14.4639, 0, 108.815, 0, 0, 54.3956, -7.37286e-06, 0, 0, 0, 0, 0, 0, 0
0.00783989, -0.0208649, 0.744783, 0.100122, -0.951457, 1.1436, -0.292266, 0.0999334, 0.229999, 0.999999, 0.229999, 0.999999, 0.0298381, 0.00444286, -0.000446322, 0.0311101, -0.0311101, -6.07371e-17, 1.14793e-16, -0.016881, -0.000176618, -0.000283055, -0.000204525, -0.000246002, -0.0407717, 12.4735, -11.2827, -1.31528, -18.9276, 15.514, 11.0033, -0.283303, 40.3331, -11.5348, 2.70317, -8.26772, -4.28155, 0.691574, 1.37613, 4.64667e-310, 0, 0, 12.4735, -11.2827, -1.31528, -18.9276, 7.75702, 5.50167, 7.75702, 0, 0, -14.4578, 0, 108.846, 0, 0, 54.4077, -9.40041e-06, 0, 0, 0, 0, 0, 0, 0
0.00797989, -0.0208642, 0.744783, 0.100127, -0.951462, 1.1436, -0.292266, 0.099931, 0.229999, 0.999998, 0.229999, 0.999999, 0.0298323, 0.00452151, -0.000454243, 0.0316608, -0.0316608, -6.46283e-17, 1.21271e-16, -0.0171761, -0.000179426, -0.000283721, -0.000207829, -0.00024601, -0.0414636, 12.4792, -11.2843, -1.31489, -18.9288, 15.5134, 11.0034, -0.283109, 40.7825, -11.7002, 2.76418, -8.3938, -4.30308, 0.690105, 1.39272, 4.64667e-310, 0, 0, 12.4792, -11.2843, -1.31489, -18.9288, 7.75672, 5.50172, 7.75672, 0, 0, -14.4518, 0, 108.877, 0, 0, 54.42, -1.14036e-05, 0, 0, 0, 0, 0, 0, 0
0.00811989, -0.0208636, 0.744783, 0.100131, -0.951466, 1.1436, -0.292266, 0.0999285, 0.229999, 0.999998, 0.229999, 0.999999, 0.0298265, 0.00460013, -0.000462162, 0.0322113, -0.0322113, -6.82633e-17, 1.27658e-16, -0.0174711, -0.000182197, -0.000284294, -0.000211095, -0.000245925, -0.0421538, 12.4849, -11.286, -1.3145, -18.93, 15.5128, 11.0035, -0.282913, 41.2319, -11.8656, 2.82518, -8.51987, -4.32461, 0.688635, 1.40931, 4.64667e-310, 0, 0, 12.4849, -11.286, -1.3145, -18.93, 7.75642, 5.50176, 7.75642, 0, 0, -14.4456, 0, 108.909, 0, 0, 54.4325, -1.33824e-05, 0, 0, 0, 0, 0, 0, 0
0.00825989, -0.0208629, 0.744783, 0.100136, -0.951471, 1.1436, -0.292266, 0.0999261, 0.229999, 0.999998, 0.229999, 0.999999, 0.0298205, 0.00467873, -0.00047008, 0.0327617, -0.0327617, -7.15989e-17, 1.33919e-16, -0.0177658, -0.000184929, -0.000284776, -0.000214323, -0.00024575, -0.0428421, 12.4907, -11.2876, -1.3141, -18.9312, 15.5122, 11.0036, -0.282714, 41.6814, -12.0309, 2.88619, -8.64594, -4.34614, 0.687166, 1.4259, 4.64667e-310, 0, 0, 12.4907, -11.2876, -1.3141, -18.9312, 7.75611, 5.50181, 7.75611, 0, 0, -14.4395, 0, 108.94, 0, 0, 54.4452, -1.53368e-05, 0, 0, 0, 0, 0, 0, 0
0.00839988, -0.0208623, 0.744783, 0.10014, -0.951475, 1.1436, -0.292266, 0.0999236, 0.229999, 0.999998, 0.229999, 0.999999, 0.0298145, 0.00475729, -0.000477996, 0.0333118, -0.0333118, -7.45921e-17, 1.40016e-16, -0.0180604, -0.000187621, -0.000285171, -0.00021751, -0.000245488, -0.0435286, 12.4966, -11.2893, -1.31369, -18.9324, 15.5116, 11.0037, -0.282514, 42.1308, -12.1963, 2.9472, -8.77202, -4.36767, 0.685696, 1.44249, 4.64667e-310, 0, 0, 12.4966, -11.2893, -1.31369, -18.9324, 7.75581, 5.50186, 7.75581, 0, 0, -14.4333, 0, 108.973, 0, 0, 54.458, -1.72669e-05, 0, 0, 0, 0, 0, 0, 0
0.00853988, -0.0208616, 0.744783, 0.100145, -0.95148, 1.1436, -0.292266, 0.099921, 0.229999, 0.999998, 0.229999, 0.999998, 0.0298084, 0.00483583, -0.00048591, 0.0338618, -0.0338618, -7.71998e-17, 1.45912e-16, -0.0183547, -0.000190272, -0.000285482, -0.000220656, -0.000245142, -0.0442132, 12.5025, -11.2911, -1.31328, -18.9336, 15.511, 11.0038, -0.282311, 42.5802, -12.3616, 3.00821, -8.89809, -4.38919, 0.684227, 1.45908, 4.64667e-310, 0, 0, 12.5025, -11.2911, -1.31328, -18.9336, 7.7555, 5.50191, 7.7555, 0, 0, -14.4271, 0, 109.005, 0, 0, 54.4711, -1.91726e-05, 0, 0, 0, 0, 0, 0, 0
0.00867988, -0.0208609, 0.744783, 0.10015, -0.951485, 1.1436, -0.292266, 0.0999184, 0.229999, 0.999998, 0.229999, 0.999998, 0.0298021, 0.00491434, -0.000493823, 0.0344116, -0.0344116, -7.93788e-17, 1.51569e-16, -0.0186488, -0.00019288, -0.000285712, -0.000223759, -0.000244714, -0.0448959, 12.5085, -11.2928, -1.31285, -18.9349, 15.5104, 11.0039, -0.282105, 43.0296, -12.527, 3.06922, -9.02416, -4.41072, 0.682757, 1.47567, 4.64667e-310, 0, 0, 12.5085, -11.2928, -1.31285, -18.9349, 7.75519, 5.50196, 7.75519, 0, 0, -14.4208, 0, 109.038, 0, 0, 54.4843, -2.1054e-05, 0, 0, 0, 0, 0, 0, 0
0.00881988, -0.0208602, 0.744783, 0.100155, -0.95149, 1.1436, -0.292266, 0.0999158, 0.229999, 0.999998, 0.229999, 0.999998, 0.0297958, 0.00499283, -0.000501734, 0.0349611, -0.0349611, -8.1086e-17, 1.56951e-16, -0.0189427, -0.000195444, -0.000285863, -0.000226818, -0.000244209, -0.0455767, 12.5145, -11.2946, -1.31242, -18.9362, 15.5098, 11.004, -0.281897, 43.479, -12.6923, 3.13023, -9.15024, -4.43225, 0.681288, 1.49226, 4.64667e-310, 0, 0, 12.5145, -11.2946, -1.31242, -18.9362, 7.75488, 5.502, 7.75488, 0, 0, -14.4145, 0, 109.071, 0, 0, 54.4978, -2.29109e-05, 0, 0, 0, 0, 0, 0, 0
0.00895988, -0.0208595, 0.744783, 0.10016, -0.951495, 1.1436, -0.292266, 0.0999131, 0.229999, 0.999998, 0.229999, 0.999998, 0.0297894, 0.00507128, -0.000509643, 0.0355105, -0.0355105, -8.22784e-17, 1.6202e-16, -0.0192364, -0.000197964, -0.00028594, -0.000229832, -0.00024363, -0.0462556, 12.5207, -11.2964, -1.31197, -18.9374, 15.5091, 11.0041, -0.281687, 43.9284, -12.8577, 3.19124, -9.27631, -4.45378, 0.679818, 1.50885, 4.64667e-310, 0, 0, 12.5207, -11.2964, -1.31197, -18.9374, 7.75457, 5.50205, 7.75457, 0, 0, -14.4081, 0, 109.104, 0, 0, 54.5114, -2.47436e-05, 0, 0, 0, 0, 0, 0, 0
0.00909987, -0.0208588, 0.744782, 0.100165, -0.9515, 1.1436, -0.292266, 0.0999104, 0.229999, 0.999998, 0.229999, 0.999998, 0.0297828, 0.00514971, -0.00051755, 0.0360597, -0.0360597, -8.29128e-17, 1.66739e-16, -0.0195299, -0.000200436, -0.000285945, -0.000232799, -0.000242978, -0.0469325, 12.5268, -11.2982, -1.31152, -18.9387, 15.5085, 11.0042, -0.281475, 44.3778, -13.023, 3.25225, -9.40238, -4.47531, 0.678349, 1.52544, 4.64667e-310, 0, 0, 12.5268, -11.2982, -1.31152, -18.9387, 7.75426, 5.5021, 7.75426, 0, 0, -14.4017, 0, 109.137, 0, 0, 54.5253, -2.65519e-05, 0, 0, 0, 0, 0, 0, 0
0.00923987, -0.0208581, 0.744782, 0.10017, -0.951505, 1.1436, -0.292266, 0.0999077, 0.229999, 0.999998, 0.229999, 0.999998, 0.0297762, 0.0052281, -0.000525456, 0.0366087, -0.0366087, -8.29462e-17, 1.71071e-16, -0.0198232, -0.000202861, -0.000285882, -0.000235718, -0.000242259, -0.0476074, 12.5331, -11.3, -1.31106, -18.9401, 15.5079, 11.0043, -0.28126, 44.8272, -13.1884, 3.31326, -9.52846, -4.49684, 0.676879, 1.54203, 4.64667e-310, 0, 0, 12.5331, -11.3, -1.31106, -18.9401, 7.75395, 5.50215, 7.75395, 0, 0, -14.3953, 0, 109.171, 0, 0, 54.5393, -2.83358e-05, 0, 0, 0, 0, 0, 0, 0
0.00937987, -0.0208573, 0.744782, 0.100175, -0.95151, 1.1436, -0.292266, 0.0999049, 0.229999, 0.999998, 0.229999, 0.999998, 0.0297695, 0.00530647, -0.00053336, 0.0371575, -0.0371575, -8.23354e-17, 1.74979e-16, -0.0201163, -0.000205236, -0.000285753, -0.000238588, -0.000241474, -0.0482803, 12.5394, -11.3019, -1.3106, -18.9414, 15.5073, 11.0044, -0.281043, 45.2766, -13.3538, 3.37427, -9.65453, -4.51837, 0.67541, 1.55862, 4.64667e-310, 0, 0, 12.5394, -11.3019, -1.3106, -18.9414, 7.75363, 5.50219, 7.75363, 0, 0, -14.3888, 0, 109.206, 0, 0, 54.5535, -3.00954e-05, 0, 0, 0, 0, 0, 0, 0
0.00951987, -0.0208566, 0.744782, 0.10018, -0.951515, 1.1436, -0.292266, 0.099902, 0.229999, 0.999998, 0.229999, 0.999998, 0.0297627, 0.00538481, -0.000541263, 0.037706, -0.037706, -8.10374e-17, 1.78425e-16, -0.0204092, -0.000207562, -0.000285561, -0.000241407, -0.000240627, -0.0489512, 12.5458, -11.3037, -1.31012, -18.9428, 15.5066, 11.0045, -0.280824, 45.726, -13.5191, 3.43527, -9.7806, -4.5399, 0.67394, 1.57521, 4.64667e-310, 0, 0, 12.5458, -11.3037, -1.31012, -18.9428, 7.75331, 5.50224, 7.75331, 0, 0, -14.3823, 0, 109.24, 0, 0, 54.5679, -3.18307e-05, 0, 0, 0, 0, 0, 0, 0
0.00965987, -0.0208558, 0.744782, 0.100185, -0.95152, 1.1436, -0.292266, 0.0998991, 0.229999, 0.999998, 0.229999, 0.999998, 0.0297558, 0.00546312, -0.000549164, 0.0382544, -0.0382544, -8.09014e-17, 1.82356e-16, -0.0207019, -0.000209835, -0.000285311, -0.000244174, -0.000239721, -0.0496199, 12.5522, -11.3056, -1.30963, -18.9442, 15.506, 11.0046, -0.280602, 46.1755, -13.6845, 3.49628, -9.90667, -4.56143, 0.672471, 1.5918, 4.64667e-310, 0, 0, 12.5522, -11.3056, -1.30963, -18.9442, 7.75299, 5.50229, 7.75299, 0, 0, -14.3758, 0, 109.275, 0, 0, 54.5825, -3.35417e-05, 0, 0, 0, 0, 0, 0, 0
0.00979986, -0.0208551, 0.744782, 0.100191, -0.951526, 1.1436, -0.292266, 0.0998962, 0.229999, 0.999998, 0.229999, 0.999998, 0.0297488, 0.0055414, -0.000557063, 0.0388026, -0.0388026, -8.06637e-17, 1.86099e-16, -0.0209944, -0.000212055, -0.000285004, -0.000246888, -0.000238759, -0.0502866, 12.5587, -11.3076, -1.30914, -18.9456, 15.5053, 11.0047, -0.280378, 46.6249, -13.8498, 3.55729, -10.0327, -4.58295, 0.671001, 1.60838, 4.64667e-310, 0, 0, 12.5587, -11.3076, -1.30914, -18.9456, 7.75267, 5.50234, 7.75267, 0, 0, -14.3692, 0, 109.31, 0, 0, 54.5973, -3.52284e-05, 0, 0, 0, 0, 0, 0, 0
0.00993986, -0.0208543, 0.744782, 0.100196, -0.951531, 1.1436, -0.292266, 0.0998933, 0.229999, 0.999998, 0.229999, 0.999998, 0.0297417, 0.00561966, -0.000564961, 0.0393505, -0.0393505, -8.02681e-17, 1.89612e-16, -0.0212867, -0.00021422, -0.000284644, -0.000249547, -0.000237745, -0.0509511, 12.5653, -11.3095, -1.30864, -18.947, 15.5047, 11.0048, -0.280152, 47.0743, -14.0152, 3.6183, -10.1588, -4.60448, 0.669532, 1.62497, 4.64667e-310, 0, 0, 12.5653, -11.3095, -1.30864, -18.947, 7.75235, 5.50238, 7.75235, 0, 0, -14.3625, 0, 109.346, 0, 0, 54.6123, -3.68907e-05, 0, 0, 0, 0, 0, 0, 0
0.0100799, -0.0208535, 0.744782, 0.100202, -0.951537, 1.1436, -0.292266, 0.0998903, 0.229999, 0.999998, 0.229999, 0.999998, 0.0297346, 0.00569788, -0.000572856, 0.0398983, -0.0398983, -7.97502e-17, 1.92897e-16, -0.0215787, -0.00021633, -0.000284235, -0.00025215, -0.00023668, -0.0516135, 12.5719, -11.3115, -1.30813, -18.9484, 15.5041, 11.0049, -0.279923, 47.5237, -14.1805, 3.67931, -10.2849, -4.62601, 0.668062, 1.64156, 4.64667e-310, 0, 0, 12.5719, -11.3115, -1.30813, -18.9484, 7.75203, 5.50243, 7.75203, 0, 0, -14.3558, 0, 109.381, 0, 0, 54.6275, -3.85287e-05, 0, 0, 0, 0, 0, 0, 0
0.0102199, -0.0208527, 0.744782, 0.100207, -0.951543, 1.1436, -0.292266, 0.0998872, 0.229999, 0.999998, 0.229999, 0.999998, 0.0297273, 0.00577607, -0.000580751, 0.0404459, -0.0404459, -7.91494e-17, 1.95961e-16, -0.0218706, -0.000218383, -0.000283779, -0.000254695, -0.00023557, -0.0522737, 12.5786, -11.3135, -1.30761, -18.9498, 15.5034, 11.005, -0.279692, 47.9731, -14.3459, 3.74032, -10.411, -4.64754, 0.666593, 1.65815, 4.64667e-310, 0, 0, 12.5786, -11.3135, -1.30761, -18.9498, 7.75171, 5.50248, 7.75171, 0, 0, -14.3491, 0, 109.417, 0, 0, 54.6428, -4.01425e-05, 0, 0, 0, 0, 0, 0, 0
0.0103599, -0.0208519, 0.744782, 0.100213, -0.951548, 1.1436, -0.292266, 0.0998841, 0.229999, 0.999998, 0.229999, 0.999998, 0.0297199, 0.00585424, -0.000588643, 0.0409932, -0.0409932, -7.85092e-17, 1.98811e-16, -0.0221623, -0.000220377, -0.000283279, -0.000257182, -0.000234416, -0.0529317, 12.5853, -11.3155, -1.30708, -18.9513, 15.5028, 11.005, -0.279459, 48.4225, -14.5112, 3.80133, -10.537, -4.66907, 0.665123, 1.67474, 4.64667e-310, 0, 0, 12.5853, -11.3155, -1.30708, -18.9513, 7.75138, 5.50252, 7.75138, 0, 0, -14.3424, 0, 109.454, 0, 0, 54.6584, -4.1732e-05, 0, 0, 0, 0, 0, 0, 0
0.0104999, -0.020851, 0.744782, 0.100219, -0.951554, 1.1436, -0.292266, 0.099881, 0.229999, 0.999998, 0.229999, 0.999998, 0.0297125, 0.00593237, -0.000596534, 0.0415403, -0.0415403, -7.78765e-17, 2.01457e-16, -0.0224538, -0.000222312, -0.000282739, -0.00025961, -0.000233222, -0.0535875, 12.5921, -11.3176, -1.30654, -18.9528, 15.5021, 11.0051, -0.279223, 48.8719, -14.6766, 3.86234, -10.6631, -4.6906, 0.663654, 1.69133, 4.64667e-310, 0, 0, 12.5921, -11.3176, -1.30654, -18.9528, 7.75105, 5.50257, 7.75105, 0, 0, -14.3356, 0, 109.49, 0, 0, 54.6741, -4.32972e-05, 0, 0, 0, 0, 0, 0, 0
0.0106399, -0.0208502, 0.744782, 0.100225, -0.95156, 1.1436, -0.292266, 0.0998779, 0.229999, 0.999998, 0.229999, 0.999998, 0.0297049, 0.00601047, -0.000604423, 0.0420873, -0.0420873, -7.73025e-17, 2.0391e-16, -0.022745, -0.000224185, -0.000282162, -0.000261976, -0.00023199, -0.054241, 12.599, -11.3196, -1.306, -18.9543, 15.5014, 11.0052, -0.278985, 49.3213, -14.8419, 3.92335, -10.7892, -4.71213, 0.662184, 1.70792, 4.64667e-310, 0, 0, 12.599, -11.3196, -1.306, -18.9543, 7.75072, 5.50262, 7.75072, 0, 0, -14.3287, 0, 109.527, 0, 0, 54.6901, -4.48381e-05, 0, 0, 0, 0, 0, 0, 0
0.0107799, -0.0208494, 0.744782, 0.100231, -0.951566, 1.1436, -0.292266, 0.0998747, 0.229999, 0.999998, 0.229999, 0.999998, 0.0296973, 0.00608854, -0.000612311, 0.042634, -0.042634, -7.6842e-17, 2.06184e-16, -0.0230361, -0.000225996, -0.00028155, -0.000264279, -0.000230725, -0.0548922, 12.6059, -11.3217, -1.30544, -18.9558, 15.5008, 11.0053, -0.278745, 49.7707, -15.0073, 3.98436, -10.9153, -4.73366, 0.660715, 1.72451, 4.64667e-310, 0, 0, 12.6059, -11.3217, -1.30544, -18.9558, 7.75039, 5.50266, 7.75039, 0, 0, -14.3218, 0, 109.565, 0, 0, 54.7062, -4.63548e-05, 0, 0, 0, 0, 0, 0, 0
0.0109198, -0.0208485, 0.744781, 0.100237, -0.951572, 1.1436, -0.292266, 0.0998714, 0.229999, 0.999998, 0.229998, 0.999998, 0.0296896, 0.00616659, -0.000620197, 0.0431805, -0.0431805, -7.65538e-17, 2.08295e-16, -0.023327, -0.000227744, -0.000280907, -0.000266519, -0.000229429, -0.0555411, 12.6129, -11.3238, -1.30488, -18.9574, 15.5001, 11.0054, -0.278502, 50.2201, -15.1727, 4.04536, -11.0413, -4.75519, 0.659245, 1.7411, 4.64667e-310, 0, 0, 12.6129, -11.3238, -1.30488, -18.9574, 7.75006, 5.50271, 7.75006, 0, 0, -14.3149, 0, 109.602, 0, 0, 54.7225, -4.78473e-05, 0, 0, 0, 0, 0, 0, 0
0.0110598, -0.0208476, 0.744781, 0.100243, -0.951578, 1.1436, -0.292266, 0.0998681, 0.229999, 0.999998, 0.229998, 0.999998, 0.0296817, 0.0062446, -0.000628081, 0.0437268, -0.0437268, -7.65003e-17, 2.10261e-16, -0.0236177, -0.000229426, -0.000280237, -0.000268693, -0.000228105, -0.0561876, 12.62, -11.326, -1.30431, -18.9589, 15.4995, 11.0055, -0.278258, 50.6696, -15.338, 4.10637, -11.1674, -4.77671, 0.657776, 1.75769, 4.64667e-310, 0, 0, 12.62, -11.326, -1.30431, -18.9589, 7.74973, 5.50275, 7.74973, 0, 0, -14.308, 0, 109.64, 0, 0, 54.7391, -4.93155e-05, 0, 0, 0, 0, 0, 0, 0
0.0111998, -0.0208468, 0.744781, 0.100249, -0.951584, 1.1436, -0.292266, 0.0998648, 0.229999, 0.999998, 0.229998, 0.999998, 0.0296738, 0.00632258, -0.000635963, 0.0442728, -0.0442728, -7.67481e-17, 2.12101e-16, -0.0239082, -0.000231042, -0.000279541, -0.000270801, -0.000226757, -0.0568318, 12.6271, -11.3281, -1.30373, -18.9605, 15.4988, 11.0056, -0.27801, 51.119, -15.5034, 4.16738, -11.2935, -4.79824, 0.656306, 1.77428, 4.64667e-310, 0, 0, 12.6271, -11.3281, -1.30373, -18.9605, 7.74939, 5.5028, 7.74939, 0, 0, -14.301, 0, 109.679, 0, 0, 54.7558, -5.07595e-05, 0, 0, 0, 0, 0, 0, 0
0.0113398, -0.0208459, 0.744781, 0.100255, -0.95159, 1.1436, -0.292266, 0.0998614, 0.229999, 0.999998, 0.229998, 0.999998, 0.0296658, 0.00640053, -0.000643844, 0.0448187, -0.0448187, -7.73674e-17, 2.13837e-16, -0.0241984, -0.000232591, -0.000278824, -0.000272841, -0.000225387, -0.0574736, 12.6343, -11.3303, -1.30315, -18.9621, 15.4981, 11.0057, -0.277761, 51.5684, -15.6687, 4.22839, -11.4196, -4.81977, 0.654837, 1.79087, 4.64667e-310, 0, 0, 12.6343, -11.3303, -1.30315, -18.9621, 7.74905, 5.50285, 7.74905, 0, 0, -14.2939, 0, 109.717, 0, 0, 54.7727, -5.21793e-05, 0, 0, 0, 0, 0, 0, 0
0.0114798, -0.020845, 0.744781, 0.100262, -0.951597, 1.1436, -0.292266, 0.099858, 0.229999, 0.999997, 0.229998, 0.999998, 0.0296577, 0.00647844, -0.000651724, 0.0453643, -0.0453643, -7.84323e-17, 2.15493e-16, -0.0244885, -0.00023407, -0.000278088, -0.000274811, -0.000223999, -0.058113, 12.6416, -11.3325, -1.30255, -18.9637, 15.4974, 11.0058, -0.277509, 52.0178, -15.8341, 4.2894, -11.5456, -4.8413, 0.653367, 1.80746, 4.64667e-310, 0, 0, 12.6416, -11.3325, -1.30255, -18.9637, 7.74872, 5.50289, 7.74872, 0, 0, -14.2868, 0, 109.756, 0, 0, 54.7898, -5.35749e-05, 0, 0, 0, 0, 0, 0, 0
0.0116198, -0.0208441, 0.744781, 0.100268, -0.951603, 1.1436, -0.292266, 0.0998546, 0.229999, 0.999997, 0.229998, 0.999998, 0.0296496, 0.00655633, -0.000659601, 0.0459098, -0.0459098, -8.00209e-17, 2.17094e-16, -0.0247784, -0.00023548, -0.000277337, -0.000276711, -0.000222596, -0.0587499, 12.6489, -11.3347, -1.30194, -18.9653, 15.4968, 11.0059, -0.277255, 52.4672, -15.9994, 4.35041, -11.6717, -4.86283, 0.651898, 1.82405, 4.64667e-310, 0, 0, 12.6489, -11.3347, -1.30194, -18.9653, 7.74838, 5.50294, 7.74838, 0, 0, -14.2797, 0, 109.795, 0, 0, 54.8071, -5.49463e-05, 0, 0, 0, 0, 0, 0, 0
0.0117598, -0.0208431, 0.744781, 0.100274, -0.951609, 1.1436, -0.292266, 0.0998511, 0.229998, 0.999997, 0.229998, 0.999998, 0.0296413, 0.00663419, -0.000667477, 0.046455, -0.046455, -8.22151e-17, 2.18669e-16, -0.0250681, -0.000236817, -0.000276574, -0.00027854, -0.000221181, -0.0593844, 12.6562, -11.337, -1.30133, -18.9669, 15.4961, 11.006, -0.276998, 52.9166, -16.1648, 4.41142, -11.7978, -4.88436, 0.650428, 1.84064, 4.64667e-310, 0, 0, 12.6562, -11.337, -1.30133, -18.9669, 7.74804, 5.50298, 7.74804, 0, 0, -14.2725, 0, 109.835, 0, 0, 54.8246, -5.62936e-05, 0, 0, 0, 0, 0, 0, 0
0.0118998, -0.0208422, 0.744781, 0.100281, -0.951616, 1.1436, -0.292266, 0.0998476, 0.229998, 0.999997, 0.229998, 0.999998, 0.0296329, 0.00671201, -0.000675352, 0.0469999, -0.0469999, -8.51004e-17, 2.20246e-16, -0.0253576, -0.000238082, -0.000275801, -0.000280295, -0.000219757, -0.0600163, 12.6637, -11.3393, -1.30071, -18.9686, 15.4954, 11.0061, -0.276739, 53.366, -16.3301, 4.47243, -11.9238, -4.90589, 0.648959, 1.85723, 4.64667e-310, 0, 0, 12.6637, -11.3393, -1.30071, -18.9686, 7.74769, 5.50303, 7.74769, 0, 0, -14.2653, 0, 109.874, 0, 0, 54.8423, -5.76167e-05, 0, 0, 0, 0, 0, 0, 0
0.0120398, -0.0208413, 0.744781, 0.100288, -0.951623, 1.1436, -0.292266, 0.099844, 0.229998, 0.999997, 0.229998, 0.999998, 0.0296245, 0.0067898, -0.000683224, 0.0475447, -0.0475447, -8.72486e-17, 2.21408e-16, -0.0256469, -0.000239273, -0.000275023, -0.000281976, -0.000218327, -0.0606458, 12.6712, -11.3416, -1.30008, -18.9703, 15.4947, 11.0061, -0.276478, 53.8154, -16.4955, 4.53344, -12.0499, -4.92742, 0.647489, 1.87382, 4.64667e-310, 0, 0, 12.6712, -11.3416, -1.30008, -18.9703, 7.74735, 5.50307, 7.74735, 0, 0, -14.2581, 0, 109.914, 0, 0, 54.8601, -5.89156e-05, 0, 0, 0, 0, 0, 0, 0
0.0121798, -0.0208403, 0.744781, 0.100294, -0.951629, 1.1436, -0.292266, 0.0998404, 0.229998, 0.999997, 0.229998, 0.999998, 0.029616, 0.00686756, -0.000691095, 0.0480892, -0.0480892, -8.65295e-17, 2.21529e-16, -0.025936, -0.000240388, -0.000274241, -0.000283581, -0.000216895, -0.0612726, 12.6788, -11.3439, -1.29944, -18.972, 15.494, 11.0062, -0.276215, 54.2648, -16.6608, 4.59445, -12.176, -4.94895, 0.64602, 1.89041, 4.64667e-310, 0, 0, 12.6788, -11.3439, -1.29944, -18.972, 7.747, 5.50312, 7.747, 0, 0, -14.2508, 0, 109.955, 0, 0, 54.8782, -6.01904e-05, 0, 0, 0, 0, 0, 0, 0
0.0123198, -0.0208393, 0.744781, 0.100301, -0.951636, 1.1436, -0.292266, 0.0998367, 0.229998, 0.999997, 0.229998, 0.999998, 0.0296074, 0.00694529, -0.000698965, 0.0486335, -0.0486335, -8.56447e-17, 2.21418e-16, -0.026225, -0.000241426, -0.00027346, -0.000285109, -0.000215463, -0.0618969, 12.6864, -11.3462, -1.29879, -18.9737, 15.4933, 11.0063, -0.275949, 54.7142, -16.8262, 4.65545, -12.3021, -4.97047, 0.64455, 1.907, 4.64667e-310, 0, 0, 12.6864, -11.3462, -1.29879, -18.9737, 7.74666, 5.50316, 7.74666, 0, 0, -14.2435, 0, 109.996, 0, 0, 54.8964, -6.14412e-05, 0, 0, 0, 0, 0, 0, 0
0.0124598, -0.0208384, 0.74478, 0.100308, -0.951643, 1.1436, -0.292266, 0.099833, 0.229998, 0.999997, 0.229998, 0.999998, 0.0295986, 0.00702298, -0.000706832, 0.0491776, -0.0491776, -8.45824e-17, 2.21078e-16, -0.0265137, -0.000242386, -0.000272682, -0.000286558, -0.000214034, -0.0625186, 12.6941, -11.3486, -1.29814, -18.9754, 15.4926, 11.0064, -0.275681, 55.1636, -16.9916, 4.71646, -12.4281, -4.992, 0.643081, 1.92359, 4.64667e-310, 0, 0, 12.6941, -11.3486, -1.29814, -18.9754, 7.74631, 5.50321, 7.74631, 0, 0, -14.2361, 0, 110.037, 0, 0, 54.9149, -6.26678e-05, 0, 0, 0, 0, 0, 0, 0
0.0125998, -0.0208374, 0.74478, 0.100315, -0.95165, 1.1436, -0.292266, 0.0998293, 0.229998, 0.999997, 0.229998, 0.999998, 0.0295899, 0.00710065, -0.000714698, 0.0497215, -0.0497215, -8.33299e-17, 2.20515e-16, -0.0268022, -0.000243266, -0.000271911, -0.000287928, -0.000212613, -0.0631376, 12.7018, -11.351, -1.29747, -18.9772, 15.4919, 11.0065, -0.27541, 55.6131, -17.1569, 4.77747, -12.5542, -5.01353, 0.641611, 1.94018, 4.64667e-310, 0, 0, 12.7018, -11.351, -1.29747, -18.9772, 7.74596, 5.50325, 7.74596, 0, 0, -14.2287, 0, 110.078, 0, 0, 54.9335, -6.38703e-05, 0, 0, 0, 0, 0, 0, 0
0.0127398, -0.0208364, 0.74478, 0.100322, -0.951657, 1.1436, -0.292266, 0.0998255, 0.229998, 0.999997, 0.229998, 0.999998, 0.029581, 0.00717828, -0.000722563, 0.0502651, -0.0502651, -8.18739e-17, 2.19733e-16, -0.0270906, -0.000244066, -0.000271149, -0.000289217, -0.000211201, -0.063754, 12.7096, -11.3534, -1.2968, -18.9789, 15.4912, 11.0066, -0.275137, 56.0625, -17.3223, 4.83848, -12.6803, -5.03506, 0.640142, 1.95677, 4.64667e-310, 0, 0, 12.7096, -11.3534, -1.2968, -18.9789, 7.74561, 5.5033, 7.74561, 0, 0, -14.2212, 0, 110.119, 0, 0, 54.9524, -6.50488e-05, 0, 0, 0, 0, 0, 0, 0
0.0128798, -0.0208354, 0.74478, 0.100329, -0.951664, 1.1436, -0.292266, 0.0998217, 0.229998, 0.999997, 0.229998, 0.999997, 0.029572, 0.00725588, -0.000730425, 0.0508085, -0.0508085, -8.02002e-17, 2.18739e-16, -0.0273787, -0.000244783, -0.0002704, -0.000290423, -0.000209802, -0.0643677, 12.7175, -11.3558, -1.29612, -18.9807, 15.4905, 11.0067, -0.274862, 56.5119, -17.4876, 4.89949, -12.8064, -5.05659, 0.638672, 1.97336, 4.64667e-310, 0, 0, 12.7175, -11.3558, -1.29612, -18.9807, 7.74525, 5.50334, 7.74525, 0, 0, -14.2138, 0, 110.161, 0, 0, 54.9714, -6.62032e-05, 0, 0, 0, 0, 0, 0, 0
0.0130198, -0.0208343, 0.74478, 0.100336, -0.951671, 1.1436, -0.292266, 0.0998179, 0.229998, 0.999997, 0.229998, 0.999997, 0.029563, 0.00733344, -0.000738287, 0.0513517, -0.0513517, -7.82941e-17, 2.1754e-16, -0.0276667, -0.000245417, -0.000269667, -0.000291546, -0.00020842, -0.0649787, 12.7255, -11.3583, -1.29543, -18.9825, 15.4898, 11.0068, -0.274585, 56.9613, -17.653, 4.9605, -12.9324, -5.07812, 0.637203, 1.98995, 4.64667e-310, 0, 0, 12.7255, -11.3583, -1.29543, -18.9825, 7.7449, 5.50339, 7.7449, 0, 0, -14.2062, 0, 110.204, 0, 0, 54.9906, -6.73336e-05, 0, 0, 0, 0, 0, 0, 0
0.0131598, -0.0208333, 0.74478, 0.100343, -0.951678, 1.1436, -0.292266, 0.099814, 0.229998, 0.999997, 0.229998, 0.999997, 0.0295538, 0.00741097, -0.000746146, 0.0518946, -0.0518946, -7.614e-17, 2.16143e-16, -0.0279545, -0.000245967, -0.000268953, -0.000292583, -0.000207057, -0.0655869, 12.7335, -11.3608, -1.29473, -18.9843, 15.4891, 11.0069, -0.274305, 57.4107, -17.8183, 5.02151, -13.0585, -5.09965, 0.635733, 2.00654, 4.64667e-310, 0, 0, 12.7335, -11.3608, -1.29473, -18.9843, 7.74454, 5.50343, 7.74454, 0, 0, -14.1987, 0, 110.246, 0, 0, 55.01, -6.844e-05, 0, 0, 0, 0, 0, 0, 0
0.0132998, -0.0208323, 0.74478, 0.100351, -0.951686, 1.1436, -0.292266, 0.09981, 0.229998, 0.999997, 0.229998, 0.999997, 0.0295446, 0.00748847, -0.000754004, 0.0524374, -0.0524374, -7.37214e-17, 2.14557e-16, -0.0282421, -0.00024643, -0.00026826, -0.000293534, -0.000205716, -0.0661924, 12.7415, -11.3633, -1.29402, -18.9862, 15.4884, 11.007, -0.274023, 57.8601, -17.9837, 5.08252, -13.1846, -5.12118, 0.634264, 2.02313, 4.64667e-310, 0, 0, 12.7415, -11.3633, -1.29402, -18.9862, 7.74418, 5.50348, 7.74418, 0, 0, -14.191, 0, 110.289, 0, 0, 55.0296, -6.95224e-05, 0, 0, 0, 0, 0, 0, 0
0.0134398, -0.0208312, 0.74478, 0.100358, -0.951693, 1.1436, -0.292266, 0.0998061, 0.229998, 0.999997, 0.229998, 0.999997, 0.0295353, 0.00756593, -0.00076186, 0.0529798, -0.0529798, -7.10214e-17, 2.12789e-16, -0.0285295, -0.000246805, -0.000267594, -0.000294398, -0.000204401, -0.0667951, 12.7497, -11.3658, -1.2933, -18.988, 15.4876, 11.007, -0.273739, 58.3095, -18.149, 5.14353, -13.3107, -5.14271, 0.632794, 2.03972, 4.64667e-310, 0, 0, 12.7497, -11.3658, -1.2933, -18.988, 7.74382, 5.50352, 7.74382, 0, 0, -14.1834, 0, 110.332, 0, 0, 55.0494, -7.05809e-05, 0, 0, 0, 0, 0, 0, 0
0.0135798, -0.0208301, 0.74478, 0.100365, -0.9517, 1.1436, -0.292266, 0.099802, 0.229998, 0.999997, 0.229998, 0.999997, 0.0295259, 0.00764336, -0.000769715, 0.0535221, -0.0535221, -6.80221e-17, 2.1085e-16, -0.0288167, -0.000247092, -0.000266955, -0.000295172, -0.000203114, -0.067395, 12.7579, -11.3684, -1.29258, -18.9899, 15.4869, 11.0071, -0.273452, 58.7589, -18.3144, 5.20454, -13.4367, -5.16423, 0.631325, 2.05631, 4.64667e-310, 0, 0, 12.7579, -11.3684, -1.29258, -18.9899, 7.74346, 5.50357, 7.74346, 0, 0, -14.1757, 0, 110.376, 0, 0, 55.0694, -7.16153e-05, 0, 0, 0, 0, 0, 0, 0
0.0137198, -0.0208291, 0.744779, 0.100373, -0.951708, 1.1436, -0.292266, 0.099798, 0.229998, 0.999997, 0.229998, 0.999997, 0.0295164, 0.00772076, -0.000777568, 0.0540641, -0.0540641, -6.47049e-17, 2.08749e-16, -0.0291037, -0.000247289, -0.000266348, -0.000295856, -0.00020186, -0.067992, 12.7661, -11.3709, -1.29185, -18.9918, 15.4862, 11.0072, -0.273163, 59.2083, -18.4798, 5.26554, -13.5628, -5.18576, 0.629855, 2.0729, 4.64667e-310, 0, 0, 12.7661, -11.3709, -1.29185, -18.9918, 7.7431, 5.50361, 7.7431, 0, 0, -14.168, 0, 110.42, 0, 0, 55.0896, -7.26258e-05, 0, 0, 0, 0, 0, 0, 0
0.0138598, -0.020828, 0.744779, 0.10038, -0.951716, 1.1436, -0.292266, 0.0997939, 0.229998, 0.999997, 0.229998, 0.999997, 0.0295069, 0.00779812, -0.000785419, 0.0546059, -0.0546059, -6.10504e-17, 2.06497e-16, -0.0293905, -0.000247394, -0.000265776, -0.000296449, -0.00020064, -0.0685861, 12.7744, -11.3735, -1.29111, -18.9937, 15.4855, 11.0073, -0.272872, 59.6577, -18.6451, 5.32655, -13.6889, -5.20729, 0.628386, 2.08949, 4.64667e-310, 0, 0, 12.7744, -11.3735, -1.29111, -18.9937, 7.74274, 5.50365, 7.74274, 0, 0, -14.1602, 0, 110.464, 0, 0, 55.11, -7.36124e-05, 0, 0, 0, 0, 0, 0, 0
0.0139998, -0.0208269, 0.744779, 0.100388, -0.951723, 1.1436, -0.292266, 0.0997898, 0.229998, 0.999997, 0.229998, 0.999997, 0.0294972, 0.00787545, -0.000793268, 0.0551474, -0.0551474, -5.70387e-17, 2.04106e-16, -0.0296772, -0.000247407, -0.000265242, -0.000296948, -0.000199458, -0.0691774, 12.7828, -11.3762, -1.29036, -18.9956, 15.4847, 11.0074, -0.272578, 60.1072, -18.8105, 5.38756, -13.8149, -5.22882, 0.626916, 2.10608, 4.64667e-310, 0, 0, 12.7828, -11.3762, -1.29036, -18.9956, 7.74237, 5.5037, 7.74237, 0, 0, -14.1524, 0, 110.508, 0, 0, 55.1305, -7.45751e-05, 0, 0, 0, 0, 0, 0, 0
0.0139998, -0.0208269, 0.744779, 0.100388, -0.951723, 1.1436, -0.292266, 0.0997898, 0.229998, 0.999997, 0.229998, 0.999997, 0.0294972, 0.00787545, -0.000793268, 0.0551474, -0.0551474, -5.70387e-17, 2.04106e-16, -0.0296772, -0.000247407, -0.000265242, -0.000296948, -0.000199458, -0.0691774, 12.7828, -11.3762, -1.29036, -18.9956, 15.4847, 11.0074, -0.272578, 60.1072, -18.8105, 5.38756, -13.8149, -5.22882, 0.626916, 2.10608, 4.64667e-310, 0, 0, 12.7828, -11.3762, -1.29036, -18.9956, 7.74237, 5.5037, 7.74237, 0, 0, -14.1524, 0, 110.508, 0, 0, 55.1305, -7.45751e-05, 0, 0, 0, 0, 0, 0, 0
0.0139998, -0.0208269, 0.744779, 0.100388, -0.951723, 1.1436, -0.292266, 0.0997898, 0.229998, 0.999997, 0.229998, 0.999997, 0.0294972, 0.00787546, -0.000793269, 0.0551474, -0.0551474, -4.57321e-13, -2.22103e-12, -0.0296773, -0.000247521, -0.000265021, -0.000297062, -0.000199238, -0.0691748, 12.7828, -11.3762, -1.29036, -18.9956, 15.4847, 11.0074, -0.272578, 60.1072, -18.8105, 5.38756, -13.8149, -5.22882, 0.626916, 2.10608, 4.64667e-310, 0, 0, 12.7828, -11.3762, -1.29036, -18.9956, 7.74237, 5.5037, 7.74237, 0, 0, -14.1524, 0, 110.508, 0, 0, 55.1305, -7.46009e-05, 0, 0, 0, 0, 0, 0, 0
0.0141398, -0.0208258, 0.744779, 0.100396, -0.951731, 1.1436, -0.292266, 0.0997856, 0.229998, 0.999997, 0.229998, 0.999997, 0.0294875, 0.00795275, -0.000801117, 0.0556887, -0.0556887, -4.57323e-13, -2.22103e-12, -0.0299637, -0.000247431, -0.00026453, -0.000297458, -0.0001981, -0.0697628, 12.7913, -11.3788, -1.28959, -18.9976, 15.484, 11.0075, -0.272279, 61.0061, -19.1363, 5.49534, -14.0771, -5.27583, 0.680476, 2.16007, 4.64667e-310, 0, 0, 12.7913, -11.3788, -1.28959, -18.9976, 7.74201, 5.50375, 7.74201, 0, 0, -14.1445, 0, 110.553, 0, 0, 55.1514, -7.55342e-05, 0, 0, 0, 0, 0, 0, 0
0.0142798, -0.0208247, 0.744779, 0.100404, -0.951739, 1.1436, -0.292266, 0.0997814, 0.229998, 0.999997, 0.229998, 0.999997, 0.0294777, 0.00803001, -0.000808963, 0.0562297, -0.0562297, -4.57323e-13, -2.22103e-12, -0.03025, -0.000247257, -0.000264075, -0.00029777, -0.000196998, -0.070348, 12.7999, -11.3815, -1.28882, -18.9996, 15.4833, 11.0076, -0.271973, 61.905, -19.4621, 5.60311, -14.3392, -5.32284, 0.734036, 2.21405, 4.64667e-310, 0, 0, 12.7999, -11.3815, -1.28882, -18.9996, 7.74164, 5.5038, 7.74164, 0, 0, -14.1365, 0, 110.599, 0, 0, 55.1726, -7.6442e-05, 0, 0, 0, 0, 0, 0, 0
0.0144198, -0.0208235, 0.744779, 0.100412, -0.951747, 1.1436, -0.292266, 0.0997771, 0.229998, 0.999997, 0.229997, 0.999997, 0.0294678, 0.00810723, -0.000816808, 0.0567706, -0.0567706, -4.57321e-13, -2.22103e-12, -0.0305361, -0.000246993, -0.000263659, -0.000297992, -0.000195936, -0.0709302, 12.8087, -11.3843, -1.28803, -19.0016, 15.4825, 11.0077, -0.271659, 62.8039, -19.788, 5.71089, -14.6014, -5.36984, 0.787596, 2.26803, 4.64667e-310, 0, 0, 12.8087, -11.3843, -1.28803, -19.0016, 7.74126, 5.50385, 7.74126, 0, 0, -14.1284, 0, 110.645, 0, 0, 55.1942, -7.73218e-05, 0, 0, 0, 0, 0, 0, 0
0.0145598, -0.0208224, 0.744779, 0.10042, -0.951755, 1.1436, -0.292266, 0.0997728, 0.229998, 0.999997, 0.229997, 0.999997, 0.0294578, 0.00818442, -0.000824651, 0.0573111, -0.0573111, -4.57321e-13, -2.22103e-12, -0.030822, -0.000246639, -0.000263281, -0.000298124, -0.000194912, -0.0715092, 12.8175, -11.3871, -1.28722, -19.0037, 15.4818, 11.0078, -0.271337, 63.7029, -20.1138, 5.81866, -14.8635, -5.41685, 0.841156, 2.32201, 4.64667e-310, 0, 0, 12.8175, -11.3871, -1.28722, -19.0037, 7.74088, 5.50391, 7.74088, 0, 0, -14.1203, 0, 110.692, 0, 0, 55.2161, -7.81733e-05, 0, 0, 0, 0, 0, 0, 0
0.0146998, -0.0208212, 0.744779, 0.100428, -0.951763, 1.1436, -0.292266, 0.0997685, 0.229998, 0.999997, 0.229997, 0.999997, 0.0294478, 0.00826158, -0.000832492, 0.0578514, -0.0578514, -4.57319e-13, -2.22104e-12, -0.0311077, -0.000246197, -0.000262942, -0.000298167, -0.000193927, -0.072085, 12.8265, -11.3899, -1.2864, -19.0058, 15.481, 11.0079, -0.271009, 64.6018, -20.4397, 5.92643, -15.1257, -5.46386, 0.894716, 2.376, 4.64667e-310, 0, 0, 12.8265, -11.3899, -1.2864, -19.0058, 7.7405, 5.50397, 7.7405, 0, 0, -14.1121, 0, 110.739, 0, 0, 55.2384, -7.89965e-05, 0, 0, 0, 0, 0, 0, 0
0.0148398, -0.0208201, 0.744779, 0.100436, -0.951771, 1.1436, -0.292266, 0.0997641, 0.229998, 0.999997, 0.229997, 0.999997, 0.0294376, 0.0083387, -0.000840332, 0.0583915, -0.0583915, -4.57317e-13, -2.22104e-12, -0.0313933, -0.000245667, -0.00026264, -0.000298123, -0.00019298, -0.0726574, 12.8356, -11.3928, -1.28556, -19.0079, 15.4802, 11.0081, -0.270672, 65.5007, -20.7655, 6.03421, -15.3878, -5.51087, 0.948276, 2.42998, 4.64667e-310, 0, 0, 12.8356, -11.3928, -1.28556, -19.0079, 7.74012, 5.50403, 7.74012, 0, 0, -14.1037, 0, 110.787, 0, 0, 55.2611, -7.97913e-05, 0, 0, 0, 0, 0, 0, 0
0.0149798, -0.0208189, 0.744778, 0.100444, -0.951779, 1.1436, -0.292266, 0.0997597, 0.229998, 0.999997, 0.229997, 0.999997, 0.0294274, 0.00841578, -0.000848169, 0.0589313, -0.0589313, -4.57315e-13, -2.22104e-12, -0.0316787, -0.000245052, -0.000262374, -0.000297992, -0.000192069, -0.0732264, 12.8448, -11.3957, -1.28471, -19.0101, 15.4795, 11.0082, -0.270328, 66.3997, -21.0913, 6.14198, -15.6499, -5.55788, 1.00184, 2.48396, 4.64667e-310, 0, 0, 12.8448, -11.3957, -1.28471, -19.0101, 7.73973, 5.5041, 7.73973, 0, 0, -14.0953, 0, 110.836, 0, 0, 55.2841, -8.05579e-05, 0, 0, 0, 0, 0, 0, 0
0.0151198, -0.0208177, 0.744778, 0.100452, -0.951787, 1.1436, -0.292266, 0.0997552, 0.229998, 0.999996, 0.229997, 0.999997, 0.0294171, 0.00849283, -0.000856005, 0.0594709, -0.0594709, -4.57313e-13, -2.22104e-12, -0.0319639, -0.000244351, -0.000262144, -0.000297775, -0.000191195, -0.073792, 12.8542, -11.3987, -1.28384, -19.0123, 15.4787, 11.0083, -0.269977, 67.2986, -21.4172, 6.24976, -15.9121, -5.60488, 1.0554, 2.53794, 4.64667e-310, 0, 0, 12.8542, -11.3987, -1.28384, -19.0123, 7.73934, 5.50417, 7.73934, 0, 0, -14.0868, 0, 110.885, 0, 0, 55.3075, -8.12963e-05, 0, 0, 0, 0, 0, 0, 0
0.0152598, -0.0208165, 0.744778, 0.100461, -0.951796, 1.1436, -0.292266, 0.0997507, 0.229998, 0.999996, 0.229997, 0.999997, 0.0294068, 0.00856984, -0.00086384, 0.0600102, -0.0600102, -4.57311e-13, -2.22104e-12, -0.0322489, -0.000243567, -0.00026195, -0.000297475, -0.000190356, -0.074354, 12.8637, -11.4017, -1.28296, -19.0145, 15.4779, 11.0085, -0.269618, 68.1975, -21.743, 6.35753, -16.1742, -5.65189, 1.10896, 2.59193, 4.64667e-310, 0, 0, 12.8637, -11.4017, -1.28296, -19.0145, 7.73895, 5.50425, 7.73895, 0, 0, -14.0782, 0, 110.935, 0, 0, 55.3313, -8.20064e-05, 0, 0, 0, 0, 0, 0, 0
0.0153998, -0.0208153, 0.744778, 0.100469, -0.951804, 1.1436, -0.292266, 0.0997462, 0.229998, 0.999996, 0.229997, 0.999997, 0.0293963, 0.00864681, -0.000871672, 0.0605492, -0.0605492, -4.57308e-13, -2.22104e-12, -0.0325338, -0.000242701, -0.00026179, -0.000297093, -0.000189553, -0.0749124, 12.8733, -11.4048, -1.28206, -19.0168, 15.4771, 11.0087, -0.269251, 69.0964, -22.0689, 6.46531, -16.4364, -5.6989, 1.16252, 2.64591, 4.64667e-310, 0, 0, 12.8733, -11.4048, -1.28206, -19.0168, 7.73855, 5.50433, 7.73855, 0, 0, -14.0695, 0, 110.986, 0, 0, 55.3554, -8.26883e-05, 0, 0, 0, 0, 0, 0, 0
0.0155398, -0.0208141, 0.744778, 0.100478, -0.951813, 1.1436, -0.292266, 0.0997416, 0.229998, 0.999996, 0.229997, 0.999997, 0.0293858, 0.00872374, -0.000879503, 0.061088, -0.061088, -4.57305e-13, -2.22104e-12, -0.0328185, -0.000241754, -0.000261664, -0.000296629, -0.000188784, -0.0754671, 12.883, -11.4079, -1.28115, -19.0191, 15.4763, 11.0088, -0.268877, 69.9954, -22.3947, 6.57308, -16.6985, -5.74591, 1.21608, 2.69989, 4.64667e-310, 0, 0, 12.883, -11.4079, -1.28115, -19.0191, 7.73815, 5.50441, 7.73815, 0, 0, -14.0607, 0, 111.037, 0, 0, 55.3799, -8.33421e-05, 0, 0, 0, 0, 0, 0, 0
0.0156798, -0.0208129, 0.744778, 0.100486, -0.951821, 1.1436, -0.292266, 0.099737, 0.229998, 0.999996, 0.229997, 0.999997, 0.0293752, 0.00880064, -0.000887332, 0.0616266, -0.0616266, -4.57304e-13, -2.22103e-12, -0.033103, -0.000240727, -0.000261572, -0.000296085, -0.000188048, -0.076018, 12.8929, -11.4111, -1.28022, -19.0215, 15.4755, 11.009, -0.268495, 70.8943, -22.7206, 6.68085, -16.9607, -5.79292, 1.26964, 2.75387, 4.64667e-310, 0, 0, 12.8929, -11.4111, -1.28022, -19.0215, 7.73775, 5.5045, 7.73775, 0, 0, -14.0518, 0, 111.089, 0, 0, 55.4047, -8.39677e-05, 0, 0, 0, 0, 0, 0, 0
0.0158198, -0.0208116, 0.744778, 0.100495, -0.95183, 1.1436, -0.292266, 0.0997324, 0.229997, 0.999996, 0.229997, 0.999997, 0.0293645, 0.0088775, -0.000895159, 0.0621648, -0.0621648, -4.57304e-13, -2.22103e-12, -0.0333874, -0.000239623, -0.000261511, -0.000295463, -0.000187345, -0.076565, 12.9029, -11.4143, -1.27928, -19.0239, 15.4747, 11.0092, -0.268106, 71.7932, -23.0464, 6.78863, -17.2228, -5.83992, 1.3232, 2.80786, 4.64667e-310, 0, 0, 12.9029, -11.4143, -1.27928, -19.0239, 7.73734, 5.50459, 7.73734, 0, 0, -14.0429, 0, 111.142, 0, 0, 55.4299, -8.45651e-05, 0, 0, 0, 0, 0, 0, 0
0.0159598, -0.0208104, 0.744778, 0.100504, -0.951839, 1.1436, -0.292266, 0.0997277, 0.229997, 0.999996, 0.229997, 0.999997, 0.0293538, 0.00895432, -0.000902985, 0.0627028, -0.0627028, -4.57305e-13, -2.22102e-12, -0.0336716, -0.000238441, -0.000261483, -0.000294764, -0.000186675, -0.0771081, 12.913, -11.4175, -1.27832, -19.0263, 15.4739, 11.0094, -0.267709, 72.6921, -23.3722, 6.8964, -17.4849, -5.88693, 1.37676, 2.86184, 4.64667e-310, 0, 0, 12.913, -11.4175, -1.27832, -19.0263, 7.73693, 5.50468, 7.73693, 0, 0, -14.0338, 0, 111.195, 0, 0, 55.4555, -8.51345e-05, 0, 0, 0, 0, 0, 0, 0
0.0160998, -0.0208091, 0.744777, 0.100512, -0.951848, 1.1436, -0.292266, 0.0997229, 0.229997, 0.999996, 0.229997, 0.999997, 0.0293429, 0.00903111, -0.000910808, 0.0632406, -0.0632406, -4.57306e-13, -2.22101e-12, -0.0339557, -0.000237185, -0.000261485, -0.00029399, -0.000186035, -0.0776471, 12.9232, -11.4208, -1.27735, -19.0288, 15.473, 11.0096, -0.267304, 73.5911, -23.6981, 7.00418, -17.7471, -5.93394, 1.43032, 2.91582, 4.64667e-310, 0, 0, 12.9232, -11.4208, -1.27735, -19.0288, 7.73651, 5.50478, 7.73651, 0, 0, -14.0247, 0, 111.249, 0, 0, 55.4815, -8.56758e-05, 0, 0, 0, 0, 0, 0, 0
0.0162398, -0.0208079, 0.744777, 0.100521, -0.951856, 1.1436, -0.292266, 0.0997182, 0.229997, 0.999996, 0.229997, 0.999997, 0.029332, 0.00910785, -0.00091863, 0.063778, -0.063778, -4.57308e-13, -2.22101e-12, -0.0342396, -0.000235854, -0.000261517, -0.000293141, -0.000185426, -0.0781821, 12.9336, -11.4241, -1.27636, -19.0313, 15.4722, 11.0098, -0.266892, 74.49, -24.0239, 7.11195, -18.0092, -5.98095, 1.48388, 2.9698, 4.64667e-310, 0, 0, 12.9336, -11.4241, -1.27636, -19.0313, 7.7361, 5.50488, 7.7361, 0, 0, -14.0154, 0, 111.303, 0, 0, 55.5078, -8.61891e-05, 0, 0, 0, 0, 0, 0, 0
0.0163798, -0.0208066, 0.744777, 0.10053, -0.951865, 1.1436, -0.292266, 0.0997133, 0.229997, 0.999996, 0.229997, 0.999997, 0.029321, 0.00918456, -0.00092645, 0.0643152, -0.0643152, -4.57312e-13, -2.22101e-12, -0.0345233, -0.000234451, -0.000261579, -0.000292218, -0.000184848, -0.0787128, 12.9441, -11.4275, -1.27535, -19.0338, 15.4714, 11.01, -0.266473, 75.3889, -24.3498, 7.21973, -18.2714, -6.02795, 1.53744, 3.02378, 4.64667e-310, 0, 0, 12.9441, -11.4275, -1.27535, -19.0338, 7.73568, 5.50499, 7.73568, 0, 0, -14.0061, 0, 111.358, 0, 0, 55.5344, -8.66744e-05, 0, 0, 0, 0, 0, 0, 0
0.0165198, -0.0208053, 0.744777, 0.100539, -0.951874, 1.1436, -0.292266, 0.0997085, 0.229997, 0.999996, 0.229997, 0.999997, 0.02931, 0.00926122, -0.000934268, 0.0648522, -0.0648522, -4.57316e-13, -2.22101e-12, -0.0348069, -0.000232976, -0.00026167, -0.000291224, -0.000184298, -0.0792393, 12.9547, -11.431, -1.27434, -19.0364, 15.4705, 11.0102, -0.266046, 76.2879, -24.6756, 7.3275, -18.5335, -6.07496, 1.591, 3.07777, 4.64667e-310, 0, 0, 12.9547, -11.431, -1.27434, -19.0364, 7.73525, 5.5051, 7.73525, 0, 0, -13.9967, 0, 111.414, 0, 0, 55.5615, -8.71318e-05, 0, 0, 0, 0, 0, 0, 0
0.0166598, -0.020804, 0.744777, 0.100549, -0.951884, 1.1436, -0.292266, 0.0997036, 0.229997, 0.999996, 0.229997, 0.999997, 0.0292988, 0.00933785, -0.000942084, 0.0653888, -0.0653888, -4.5732e-13, -2.22101e-12, -0.0350903, -0.000231431, -0.000261789, -0.00029016, -0.000183777, -0.0797614, 12.9655, -11.4344, -1.2733, -19.039, 15.4697, 11.0104, -0.265611, 77.1868, -25.0014, 7.43528, -18.7957, -6.12197, 1.64456, 3.13175, 4.64667e-310, 0, 0, 12.9655, -11.4344, -1.2733, -19.039, 7.73483, 5.50521, 7.73483, 0, 0, -13.9872, 0, 111.47, 0, 0, 55.5889, -8.75612e-05, 0, 0, 0, 0, 0, 0, 0
0.0167998, -0.0208027, 0.744777, 0.100558, -0.951893, 1.1436, -0.292266, 0.0996987, 0.229997, 0.999996, 0.229997, 0.999997, 0.0292876, 0.00941444, -0.000949898, 0.0659252, -0.0659252, -4.57326e-13, -2.221e-12, -0.0353736, -0.000229818, -0.000261935, -0.000289027, -0.000183284, -0.0802791, 12.9763, -11.438, -1.27225, -19.0417, 15.4688, 11.0107, -0.265169, 78.0857, -25.3273, 7.54305, -19.0578, -6.16898, 1.69812, 3.18573, 4.64667e-310, 0, 0, 12.9763, -11.438, -1.27225, -19.0417, 7.7344, 5.50533, 7.7344, 0, 0, -13.9776, 0, 111.527, 0, 0, 55.6167, -8.79627e-05, 0, 0, 0, 0, 0, 0, 0
0.0169398, -0.0208013, 0.744777, 0.100567, -0.951902, 1.1436, -0.292266, 0.0996937, 0.229997, 0.999996, 0.229997, 0.999997, 0.0292764, 0.00949099, -0.00095771, 0.0664613, -0.0664613, -4.57331e-13, -2.221e-12, -0.0356568, -0.000228137, -0.000262108, -0.000287826, -0.000182818, -0.0807923, 12.9873, -11.4415, -1.27119, -19.0444, 15.4679, 11.0109, -0.264719, 78.9846, -25.6531, 7.65082, -19.3199, -6.21599, 1.75168, 3.23971, 4.64667e-310, 0, 0, 12.9873, -11.4415, -1.27119, -19.0444, 7.73396, 5.50545, 7.73396, 0, 0, -13.9679, 0, 111.585, 0, 0, 55.6448, -8.83363e-05, 0, 0, 0, 0, 0, 0, 0
0.0170798, -0.0208, 0.744777, 0.100576, -0.951911, 1.1436, -0.292266, 0.0996887, 0.229997, 0.999996, 0.229997, 0.999997, 0.029265, 0.00956749, -0.000965521, 0.0669971, -0.0669971, -4.57336e-13, -2.221e-12, -0.0359397, -0.000226391, -0.000262306, -0.000286558, -0.000182379, -0.081301, 12.9984, -11.4451, -1.27011, -19.0471, 15.4671, 11.0111, -0.264262, 79.8836, -25.979, 7.7586, -19.5821, -6.26299, 1.80524, 3.2937, 4.64667e-310, 0, 0, 12.9984, -11.4451, -1.27011, -19.0471, 7.73353, 5.50557, 7.73353, 0, 0, -13.9581, 0, 111.643, 0, 0, 55.6733, -8.86821e-05, 0, 0, 0, 0, 0, 0, 0
0.0172198, -0.0207987, 0.744776, 0.100586, -0.951921, 1.1436, -0.292266, 0.0996836, 0.229997, 0.999996, 0.229997, 0.999997, 0.0292536, 0.00964396, -0.000973329, 0.0675326, -0.0675326, -4.5734e-13, -2.221e-12, -0.0362226, -0.000224579, -0.000262531, -0.000285226, -0.000181965, -0.0818049, 13.0097, -11.4488, -1.26902, -19.0498, 15.4662, 11.0114, -0.263797, 80.7825, -26.3048, 7.86637, -19.8442, -6.31, 1.8588, 3.34768, 4.64667e-310, 0, 0, 13.0097, -11.4488, -1.26902, -19.0498, 7.73309, 5.5057, 7.73309, 0, 0, -13.9482, 0, 111.702, 0, 0, 55.7021, -8.90002e-05, 0, 0, 0, 0, 0, 0, 0
0.0173598, -0.0207973, 0.744776, 0.100595, -0.95193, 1.1436, -0.292266, 0.0996785, 0.229997, 0.999996, 0.229997, 0.999997, 0.0292421, 0.00972038, -0.000981136, 0.0680678, -0.0680678, -4.57345e-13, -2.22101e-12, -0.0365053, -0.000222705, -0.000262779, -0.00028383, -0.000181576, -0.0823041, 13.0211, -11.4525, -1.26791, -19.0526, 15.4653, 11.0117, -0.263324, 81.6814, -26.6306, 7.97415, -20.1064, -6.35701, 1.91236, 3.40166, 4.64667e-310, 0, 0, 13.0211, -11.4525, -1.26791, -19.0526, 7.73264, 5.50583, 7.73264, 0, 0, -13.9383, 0, 111.762, 0, 0, 55.7314, -8.92905e-05, 0, 0, 0, 0, 0, 0, 0
0.0174998, -0.0207959, 0.744776, 0.100605, -0.95194, 1.1436, -0.292266, 0.0996734, 0.229997, 0.999996, 0.229997, 0.999997, 0.0292306, 0.00979677, -0.00098894, 0.0686028, -0.0686028, -4.57348e-13, -2.22101e-12, -0.0367878, -0.000220768, -0.000263051, -0.000282371, -0.000181212, -0.0827985, 13.0326, -11.4563, -1.26678, -19.0555, 15.4644, 11.0119, -0.262844, 82.5804, -26.9565, 8.08192, -20.3685, -6.40402, 1.96592, 3.45564, 4.64667e-310, 0, 0, 13.0326, -11.4563, -1.26678, -19.0555, 7.7322, 5.50597, 7.7322, 0, 0, -13.9282, 0, 111.822, 0, 0, 55.7609, -8.9553e-05, 0, 0, 0, 0, 0, 0, 0
0.0176398, -0.0207946, 0.744776, 0.100614, -0.951949, 1.1436, -0.292266, 0.0996682, 0.229997, 0.999996, 0.229997, 0.999997, 0.0292189, 0.00987311, -0.000996742, 0.0691374, -0.0691374, -4.57351e-13, -2.22101e-12, -0.0370703, -0.000218771, -0.000263347, -0.000280851, -0.000180871, -0.083288, 13.0442, -11.4601, -1.26565, -19.0583, 15.4635, 11.0122, -0.262357, 83.4793, -27.2823, 8.1897, -20.6307, -6.45102, 2.01948, 3.50963, 4.64667e-310, 0, 0, 13.0442, -11.4601, -1.26565, -19.0583, 7.73175, 5.50611, 7.73175, 0, 0, -13.9181, 0, 111.883, 0, 0, 55.7909, -8.97879e-05, 0, 0, 0, 0, 0, 0, 0
0.0177798, -0.0207932, 0.744776, 0.100624, -0.951959, 1.1436, -0.292266, 0.099663, 0.229997, 0.999996, 0.229996, 0.999997, 0.0292072, 0.00994941, -0.00100454, 0.0696718, -0.0696718, -4.57354e-13, -2.22102e-12, -0.0373525, -0.000216714, -0.000263665, -0.000279272, -0.000180554, -0.0837726, 13.0559, -11.4639, -1.26449, -19.0612, 15.4626, 11.0125, -0.261862, 84.3782, -27.6082, 8.29747, -20.8928, -6.49803, 2.07304, 3.56361, 4.64667e-310, 0, 0, 13.0559, -11.4639, -1.26449, -19.0612, 7.73129, 5.50625, 7.73129, 0, 0, -13.9079, 0, 111.944, 0, 0, 55.8212, -8.99952e-05, 0, 0, 0, 0, 0, 0, 0
0.0179198, -0.0207918, 0.744776, 0.100634, -0.951969, 1.1436, -0.292266, 0.0996578, 0.229997, 0.999996, 0.229996, 0.999997, 0.0291955, 0.0100257, -0.00101234, 0.0702058, -0.0702058, -4.57356e-13, -2.22102e-12, -0.0376347, -0.0002146, -0.000264004, -0.000277634, -0.000180258, -0.084252, 13.0678, -11.4678, -1.26332, -19.0642, 15.4617, 11.0128, -0.261359, 85.2771, -27.934, 8.40524, -21.155, -6.54504, 2.1266, 3.61759, 4.64667e-310, 0, 0, 13.0678, -11.4678, -1.26332, -19.0642, 7.73084, 5.5064, 7.73084, 0, 0, -13.8975, 0, 112.007, 0, 0, 55.8519, -9.01749e-05, 0, 0, 0, 0, 0, 0, 0
0.0180597, -0.0207904, 0.744776, 0.100644, -0.951979, 1.1436, -0.292266, 0.0996525, 0.229997, 0.999996, 0.229996, 0.999996, 0.0291837, 0.0101019, -0.00102014, 0.0707396, -0.0707396, -4.57357e-13, -2.22102e-12, -0.0379167, -0.000212428, -0.000264365, -0.000275938, -0.000179985, -0.0847264, 13.0798, -11.4717, -1.26214, -19.0672, 15.4608, 11.0131, -0.260849, 86.1761, -28.2599, 8.51302, -21.4171, -6.59205, 2.18016, 3.67157, 4.64667e-310, 0, 0, 13.0798, -11.4717, -1.26214, -19.0672, 7.73038, 5.50655, 7.73038, 0, 0, -13.8871, 0, 112.069, 0, 0, 55.8829, -9.03271e-05, 0, 0, 0, 0, 0, 0, 0
0.0181997, -0.020789, 0.744775, 0.100654, -0.951989, 1.1436, -0.292266, 0.0996472, 0.229997, 0.999996, 0.229996, 0.999996, 0.0291718, 0.010178, -0.00102793, 0.0712731, -0.0712731, -4.57357e-13, -2.22103e-12, -0.0381986, -0.000210202, -0.000264746, -0.000274188, -0.000179732, -0.0851955, 13.0919, -11.4757, -1.26094, -19.0702, 15.4598, 11.0134, -0.260331, 87.075, -28.5857, 8.62079, -21.6792, -6.63906, 2.23372, 3.72556, 4.64667e-310, 0, 0, 13.0919, -11.4757, -1.26094, -19.0702, 7.72991, 5.50671, 7.72991, 0, 0, -13.8766, 0, 112.133, 0, 0, 55.9143, -9.04517e-05, 0, 0, 0, 0, 0, 0, 0
0.0183397, -0.0207875, 0.744775, 0.100664, -0.951999, 1.1436, -0.292266, 0.0996418, 0.229997, 0.999996, 0.229996, 0.999996, 0.0291598, 0.0102542, -0.00103572, 0.0718063, -0.0718063, -4.57357e-13, -2.22103e-12, -0.0384804, -0.000207921, -0.000265146, -0.000272382, -0.000179499, -0.0856594, 13.1042, -11.4797, -1.25972, -19.0732, 15.4589, 11.0137, -0.259806, 87.9739, -28.9115, 8.72857, -21.9414, -6.68606, 2.28728, 3.77954, 4.64667e-310, 0, 0, 13.1042, -11.4797, -1.25972, -19.0732, 7.72945, 5.50686, 7.72945, 0, 0, -13.866, 0, 112.197, 0, 0, 55.9461, -9.05489e-05, 0, 0, 0, 0, 0, 0, 0
0.0184797, -0.0207861, 0.744775, 0.100674, -0.952009, 1.1436, -0.292266, 0.0996364, 0.229997, 0.999996, 0.229996, 0.999996, 0.0291478, 0.0103303, -0.00104351, 0.0723391, -0.0723391, -4.57357e-13, -2.22104e-12, -0.038762, -0.000205588, -0.000265565, -0.000270524, -0.000179286, -0.0861178, 13.1166, -11.4838, -1.2585, -19.0763, 15.458, 11.0141, -0.259273, 88.8729, -29.2374, 8.83634, -22.2035, -6.73307, 2.34084, 3.83352, 4.64667e-310, 0, 0, 13.1166, -11.4838, -1.2585, -19.0763, 7.72898, 5.50703, 7.72898, 0, 0, -13.8553, 0, 112.261, 0, 0, 55.9783, -9.06187e-05, 0, 0, 0, 0, 0, 0, 0
0.0186197, -0.0207846, 0.744775, 0.100684, -0.952019, 1.1436, -0.292266, 0.0996309, 0.229997, 0.999996, 0.229996, 0.999996, 0.0291357, 0.0104063, -0.0010513, 0.0728717, -0.0728717, -4.57357e-13, -2.22104e-12, -0.0390435, -0.000203204, -0.000266003, -0.000268614, -0.000179091, -0.0865708, 13.1291, -11.4879, -1.25725, -19.0795, 15.457, 11.0144, -0.258732, 89.7718, -29.5632, 8.94412, -22.4657, -6.78008, 2.3944, 3.8875, 4.64667e-310, 0, 0, 13.1291, -11.4879, -1.25725, -19.0795, 7.7285, 5.50719, 7.7285, 0, 0, -13.8446, 0, 112.327, 0, 0, 56.0108, -9.06612e-05, 0, 0, 0, 0, 0, 0, 0
0.0187597, -0.0207832, 0.744775, 0.100694, -0.952029, 1.1436, -0.292266, 0.0996255, 0.229997, 0.999996, 0.229996, 0.999996, 0.0291235, 0.0104823, -0.00105909, 0.0734039, -0.0734039, -4.57356e-13, -2.22105e-12, -0.0393249, -0.000200769, -0.000266458, -0.000266653, -0.000178915, -0.0870183, 13.1417, -11.4921, -1.25599, -19.0826, 15.4561, 11.0147, -0.258184, 90.6707, -29.8891, 9.05189, -22.7278, -6.82709, 2.44796, 3.94149, 4.64667e-310, 0, 0, 13.1417, -11.4921, -1.25599, -19.0826, 7.72803, 5.50736, 7.72803, 0, 0, -13.8337, 0, 112.393, 0, 0, 56.0436, -9.06763e-05, 0, 0, 0, 0, 0, 0, 0
0.0188997, -0.0207817, 0.744775, 0.100705, -0.95204, 1.1436, -0.292266, 0.0996199, 0.229997, 0.999995, 0.229996, 0.999996, 0.0291113, 0.0105583, -0.00106687, 0.0739359, -0.0739359, -4.57355e-13, -2.22105e-12, -0.0396061, -0.000198286, -0.000266929, -0.000264643, -0.000178756, -0.0874602, 13.1545, -11.4963, -1.25472, -19.0858, 15.4551, 11.0151, -0.257629, 91.5696, -30.2149, 9.15966, -22.99, -6.8741, 2.50152, 3.99547, 4.64667e-310, 0, 0, 13.1545, -11.4963, -1.25472, -19.0858, 7.72755, 5.50753, 7.72755, 0, 0, -13.8227, 0, 112.459, 0, 0, 56.0769, -9.06641e-05, 0, 0, 0, 0, 0, 0, 0
0.0190397, -0.0207802, 0.744775, 0.100715, -0.95205, 1.1436, -0.292266, 0.0996144, 0.229997, 0.999995, 0.229996, 0.999996, 0.029099, 0.0106342, -0.00107466, 0.0744675, -0.0744675, -4.57354e-13, -2.22106e-12, -0.0398873, -0.000195756, -0.000267417, -0.000262585, -0.000178613, -0.0878964, 13.1673, -11.5005, -1.25343, -19.0891, 15.4541, 11.0154, -0.257066, 92.4686, -30.5407, 9.26744, -23.2521, -6.9211, 2.55508, 4.04945, 4.64667e-310, 0, 0, 13.1673, -11.5005, -1.25343, -19.0891, 7.72707, 5.50771, 7.72707, 0, 0, -13.8117, 0, 112.527, 0, 0, 56.1105, -9.06248e-05, 0, 0, 0, 0, 0, 0, 0
0.0191797, -0.0207787, 0.744774, 0.100725, -0.95206, 1.1436, -0.292266, 0.0996088, 0.229997, 0.999995, 0.229996, 0.999996, 0.0290867, 0.01071, -0.00108243, 0.0749989, -0.0749989, -4.57353e-13, -2.22106e-12, -0.0401683, -0.000193179, -0.00026792, -0.000260481, -0.000178487, -0.0883268, 13.1804, -11.5048, -1.25212, -19.0923, 15.4532, 11.0158, -0.256495, 93.3675, -30.8666, 9.37521, -23.5142, -6.96811, 2.60864, 4.10343, 4.64667e-310, 0, 0, 13.1804, -11.5048, -1.25212, -19.0923, 7.72658, 5.50789, 7.72658, 0, 0, -13.8006, 0, 112.594, 0, 0, 56.1444, -9.05583e-05, 0, 0, 0, 0, 0, 0, 0
0.0193197, -0.0207772, 0.744774, 0.100736, -0.952071, 1.1436, -0.292266, 0.0996031, 0.229997, 0.999995, 0.229996, 0.999996, 0.0290743, 0.0107858, -0.00109021, 0.0755299, -0.0755299, -4.57352e-13, -2.22107e-12, -0.0404492, -0.000190558, -0.000268438, -0.000258332, -0.000178376, -0.0887514, 13.1935, -11.5092, -1.2508, -19.0956, 15.4522, 11.0162, -0.255917, 94.2664, -31.1924, 9.48299, -23.7764, -7.01512, 2.6622, 4.15741, 4.64667e-310, 0, 0, 13.1935, -11.5092, -1.2508, -19.0956, 7.72609, 5.50808, 7.72609, 0, 0, -13.7893, 0, 112.663, 0, 0, 56.1787, -9.04646e-05, 0, 0, 0, 0, 0, 0, 0
0.0194597, -0.0207757, 0.744774, 0.100747, -0.952082, 1.1436, -0.292266, 0.0995974, 0.229997, 0.999995, 0.229996, 0.999996, 0.0290619, 0.0108616, -0.00109799, 0.0760606, -0.0760606, -4.57351e-13, -2.22107e-12, -0.04073, -0.000187894, -0.00026897, -0.000256139, -0.000178279, -0.0891701, 13.2067, -11.5136, -1.24947, -19.099, 15.4512, 11.0165, -0.255331, 95.1654, -31.5183, 9.59076, -24.0385, -7.06213, 2.71576, 4.2114, 4.64667e-310, 0, 0, 13.2067, -11.5136, -1.24947, -19.099, 7.7256, 5.50826, 7.7256, 0, 0, -13.778, 0, 112.732, 0, 0, 56.2134, -9.03439e-05, 0, 0, 0, 0, 0, 0, 0
0.0195997, -0.0207742, 0.744774, 0.100757, -0.952092, 1.1436, -0.292266, 0.0995917, 0.229997, 0.999995, 0.229996, 0.999996, 0.0290494, 0.0109373, -0.00110576, 0.0765909, -0.0765909, -4.57349e-13, -2.22108e-12, -0.0410106, -0.000185187, -0.000269514, -0.000253903, -0.000178197, -0.0895827, 13.2201, -11.518, -1.24812, -19.1024, 15.4502, 11.0169, -0.254737, 96.0643, -31.8441, 9.69854, -24.3007, -7.10913, 2.76932, 4.26538, 4.64667e-310, 0, 0, 13.2201, -11.518, -1.24812, -19.1024, 7.7251, 5.50846, 7.7251, 0, 0, -13.7666, 0, 112.802, 0, 0, 56.2485, -9.01962e-05, 0, 0, 0, 0, 0, 0, 0
0.0197397, -0.0207726, 0.744774, 0.100768, -0.952103, 1.1436, -0.292266, 0.099586, 0.229997, 0.999995, 0.229996, 0.999996, 0.0290368, 0.011013, -0.00111353, 0.077121, -0.077121, -4.57347e-13, -2.22108e-12, -0.0412912, -0.00018244, -0.000270072, -0.000251626, -0.000178128, -0.0899893, 13.2336, -11.5225, -1.24675, -19.1058, 15.4492, 11.0173, -0.254137, 96.9632, -32.17, 9.80631, -24.5628, -7.15614, 2.82288, 4.31936, 4.64667e-310, 0, 0, 13.2336, -11.5225, -1.24675, -19.1058, 7.7246, 5.50865, 7.7246, 0, 0, -13.7551, 0, 112.872, 0, 0, 56.2839, -9.00215e-05, 0, 0, 0, 0, 0, 0, 0
0.0198797, -0.0207711, 0.744774, 0.100779, -0.952114, 1.1436, -0.292266, 0.0995802, 0.229997, 0.999995, 0.229996, 0.999996, 0.0290242, 0.0110887, -0.0011213, 0.0776507, -0.0776507, -4.57346e-13, -2.22108e-12, -0.0415717, -0.000179654, -0.000270641, -0.00024931, -0.000178071, -0.0903897, 13.2473, -11.527, -1.24537, -19.1092, 15.4482, 11.0177, -0.253528, 97.8621, -32.4958, 9.91409, -24.825, -7.20315, 2.87644, 4.37334, 4.64667e-310, 0, 0, 13.2473, -11.527, -1.24537, -19.1092, 7.7241, 5.50885, 7.7241, 0, 0, -13.7435, 0, 112.943, 0, 0, 56.3197, -8.98199e-05, 0, 0, 0, 0, 0, 0, 0
0.0200197, -0.0207695, 0.744773, 0.10079, -0.952125, 1.1436, -0.292266, 0.0995743, 0.229997, 0.999995, 0.229996, 0.999996, 0.0290115, 0.0111642, -0.00112907, 0.0781801, -0.0781801, -4.57344e-13, -2.22109e-12, -0.041852, -0.000176829, -0.000271222, -0.000246954, -0.000178026, -0.0907839, 13.261, -11.5316, -1.24397, -19.1127, 15.4472, 11.0181, -0.252912, 98.7611, -32.8216, 10.0219, -25.0871, -7.25016, 2.93, 4.42733, 4.64667e-310, 0, 0, 13.261, -11.5316, -1.24397, -19.1127, 7.72359, 5.50905, 7.72359, 0, 0, -13.7318, 0, 113.015, 0, 0, 56.3558, -8.95915e-05, 0, 0, 0, 0, 0, 0, 0
0.0201597, -0.020768, 0.744773, 0.100801, -0.952136, 1.1436, -0.292266, 0.0995684, 0.229997, 0.999995, 0.229996, 0.999996, 0.0289987, 0.0112398, -0.00113683, 0.0787092, -0.0787092, -4.57342e-13, -2.22109e-12, -0.0421322, -0.000173968, -0.000271812, -0.000244562, -0.000177993, -0.0911718, 13.2749, -11.5362, -1.24256, -19.1163, 15.4462, 11.0185, -0.252288, 99.66, -33.1475, 10.1296, -25.3492, -7.29717, 2.98356, 4.48131, 4.64667e-310, 0, 0, 13.2749, -11.5362, -1.24256, -19.1163, 7.72308, 5.50926, 7.72308, 0, 0, -13.7201, 0, 113.087, 0, 0, 56.3923, -8.93362e-05, 0, 0, 0, 0, 0, 0, 0
0.0202997, -0.0207664, 0.744773, 0.100812, -0.952147, 1.1436, -0.292266, 0.0995625, 0.229997, 0.999995, 0.229996, 0.999996, 0.028986, 0.0113153, -0.00114459, 0.0792379, -0.0792379, -4.5734e-13, -2.22109e-12, -0.0424124, -0.000171072, -0.000272413, -0.000242133, -0.000177969, -0.0915532, 13.2889, -11.5409, -1.24114, -19.1198, 15.4451, 11.0189, -0.251657, 100.559, -33.4733, 10.2374, -25.6114, -7.34417, 3.03712, 4.53529, 4.64667e-310, 0, 0, 13.2889, -11.5409, -1.24114, -19.1198, 7.72257, 5.50947, 7.72257, 0, 0, -13.7082, 0, 113.16, 0, 0, 56.4292, -8.90543e-05, 0, 0, 0, 0, 0, 0, 0
0.0204397, -0.0207648, 0.744773, 0.100823, -0.952158, 1.1436, -0.292266, 0.0995566, 0.229997, 0.999995, 0.229996, 0.999996, 0.0289731, 0.0113907, -0.00115235, 0.0797664, -0.0797664, -4.57338e-13, -2.22109e-12, -0.0426924, -0.000168142, -0.000273023, -0.00023967, -0.000177956, -0.0919282, 13.3031, -11.5456, -1.2397, -19.1234, 15.4441, 11.0194, -0.251019, 101.458, -33.7992, 10.3452, -25.8735, -7.39118, 3.09068, 4.58927, 4.64667e-310, 0, 0, 13.3031, -11.5456, -1.2397, -19.1234, 7.72206, 5.50969, 7.72206, 0, 0, -13.6963, 0, 113.234, 0, 0, 56.4665, -8.87456e-05, 0, 0, 0, 0, 0, 0, 0
0.0205797, -0.0207632, 0.744773, 0.100834, -0.952169, 1.1436, -0.292266, 0.0995506, 0.229997, 0.999995, 0.229996, 0.999996, 0.0289602, 0.0114661, -0.00116011, 0.0802944, -0.0802944, -4.57336e-13, -2.2211e-12, -0.0429724, -0.000165179, -0.000273641, -0.000237174, -0.000177952, -0.0922967, 13.3174, -11.5503, -1.23824, -19.1271, 15.4431, 11.0198, -0.250372, 102.357, -34.125, 10.453, -26.1357, -7.43819, 3.14424, 4.64326, 4.64667e-310, 0, 0, 13.3174, -11.5503, -1.23824, -19.1271, 7.72154, 5.50991, 7.72154, 0, 0, -13.6842, 0, 113.308, 0, 0, 56.5041, -8.84104e-05, 0, 0, 0, 0, 0, 0, 0
0.0207197, -0.0207616, 0.744773, 0.100845, -0.95218, 1.1436, -0.292266, 0.0995445, 0.229996, 0.999995, 0.229996, 0.999996, 0.0289473, 0.0115415, -0.00116787, 0.0808222, -0.0808222, -4.57334e-13, -2.2211e-12, -0.0432522, -0.000162184, -0.000274266, -0.000234646, -0.000177956, -0.0926585, 13.3317, -11.5551, -1.23677, -19.1308, 15.442, 11.0203, -0.249718, 103.256, -34.4508, 10.5607, -26.3978, -7.4852, 3.1978, 4.69724, 4.64667e-310, 0, 0, 13.3317, -11.5551, -1.23677, -19.1308, 7.72101, 5.51013, 7.72101, 0, 0, -13.6721, 0, 113.383, 0, 0, 56.542, -8.80485e-05, 0, 0, 0, 0, 0, 0, 0
0.0208597, -0.02076, 0.744773, 0.100857, -0.952192, 1.1436, -0.292266, 0.0995385, 0.229996, 0.999995, 0.229996, 0.999996, 0.0289343, 0.0116168, -0.00117562, 0.0813496, -0.0813496, -4.57333e-13, -2.2211e-12, -0.043532, -0.00015916, -0.000274899, -0.000232088, -0.000177967, -0.0930136, 13.3463, -11.56, -1.23528, -19.1345, 15.441, 11.0207, -0.249057, 104.155, -34.7767, 10.6685, -26.66, -7.5322, 3.25136, 4.75122, 4.64667e-310, 0, 0, 13.3463, -11.56, -1.23528, -19.1345, 7.72049, 5.51035, 7.72049, 0, 0, -13.6599, 0, 113.459, 0, 0, 56.5804, -8.76602e-05, 0, 0, 0, 0, 0, 0, 0
0.0209997, -0.0207583, 0.744772, 0.100868, -0.952203, 1.1436, -0.292266, 0.0995323, 0.229996, 0.999995, 0.229996, 0.999996, 0.0289212, 0.011692, -0.00118337, 0.0818767, -0.0818767, -4.57331e-13, -2.2211e-12, -0.0438116, -0.000156107, -0.000275538, -0.0002295, -0.000177986, -0.0933619, 13.3609, -11.5649, -1.23378, -19.1382, 15.4399, 11.0212, -0.248388, 105.054, -35.1025, 10.7763, -26.9221, -7.57921, 3.30491, 4.8052, 4.64667e-310, 0, 0, 13.3609, -11.5649, -1.23378, -19.1382, 7.71996, 5.51058, 7.71996, 0, 0, -13.6476, 0, 113.535, 0, 0, 56.6191, -8.72454e-05, 0, 0, 0, 0, 0, 0, 0
0.0211397, -0.0207567, 0.744772, 0.10088, -0.952215, 1.1436, -0.292266, 0.0995262, 0.229996, 0.999995, 0.229996, 0.999996, 0.0289081, 0.0117672, -0.00119112, 0.0824034, -0.0824034, -4.57329e-13, -2.2211e-12, -0.0440912, -0.000153027, -0.000276182, -0.000226884, -0.000178011, -0.0937033, 13.3757, -11.5698, -1.23227, -19.142, 15.4389, 11.0216, -0.247712, 105.953, -35.4284, 10.8841, -27.1842, -7.62622, 3.35847, 4.85919, 4.64667e-310, 0, 0, 13.3757, -11.5698, -1.23227, -19.142, 7.71943, 5.51082, 7.71943, 0, 0, -13.6351, 0, 113.612, 0, 0, 56.6581, -8.68043e-05, 0, 0, 0, 0, 0, 0, 0
0.0212797, -0.020755, 0.744772, 0.100891, -0.952226, 1.1436, -0.292266, 0.09952, 0.229996, 0.999995, 0.229996, 0.999996, 0.028895, 0.0118424, -0.00119886, 0.0829298, -0.0829298, -4.57328e-13, -2.2211e-12, -0.0443706, -0.00014992, -0.000276831, -0.000224241, -0.000178042, -0.0940378, 13.3906, -11.5748, -1.23074, -19.1458, 15.4378, 11.0221, -0.247028, 106.851, -35.7542, 10.9918, -27.4464, -7.67323, 3.41203, 4.91317, 4.64667e-310, 0, 0, 13.3906, -11.5748, -1.23074, -19.1458, 7.71889, 5.51105, 7.71889, 0, 0, -13.6227, 0, 113.689, 0, 0, 56.6975, -8.63368e-05, 0, 0, 0, 0, 0, 0, 0
0.0214197, -0.0207534, 0.744772, 0.100903, -0.952238, 1.1436, -0.292266, 0.0995138, 0.229996, 0.999995, 0.229996, 0.999996, 0.0288818, 0.0119175, -0.00120661, 0.0834558, -0.0834558, -4.57327e-13, -2.2211e-12, -0.04465, -0.000146789, -0.000277485, -0.000221574, -0.000178078, -0.0943652, 13.4056, -11.5798, -1.22919, -19.1497, 15.4367, 11.0226, -0.246336, 107.75, -36.08, 11.0996, -27.7085, -7.72024, 3.46559, 4.96715, 4.64667e-310, 0, 0, 13.4056, -11.5798, -1.22919, -19.1497, 7.71835, 5.51129, 7.71835, 0, 0, -13.6101, 0, 113.767, 0, 0, 56.7373, -8.5843e-05, 0, 0, 0, 0, 0, 0, 0
0.0215597, -0.0207517, 0.744772, 0.100915, -0.95225, 1.1436, -0.292266, 0.0995075, 0.229996, 0.999995, 0.229996, 0.999996, 0.0288686, 0.0119925, -0.00121435, 0.0839815, -0.0839815, -4.57325e-13, -2.2211e-12, -0.0449293, -0.000143635, -0.000278141, -0.000218882, -0.000178118, -0.0946855, 13.4207, -11.5849, -1.22763, -19.1536, 15.4356, 11.0231, -0.245637, 108.649, -36.4059, 11.2074, -27.9707, -7.76724, 3.51915, 5.02113, 4.64667e-310, 0, 0, 13.4207, -11.5849, -1.22763, -19.1536, 7.71781, 5.51154, 7.71781, 0, 0, -13.5974, 0, 113.846, 0, 0, 56.7775, -8.53231e-05, 0, 0, 0, 0, 0, 0, 0
0.0216997, -0.02075, 0.744772, 0.100926, -0.952261, 1.1436, -0.292266, 0.0995012, 0.229996, 0.999995, 0.229996, 0.999996, 0.0288553, 0.0120675, -0.00122209, 0.0845068, -0.0845068, -4.57324e-13, -2.2211e-12, -0.0452085, -0.000140458, -0.000278801, -0.000216168, -0.000178162, -0.0949987, 13.436, -11.59, -1.22605, -19.1575, 15.4345, 11.0236, -0.24493, 109.548, -36.7317, 11.3152, -28.2328, -7.81425, 3.57271, 5.07511, 4.64667e-310, 0, 0, 13.436, -11.59, -1.22605, -19.1575, 7.71727, 5.51179, 7.71727, 0, 0, -13.5846, 0, 113.926, 0, 0, 56.818, -8.4777e-05, 0, 0, 0, 0, 0, 0, 0
0.0218397, -0.0207483, 0.744771, 0.100938, -0.952273, 1.1436, -0.292266, 0.0994948, 0.229996, 0.999995, 0.229995, 0.999996, 0.028842, 0.0121425, -0.00122982, 0.0850318, -0.0850318, -4.57323e-13, -2.2211e-12, -0.0454877, -0.000137261, -0.000279463, -0.000213432, -0.000178209, -0.0953046, 13.4514, -11.5952, -1.22446, -19.1615, 15.4334, 11.0241, -0.244216, 110.447, -37.0576, 11.4229, -28.495, -7.86126, 3.62627, 5.1291, 4.64667e-310, 0, 0, 13.4514, -11.5952, -1.22446, -19.1615, 7.71672, 5.51204, 7.71672, 0, 0, -13.5718, 0, 114.006, 0, 0, 56.8589, -8.42049e-05, 0, 0, 0, 0, 0, 0, 0
0.0219797, -0.0207466, 0.744771, 0.10095, -0.952285, 1.1436, -0.292266, 0.0994884, 0.229996, 0.999995, 0.229995, 0.999996, 0.0288286, 0.0122174, -0.00123756, 0.0855565, -0.0855565, -4.57323e-13, -2.22109e-12, -0.0457667, -0.000134045, -0.000280126, -0.000210676, -0.000178257, -0.0956031, 13.4669, -11.6004, -1.22285, -19.1655, 15.4323, 11.0246, -0.243494, 111.346, -37.3834, 11.5307, -28.7571, -7.90827, 3.67983, 5.18308, 4.64667e-310, 0, 0, 13.4669, -11.6004, -1.22285, -19.1655, 7.71617, 5.51229, 7.71617, 0, 0, -13.5588, 0, 114.086, 0, 0, 56.9001, -8.36068e-05, 0, 0, 0, 0, 0, 0, 0
0.0221197, -0.0207449, 0.744771, 0.100962, -0.952297, 1.1436, -0.292266, 0.099482, 0.229996, 0.999995, 0.229995, 0.999996, 0.0288152, 0.0122922, -0.00124529, 0.0860807, -0.0860807, -4.57322e-13, -2.22109e-12, -0.0460457, -0.00013081, -0.00028079, -0.000207902, -0.000178308, -0.0958942, 13.4826, -11.6056, -1.22123, -19.1696, 15.4312, 11.0251, -0.242765, 112.245, -37.7093, 11.6385, -29.0192, -7.95528, 3.73339, 5.23706, 4.64667e-310, 0, 0, 13.4826, -11.6056, -1.22123, -19.1696, 7.71561, 5.51255, 7.71561, 0, 0, -13.5458, 0, 114.167, 0, 0, 56.9417, -8.29827e-05, 0, 0, 0, 0, 0, 0, 0
0.0222597, -0.0207432, 0.744771, 0.100974, -0.952309, 1.1436, -0.292266, 0.0994756, 0.229996, 0.999995, 0.229995, 0.999996, 0.0288018, 0.012367, -0.00125302, 0.0866046, -0.0866046, -4.57322e-13, -2.22109e-12, -0.0463246, -0.000127559, -0.000281453, -0.00020511, -0.000178359, -0.0961778, 13.4984, -11.6109, -1.21959, -19.1736, 15.4301, 11.0256, -0.242028, 113.144, -38.0351, 11.7462, -29.2814, -8.00228, 3.78695, 5.29104, 4.64667e-310, 0, 0, 13.4984, -11.6109, -1.21959, -19.1736, 7.71505, 5.51282, 7.71505, 0, 0, -13.5327, 0, 114.249, 0, 0, 56.9837, -8.23328e-05, 0, 0, 0, 0, 0, 0, 0
0.0223997, -0.0207414, 0.744771, 0.100986, -0.952322, 1.1436, -0.292266, 0.0994691, 0.229996, 0.999995, 0.229995, 0.999996, 0.0287883, 0.0124418, -0.00126074, 0.0871282, -0.0871282, -4.57322e-13, -2.22109e-12, -0.0466034, -0.000124292, -0.000282117, -0.000202303, -0.000178411, -0.0964538, 13.5143, -11.6163, -1.21794, -19.1778, 15.429, 11.0262, -0.241283, 114.043, -38.3609, 11.854, -29.5435, -8.04929, 3.84051, 5.34503, 4.64667e-310, 0, 0, 13.5143, -11.6163, -1.21794, -19.1778, 7.71449, 5.51308, 7.71449, 0, 0, -13.5194, 0, 114.332, 0, 0, 57.0261, -8.16571e-05, 0, 0, 0, 0, 0, 0, 0
0.0225397, -0.0207397, 0.74477, 0.100999, -0.952334, 1.1436, -0.292266, 0.0994625, 0.229996, 0.999994, 0.229995, 0.999996, 0.0287748, 0.0125165, -0.00126847, 0.0876514, -0.0876514, -4.57322e-13, -2.22109e-12, -0.0468822, -0.000121012, -0.000282778, -0.00019948, -0.000178462, -0.0967222, 13.5303, -11.6217, -1.21628, -19.1819, 15.4279, 11.0267, -0.240531, 114.942, -38.6868, 11.9618, -29.8057, -8.0963, 3.89407, 5.39901, 4.64667e-310, 0, 0, 13.5303, -11.6217, -1.21628, -19.1819, 7.71393, 5.51335, 7.71393, 0, 0, -13.5061, 0, 114.415, 0, 0, 57.0688, -8.09557e-05, 0, 0, 0, 0, 0, 0, 0
0.0226797, -0.0207379, 0.74477, 0.101011, -0.952346, 1.1436, -0.292266, 0.0994559, 0.229996, 0.999994, 0.229995, 0.999996, 0.0287612, 0.0125911, -0.00127619, 0.0881742, -0.0881742, -4.57322e-13, -2.22109e-12, -0.0471608, -0.000117719, -0.000283438, -0.000196645, -0.000178511, -0.0969828, 13.5465, -11.6271, -1.21459, -19.1861, 15.4267, 11.0273, -0.239771, 115.841, -39.0126, 12.0696, -30.0678, -8.14331, 3.94763, 5.45299, 4.64667e-310, 0, 0, 13.5465, -11.6271, -1.21459, -19.1861, 7.71336, 5.51363, 7.71336, 0, 0, -13.4927, 0, 114.499, 0, 0, 57.1118, -8.02285e-05, 0, 0, 0, 0, 0, 0, 0
0.0228197, -0.0207362, 0.74477, 0.101023, -0.952358, 1.1436, -0.292266, 0.0994493, 0.229996, 0.999994, 0.229995, 0.999996, 0.0287476, 0.0126657, -0.00128391, 0.0886967, -0.0886967, -4.57322e-13, -2.22109e-12, -0.0474395, -0.000114414, -0.000284095, -0.000193797, -0.000178559, -0.0972356, 13.5627, -11.6326, -1.2129, -19.1903, 15.4256, 11.0278, -0.239004, 116.74, -39.3385, 12.1773, -30.33, -8.19031, 4.00119, 5.50697, 4.64667e-310, 0, 0, 13.5627, -11.6326, -1.2129, -19.1903, 7.71279, 5.51391, 7.71279, 0, 0, -13.4792, 0, 114.584, 0, 0, 57.1553, -7.94759e-05, 0, 0, 0, 0, 0, 0, 0
0.0229597, -0.0207344, 0.74477, 0.101036, -0.952371, 1.1436, -0.292266, 0.0994426, 0.229996, 0.999994, 0.229995, 0.999996, 0.028734, 0.0127403, -0.00129162, 0.0892188, -0.0892188, -4.57323e-13, -2.22109e-12, -0.047718, -0.000111099, -0.000284748, -0.000190938, -0.000178605, -0.0974805, 13.5791, -11.6381, -1.21118, -19.1946, 15.4244, 11.0284, -0.238229, 117.639, -39.6643, 12.2851, -30.5921, -8.23732, 4.05475, 5.56096, 4.64667e-310, 0, 0, 13.5791, -11.6381, -1.21118, -19.1946, 7.71221, 5.51419, 7.71221, 0, 0, -13.4657, 0, 114.669, 0, 0, 57.1991, -7.86976e-05, 0, 0, 0, 0, 0, 0, 0
0.0230997, -0.0207326, 0.74477, 0.101048, -0.952383, 1.1436, -0.292266, 0.0994359, 0.229996, 0.999994, 0.229995, 0.999996, 0.0287203, 0.0128147, -0.00129933, 0.0897405, -0.0897405, -4.57324e-13, -2.22109e-12, -0.0479965, -0.000107776, -0.000285398, -0.00018807, -0.000178647, -0.0977174, 13.5957, -11.6437, -1.20946, -19.1989, 15.4233, 11.0289, -0.237447, 118.538, -39.9901, 12.3929, -30.8542, -8.28433, 4.10831, 5.61494, 4.64667e-310, 0, 0, 13.5957, -11.6437, -1.20946, -19.1989, 7.71163, 5.51447, 7.71163, 0, 0, -13.452, 0, 114.754, 0, 0, 57.2432, -7.7894e-05, 0, 0, 0, 0, 0, 0, 0
0.0232397, -0.0207308, 0.74477, 0.101061, -0.952396, 1.1436, -0.292266, 0.0994292, 0.229996, 0.999994, 0.229995, 0.999996, 0.0287066, 0.0128892, -0.00130705, 0.0902618, -0.0902618, -4.57325e-13, -2.22109e-12, -0.0482749, -0.000104445, -0.000286042, -0.000185194, -0.000178685, -0.0979463, 13.6123, -11.6493, -1.20771, -19.2032, 15.4221, 11.0295, -0.236657, 119.436, -40.316, 12.5007, -31.1164, -8.33134, 4.16187, 5.66892, 4.64667e-310, 0, 0, 13.6123, -11.6493, -1.20771, -19.2032, 7.71105, 5.51476, 7.71105, 0, 0, -13.4382, 0, 114.841, 0, 0, 57.2877, -7.70649e-05, 0, 0, 0, 0, 0, 0, 0
0.0233797, -0.020729, 0.744769, 0.101074, -0.952409, 1.1436, -0.292266, 0.0994224, 0.229996, 0.999994, 0.229995, 0.999996, 0.0286929, 0.0129636, -0.00131475, 0.0907828, -0.0907828, -4.57325e-13, -2.22109e-12, -0.0485532, -0.000101108, -0.000286681, -0.000182312, -0.000178719, -0.098167, 13.6291, -11.655, -1.20596, -19.2076, 15.4209, 11.0301, -0.23586, 120.335, -40.6418, 12.6084, -31.3785, -8.37835, 4.21543, 5.7229, 4.64667e-310, 0, 0, 13.6291, -11.655, -1.20596, -19.2076, 7.71047, 5.51506, 7.71047, 0, 0, -13.4244, 0, 114.928, 0, 0, 57.3326, -7.62106e-05, 0, 0, 0, 0, 0, 0, 0
