flxalr/sts-optimization-reemc/input/498_104/pos.csv
time;base_link_tx;base_link_ty;base_link_tz;base_link_rz;base_link_ry;base_link_rx;leg_left_1_joint;leg_left_2_joint;leg_left_3_joint;leg_left_4_joint;leg_left_5_joint;leg_left_6_joint;leg_right_1_joint;leg_right_2_joint;leg_right_3_joint;leg_right_4_joint;leg_right_5_joint;leg_right_6_joint;torso_1_joint;torso_2_joint;arm_left_1_joint;arm_left_2_joint;arm_left_3_joint;arm_left_4_joint;arm_left_5_joint;arm_left_6_joint;arm_left_7_joint;arm_right_1_joint;arm_right_2_joint;arm_right_3_joint;arm_right_4_joint;arm_right_5_joint;arm_right_6_joint;arm_right_7_joint;head_1_joint;head_2_joint
0.0;-0.10979321861944757;-0.06726955681173556;0.7508550608275357;-0.002153487754662663;0.12016359909967853;-0.009813010576283995;-0.0016001755097227331;9.497982731764693e-06;-0.9512487520751648;1.1435936199272094;-0.2922784987042977;9.527892906483729e-06;-0.0014985630915726525;9.507952790004623e-06;-0.9513282579285018;1.1435964832283834;-0.29228127345643995;-9.517922848244122e-06;9.971007378545282e-05;0.10002454401816258;0.22997745018331314;0.1300323781619599;2.8857629354561712e-05;0.9999760787862984;9.130919118318449e-06;-2.739275735495535e-05;2.739275735495535e-05;0.2300541502400712;0.12989431805979534;4.4197640706178376e-05;1.0001763426344936;0.0;5.935097426906993e-05;-6.848189338738837e-05;-0.005313147336269974;0.037566831913125036
0.019660472869873047;-0.10978301919203934;-0.0673492722437314;0.7508496346964401;-0.002066106382542469;0.12017054660372764;-0.00972039083025716;-0.0015886702805960953;9.497982731764693e-06;-0.9512487520751648;1.1435936199272094;-0.2922784987042977;9.527892906483729e-06;-0.0014985630915726525;9.507952790004623e-06;-0.9513282579285018;1.1435964832283834;-0.29228127345643995;-9.517922848244122e-06;9.971007378545282e-05;0.10002454401816258;0.22997745018331314;0.1300323781619599;2.8857629354561712e-05;0.9999760787862984;9.130919118318449e-06;-4.108913603243303e-05;4.108913603243303e-05;0.2300541502400712;0.12989431805979534;4.4197640706178376e-05;1.0001610026231422;0.0;7.304735294654759e-05;-8.217827206486605e-05;-0.005313147336269974;0.037566831913125036
0.03950762748718262;-0.10975093278187682;-0.06734017721661589;0.7508587977642159;-0.002047821365343014;0.12021091920217399;-0.00978562674616427;-0.0014045866145698865;9.497982731764693e-06;-0.9512487520751648;1.1435936199272094;-0.2922784987042977;9.527892906483729e-06;-0.0014985630915726525;9.507952790004623e-06;-0.9513282579285018;1.1435964832283834;-0.29228127345643995;-9.517922848244122e-06;9.971007378545282e-05;0.10002454401816258;0.22997745018331314;0.1300323781619599;2.8857629354561712e-05;0.9999760787862984;9.130919118318449e-06;-4.108913603243303e-05;4.108913603243303e-05;0.2300541502400712;0.12989431805979534;4.4197640706178376e-05;1.000038282532329;0.0;5.022005515075147e-05;-5.935097426906993e-05;-0.005313147336269974;0.037566831913125036
0.05953407287597656;-0.10968032597996775;-0.06734146504273944;0.7508701419497921;-0.0020064104442876155;0.12030101408211939;-0.009805881551598531;-0.001347060468936696;9.497982731764693e-06;-0.9512487520751648;1.1435936199272094;-0.2922784987042977;9.527892906483729e-06;-0.0014985630915726525;9.507952790004623e-06;-0.9513282579285018;1.1435964832283834;-0.29228127345643995;-9.517922848244122e-06;9.971007378545282e-05;0.10002454401816258;0.22997745018331314;0.1300323781619599;2.8857629354561712e-05;0.9999760787862984;9.130919118318449e-06;-3.6523676473273796e-05;3.6523676473273796e-05;0.2300541502400712;0.12989431805979534;4.4197640706178376e-05;0.9999309024528678;0.0;2.739275735495535e-05;-3.6523676473273796e-05;-0.005313147336269974;0.037566831913125036
0.07960295677185059;-0.10967711915140209;-0.06734831030027717;0.7508695393526417;-0.0018847045455690915;0.12029432324249352;-0.00980850042623469;-0.001370070927189972;9.497982731764693e-06;-0.9512487520751648;1.1435936199272094;-0.2922784987042977;9.527892906483729e-06;-0.0014985630915726525;9.507952790004623e-06;-0.9513282579285018;1.1435964832283834;-0.29228127345643995;-9.517922848244122e-06;9.971007378545282e-05;0.10002454401816258;0.22997745018331314;0.1300323781619599;2.8857629354561712e-05;0.9999760787862984;9.130919118318449e-06;-2.739275735495535e-05;2.739275735495535e-05;0.2300541502400712;0.12989431805979534;4.4197640706178376e-05;0.9998848824188128;0.0;7.304735294654759e-05;-8.217827206486605e-05;-0.005313147336269974;0.037566831913125036
0.0995187759399414;-0.10973658614334764;-0.067415038114089;0.7508525772702905;-0.0018522780252842154;0.12021363629451508;-0.009690836569029387;-0.0014851232184563527;9.497982731764693e-06;-0.9512487520751648;1.1435936199272094;-0.2922784987042977;9.527892906483729e-06;-0.0014985630915726525;9.507952790004623e-06;-0.9513282579285018;1.1435964832283834;-0.29228127345643995;-9.517922848244122e-06;9.971007378545282e-05;0.10002454401816258;0.22997745018331314;0.1300323781619599;2.8857629354561712e-05;0.9999760787862984;9.130919118318449e-06;-4.108913603243303e-05;4.108913603243303e-05;0.2300541502400712;0.12989431805979534;4.4197640706178376e-05;0.9998695424074614;0.0;6.848189338738838e-05;-7.761281250570684e-05;-0.005313147336269974;0.037566831913125036
0.11949658393859863;-0.10972986834422775;-0.06738323095519154;0.7508536716822152;-0.0017269439705238138;0.12021094465787571;-0.009715557150917783;-0.001623185967976009;9.497982731764693e-06;-0.9512487520751648;1.1435936199272094;-0.2922784987042977;9.527892906483729e-06;-0.0014985630915726525;9.507952790004623e-06;-0.9513282579285018;1.1435964832283834;-0.29228127345643995;-9.517922848244122e-06;9.971007378545282e-05;0.10002454401816258;0.22997745018331314;0.1300323781619599;2.8857629354561712e-05;0.9999760787862984;9.130919118318449e-06;-4.108913603243303e-05;4.108913603243303e-05;0.2300541502400712;0.12989431805979534;4.4197640706178376e-05;0.9998695424074614;0.0;4.108913603243303e-05;-5.022005515075147e-05;-0.005313147336269974;0.037566831913125036
0.13954997062683105;-0.10964408841062363;-0.06740221692512348;0.7508644985146441;-0.0014972863471717165;0.12030446773317971;-0.009724184615596373;-0.001623185967976009;9.497982731764693e-06;-0.9512487520751648;1.1435936199272094;-0.2922784987042977;9.527892906483729e-06;-0.0014985630915726525;9.507952790004623e-06;-0.9513282579285018;1.1435964832283834;-0.29228127345643995;-9.517922848244122e-06;9.971007378545282e-05;0.10002454401816258;0.22997745018331314;0.1300323781619599;2.8857629354561712e-05;0.9999760787862984;9.130919118318449e-06;-3.6523676473273796e-05;3.6523676473273796e-05;0.2300541502400712;0.12989431805979534;4.4197640706178376e-05;0.9998542023961098;0.0;5.47855147099107e-05;-6.391643382822915e-05;-0.005313147336269974;0.03910272165488005
0.1595761775970459;-0.10958114217675013;-0.0674136753868799;0.7508731158783477;-0.0014009380296336174;0.12037959804430738;-0.009729319343398825;-0.0016001755097227331;9.497982731764693e-06;-0.9512487520751648;1.1435936199272094;-0.2922784987042977;9.527892906483729e-06;-0.0014985630915726525;9.507952790004623e-06;-0.9513282579285018;1.1435964832283834;-0.29228127345643995;-9.517922848244122e-06;9.971007378545282e-05;0.10002454401816258;0.22997745018331314;0.1300323781619599;2.8857629354561712e-05;0.9999760787862984;0.0;-2.739275735495535e-05;2.739275735495535e-05;0.2300541502400712;0.12989431805979534;4.4197640706178376e-05;0.9998542023961098;0.0;7.304735294654759e-05;-8.217827206486605e-05;-0.005313147336269974;0.03910272165488005
0.17950439453125;-0.10958260956607153;-0.06741868158587021;0.7508729093209092;-0.0012798699343948348;0.12036657218993754;-0.009746830856402999;-0.0015771650514694573;9.497982731764693e-06;-0.9512487520751648;1.1435936199272094;-0.2922784987042977;9.527892906483729e-06;-0.0014985630915726525;9.507952790004623e-06;-0.9513282579285018;1.1435964832283834;-0.29228127345643995;-9.517922848244122e-06;9.971007378545282e-05;0.10002454401816258;0.22997745018331314;0.1300323781619599;2.8857629354561712e-05;0.9999760787862984;9.130919118318449e-06;-4.108913603243303e-05;4.108913603243303e-05;0.2300541502400712;0.12989431805979534;4.4197640706178376e-05;0.9998542023961098;0.0;5.022005515075147e-05;-5.935097426906993e-05;-0.0068490370780249785;0.037566831913125036
0.19961309432983398;-0.10959811258477577;-0.06744545987750757;0.7508712127617008;-0.0012631692707294785;0.1203444089176873;-0.009753349258716626;-0.0014275970728231625;9.497982731764693e-06;-0.9512487520751648;1.1435936199272094;-0.2922784987042977;9.527892906483729e-06;-0.0014985630915726525;9.507952790004623e-06;-0.9513282579285018;1.1435964832283834;-0.29228127345643995;-9.517922848244122e-06;9.971007378545282e-05;0.10002454401816258;0.22997745018331314;0.1300323781619599;2.8857629354561712e-05;0.9999760787862984;9.130919118318449e-06;-4.108913603243303e-05;4.108913603243303e-05;0.2300541502400712;0.12989431805979534;4.4197640706178376e-05;0.9998542023961098;0.0;2.739275735495535e-05;-3.6523676473273796e-05;-0.005313147336269974;0.03910272165488005
0.2194972038269043;-0.10955843969722029;-0.06744206312085599;0.7508789072187261;-0.0012178852245531841;0.12039280643998654;-0.009786695898500963;-0.001347060468936696;9.497982731764693e-06;-0.9512487520751648;1.1435936199272094;-0.2922784987042977;9.527892906483729e-06;-0.0014985630915726525;9.507952790004623e-06;-0.9513282579285018;1.1435964832283834;-0.29228127345643995;-9.517922848244122e-06;9.971007378545282e-05;0.10002454401816258;0.22997745018331314;0.1300323781619599;2.8857629354561712e-05;0.9999760787862984;9.130919118318449e-06;-3.6523676473273796e-05;3.6523676473273796e-05;0.2300541502400712;0.12989431805979534;4.4197640706178376e-05;0.9998542023961098;0.0;7.304735294654759e-05;-8.217827206486605e-05;-0.005313147336269974;0.037566831913125036
0.23948216438293457;-0.10960364787605137;-0.06738745735846434;0.7508767551711302;-0.0010631243322786444;0.12031760825784722;-0.009878086700409783;-0.001370070927189972;9.497982731764693e-06;-0.9512487520751648;1.1435936199272094;-0.2922784987042977;9.527892906483729e-06;-0.0014985630915726525;9.507952790004623e-06;-0.9513282579285018;1.1435964832283834;-0.29228127345643995;-9.517922848244122e-06;9.971007378545282e-05;0.10002454401816258;0.22997745018331314;0.1300323781619599;2.8857629354561712e-05;0.9999760787862984;9.130919118318449e-06;-2.739275735495535e-05;2.739275735495535e-05;0.2300541502400712;0.12989431805979534;4.4197640706178376e-05;0.9998542023961098;0.0;6.848189338738838e-05;-7.761281250570684e-05;-0.005313147336269974;0.037566831913125036
0.2594928741455078;-0.10962044405159256;-0.06732629328892123;0.7508768095482858;-0.0009880000646503033;0.12030730017872268;-0.009944742191972986;-0.001473617989329715;9.497982731764693e-06;-0.9512729933240741;1.1435936199272094;-0.2922784987042977;9.527892906483729e-06;-0.0014985630915726525;9.507952790004623e-06;-0.9513282579285018;1.1435964832283834;-0.29228127345643995;-9.517922848244122e-06;9.971007378545282e-05;0.10002454401816258;0.22997745018331314;0.1300323781619599;2.8857629354561712e-05;0.9999760787862984;0.0;-4.108913603243303e-05;4.108913603243303e-05;0.2300541502400712;0.12989431805979534;4.4197640706178376e-05;0.9998542023961098;0.0;4.108913603243303e-05;-5.022005515075147e-05;-0.005313147336269974;0.037566831913125036
0.2794811725616455;-0.10972180186342369;-0.06725919206968266;0.7508585789576265;-0.0009616841937737449;0.12030658578940115;-0.009999797820950439;-0.001623185967976009;9.497982731764693e-06;-0.951442682066438;1.1435936199272094;-0.2922784987042977;9.527892906483729e-06;-0.0014985630915726525;9.507952790004623e-06;-0.9513282579285018;1.1435964832283834;-0.29228127345643995;-9.517922848244122e-06;9.971007378545282e-05;0.10002454401816258;0.22997745018331314;0.1300323781619599;2.8857629354561712e-05;0.9999760787862984;9.130919118318449e-06;-4.108913603243303e-05;4.108913603243303e-05;0.2300541502400712;0.12989431805979534;4.4197640706178376e-05;0.9998542023961098;0.0;4.565459559159225e-05;-5.47855147099107e-05;-0.005313147336269974;0.037566831913125036
0.29949116706848145;-0.10966781329836083;-0.06724377241637916;0.7508659984820162;-0.0007466811259014523;0.12039784801334276;-0.01005317788496894;-0.001623185967976009;9.497982731764693e-06;-0.9514911645642564;1.1435936199272094;-0.2922784987042977;9.527892906483729e-06;-0.0014985630915726525;9.507952790004623e-06;-0.9513282579285018;1.1435964832283834;-0.29228127345643995;-9.517922848244122e-06;9.971007378545282e-05;0.10002454401816258;0.22997745018331314;0.1300323781619599;2.8857629354561712e-05;0.9999760787862984;9.130919118318449e-06;-3.6523676473273796e-05;3.6523676473273796e-05;0.2300388102287196;0.12989431805979534;4.4197640706178376e-05;0.9998542023961098;0.0;7.304735294654759e-05;-8.217827206486605e-05;-0.005313147336269974;0.037566831913125036
0.31948089599609375;-0.10962018657003778;-0.06726068245365706;0.7508718959066074;-0.0006871163897392763;0.1204560388147692;-0.01004529985193259;-0.0016001755097227331;9.497982731764693e-06;-0.9514911645642564;1.1435936199272094;-0.2922784987042977;9.527892906483729e-06;-0.0014985630915726525;9.507952790004623e-06;-0.9513282579285018;1.1435964832283834;-0.29228127345643995;-9.517922848244122e-06;9.971007378545282e-05;0.10002454401816258;0.22997745018331314;0.1300323781619599;2.8857629354561712e-05;0.9999760787862984;9.130919118318449e-06;-2.739275735495535e-05;2.739275735495535e-05;0.2300388102287196;0.12989431805979534;4.4197640706178376e-05;0.9998542023961098;0.0;5.022005515075147e-05;-5.935097426906993e-05;-0.005313147336269974;0.037566831913125036
0.33949780464172363;-0.10966962255231;-0.06721353929287163;0.7508693559378281;-0.00058821179918518;0.12038037740695073;-0.01013069331304457;-0.0015771650514694573;9.497982731764693e-06;-0.9514911645642564;1.1435936199272094;-0.2922784987042977;9.527892906483729e-06;-0.0014985630915726525;9.507952790004623e-06;-0.9513282579285018;1.1435964832283834;-0.29228127345643995;-9.517922848244122e-06;9.971007378545282e-05;0.10002454401816258;0.22997745018331314;0.1300323781619599;2.8857629354561712e-05;0.9999760787862984;9.130919118318449e-06;-4.108913603243303e-05;4.108913603243303e-05;0.22997745018331314;0.12989431805979534;4.4197640706178376e-05;0.9998542023961098;0.0;2.739275735495535e-05;-3.6523676473273796e-05;-0.005313147336269974;0.03910272165488005
0.3596012592315674;-0.10977171352650672;-0.06736455333920528;0.7508429626332197;-0.0005014113519619448;0.12023852083031304;-0.009965529858040698;-0.001473617989329715;9.497982731764693e-06;-0.9514911645642564;1.1435936199272094;-0.2922784987042977;9.527892906483729e-06;-0.0014985630915726525;9.507952790004623e-06;-0.9513282579285018;1.1435964832283834;-0.29228127345643995;-9.517922848244122e-06;9.971007378545282e-05;0.10002454401816258;0.22997745018331314;0.1300323781619599;2.8857629354561712e-05;0.9999760787862984;9.130919118318449e-06;-4.108913603243303e-05;4.108913603243303e-05;0.22997745018331314;0.12989431805979534;4.4197640706178376e-05;0.9998542023961098;0.0;7.304735294654759e-05;-8.217827206486605e-05;-0.005313147336269974;0.037566831913125036
0.3795022964477539;-0.10974482991639843;-0.06742187466639443;0.7508444919857576;-0.0005286806410805475;0.12027730358637015;-0.009920702391288571;-0.001335555239810058;9.497982731764693e-06;-0.9514911645642564;1.1435936199272094;-0.2922784987042977;9.527892906483729e-06;-0.0014985630915726525;9.507952790004623e-06;-0.9513282579285018;1.1435964832283834;-0.29228127345643995;-9.517922848244122e-06;9.971007378545282e-05;0.10002454401816258;0.22997745018331314;0.1300323781619599;2.8857629354561712e-05;0.9999760787862984;9.130919118318449e-06;-3.6523676473273796e-05;3.6523676473273796e-05;0.22996211017196155;0.12989431805979534;4.4197640706178376e-05;0.9998542023961098;0.0;6.848189338738838e-05;-7.761281250570684e-05;-0.005313147336269974;0.037566831913125036
0.3994455337524414;-0.10984027544701926;-0.06742156357899189;0.7508298770954387;-0.0004796250812537707;0.1201457928820238;-0.00991903447382251;-0.001370070927189972;9.497982731764693e-06;-0.9514911645642564;1.1435936199272094;-0.2922784987042977;9.527892906483729e-06;-0.0014985630915726525;9.507952790004623e-06;-0.9513282579285018;1.1435964832283834;-0.29228127345643995;-9.517922848244122e-06;9.971007378545282e-05;0.10002454401816258;0.22997745018331314;0.1300323781619599;2.8857629354561712e-05;0.9999760787862984;9.130919118318449e-06;-2.739275735495535e-05;2.739275735495535e-05;0.22996211017196155;0.12989431805979534;4.4197640706178376e-05;0.9998542023961098;0.0;4.108913603243303e-05;-5.022005515075147e-05;-0.005313147336269974;0.037566831913125036
0.41945505142211914;-0.10983711264661714;-0.06742194262672774;0.7508287047671748;-0.0004435529350545861;0.12014694315440781;-0.00990204139187047;-0.0014506075310764385;9.497982731764693e-06;-0.9514911645642564;1.1435936199272094;-0.2922784987042977;9.527892906483729e-06;-0.0014985630915726525;9.507952790004623e-06;-0.9513282579285018;1.1435964832283834;-0.29228127345643995;-9.517922848244122e-06;9.971007378545282e-05;0.10002454401816258;0.22997745018331314;0.1300323781619599;2.8857629354561712e-05;0.9999760787862984;9.130919118318449e-06;-4.108913603243303e-05;4.108913603243303e-05;0.22996211017196155;0.12989431805979534;4.4197640706178376e-05;0.9998542023961098;0.0;4.565459559159225e-05;-5.47855147099107e-05;-0.005313147336269974;0.037566831913125036
0.43948817253112793;-0.10982003186950694;-0.06742406419225028;0.7508273533916727;-0.0004054098798353221;0.12016675909906406;-0.00985484645643647;-0.0016346911971026475;9.497982731764693e-06;-0.9514911645642564;1.1435936199272094;-0.2922784987042977;9.527892906483729e-06;-0.0014985630915726525;9.507952790004623e-06;-0.9513282579285018;1.1435964832283834;-0.29228127345643995;-9.517922848244122e-06;9.971007378545282e-05;0.10002454401816258;0.22997745018331314;0.1300323781619599;2.8857629354561712e-05;0.9999760787862984;9.130919118318449e-06;-4.108913603243303e-05;4.108913603243303e-05;0.22996211017196155;0.12989431805979534;4.4197640706178376e-05;0.9998542023961098;0.0;7.304735294654759e-05;-8.217827206486605e-05;-0.005313147336269974;0.037566831913125036
0.4594404697418213;-0.10981488762486581;-0.06742718423221368;0.7508280543248752;-0.00026663220546345576;0.12016093192045409;-0.009874523131389618;-0.001623185967976009;9.497982731764693e-06;-0.9514911645642564;1.1435936199272094;-0.2922784987042977;9.527892906483729e-06;-0.0014985630915726525;9.507952790004623e-06;-0.9513282579285018;1.1435964832283834;-0.29228127345643995;-9.517922848244122e-06;9.971007378545282e-05;0.10002454401816258;0.22997745018331314;0.1300323781619599;2.8857629354561712e-05;0.9999760787862984;9.130919118318449e-06;-3.6523676473273796e-05;3.6523676473273796e-05;0.22996211017196155;0.12989431805979534;4.4197640706178376e-05;0.9998542023961098;0.0;5.47855147099107e-05;-6.391643382822915e-05;-0.005313147336269974;0.037566831913125036
0.4794604778289795;-0.10988089347010295;-0.06745710412836792;0.7508157098993407;-0.00013987488629378243;0.12006187430931597;-0.009852657667450266;-0.001623185967976009;9.497982731764693e-06;-0.9514911645642564;1.1435936199272094;-0.2922784987042977;9.527892906483729e-06;-0.0014985630915726525;9.507952790004623e-06;-0.9513282579285018;1.1435964832283834;-0.29228127345643995;-9.517922848244122e-06;9.971007378545282e-05;0.10002454401816258;0.22997745018331314;0.1300323781619599;2.8857629354561712e-05;0.9999760787862984;9.130919118318449e-06;-2.739275735495535e-05;2.739275735495535e-05;0.22996211017196155;0.12989431805979534;4.4197640706178376e-05;0.9998542023961098;0.0;2.739275735495535e-05;-3.6523676473273796e-05;-0.005313147336269974;0.03910272165488005
0.4994828701019287;-0.10992068552331202;-0.06739515089182238;0.7508161351131162;-0.0002588397740093206;0.12001873095547169;-0.009928780393142628;-0.0015886702805960953;9.497982731764693e-06;-0.9514911645642564;1.1435936199272094;-0.2922784987042977;9.527892906483729e-06;-0.0014985630915726525;9.507952790004623e-06;-0.9513282579285018;1.1435964832283834;-0.29228127345643995;-9.517922848244122e-06;9.971007378545282e-05;0.10002454401816258;0.22997745018331314;0.1300323781619599;2.8857629354561712e-05;0.9999760787862984;9.130919118318449e-06;-4.108913603243303e-05;4.108913603243303e-05;0.22996211017196155;0.12989431805979534;4.4197640706178376e-05;0.9998542023961098;0.0;7.304735294654759e-05;-8.217827206486605e-05;-0.005313147336269974;0.03910272165488005
0.5198938846588135;-0.10998862477984607;-0.06735708770416853;0.7508114310108402;-0.00025113511537248217;0.11992670684608094;-0.01000690724351059;-0.001496628447582991;9.497982731764693e-06;-0.9514911645642564;1.1435936199272094;-0.2922784987042977;9.527892906483729e-06;-0.0014985630915726525;9.507952790004623e-06;-0.9513282579285018;1.1435964832283834;-0.29228127345643995;-9.517922848244122e-06;9.971007378545282e-05;0.10002454401816258;0.22997745018331314;0.1300323781619599;2.8857629354561712e-05;0.9999760787862984;9.130919118318449e-06;-4.108913603243303e-05;4.108913603243303e-05;0.22996211017196155;0.12989431805979534;4.4197640706178376e-05;0.9998542023961098;0.0;6.848189338738838e-05;-7.761281250570684e-05;-0.005313147336269974;0.037566831913125036
0.5394761562347412;-0.10994834599039749;-0.06742809417084322;0.7508150830970551;-0.00028034092400228236;0.11996401040530204;-0.009949301297104881;-0.001335555239810058;9.497982731764693e-06;-0.9514669233153472;1.1435936199272094;-0.2922784987042977;9.527892906483729e-06;-0.0014985630915726525;9.507952790004623e-06;-0.9513282579285018;1.1435964832283834;-0.29228127345643995;-9.517922848244122e-06;9.971007378545282e-05;0.10002454401816258;0.22997745018331314;0.1300323781619599;2.8857629354561712e-05;0.9999760787862984;9.130919118318449e-06;-3.6523676473273796e-05;3.6523676473273796e-05;0.22996211017196155;0.12989431805979534;4.4197640706178376e-05;0.9998542023961098;0.0;4.108913603243303e-05;-5.022005515075147e-05;-0.005313147336269974;0.037566831913125036
0.5595703125;-0.11002024914781351;-0.06742271717824594;0.7508045756512988;-0.0001804865668365934;0.11985909732497384;-0.009965364589352071;-0.001358565698063334;9.497982731764693e-06;-0.9514669233153472;1.1435936199272094;-0.2922784987042977;9.527892906483729e-06;-0.0014985630915726525;9.507952790004623e-06;-0.9513282579285018;1.1435964832283834;-0.29228127345643995;-9.517922848244122e-06;9.204006810965144e-05;0.10001687401248677;0.22997745018331314;0.1300323781619599;2.8857629354561712e-05;0.9999760787862984;9.130919118318449e-06;-2.739275735495535e-05;2.739275735495535e-05;0.2299467701606099;0.12990965807114696;4.4197640706178376e-05;0.9998542023961098;0.0;4.565459559159225e-05;-5.47855147099107e-05;-0.005313147336269974;0.037566831913125036
0.5797848701477051;-0.11009573864345737;-0.06741925931117289;0.750794296405679;-0.00023228960968425629;0.11972420155189523;-0.009943446743334685;-0.0014275970728231625;9.497982731764693e-06;-0.9514184408175288;1.1435936199272094;-0.2922784987042977;9.527892906483729e-06;-0.0014985630915726525;9.507952790004623e-06;-0.9513282579285018;1.1435964832283834;-0.29228127345643995;-9.517922848244122e-06;8.437006243385002e-05;0.10002454401816258;0.22997745018331314;0.1300323781619599;2.8857629354561712e-05;0.9999760787862984;9.130919118318449e-06;-4.108913603243303e-05;4.108913603243303e-05;0.2299467701606099;0.12990965807114696;4.4197640706178376e-05;0.9998542023961098;0.0;7.304735294654759e-05;-8.217827206486605e-05;-0.005313147336269974;0.037566831913125036
0.5995616912841797;-0.109920761665585;-0.06732235995538503;0.7508284382463386;-0.00013951373898851864;0.1198694176332024;-0.01003647521518201;-0.001623185967976009;9.497982731764693e-06;-0.9513214758218924;1.1435936199272094;-0.2922784987042977;9.527892906483729e-06;-0.0014985630915726525;9.507952790004623e-06;-0.9513282579285018;1.1435964832283834;-0.29228127345643995;-9.517922848244122e-06;8.437006243385002e-05;0.10002454401816258;0.22997745018331314;0.1300323781619599;2.8857629354561712e-05;0.9999760787862984;9.130919118318449e-06;-4.108913603243303e-05;4.108913603243303e-05;0.2299467701606099;0.12990965807114696;4.4197640706178376e-05;0.9998542023961098;0.0;5.022005515075147e-05;-5.935097426906993e-05;-0.005313147336269974;0.037566831913125036
0.6196784973144531;-0.1097909212473165;-0.06726377954342377;0.7508563810405402;-0.00017838042920090554;0.11996655102034164;-0.010110528904543219;-0.001623185967976009;9.497982731764693e-06;-0.9512245108262558;1.1435936199272094;-0.2922784987042977;9.527892906483729e-06;-0.0014985630915726525;9.507952790004623e-06;-0.9513282579285018;1.1435964832283834;-0.29228127345643995;-9.517922848244122e-06;8.437006243385002e-05;0.10002454401816258;0.22997745018331314;0.1300323781619599;2.8857629354561712e-05;0.9999760787862984;9.130919118318449e-06;-3.6523676473273796e-05;3.6523676473273796e-05;0.2299467701606099;0.12992499808249858;4.4197640706178376e-05;0.9998542023961098;0.0;2.739275735495535e-05;-3.6523676473273796e-05;-0.005313147336269974;0.03910272165488005
0.6394741535186768;-0.10989432759492379;-0.06719820034303052;0.7508462017834163;-0.00012716920181122485;0.11984280800925702;-0.010207772749452467;-0.001623185967976009;9.497982731764693e-06;-0.9512487520751648;1.1435936199272094;-0.2922784987042977;9.527892906483729e-06;-0.0014985630915726525;9.507952790004623e-06;-0.9513282579285018;1.1435964832283834;-0.29228127345643995;-9.517922848244122e-06;7.67000567580417e-05;0.10001687401248677;0.22997745018331314;0.1300323781619599;2.8857629354561712e-05;0.9999760787862984;9.130919118318449e-06;-2.739275735495535e-05;2.739275735495535e-05;0.2299467701606099;0.12992499808249858;4.4197640706178376e-05;0.9998542023961098;0.0;7.304735294654759e-05;-8.217827206486605e-05;-0.005313147336269974;0.037566831913125036
0.6595430374145508;-0.10987148726987306;-0.0671203353178024;0.7508569659866774;-0.00013005948343629026;0.11987227491695814;-0.010319916847452596;-0.0016001755097227331;9.497982731764693e-06;-0.9512487520751648;1.1435936199272094;-0.2922784987042977;9.527892906483729e-06;-0.0014985630915726525;9.507952790004623e-06;-0.9513282579285018;1.1435964832283834;-0.29228127345643995;-9.517922848244122e-06;7.67000567580417e-05;0.10001687401248677;0.22997745018331314;0.1300323781619599;2.8857629354561712e-05;0.9999760787862984;9.130919118318449e-06;-4.108913603243303e-05;4.108913603243303e-05;0.2299467701606099;0.1299403380938502;4.4197640706178376e-05;0.9998542023961098;0.0;6.848189338738838e-05;-7.761281250570684e-05;-0.005313147336269974;0.037566831913125036
0.679602861404419;-0.10988000727045596;-0.06713840819937342;0.7508557032102127;1.0509358342526678e-05;0.1198481712463103;-0.010338195841741895;-0.001519638905836267;9.497982731764693e-06;-0.9512487520751648;1.1435936199272094;-0.2922784987042977;9.527892906483729e-06;-0.0014985630915726525;9.507952790004623e-06;-0.9513282579285018;1.1435964832283834;-0.29228127345643995;-9.517922848244122e-06;6.903005108224031e-05;0.10000920400681096;0.22997745018331314;0.1300323781619599;2.8857629354561712e-05;0.9999760787862984;9.130919118318449e-06;-4.108913603243303e-05;4.108913603243303e-05;0.2299467701606099;0.1299403380938502;4.4197640706178376e-05;0.9998542023961098;0.0;4.108913603243303e-05;-5.022005515075147e-05;-0.005313147336269974;0.037566831913125036
0.6996831893920898;-0.10986838761929855;-0.06723566754933016;0.7508519002467908;8.72595637967173e-05;0.11985760972161644;-0.01026063990095656;-0.001358565698063334;9.497982731764693e-06;-0.9512487520751648;1.1435936199272094;-0.2922784987042977;9.527892906483729e-06;-0.0014985630915726525;9.507952790004623e-06;-0.9513282579285018;1.1435964832283834;-0.29228127345643995;-9.517922848244122e-06;6.903005108224031e-05;0.10000920400681096;0.22997745018331314;0.1300323781619599;2.8857629354561712e-05;0.9999760787862984;9.130919118318449e-06;-3.6523676473273796e-05;3.6523676473273796e-05;0.2299467701606099;0.1299556781052018;4.4197640706178376e-05;0.9998542023961098;0.0;4.565459559159225e-05;-5.47855147099107e-05;-0.005313147336269974;0.037566831913125036
0.7194318771362305;-0.10984171101551904;-0.06729561473042865;0.7508506613515843;0.00010922766698389516;0.11989197102197673;-0.01018519731955868;-0.001347060468936696;9.497982731764693e-06;-0.9512487520751648;1.1435936199272094;-0.2922784987042977;9.527892906483729e-06;-0.0014985630915726525;9.507952790004623e-06;-0.9513282579285018;1.1435964832283834;-0.29228127345643995;-9.517922848244122e-06;5.369003973062364e-05;0.10000920400681096;0.22997745018331314;0.1300323781619599;2.8857629354561712e-05;0.9999760787862984;9.130919118318449e-06;-2.739275735495535e-05;2.739275735495535e-05;0.2299467701606099;0.12998635812790504;4.4197640706178376e-05;0.9998542023961098;0.0;7.304735294654759e-05;-8.217827206486605e-05;-0.005313147336269974;0.03910272165488005
0.7394392490386963;-0.10982242978228253;-0.067265055278192;0.7508550773279208;0.00014441709465568494;0.11991416477533884;-0.010216580780018674;-0.0014045866145698865;9.497982731764693e-06;-0.9512487520751648;1.1435936199272094;-0.2922784987042977;9.527892906483729e-06;-0.0014985630915726525;9.507952790004623e-06;-0.9513282579285018;1.1435964832283834;-0.29228127345643995;-9.517922848244122e-06;3.068002270321252e-05;0.09998619398978356;0.22997745018331314;0.1300323781619599;2.8857629354561712e-05;0.9999760787862984;9.130919118318449e-06;-4.108913603243303e-05;4.108913603243303e-05;0.2299467701606099;0.13000169813925666;4.4197640706178376e-05;0.9998542023961098;0.0;5.47855147099107e-05;-6.391643382822915e-05;-0.005313147336269974;0.037566831913125036
0.7596085071563721;-0.109887311003324;-0.06714074809607383;0.7508523682622461;0.00028618522203498984;0.11981368382029388;-0.010348253194600813;-0.001623185967976009;9.497982731764693e-06;-0.9512487520751648;1.1435936199272094;-0.2922784987042977;9.527892906483729e-06;-0.0014985630915726525;9.507952790004623e-06;-0.9513282579285018;1.1435964832283834;-0.29228127345643995;-9.517922848244122e-06;-5.369003973063058e-05;0.09990182392734973;0.22997745018331314;0.1300323781619599;2.8857629354561712e-05;0.9999607387749468;9.130919118318449e-06;-4.108913603243303e-05;4.108913603243303e-05;0.2299467701606099;0.13006305818466302;4.4197640706178376e-05;0.9998542023961098;0.0;2.739275735495535e-05;-3.6523676473273796e-05;-0.005313147336269974;0.037566831913125036
0.7795746326446533;-0.10985941628537586;-0.0671549321141353;0.7508551816733021;0.00046392795910270935;0.1198348639716122;-0.010355543852164563;-0.001623185967976009;9.497982731764693e-06;-0.9512487520751648;1.1435936199272094;-0.2922784987042977;9.527892906483729e-06;-0.0014985630915726525;9.507952790004623e-06;-0.9513282579285018;1.1435964832283834;-0.29228127345643995;-9.517922848244122e-06;-5.369003973063058e-05;0.09990182392734973;0.22997745018331314;0.1300323781619599;2.8857629354561712e-05;0.9999607387749468;9.130919118318449e-06;-3.6523676473273796e-05;3.6523676473273796e-05;0.2299467701606099;0.13006305818466302;4.4197640706178376e-05;0.9998542023961098;0.0;7.304735294654759e-05;-8.217827206486605e-05;-0.005313147336269974;0.037566831913125036
0.7994894981384277;-0.10988879733388611;-0.06714647771183464;0.7508516383752996;0.0005455158693998529;0.11978819457088097;-0.010379353200517074;-0.001623185967976009;9.497982731764693e-06;-0.9512487520751648;1.1435936199272094;-0.2922784987042977;9.527892906483729e-06;-0.0014985630915726525;9.507952790004623e-06;-0.9513282579285018;1.1435964832283834;-0.29228127345643995;-9.517922848244122e-06;-5.369003973063058e-05;0.09990182392734973;0.22997745018331314;0.1300323781619599;2.8857629354561712e-05;0.9999607387749468;9.130919118318449e-06;-2.739275735495535e-05;2.739275735495535e-05;0.2299467701606099;0.13006305818466302;4.4197640706178376e-05;0.9998542023961098;0.0;6.848189338738838e-05;-7.761281250570684e-05;-0.005313147336269974;0.037566831913125036
0.8197429180145264;-0.10987025441964551;-0.06702372355677207;0.7508657764029032;0.0005108828037811543;0.11981427070624284;-0.010548008921699463;-0.0016001755097227331;9.497982731764693e-06;-0.9512487520751648;1.1435936199272094;-0.2922784987042977;9.527892906483729e-06;-0.0014985630915726525;9.507952790004623e-06;-0.9513282579285018;1.1435964832283834;-0.29228127345643995;-9.517922848244122e-06;-5.369003973063058e-05;0.09990182392734973;0.22997745018331314;0.1300323781619599;2.8857629354561712e-05;0.9999607387749468;9.130919118318449e-06;-4.108913603243303e-05;4.108913603243303e-05;0.2299467701606099;0.13006305818466302;4.4197640706178376e-05;0.9998542023961098;0.0;4.108913603243303e-05;-5.022005515075147e-05;-0.005313147336269974;0.037566831913125036
0.8394491672515869;-0.10980326646815751;-0.06705580446883276;0.7508736252242875;0.000582348389823138;0.11989730965889964;-0.01052737129093661;-0.0015541545932161813;9.497982731764693e-06;-0.9512487520751648;1.1435936199272094;-0.2922784987042977;9.527892906483729e-06;-0.0014985630915726525;9.507952790004623e-06;-0.9513282579285018;1.1435964832283834;-0.29228127345643995;-9.517922848244122e-06;-5.369003973063058e-05;0.09990182392734973;0.22997745018331314;0.1300323781619599;2.8857629354561712e-05;0.9999607387749468;9.130919118318449e-06;-4.108913603243303e-05;4.108913603243303e-05;0.2299467701606099;0.13006305818466302;4.4197640706178376e-05;0.9998542023961098;0.0;4.565459559159225e-05;-5.47855147099107e-05;-0.005313147336269974;0.037566831913125036
0.8594470024108887;-0.10983259401853272;-0.06710218022472278;0.7508690780644347;0.0005881711642806911;0.11985780326128469;-0.010518051781564147;-0.001358565698063334;9.497982731764693e-06;-0.9512487520751648;1.1435936199272094;-0.2922784987042977;9.527892906483729e-06;-0.0014985630915726525;9.507952790004623e-06;-0.9513282579285018;1.1435964832283834;-0.29228127345643995;-9.517922848244122e-06;-5.369003973063058e-05;0.09990182392734973;0.22997745018331314;0.1300323781619599;2.8857629354561712e-05;0.9999607387749468;9.130919118318449e-06;-3.6523676473273796e-05;3.6523676473273796e-05;0.2299467701606099;0.13006305818466302;4.4197640706178376e-05;0.9998542023961098;0.0;7.304735294654759e-05;-8.217827206486605e-05;-0.005313147336269974;0.037566831913125036
0.8794803619384766;-0.10981926505567025;-0.06703476872764898;0.7508772773876818;0.0006510798202710274;0.11986888092041106;-0.010622650554103935;-0.001347060468936696;9.497982731764693e-06;-0.9512487520751648;1.1435936199272094;-0.2922784987042977;9.527892906483729e-06;-0.0014985630915726525;9.507952790004623e-06;-0.9513282579285018;1.1435964832283834;-0.29228127345643995;-9.517922848244122e-06;-5.369003973063058e-05;0.09990182392734973;0.22997745018331314;0.1300323781619599;2.8857629354561712e-05;0.9999607387749468;9.130919118318449e-06;-2.739275735495535e-05;2.739275735495535e-05;0.2299467701606099;0.13006305818466302;4.4197640706178376e-05;0.9998695424074614;0.0;5.47855147099107e-05;-6.391643382822915e-05;-0.005313147336269974;0.037566831913125036
0.8994696140289307;-0.10988753718954047;-0.06707688161005083;0.7508628426133568;0.000780642812881146;0.11976686434688208;-0.010575284597484738;-0.0013815761563166105;9.497982731764693e-06;-0.9512487520751648;1.1435936199272094;-0.2922784987042977;9.527892906483729e-06;-0.0014985630915726525;9.507952790004623e-06;-0.9513282579285018;1.1435964832283834;-0.29228127345643995;-9.517922848244122e-06;-5.369003973063058e-05;0.09990182392734973;0.22997745018331314;0.1300323781619599;2.8857629354561712e-05;0.9999607387749468;9.130919118318449e-06;-4.108913603243303e-05;4.108913603243303e-05;0.2299467701606099;0.13006305818466302;4.4197640706178376e-05;0.9998695424074614;0.0;2.739275735495535e-05;-3.6523676473273796e-05;-0.005313147336269974;0.037566831913125036
0.9195053577423096;-0.10978318036885915;-0.06696807786874165;0.7508839342753295;0.0008191944155149878;0.11990143795472019;-0.010676414788995267;-0.0015771650514694573;9.497982731764693e-06;-0.9512487520751648;1.1435936199272094;-0.2922784987042977;9.527892906483729e-06;-0.0014985630915726525;9.507952790004623e-06;-0.9513282579285018;1.1435964832283834;-0.29228127345643995;-9.517922848244122e-06;-5.369003973063058e-05;0.09990182392734973;0.22997745018331314;0.1300323781619599;2.8857629354561712e-05;0.9999607387749468;9.130919118318449e-06;-4.108913603243303e-05;4.108913603243303e-05;0.2299467701606099;0.13006305818466302;4.4197640706178376e-05;0.9998695424074614;0.0;7.304735294654759e-05;-8.217827206486605e-05;-0.005313147336269974;0.03910272165488005
0.9395835399627686;-0.10980377009480165;-0.06689672679731966;0.7508863696433955;0.0009382741602476008;0.11986240382025151;-0.010779231771889478;-0.001623185967976009;9.497982731764693e-06;-0.9512487520751648;1.1435936199272094;-0.2922784987042977;9.527892906483729e-06;-0.0014985630915726525;9.507952790004623e-06;-0.9513282579285018;1.1435964832283834;-0.29228127345643995;-9.517922848244122e-06;-6.136004540643197e-05;0.0999094939330255;0.22997745018331314;0.1300323781619599;2.8857629354561712e-05;0.9999607387749468;9.130919118318449e-06;-3.6523676473273796e-05;3.6523676473273796e-05;0.2299467701606099;0.13006305818466302;4.4197640706178376e-05;0.9998695424074614;0.0;6.848189338738838e-05;-7.761281250570684e-05;-0.005313147336269974;0.037566831913125036
0.9594464302062988;-0.10991701293388345;-0.06686067637472416;0.75087301211448;0.0010835251984847485;0.11969796692513576;-0.010850415007377698;-0.001623185967976009;9.497982731764693e-06;-0.9512487520751648;1.1435936199272094;-0.2922784987042977;9.527892906483729e-06;-0.0014985630915726525;9.507952790004623e-06;-0.9513282579285018;1.1435964832283834;-0.29228127345643995;-9.517922848244122e-06;-6.136004540643197e-05;0.0999094939330255;0.22997745018331314;0.1300323781619599;2.8857629354561712e-05;0.9999607387749468;9.130919118318449e-06;-2.739275735495535e-05;2.739275735495535e-05;0.2299467701606099;0.13006305818466302;4.4197640706178376e-05;0.9998695424074614;0.0;4.108913603243303e-05;-5.022005515075147e-05;-0.005313147336269974;0.037566831913125036
0.9794459342956543;-0.1099337596151103;-0.06684419971569293;0.7508724844872411;0.0011635158730890411;0.119668148863493;-0.010891200804635527;-0.0016001755097227331;9.497982731764693e-06;-0.9512487520751648;1.1435936199272094;-0.2922784987042977;9.527892906483729e-06;-0.0014985630915726525;9.507952790004623e-06;-0.9513282579285018;1.1435964832283834;-0.29228127345643995;-9.517922848244122e-06;-6.136004540643197e-05;0.0999094939330255;0.22997745018331314;0.1300323781619599;2.8857629354561712e-05;0.9999607387749468;9.130919118318449e-06;-4.108913603243303e-05;4.108913603243303e-05;0.2299467701606099;0.13006305818466302;4.4197640706178376e-05;0.9998695424074614;0.0;4.565459559159225e-05;-5.47855147099107e-05;-0.005313147336269974;0.037566831913125036
0.999652624130249;-0.1098849965333554;-0.06681035823824137;0.7508833196088172;0.0011015631673333367;0.11973815677642712;-0.010937401385554478;-0.0015656598223428193;9.497982731764693e-06;-0.9512487520751648;1.1435936199272094;-0.2922784987042977;9.527892906483729e-06;-0.0014985630915726525;9.507952790004623e-06;-0.9513282579285018;1.1435964832283834;-0.29228127345643995;-9.517922848244122e-06;-6.136004540643197e-05;0.0999094939330255;0.22997745018331314;0.1300323781619599;2.8857629354561712e-05;0.9999607387749468;9.130919118318449e-06;-4.108913603243303e-05;4.108913603243303e-05;0.2299467701606099;0.13006305818466302;4.4197640706178376e-05;0.9998848824188128;0.0;7.304735294654759e-05;-8.217827206486605e-05;-0.005313147336269974;0.03910272165488005
1.019460678100586;-0.1099470099673015;-0.06683917394528323;0.7508757910058409;0.0011636206663705332;0.11964974019647423;-0.010963701978694566;-0.001358565698063334;9.497982731764693e-06;-0.9512487520751648;1.1435936199272094;-0.2922784987042977;9.527892906483729e-06;-0.0014985630915726525;9.507952790004623e-06;-0.9513282579285018;1.1435964832283834;-0.29228127345643995;-9.517922848244122e-06;-6.136004540643197e-05;0.0999094939330255;0.22997745018331314;0.1300323781619599;2.8857629354561712e-05;0.9999607387749468;9.130919118318449e-06;-3.6523676473273796e-05;3.6523676473273796e-05;0.2299467701606099;0.13006305818466302;4.4197640706178376e-05;0.9999002224301644;0.0;5.47855147099107e-05;-6.391643382822915e-05;-0.005313147336269974;0.03910272165488005
1.039635419845581;-0.10986931381886851;-0.06688957197213141;0.750883132807646;0.001149916181952398;0.11975504125046997;-0.010898954248972335;-0.001335555239810058;9.497982731764693e-06;-0.9512487520751648;1.1435936199272094;-0.2922784987042977;9.527892906483729e-06;-0.0014985630915726525;9.507952790004623e-06;-0.9513282579285018;1.1435964832283834;-0.29228127345643995;-9.517922848244122e-06;-6.136004540643197e-05;0.0999094939330255;0.22997745018331314;0.1300323781619599;2.8857629354561712e-05;0.9999607387749468;9.130919118318449e-06;-2.739275735495535e-05;2.739275735495535e-05;0.2299467701606099;0.13006305818466302;4.4197640706178376e-05;0.9999615824755709;0.0;2.739275735495535e-05;-3.6523676473273796e-05;-0.005313147336269974;0.03910272165488005
1.0594961643218994;-0.10988109922195463;-0.06695656276932642;0.7508745234920506;0.001298763748854205;0.11972686378158226;-0.0108173545797159;-0.0013815761563166105;9.497982731764693e-06;-0.9512487520751648;1.1435936199272094;-0.2922784987042977;9.527892906483729e-06;-0.0014985630915726525;9.507952790004623e-06;-0.9513282579285018;1.1435964832283834;-0.29228127345643995;-9.517922848244122e-06;-6.903005108223337e-05;0.09991716393870133;0.22997745018331314;0.1300323781619599;2.8857629354561712e-05;0.9999607387749468;9.130919118318449e-06;-4.108913603243303e-05;4.108913603243303e-05;0.2299467701606099;0.13006305818466302;4.4197640706178376e-05;0.9999769224869226;0.0;7.304735294654759e-05;-8.217827206486605e-05;-0.005313147336269974;0.037566831913125036
1.07950758934021;-0.10986484004450228;-0.06697636468910076;0.7508721656793025;0.0013261188824883537;0.11974671930432697;-0.010753782901730116;-0.0015311441349629051;9.497982731764693e-06;-0.9512487520751648;1.1435936199272094;-0.2922784987042977;9.527892906483729e-06;-0.0014985630915726525;9.507952790004623e-06;-0.9513282579285018;1.1435964832283834;-0.29228127345643995;-9.517922848244122e-06;-6.903005108223337e-05;0.09991716393870133;0.22997745018331314;0.1300323781619599;2.8857629354561712e-05;0.9999607387749468;9.130919118318449e-06;-4.108913603243303e-05;4.108913603243303e-05;0.2299467701606099;0.13006305818466302;4.4197640706178376e-05;0.9999922624982742;0.0;6.848189338738838e-05;-7.761281250570684e-05;-0.005313147336269974;0.037566831913125036
1.0997610092163086;-0.10987061098497938;-0.06700084165943081;0.7508670807529978;0.0014384728972701738;0.11972945548747008;-0.010709125403929418;-0.0016346911971026475;9.497982731764693e-06;-0.9512487520751648;1.1435936199272094;-0.2922784987042977;9.527892906483729e-06;-0.0014985630915726525;9.507952790004623e-06;-0.9513282579285018;1.1435964832283834;-0.29228127345643995;-9.517922848244122e-06;-6.903005108223337e-05;0.09991716393870133;0.22997745018331314;0.1300323781619599;2.8857629354561712e-05;0.9999607387749468;9.130919118318449e-06;-3.6523676473273796e-05;3.6523676473273796e-05;0.2299467701606099;0.13006305818466302;2.8857629354561712e-05;0.9999922624982742;0.0;4.108913603243303e-05;-5.022005515075147e-05;-0.005313147336269974;0.037566831913125036
1.119729995727539;-0.10975936248460472;-0.06708895266313286;0.750875712003659;0.001564622150867103;0.11986725151670703;-0.01061064247255807;-0.001623185967976009;9.497982731764693e-06;-0.9512487520751648;1.1435936199272094;-0.2922784987042977;9.527892906483729e-06;-0.0014985630915726525;9.507952790004623e-06;-0.9513282579285018;1.1435964832283834;-0.29228127345643995;-9.517922848244122e-06;-6.903005108223337e-05;0.09991716393870133;0.22997745018331314;0.1300323781619599;2.8857629354561712e-05;0.9999607387749468;9.130919118318449e-06;-2.739275735495535e-05;2.739275735495535e-05;0.2299467701606099;0.13006305818466302;2.8857629354561712e-05;0.9999922624982742;0.0;5.47855147099107e-05;-6.391643382822915e-05;-0.005313147336269974;0.037566831913125036
1.139502763748169;-0.10974910179906629;-0.06707422506535674;0.7508787560487395;0.0016883039216122877;0.11986948423494527;-0.010652407700342776;-0.0016116807388493713;9.497982731764693e-06;-0.9512487520751648;1.1435936199272094;-0.2922784987042977;9.527892906483729e-06;-0.0014985630915726525;9.507952790004623e-06;-0.9513282579285018;1.1435964832283834;-0.29228127345643995;-9.517922848244122e-06;-6.903005108223337e-05;0.09991716393870133;0.22997745018331314;0.1300323781619599;2.8857629354561712e-05;0.9999607387749468;0.0;-4.108913603243303e-05;4.108913603243303e-05;0.2299467701606099;0.13006305818466302;2.8857629354561712e-05;0.9999922624982742;0.0;7.304735294654759e-05;-8.217827206486605e-05;-0.005313147336269974;0.03910272165488005
1.1595005989074707;-0.10977644692303838;-0.06703829664407288;0.7508786529008178;0.0018498267559720082;0.119817890367567;-0.01073513888927395;-0.0015771650514694573;9.497982731764693e-06;-0.9512487520751648;1.1435936199272094;-0.2922784987042977;9.527892906483729e-06;-0.0014985630915726525;9.507952790004623e-06;-0.9513282579285018;1.1435964832283834;-0.29228127345643995;-9.517922848244122e-06;-6.903005108223337e-05;0.09991716393870133;0.22997745018331314;0.1300323781619599;2.8857629354561712e-05;0.9999607387749468;9.130919118318449e-06;-4.108913603243303e-05;4.108913603243303e-05;0.2299467701606099;0.13006305818466302;2.8857629354561712e-05;0.9999922624982742;0.0;5.47855147099107e-05;-6.391643382822915e-05;-0.005313147336269974;0.037566831913125036
1.1796531677246094;-0.10982132810338838;-0.06703442740869242;0.7508763205276341;0.0019414067779392424;0.11974921722228327;-0.010807391513512283;-0.0013815761563166105;9.497982731764693e-06;-0.9512487520751648;1.1435936199272094;-0.2922784987042977;9.527892906483729e-06;-0.0014985630915726525;9.507952790004623e-06;-0.9513282579285018;1.1435964832283834;-0.29228127345643995;-9.517922848244122e-06;-6.903005108223337e-05;0.09991716393870133;0.22997745018331314;0.1300323781619599;2.8857629354561712e-05;0.9999607387749468;9.130919118318449e-06;-3.6523676473273796e-05;3.6523676473273796e-05;0.2299467701606099;0.13006305818466302;2.8857629354561712e-05;0.9999922624982742;0.0;2.739275735495535e-05;-3.6523676473273796e-05;-0.005313147336269974;0.037566831913125036
1.1996943950653076;-0.10974874435825575;-0.06712860631471292;0.7508794333437954;0.0018967849976604552;0.11985092478466493;-0.010684404016947055;-0.001335555239810058;9.497982731764693e-06;-0.9512487520751648;1.1435936199272094;-0.2922784987042977;9.527892906483729e-06;-0.0014985630915726525;9.507952790004623e-06;-0.9513282579285018;1.1435964832283834;-0.29228127345643995;-9.517922848244122e-06;-6.903005108223337e-05;0.09991716393870133;0.22997745018331314;0.1300323781619599;2.8857629354561712e-05;0.9999607387749468;9.130919118318449e-06;-2.739275735495535e-05;2.739275735495535e-05;0.2299467701606099;0.13006305818466302;-1.7162404700288292e-05;0.9999922624982742;0.0;7.304735294654759e-05;-8.217827206486605e-05;-0.005313147336269974;0.037566831913125036
1.219482660293579;-0.10973311657430858;-0.06724253630733729;0.7508708377152133;0.0020456751573647448;0.11985967997519528;-0.010541760445285812;-0.001370070927189972;9.497982731764693e-06;-0.9512487520751648;1.1435936199272094;-0.2922784987042977;9.527892906483729e-06;-0.0014985630915726525;9.507952790004623e-06;-0.9513282579285018;1.1435964832283834;-0.29228127345643995;-9.517922848244122e-06;-6.903005108223337e-05;0.09991716393870133;0.22997745018331314;0.1300323781619599;2.8857629354561712e-05;0.9999607387749468;9.130919118318449e-06;-4.108913603243303e-05;4.108913603243303e-05;0.2299467701606099;0.13006305818466302;-6.318243875513829e-05;0.9999922624982742;0.0;6.848189338738838e-05;-7.761281250570684e-05;-0.005313147336269974;0.037566831913125036
1.2394957542419434;-0.10977342824005738;-0.06726461906712274;0.750860225055566;0.0021412411218894975;0.11979796367107728;-0.010488574152367534;-0.001508133676709629;9.497982731764693e-06;-0.9512487520751648;1.1435936199272094;-0.2922784987042977;9.527892906483729e-06;-0.0014985630915726525;9.507952790004623e-06;-0.9513282579285018;1.1435964832283834;-0.29228127345643995;-9.517922848244122e-06;-6.903005108223337e-05;0.09991716393870133;0.22997745018331314;0.1300323781619599;2.8857629354561712e-05;0.9999607387749468;9.130919118318449e-06;-4.108913603243303e-05;4.108913603243303e-05;0.2299467701606099;0.13006305818466302;-6.318243875513829e-05;0.9999922624982742;0.0;4.108913603243303e-05;-5.022005515075147e-05;-0.005313147336269974;0.03910272165488005
1.2596275806427002;-0.10977852665599762;-0.0673238901070046;0.7508518822015187;0.0021392528880575003;0.11979237412433365;-0.010376116204295247;-0.001623185967976009;9.497982731764693e-06;-0.9512487520751648;1.1435936199272094;-0.2922784987042977;9.527892906483729e-06;-0.0014985630915726525;9.507952790004623e-06;-0.9513282579285018;1.1435964832283834;-0.29228127345643995;-9.517922848244122e-06;-6.903005108223337e-05;0.09991716393870133;0.22997745018331314;0.1300323781619599;2.8857629354561712e-05;0.9999607387749468;9.130919118318449e-06;-3.6523676473273796e-05;3.6523676473273796e-05;0.2299467701606099;0.13006305818466302;-6.318243875513829e-05;1.0000076025096258;0.0;4.565459559159225e-05;-5.47855147099107e-05;-0.005313147336269974;0.037566831913125036
1.2794640064239502;-0.10983049328881143;-0.06724292620980486;0.7508515377344207;0.0022340426740761516;0.11971360332801007;-0.010501057853443069;-0.001623185967976009;9.497982731764693e-06;-0.9512487520751648;1.1435936199272094;-0.2922784987042977;9.527892906483729e-06;-0.0014985630915726525;9.507952790004623e-06;-0.9513282579285018;1.1435964832283834;-0.29228127345643995;-9.517922848244122e-06;-7.67000567580417e-05;0.09992483394437712;0.22997745018331314;0.1300323781619599;2.8857629354561712e-05;0.9999607387749468;9.130919118318449e-06;-2.739275735495535e-05;2.739275735495535e-05;0.2299467701606099;0.13006305818466302;-6.318243875513829e-05;1.0000076025096258;0.0;7.304735294654759e-05;-8.217827206486605e-05;-0.005313147336269974;0.037566831913125036
1.299605369567871;-0.10968825945775472;-0.06712423690033552;0.7508822534229959;0.002194088017944442;0.11992486630744165;-0.010659860745605683;-0.0016116807388493713;9.497982731764693e-06;-0.9512729933240741;1.1435936199272094;-0.2922784987042977;9.527892906483729e-06;-0.0014985630915726525;9.507952790004623e-06;-0.9513282579285018;1.1435964832283834;-0.29228127345643995;-9.517922848244122e-06;-7.67000567580417e-05;0.09992483394437712;0.22997745018331314;0.1300323781619599;2.8857629354561712e-05;0.9999607387749468;9.130919118318449e-06;-4.108913603243303e-05;4.108913603243303e-05;0.2299467701606099;0.13006305818466302;-6.318243875513829e-05;1.0000076025096258;0.0;5.022005515075147e-05;-5.935097426906993e-05;-0.005313147336269974;0.037566831913125036
1.3194983005523682;-0.10968628510662093;-0.06709927549052963;0.7508780659465275;0.0020369696343109107;0.12009828050689768;-0.010680065485298403;-0.0015771650514694573;9.497982731764693e-06;-0.9514669233153472;1.1435936199272094;-0.2922784987042977;9.527892906483729e-06;-0.0014985630915726525;9.507952790004623e-06;-0.9513282579285018;1.1435964832283834;-0.29228127345643995;-9.517922848244122e-06;-7.67000567580417e-05;0.09992483394437712;0.22997745018331314;0.1300323781619599;2.8857629354561712e-05;0.9999607387749468;9.130919118318449e-06;-4.108913603243303e-05;4.108913603243303e-05;0.2299467701606099;0.13006305818466302;-6.318243875513829e-05;1.0000076025096258;0.0;2.739275735495535e-05;-3.6523676473273796e-05;-0.005313147336269974;0.037566831913125036
1.339571237564087;-0.10965327797158482;-0.06717394066076544;0.7508794124581175;0.0021158624262525173;0.12013550554096164;-0.010633610316565784;-0.0014160918436965245;9.497982731764693e-06;-0.9514669233153472;1.1435936199272094;-0.2922784987042977;9.527892906483729e-06;-0.0014985630915726525;9.507952790004623e-06;-0.9513282579285018;1.1435964832283834;-0.29228127345643995;-9.517922848244122e-06;-7.67000567580417e-05;0.09992483394437712;0.22997745018331314;0.1300323781619599;2.8857629354561712e-05;0.9999607387749468;9.130919118318449e-06;-3.6523676473273796e-05;3.6523676473273796e-05;0.2299467701606099;0.13006305818466302;-6.318243875513829e-05;1.0000076025096258;0.0;7.304735294654759e-05;-8.217827206486605e-05;-0.005313147336269974;0.037566831913125036
1.3594839572906494;-0.10967185140297492;-0.0671906703361059;0.7508765751333559;0.002096453666223557;0.12011252899014688;-0.010626665697648979;-0.001347060468936696;9.497982731764693e-06;-0.9514669233153472;1.1435936199272094;-0.2922784987042977;9.527892906483729e-06;-0.0014985630915726525;9.507952790004623e-06;-0.9513282579285018;1.1436089102198088;-0.29228127345643995;-9.517922848244122e-06;-8.43700624338431e-05;0.09993250395005293;0.22997745018331314;0.1300323781619599;2.8857629354561712e-05;0.9999607387749468;9.130919118318449e-06;-2.739275735495535e-05;2.739275735495535e-05;0.2299467701606099;0.13006305818466302;-6.318243875513829e-05;1.0000076025096258;0.0;6.848189338738838e-05;-7.761281250570684e-05;-0.005313147336269974;0.037566831913125036
1.3794925212860107;-0.10956087582439719;-0.06730935272167075;0.7508816890407959;0.0021565366536309676;0.12025633219752581;-0.010467029413895112;-0.001370070927189972;9.497982731764693e-06;-0.9514669233153472;1.1435936199272094;-0.2922784987042977;9.527892906483729e-06;-0.0014985630915726525;9.507952790004623e-06;-0.9513282579285018;1.1436089102198088;-0.29228127345643995;-9.517922848244122e-06;-8.43700624338431e-05;0.09993250395005293;0.22997745018331314;0.1300323781619599;2.8857629354561712e-05;0.9999607387749468;9.130919118318449e-06;-4.108913603243303e-05;4.108913603243303e-05;0.2299467701606099;0.13006305818466302;-6.318243875513829e-05;1.0000076025096258;0.0;4.108913603243303e-05;-5.022005515075147e-05;-0.005313147336269974;0.037566831913125036
1.3994872570037842;-0.1094975035301241;-0.06733677539060999;0.7508868735465011;0.0022877073172345485;0.12032935481053367;-0.01042715175135953;-0.0014506075310764385;9.497982731764693e-06;-0.9514669233153472;1.1435936199272094;-0.2922784987042977;9.527892906483729e-06;-0.0014985630915726525;9.507952790004623e-06;-0.9513282579285018;1.1436089102198088;-0.29228127345643995;-9.517922848244122e-06;-8.43700624338431e-05;0.09993250395005293;0.22997745018331314;0.1300323781619599;2.8857629354561712e-05;0.9999607387749468;9.130919118318449e-06;-4.108913603243303e-05;4.108913603243303e-05;0.2299467701606099;0.13006305818466302;-6.318243875513829e-05;1.0000076025096258;0.0;4.565459559159225e-05;-5.47855147099107e-05;-0.005313147336269974;0.037566831913125036
1.4195282459259033;-0.10946742663240225;-0.06732389214751958;0.7508889839381898;0.0024172480160358184;0.12035797527117251;-0.010417149107910098;-0.001623185967976009;9.497982731764693e-06;-0.9514669233153472;1.1435936199272094;-0.2922784987042977;9.527892906483729e-06;-0.0014985630915726525;9.507952790004623e-06;-0.9513282579285018;1.1436089102198088;-0.29228127345643995;-9.517922848244122e-06;-8.43700624338431e-05;0.09993250395005293;0.22997745018331314;0.1300323781619599;2.8857629354561712e-05;0.9999607387749468;9.130919118318449e-06;-3.6523676473273796e-05;3.6523676473273796e-05;0.2299467701606099;0.13006305818466302;-6.318243875513829e-05;1.0000076025096258;0.0;7.304735294654759e-05;-8.217827206486605e-05;-0.005313147336269974;0.037566831913125036
1.439516305923462;-0.10946130644464984;-0.0673316065894302;0.7508891844291373;0.0025389844935389465;0.12035514676590559;-0.010424818829561672;-0.001623185967976009;9.497982731764693e-06;-0.9514669233153472;1.1435936199272094;-0.2922784987042977;9.527892906483729e-06;-0.0014985630915726525;9.507952790004623e-06;-0.9513282579285018;1.1436089102198088;-0.29228127345643995;-9.517922848244122e-06;-9.204006810965144e-05;0.09994017395572874;0.22997745018331314;0.1300323781619599;2.8857629354561712e-05;0.9999607387749468;9.130919118318449e-06;-2.739275735495535e-05;2.739275735495535e-05;0.2299467701606099;0.13006305818466302;-6.318243875513829e-05;1.0000076025096258;0.0;5.47855147099107e-05;-6.391643382822915e-05;-0.005313147336269974;0.037566831913125036
1.4594850540161133;-0.10941164470052256;-0.0673598784818372;0.7508941152672883;0.002564405998080367;0.12041925958209711;-0.0103929698798315;-0.0016116807388493713;9.497982731764693e-06;-0.9514669233153472;1.1435936199272094;-0.2922784987042977;9.527892906483729e-06;-0.0014985630915726525;9.507952790004623e-06;-0.9513282579285018;1.1436089102198088;-0.29228127345643995;-9.517922848244122e-06;-9.204006810965144e-05;0.09994017395572874;0.22997745018331314;0.1300323781619599;2.8857629354561712e-05;0.9999607387749468;9.130919118318449e-06;-4.108913603243303e-05;4.108913603243303e-05;0.2299467701606099;0.13006305818466302;-6.318243875513829e-05;1.0000076025096258;0.0;2.739275735495535e-05;-3.6523676473273796e-05;-0.005313147336269974;0.037566831913125036
1.4795258045196533;-0.10938236480157461;-0.06738257258803122;0.7508970308992283;0.002635025875247296;0.12045198728132177;-0.010381821112610955;-0.0015771650514694573;9.497982731764693e-06;-0.9514669233153472;1.1435936199272094;-0.2922784987042977;9.527892906483729e-06;-0.0014985630915726525;9.507952790004623e-06;-0.9513282579285018;1.1436089102198088;-0.29228127345643995;-9.517922848244122e-06;-9.204006810965144e-05;0.09994017395572874;0.22997745018331314;0.1300323781619599;2.8857629354561712e-05;0.9999607387749468;9.130919118318449e-06;-4.108913603243303e-05;4.108913603243303e-05;0.2299467701606099;0.13006305818466302;-6.318243875513829e-05;1.0000076025096258;0.0;7.304735294654759e-05;-8.217827206486605e-05;-0.005313147336269974;0.03910272165488005
1.4997224807739258;-0.10943857670935465;-0.06747008058151438;0.7508830406765319;0.0026275804167898687;0.12037848386786035;-0.010289546639777311;-0.001473617989329715;9.497982731764693e-06;-0.9514669233153472;1.1435936199272094;-0.2922784987042977;9.527892906483729e-06;-0.0014985630915726525;9.507952790004623e-06;-0.9513282579285018;1.1436089102198088;-0.29228127345643995;-9.517922848244122e-06;-9.204006810965144e-05;0.09994017395572874;0.22997745018331314;0.1300323781619599;2.8857629354561712e-05;0.9999607387749468;9.130919118318449e-06;-3.6523676473273796e-05;3.6523676473273796e-05;0.2299467701606099;0.13006305818466302;-6.318243875513829e-05;1.0000076025096258;0.0;6.848189338738838e-05;-7.761281250570684e-05;-0.005313147336269974;0.037566831913125036
1.5196120738983154;-0.10931613387376002;-0.067463086635004;0.7509040198793331;0.002736844406309986;0.12053115764501923;-0.010349385301565614;-0.001347060468936696;9.497982731764693e-06;-0.9514669233153472;1.1435936199272094;-0.2922784987042977;9.527892906483729e-06;-0.0014985630915726525;9.507952790004623e-06;-0.9513282579285018;1.1436089102198088;-0.29228127345643995;-9.517922848244122e-06;-9.204006810965144e-05;0.09994017395572874;0.22997745018331314;0.1300323781619599;2.8857629354561712e-05;0.9999607387749468;9.130919118318449e-06;-2.739275735495535e-05;2.739275735495535e-05;0.2299467701606099;0.13006305818466302;-6.318243875513829e-05;1.0000076025096258;0.0;4.108913603243303e-05;-5.022005515075147e-05;-0.005313147336269974;0.03910272165488005
1.5394480228424072;-0.10926738464385082;-0.06744143231720075;0.7509128316211333;0.0028376212163559373;0.12058670187395686;-0.010390710369350726;-0.001358565698063334;9.497982731764693e-06;-0.9514669233153472;1.1435936199272094;-0.2922784987042977;9.527892906483729e-06;-0.0014985630915726525;9.507952790004623e-06;-0.9513282579285018;1.1436089102198088;-0.29228127345643995;-9.517922848244122e-06;-9.204006810965144e-05;0.09994017395572874;0.22997745018331314;0.1300323781619599;2.8857629354561712e-05;0.9999607387749468;9.130919118318449e-06;-4.108913603243303e-05;4.108913603243303e-05;0.2299467701606099;0.13006305818466302;-6.318243875513829e-05;1.0000076025096258;0.0;4.565459559159225e-05;-5.47855147099107e-05;-0.005313147336269974;0.037566831913125036
1.5594446659088135;-0.10920386158741102;-0.06740087383375563;0.7509238844813886;0.0028279903898253394;0.12067199788500116;-0.010419400646836099;-0.0014506075310764385;9.497982731764693e-06;-0.9514669233153472;1.1435936199272094;-0.2922784987042977;9.527892906483729e-06;-0.0014985630915726525;9.507952790004623e-06;-0.9513282579285018;1.1436089102198088;-0.29228127345643995;-9.517922848244122e-06;-9.204006810965144e-05;0.09994017395572874;0.22997745018331314;0.1300323781619599;2.8857629354561712e-05;0.9999607387749468;9.130919118318449e-06;-4.108913603243303e-05;4.108913603243303e-05;0.2299467701606099;0.13006305818466302;-6.318243875513829e-05;1.0000076025096258;0.0;7.304735294654759e-05;-8.217827206486605e-05;-0.005313147336269974;0.03910272165488005
1.5794622898101807;-0.10913226064655168;-0.0673524701821674;0.7509352066547899;0.0031446134501023856;0.12073854604201283;-0.010485600694646479;-0.001623185967976009;9.497982731764693e-06;-0.9514669233153472;1.1435936199272094;-0.2922784987042977;9.527892906483729e-06;-0.0014985630915726525;9.507952790004623e-06;-0.9513282579285018;1.1436089102198088;-0.29228127345643995;-9.517922848244122e-06;-9.204006810965144e-05;0.09994017395572874;0.22997745018331314;0.1300323781619599;2.8857629354561712e-05;0.9999607387749468;9.130919118318449e-06;-3.6523676473273796e-05;3.6523676473273796e-05;0.2299467701606099;0.13006305818466302;-6.318243875513829e-05;1.0000076025096258;0.0;5.47855147099107e-05;-6.391643382822915e-05;-0.005313147336269974;0.037566831913125036
1.599449634552002;-0.109102310820164;-0.06736800367441195;0.7509381652318405;0.0032623428096047783;0.120767897684965;-0.010481834866900979;-0.001623185967976009;9.497982731764693e-06;-0.9514669233153472;1.1435936199272094;-0.2922784987042977;9.527892906483729e-06;-0.0014985630915726525;9.507952790004623e-06;-0.9513282579285018;1.1436089102198088;-0.29228127345643995;-9.517922848244122e-06;-9.204006810965144e-05;0.09994017395572874;0.22997745018331314;0.1300323781619599;2.8857629354561712e-05;0.9999607387749468;9.130919118318449e-06;-2.739275735495535e-05;2.739275735495535e-05;0.2299467701606099;0.13006305818466302;-6.318243875513829e-05;1.0000076025096258;0.0;2.739275735495535e-05;-3.6523676473273796e-05;-0.005313147336269974;0.037566831913125036
1.6194889545440674;-0.10915451636334232;-0.06731441507009521;0.7509353841898744;0.0033768553961579383;0.12068742834051985;-0.010572349146257314;-0.001623185967976009;9.497982731764693e-06;-0.9514669233153472;1.1435936199272094;-0.2922784987042977;9.527892906483729e-06;-0.0014985630915726525;9.507952790004623e-06;-0.9513282579285018;1.1435964832283834;-0.29228127345643995;-9.517922848244122e-06;-9.971007378545282e-05;0.09994784396140452;0.22997745018331314;0.1300323781619599;2.8857629354561712e-05;0.9999607387749468;9.130919118318449e-06;-4.108913603243303e-05;4.108913603243303e-05;0.2299467701606099;0.13006305818466302;-6.318243875513829e-05;1.0000076025096258;0.0;7.304735294654759e-05;-8.217827206486605e-05;-0.005313147336269974;0.037566831913125036
1.6394648551940918;-0.10914244410376502;-0.06731014703947631;0.7509391316919682;0.00343347048679468;0.12067860919046827;-0.010595917064859128;-0.0015886702805960953;9.497982731764693e-06;-0.951442682066438;1.1435936199272094;-0.2922784987042977;9.527892906483729e-06;-0.0014985630915726525;9.507952790004623e-06;-0.9513282579285018;1.1435964832283834;-0.29228127345643995;-9.517922848244122e-06;-9.971007378545282e-05;0.09994784396140452;0.22997745018331314;0.1300323781619599;2.8857629354561712e-05;0.9999607387749468;9.130919118318449e-06;-4.108913603243303e-05;4.108913603243303e-05;0.2299467701606099;0.13006305818466302;-6.318243875513829e-05;1.0000076025096258;0.0;6.848189338738838e-05;-7.761281250570684e-05;-0.005313147336269974;0.037566831913125036
1.6596300601959229;-0.10913370755729382;-0.06722684196583699;0.7509515408942485;0.0035501038790158503;0.12063933924922787;-0.010751974004868244;-0.001496628447582991;9.497982731764693e-06;-0.9513941995686196;1.1435936199272094;-0.2922784987042977;9.527892906483729e-06;-0.0014985630915726525;9.507952790004623e-06;-0.9513282579285018;1.1435964832283834;-0.29228127345643995;-9.517922848244122e-06;-9.971007378545282e-05;0.09994784396140452;0.22997745018331314;0.1300323781619599;2.8857629354561712e-05;0.9999607387749468;9.130919118318449e-06;-3.6523676473273796e-05;3.6523676473273796e-05;0.2299467701606099;0.13006305818466302;-6.318243875513829e-05;1.0000076025096258;0.0;4.108913603243303e-05;-5.022005515075147e-05;-0.005313147336269974;0.037566831913125036
1.6795177459716797;-0.10908029802932101;-0.06720884277112098;0.7509691962579331;0.0035358120163290433;0.12059348070464443;-0.010811396417881135;-0.001358565698063334;9.497982731764693e-06;-0.9512487520751648;1.1435936199272094;-0.2922784987042977;9.527892906483729e-06;-0.0014985630915726525;9.507952790004623e-06;-0.9513282579285018;1.1435964832283834;-0.29228127345643995;-9.517922848244122e-06;-9.971007378545282e-05;0.09994784396140452;0.22997745018331314;0.1300323781619599;2.8857629354561712e-05;0.9999607387749468;9.130919118318449e-06;-2.739275735495535e-05;2.739275735495535e-05;0.2299467701606099;0.13006305818466302;-6.318243875513829e-05;1.0000076025096258;0.0;4.565459559159225e-05;-5.47855147099107e-05;-0.005313147336269974;0.037566831913125036
1.6995408535003662;-0.10902807577322275;-0.06730184843159145;0.7509684504584491;0.0035405244969785882;0.12066351823371314;-0.010684853708004751;-0.001358565698063334;9.497982731764693e-06;-0.9512487520751648;1.1435936199272094;-0.2922784987042977;9.527892906483729e-06;-0.0014985630915726525;9.507952790004623e-06;-0.9513282579285018;1.1435964832283834;-0.29228127345643995;-9.517922848244122e-06;-9.971007378545282e-05;0.09994784396140452;0.22997745018331314;0.1300323781619599;2.8857629354561712e-05;0.9999607387749468;9.130919118318449e-06;-4.108913603243303e-05;4.108913603243303e-05;0.2299467701606099;0.13006305818466302;-6.318243875513829e-05;1.0000076025096258;0.0;7.304735294654759e-05;-8.217827206486605e-05;-0.005313147336269974;0.037566831913125036
1.7194581031799316;-0.10897500742986999;-0.06729776965687335;0.7509756046962177;0.003626181725747941;0.12072651111172672;-0.010690444544538888;-0.0014045866145698865;9.497982731764693e-06;-0.9512487520751648;1.1435936199272094;-0.2922784987042977;9.527892906483729e-06;-0.0014985630915726525;9.507952790004623e-06;-0.9513282579285018;1.1435964832283834;-0.29228127345643995;-9.517922848244122e-06;-9.971007378545282e-05;0.09994784396140452;0.22997745018331314;0.1300323781619599;2.8857629354561712e-05;0.9999607387749468;9.130919118318449e-06;-4.108913603243303e-05;4.108913603243303e-05;0.2299467701606099;0.13006305818466302;-6.318243875513829e-05;1.0000076025096258;0.0;5.47855147099107e-05;-6.391643382822915e-05;-0.005313147336269974;0.037566831913125036
1.739473819732666;-0.10890033614788928;-0.06722023456058504;0.7509890391689891;0.0036440707659727034;0.12082419060458059;-0.010739255176771354;-0.001623185967976009;9.497982731764693e-06;-0.9512487520751648;1.1435936199272094;-0.2922784987042977;9.527892906483729e-06;-0.0014985630915726525;9.507952790004623e-06;-0.9513282579285018;1.1435964832283834;-0.29228127345643995;-9.517922848244122e-06;-9.971007378545282e-05;0.09994784396140452;0.22997745018331314;0.1300323781619599;2.8857629354561712e-05;0.9999607387749468;9.130919118318449e-06;-3.6523676473273796e-05;3.6523676473273796e-05;0.2299467701606099;0.13006305818466302;-6.318243875513829e-05;1.0000076025096258;0.0;2.739275735495535e-05;-3.6523676473273796e-05;-0.005313147336269974;0.037566831913125036
1.7594892978668213;-0.10895241209474923;-0.06726450328000863;0.7509775220315815;0.0036980611119159026;0.12075038467539735;-0.010687118059025367;-0.001623185967976009;9.497982731764693e-06;-0.9512487520751648;1.1435936199272094;-0.2922784987042977;9.527892906483729e-06;-0.0014985630915726525;9.507952790004623e-06;-0.9513282579285018;1.1435964832283834;-0.29228127345643995;-9.517922848244122e-06;-9.971007378545282e-05;0.09994784396140452;0.22997745018331314;0.1300323781619599;2.8857629354561712e-05;0.9999607387749468;9.130919118318449e-06;-2.739275735495535e-05;2.739275735495535e-05;0.2299467701606099;0.13006305818466302;-6.318243875513829e-05;1.0000076025096258;0.0;7.304735294654759e-05;-8.217827206486605e-05;-0.005313147336269974;0.037566831913125036
1.779479742050171;-0.10890593767810176;-0.06722535484272199;0.7509877685449935;0.0036954271208660696;0.12081212967924936;-0.010739945832882068;-0.001623185967976009;9.497982731764693e-06;-0.9512487520751648;1.1435936199272094;-0.2922784987042977;9.527892906483729e-06;-0.0014985630915726525;9.507952790004623e-06;-0.9513282579285018;1.1435964832283834;-0.29228127345643995;-9.517922848244122e-06;-9.971007378545282e-05;0.09994784396140452;0.22997745018331314;0.1300323781619599;2.8857629354561712e-05;0.9999607387749468;9.130919118318449e-06;-4.108913603243303e-05;4.108913603243303e-05;0.230023470217368;0.13006305818466302;-6.318243875513829e-05;1.0000076025096258;0.0;6.848189338738838e-05;-7.761281250570684e-05;-0.005313147336269974;0.037566831913125036
1.799494981765747;-0.10884296047124464;-0.0672119017063552;0.7509985597347418;0.0036812804628790483;0.12089707598764726;-0.0107621381919627;-0.0016001755097227331;9.497982731764693e-06;-0.9512487520751648;1.1435936199272094;-0.2922784987042977;9.527892906483729e-06;-0.0014985630915726525;9.507952790004623e-06;-0.9513282579285018;1.1435964832283834;-0.29228127345643995;-9.517922848244122e-06;-9.971007378545282e-05;0.09994784396140452;0.22997745018331314;0.1300323781619599;2.8857629354561712e-05;0.9999607387749468;9.130919118318449e-06;-4.108913603243303e-05;4.108913603243303e-05;0.2300388102287196;0.13006305818466302;-6.318243875513829e-05;1.0000076025096258;0.0;4.108913603243303e-05;-5.022005515075147e-05;-0.005313147336269974;0.037566831913125036
1.8194842338562012;-0.10876894354504928;-0.0672514219700212;0.7510068878913836;0.0037328104238896036;0.12099118910549682;-0.010731094041276522;-0.001542649364089543;9.497982731764693e-06;-0.9512487520751648;1.1435936199272094;-0.2922784987042977;9.527892906483729e-06;-0.0014985630915726525;9.507952790004623e-06;-0.9513282579285018;1.1435964832283834;-0.29228127345643995;-9.517922848244122e-06;-9.971007378545282e-05;0.09994784396140452;0.22997745018331314;0.1300323781619599;2.8857629354561712e-05;0.9999607387749468;9.130919118318449e-06;-3.6523676473273796e-05;3.6523676473273796e-05;0.2300541502400712;0.13006305818466302;-6.318243875513829e-05;1.0000076025096258;0.0;4.565459559159225e-05;-5.47855147099107e-05;-0.005313147336269974;0.037566831913125036
1.839484691619873;-0.1088541650743669;-0.0672806521415556;0.7509958065703453;0.0036499029536391854;0.12088494226461566;-0.010732372821763255;-0.001347060468936696;9.497982731764693e-06;-0.9512487520751648;1.1435936199272094;-0.2922784987042977;9.527892906483729e-06;-0.0014985630915726525;9.507952790004623e-06;-0.9513282579285018;1.1435964832283834;-0.29228127345643995;-9.517922848244122e-06;-9.971007378545282e-05;0.09994784396140452;0.22997745018331314;0.1300323781619599;2.8857629354561712e-05;0.9999607387749468;9.130919118318449e-06;-3.195821691411457e-05;3.195821691411457e-05;0.2300541502400712;0.13006305818466302;-6.318243875513829e-05;1.0000076025096258;0.0;7.304735294654759e-05;-8.217827206486605e-05;-0.005313147336269974;0.037566831913125036
1.8594787120819092;-0.10886313464154768;-0.06735360107109183;0.7509879674346631;0.0036930654685100083;0.12086979676255478;-0.01063924014671982;-0.001347060468936696;9.497982731764693e-06;-0.9512487520751648;1.1435936199272094;-0.2922784987042977;9.527892906483729e-06;-0.0014985630915726525;9.507952790004623e-06;-0.9513282579285018;1.1435964832283834;-0.29228127345643995;-9.517922848244122e-06;-9.971007378545282e-05;0.09994784396140452;0.22997745018331314;0.1300323781619599;2.8857629354561712e-05;0.9999607387749468;9.130919118318449e-06;-4.108913603243303e-05;4.108913603243303e-05;0.2300541502400712;0.13006305818466302;-6.318243875513829e-05;1.0000076025096258;0.0;5.47855147099107e-05;-6.391643382822915e-05;-0.005313147336269974;0.03910272165488005
1.8794515132904053;-0.10877089451693418;-0.0674106495374451;0.7509953002041184;0.003806156790368407;0.1209830457442866;-0.010565217277023883;-0.0013930813854432485;9.497982731764693e-06;-0.9512487520751648;1.1435936199272094;-0.2922784987042977;9.527892906483729e-06;-0.0014985630915726525;9.507952790004623e-06;-0.9513282579285018;1.1435964832283834;-0.29228127345643995;-9.517922848244122e-06;-9.971007378545282e-05;0.09994784396140452;0.22997745018331314;0.1300323781619599;2.8857629354561712e-05;0.9999607387749468;9.130919118318449e-06;-4.108913603243303e-05;4.108913603243303e-05;0.2300541502400712;0.13006305818466302;-6.318243875513829e-05;1.0000076025096258;0.0;2.739275735495535e-05;-3.6523676473273796e-05;-0.005313147336269974;0.037566831913125036
1.8995790481567383;-0.1087916567547864;-0.06732042714168014;0.7509958159733483;0.0038410288105385593;0.12095202885779491;-0.010631232341811925;-0.001623185967976009;9.497982731764693e-06;-0.9512487520751648;1.1435936199272094;-0.2922784987042977;9.527892906483729e-06;-0.0014985630915726525;9.507952790004623e-06;-0.9513282579285018;1.1435964832283834;-0.29228127345643995;-9.517922848244122e-06;-9.204006810965144e-05;0.09995551396708033;0.22999279019466476;0.1300323781619599;2.8857629354561712e-05;0.9999607387749468;9.130919118318449e-06;-3.6523676473273796e-05;3.6523676473273796e-05;0.2300541502400712;0.13006305818466302;-6.318243875513829e-05;1.0000076025096258;0.0;7.304735294654759e-05;-8.217827206486605e-05;-0.005313147336269974;0.03910272165488005
1.919494390487671;-0.10882573038618192;-0.06732742038049849;0.7509902522471821;0.003913332180860702;0.12090016553823221;-0.010632631904813398;-0.001623185967976009;9.497982731764693e-06;-0.9512487520751648;1.1435936199272094;-0.2922784987042977;9.527892906483729e-06;-0.0014985630915726525;9.507952790004623e-06;-0.9513282579285018;1.1435964832283834;-0.29228127345643995;-9.517922848244122e-06;-8.43700624338431e-05;0.09996318397275614;0.22999279019466476;0.1300323781619599;2.8857629354561712e-05;0.9999607387749468;9.130919118318449e-06;-2.739275735495535e-05;2.739275735495535e-05;0.2300541502400712;0.13006305818466302;-6.318243875513829e-05;1.0000076025096258;0.0;6.848189338738838e-05;-7.761281250570684e-05;-0.005313147336269974;0.03910272165488005
1.9394586086273193;-0.10879705956347814;-0.06727335360314993;0.7509992515474241;0.0039672076857880005;0.1209329513288446;-0.010714327182441877;-0.001623185967976009;9.497982731764693e-06;-0.9512487520751648;1.1435936199272094;-0.2922784987042977;9.527892906483729e-06;-0.0014985630915726525;9.507952790004623e-06;-0.9513282579285018;1.1435964832283834;-0.29228127345643995;-9.517922848244122e-06;-1.5340011351609728e-05;0.10003221402383837;0.22999279019466476;0.1300323781619599;2.8857629354561712e-05;0.9999607387749468;9.130919118318449e-06;-4.108913603243303e-05;4.108913603243303e-05;0.2300541502400712;0.13006305818466302;-6.318243875513829e-05;1.0000076025096258;0.0;4.108913603243303e-05;-5.022005515075147e-05;-0.005313147336269974;0.037566831913125036
1.9594616889953613;-0.1087864974569575;-0.06727601011445898;0.7510012291152275;0.0039515269675362424;0.12094836338908634;-0.010717679634740336;-0.0015886702805960953;9.497982731764693e-06;-0.9512487520751648;1.1435936199272094;-0.2922784987042977;9.527892906483729e-06;-0.0014985630915726525;9.507952790004623e-06;-0.9513282579285018;1.1435964832283834;-0.29228127345643995;-9.517922848244122e-06;3.0680022703219456e-05;0.1000782340578932;0.22999279019466476;0.1300323781619599;2.8857629354561712e-05;0.9999607387749468;9.130919118318449e-06;-4.108913603243303e-05;4.108913603243303e-05;0.2300541502400712;0.13006305818466302;-6.318243875513829e-05;1.0000076025096258;0.0;4.565459559159225e-05;-5.47855147099107e-05;-0.005313147336269974;0.037566831913125036
1.9794507026672363;-0.10872398743014121;-0.06729280433948476;0.7510096907088585;0.0039446896786068655;0.12103224767957561;-0.010705889177823615;-0.001542649364089543;9.497982731764693e-06;-0.9512487520751648;1.1435936199272094;-0.2922784987042977;9.527892906483729e-06;-0.0014985630915726525;9.507952790004623e-06;-0.9513282579285018;1.1435964832283834;-0.29228127345643995;-9.517922848244122e-06;3.0680022703219456e-05;0.1000782340578932;0.22999279019466476;0.1300323781619599;2.8857629354561712e-05;0.9999607387749468;9.130919118318449e-06;-3.6523676473273796e-05;3.6523676473273796e-05;0.2300541502400712;0.13006305818466302;-6.318243875513829e-05;1.0000076025096258;0.0;7.304735294654759e-05;-8.217827206486605e-05;-0.005313147336269974;0.03910272165488005
1.9995296001434326;-0.10868227891040652;-0.06725936370000556;0.7510226076080432;0.004013729751620594;0.12108065142906395;-0.010814703637400815;-0.001347060468936696;9.497982731764693e-06;-0.9512487520751648;1.1435936199272094;-0.2922784987042977;9.527892906483729e-06;-0.0014985630915726525;9.507952790004623e-06;-0.9513282579285018;1.1435964832283834;-0.29228127345643995;-9.517922848244122e-06;3.0680022703219456e-05;0.1000782340578932;0.22999279019466476;0.1300323781619599;2.8857629354561712e-05;0.9999607387749468;9.130919118318449e-06;-2.739275735495535e-05;2.739275735495535e-05;0.2300541502400712;0.13006305818466302;-6.318243875513829e-05;1.0000076025096258;0.0;5.47855147099107e-05;-6.391643382822915e-05;-0.005313147336269974;0.03910272165488005
2.019596576690674;-0.10862544449611304;-0.06726227417321232;0.7510305694004362;0.003955889025465796;0.12116159630020784;-0.010801817976034052;-0.001347060468936696;9.497982731764693e-06;-0.9512487520751648;1.1435936199272094;-0.2922784987042977;9.527892906483729e-06;-0.0014985630915726525;9.507952790004623e-06;-0.9513282579285018;1.1435964832283834;-0.29228127345643995;-9.517922848244122e-06;3.0680022703219456e-05;0.1000782340578932;0.22999279019466476;0.1300323781619599;2.8857629354561712e-05;0.9999607387749468;9.130919118318449e-06;-4.108913603243303e-05;4.108913603243303e-05;0.2300541502400712;0.1300477181733114;-6.318243875513829e-05;1.0000076025096258;0.0;2.739275735495535e-05;-3.6523676473273796e-05;-0.005313147336269974;0.03910272165488005
2.039482593536377;-0.10881220523753705;-0.06730096733863415;0.7509993815444522;0.004043985128855033;0.1209053896447814;-0.010753743267426421;-0.0013815761563166105;9.497982731764693e-06;-0.9512487520751648;1.1435936199272094;-0.2922784987042977;9.527892906483729e-06;-0.0014985630915726525;9.507952790004623e-06;-0.9513282579285018;1.1435964832283834;-0.29228127345643995;-9.517922848244122e-06;3.0680022703219456e-05;0.1000782340578932;0.230023470217368;0.1300323781619599;2.8857629354561712e-05;0.9999607387749468;9.130919118318449e-06;-4.108913603243303e-05;4.108913603243303e-05;0.2300541502400712;0.1300323781619599;-6.318243875513829e-05;1.0000076025096258;0.0;7.304735294654759e-05;-8.217827206486605e-05;-0.005313147336269974;0.037566831913125036
2.059518814086914;-0.10878899733793948;-0.06717601248182946;0.7510105037233166;0.00402393544541189;0.12093744650720838;-0.010874387371617522;-0.0015541545932161813;9.497982731764693e-06;-0.9512487520751648;1.1435936199272094;-0.2922784987042977;9.527892906483729e-06;-0.0014985630915726525;9.507952790004623e-06;-0.9513282579285018;1.1435964832283834;-0.29228127345643995;-9.517922848244122e-06;3.0680022703219456e-05;0.1000782340578932;0.230023470217368;0.1300323781619599;2.8857629354561712e-05;0.9999607387749468;9.130919118318449e-06;-3.6523676473273796e-05;3.6523676473273796e-05;0.2300541502400712;0.13000169813925666;-6.318243875513829e-05;1.0000076025096258;0.0;6.848189338738838e-05;-7.761281250570684e-05;-0.005313147336269974;0.037566831913125036
2.0794992446899414;-0.10878246592234522;-0.06712929659811132;0.7510142560201912;0.00404061918011789;0.12094439887817182;-0.010921879042464108;-0.001623185967976009;9.497982731764693e-06;-0.9512487520751648;1.1435936199272094;-0.2922784987042977;9.527892906483729e-06;-0.0014985630915726525;9.507952790004623e-06;-0.9513282579285018;1.1435964832283834;-0.29228127345643995;-9.517922848244122e-06;3.0680022703219456e-05;0.1000782340578932;0.2300388102287196;0.1300323781619599;2.8857629354561712e-05;0.9999607387749468;9.130919118318449e-06;-2.739275735495535e-05;2.739275735495535e-05;0.2300541502400712;0.1299403380938502;-6.318243875513829e-05;1.0000076025096258;0.0;3.6523676473273796e-05;-4.565459559159225e-05;-0.005313147336269974;0.03910272165488005
2.0996530055999756;-0.10877100720786384;-0.06712868359981128;0.7510159704883831;0.004083818967085834;0.12095574656758207;-0.010929084839957514;-0.001623185967976009;9.497982731764693e-06;-0.9512487520751648;1.1435936199272094;-0.2922784987042977;9.527892906483729e-06;-0.0014985630915726525;9.507952790004623e-06;-0.9513282579285018;1.1435964832283834;-0.29228127345643995;-9.517922848244122e-06;2.301001702741806e-05;0.100085904063569;0.2300388102287196;0.1300323781619599;2.8857629354561712e-05;0.9999607387749468;9.130919118318449e-06;-4.108913603243303e-05;4.108913603243303e-05;0.2300541502400712;0.12989431805979534;-6.318243875513829e-05;1.0000076025096258;0.0;5.935097426906993e-05;-6.848189338738837e-05;-0.005313147336269974;0.037566831913125036
2.119591236114502;-0.10875857577911388;-0.06719123789383896;0.7510124053861656;0.004207339539571479;0.12096166871586346;-0.010865116481576157;-0.0016116807388493713;9.497982731764693e-06;-0.9512487520751648;1.1435936199272094;-0.2922784987042977;9.527892906483729e-06;-0.0014985630915726525;9.507952790004623e-06;-0.9513282579285018;1.1435964832283834;-0.29228127345643995;-9.517922848244122e-06;2.301001702741806e-05;0.100085904063569;0.2300388102287196;0.1300323781619599;2.8857629354561712e-05;0.9999607387749468;0.0;-4.108913603243303e-05;4.108913603243303e-05;0.2300541502400712;0.12987897804844373;-6.318243875513829e-05;1.0000076025096258;0.0;7.304735294654759e-05;-8.217827206486605e-05;-0.005313147336269974;0.037566831913125036
2.13950514793396;-0.1088066768317349;-0.06722039817829209;0.7510037424962679;0.0040698812849250246;0.12091019063702844;-0.010817598302815297;-0.0015656598223428193;9.497982731764693e-06;-0.9512487520751648;1.1435936199272094;-0.2922784987042977;9.527892906483729e-06;-0.0014985630915726525;9.507952790004623e-06;-0.9513282579285018;1.1435964832283834;-0.29228127345643995;-9.517922848244122e-06;2.301001702741806e-05;0.100085904063569;0.2300388102287196;0.1300323781619599;2.8857629354561712e-05;0.9999607387749468;9.130919118318449e-06;-3.6523676473273796e-05;3.6523676473273796e-05;0.2300541502400712;0.12987897804844373;-6.318243875513829e-05;1.0000076025096258;0.0;5.022005515075147e-05;-5.935097426906993e-05;-0.005313147336269974;0.03910272165488005
2.159475326538086;-0.10881880009674921;-0.06723346319236853;0.7510047008281402;0.004194677893438604;0.12088230738979075;-0.010871523362660224;-0.001370070927189972;9.497982731764693e-06;-0.9512487520751648;1.1435936199272094;-0.2922784987042977;9.527892906483729e-06;-0.0014985630915726525;9.507952790004623e-06;-0.9513282579285018;1.1435964832283834;-0.29228127345643995;-9.517922848244122e-06;2.301001702741806e-05;0.100085904063569;0.2300388102287196;0.1300323781619599;2.8857629354561712e-05;0.9999607387749468;9.130919118318449e-06;-2.739275735495535e-05;2.739275735495535e-05;0.2300541502400712;0.12987897804844373;-6.318243875513829e-05;1.0000076025096258;0.0;2.739275735495535e-05;-3.6523676473273796e-05;-0.005313147336269974;0.037566831913125036
2.179492712020874;-0.10892445641370722;-0.06709297174529424;0.7510026338369472;0.004188913456107906;0.12074076679687692;-0.011072468911287305;-0.001335555239810058;9.497982731764693e-06;-0.9512487520751648;1.1435936199272094;-0.2922784987042977;9.527892906483729e-06;-0.0014985630915726525;9.507952790004623e-06;-0.9513282579285018;1.1435964832283834;-0.29228127345643995;-9.517922848244122e-06;2.301001702741806e-05;0.100085904063569;0.2300388102287196;0.1300323781619599;2.8857629354561712e-05;0.9999607387749468;9.130919118318449e-06;-4.108913603243303e-05;4.108913603243303e-05;0.2300541502400712;0.12987897804844373;-6.318243875513829e-05;1.0000076025096258;0.0;7.304735294654759e-05;-8.217827206486605e-05;-0.005313147336269974;0.03910272165488005
2.199449062347412;-0.10910675009236917;-0.06706450080731456;0.7509775721747587;0.004234539928588005;0.12049381150522447;-0.011103581074440129;-0.0013930813854432485;9.497982731764693e-06;-0.9512487520751648;1.1435936199272094;-0.2922784987042977;9.527892906483729e-06;-0.0014985630915726525;9.507952790004623e-06;-0.9513282579285018;1.1435964832283834;-0.29228127345643995;-9.517922848244122e-06;2.301001702741806e-05;0.100085904063569;0.2300388102287196;0.1300323781619599;2.8857629354561712e-05;0.9999607387749468;9.130919118318449e-06;-4.108913603243303e-05;4.108913603243303e-05;0.2300541502400712;0.12987897804844373;-6.318243875513829e-05;1.0000076025096258;0.0;6.848189338738838e-05;-7.761281250570684e-05;-0.005313147336269974;0.037566831913125036
2.2195026874542236;-0.10920096854199512;-0.06692770512315961;0.7509687207644995;0.004360688736108792;0.12045423929990572;-0.011272498520356295;-0.0015311441349629051;9.497982731764693e-06;-0.9513699583197106;1.1435936199272094;-0.2922784987042977;9.527892906483729e-06;-0.0014985630915726525;9.507952790004623e-06;-0.9513282579285018;1.1435964832283834;-0.29228127345643995;-9.517922848244122e-06;2.301001702741806e-05;0.100085904063569;0.2300388102287196;0.1300323781619599;2.8857629354561712e-05;0.9999607387749468;0.0;-3.6523676473273796e-05;3.6523676473273796e-05;0.2300541502400712;0.12987897804844373;-6.318243875513829e-05;1.0000076025096258;0.0;3.6523676473273796e-05;-4.565459559159225e-05;-0.005313147336269974;0.037566831913125036
2.2395286560058594;-0.10926503020184078;-0.06687817124613242;0.7509589857679255;0.0045247828808064276;0.12041287153133605;-0.011337065444406725;-0.0016346911971026475;9.497982731764693e-06;-0.951442682066438;1.1435936199272094;-0.2922784987042977;9.527892906483729e-06;-0.0014985630915726525;9.507952790004623e-06;-0.9513282579285018;1.1435964832283834;-0.29228127345643995;-9.517922848244122e-06;2.301001702741806e-05;0.100085904063569;0.2300388102287196;0.1300323781619599;2.8857629354561712e-05;0.9999607387749468;9.130919118318449e-06;-2.739275735495535e-05;2.739275735495535e-05;0.2300541502400712;0.12987897804844373;-6.318243875513829e-05;1.0000076025096258;0.0;5.935097426906993e-05;-6.848189338738837e-05;-0.005313147336269974;0.03910272165488005
2.2597994804382324;-0.10939484115198361;-0.06681229895094233;0.7509452547192507;0.004745454922655294;0.12023919438204879;-0.011464036038084637;-0.001623185967976009;9.497982731764693e-06;-0.9514669233153472;1.1435936199272094;-0.2922784987042977;9.527892906483729e-06;-0.0014985630915726525;9.507952790004623e-06;-0.9513282579285018;1.1435964832283834;-0.29228127345643995;-9.517922848244122e-06;2.301001702741806e-05;0.100085904063569;0.2300388102287196;0.1300323781619599;2.8857629354561712e-05;0.9999607387749468;9.130919118318449e-06;-4.108913603243303e-05;4.108913603243303e-05;0.2300541502400712;0.12987897804844373;-6.318243875513829e-05;1.0000076025096258;0.0;7.304735294654759e-05;-8.217827206486605e-05;-0.005313147336269974;0.037566831913125036
2.2795357704162598;-0.10947048022328505;-0.06678210983132085;0.7509362217196953;0.00489846643531968;0.12014405908198313;-0.011531855927918852;-0.0016116807388493713;9.497982731764693e-06;-0.9514911645642564;1.1435936199272094;-0.2922784987042977;9.527892906483729e-06;-0.0015100683206992905;9.507952790004623e-06;-0.9513282579285018;1.1435964832283834;-0.29228127345643995;-9.517922848244122e-06;2.301001702741806e-05;0.100085904063569;0.2300388102287196;0.1300323781619599;2.8857629354561712e-05;0.9999607387749468;9.130919118318449e-06;-4.108913603243303e-05;4.108913603243303e-05;0.2300541502400712;0.12987897804844373;-6.318243875513829e-05;1.0000076025096258;0.0;5.022005515075147e-05;-5.935097426906993e-05;-0.005313147336269974;0.037566831913125036
2.299607276916504;-0.10954721125801825;-0.06669519064948229;0.7509332142512162;0.004911704667435998;0.12003993542968174;-0.011659288511497782;-0.0015886702805960953;9.497982731764693e-06;-0.9514911645642564;1.1435936199272094;-0.2922784987042977;9.527892906483729e-06;-0.0015100683206992905;9.507952790004623e-06;-0.9513282579285018;1.1435964832283834;-0.29228127345643995;-9.517922848244122e-06;2.301001702741806e-05;0.100085904063569;0.2300388102287196;0.1300323781619599;2.8857629354561712e-05;0.9999607387749468;9.130919118318449e-06;-3.6523676473273796e-05;3.6523676473273796e-05;0.2300541502400712;0.12987897804844373;-6.318243875513829e-05;1.0000076025096258;0.0;2.739275735495535e-05;-3.6523676473273796e-05;-0.005313147336269974;0.037566831913125036
2.3194782733917236;-0.10961537418701772;-0.0667166065486198;0.7509247952053651;0.0048400487214741265;0.11995526549261908;-0.011666639392077781;-0.0014160918436965245;9.497982731764693e-06;-0.9514911645642564;1.1435936199272094;-0.2922784987042977;9.527892906483729e-06;-0.0015100683206992905;9.507952790004623e-06;-0.9513282579285018;1.1435964832283834;-0.29228127345643995;-9.517922848244122e-06;2.301001702741806e-05;0.100085904063569;0.2300388102287196;0.1300323781619599;2.8857629354561712e-05;0.9999607387749468;9.130919118318449e-06;-2.739275735495535e-05;2.739275735495535e-05;0.2300541502400712;0.12987897804844373;-6.318243875513829e-05;1.0000076025096258;0.0;7.304735294654759e-05;-8.217827206486605e-05;-0.005313147336269974;0.037566831913125036
2.339447259902954;-0.10965582157586534;-0.06673095169047603;0.7509192159635181;0.004826956134766029;0.11990245659919266;-0.011667236475320204;-0.001335555239810058;9.497982731764693e-06;-0.9514911645642564;1.1435936199272094;-0.2922784987042977;9.527892906483729e-06;-0.0015100683206992905;9.507952790004623e-06;-0.9513282579285018;1.1435964832283834;-0.29224881804206543;-9.517922848244122e-06;2.301001702741806e-05;0.100085904063569;0.2300388102287196;0.1300323781619599;2.8857629354561712e-05;0.9999607387749468;9.130919118318449e-06;-4.108913603243303e-05;4.108913603243303e-05;0.2300541502400712;0.12987897804844373;-6.318243875513829e-05;1.0000076025096258;0.0;6.848189338738838e-05;-7.761281250570684e-05;-0.005313147336269974;0.03910272165488005
2.3594791889190674;-0.10955473722975977;-0.06670237690498991;0.7509358229240407;0.004818473289831003;0.12003770750284372;-0.011694935476621938;-0.001370070927189972;9.497982731764693e-06;-0.9514911645642564;1.1435936199272094;-0.2922784987042977;9.527892906483729e-06;-0.0015100683206992905;9.507952790004623e-06;-0.9513282579285018;1.1435964832283834;-0.2922650457492527;-9.517922848244122e-06;2.301001702741806e-05;0.100085904063569;0.2300388102287196;0.1300323781619599;2.8857629354561712e-05;0.9999607387749468;9.130919118318449e-06;-4.108913603243303e-05;4.108913603243303e-05;0.2300541502400712;0.12987897804844373;-6.318243875513829e-05;1.0000076025096258;0.0;3.6523676473273796e-05;-4.565459559159225e-05;-0.005313147336269974;0.037566831913125036
2.379577875137329;-0.1095390566595755;-0.06657978256443248;0.7509469317420296;0.004818125274295948;0.12005793995777944;-0.01183403529172853;-0.001473617989329715;9.497982731764693e-06;-0.9514911645642564;1.1435936199272094;-0.2922784987042977;9.527892906483729e-06;-0.0015100683206992905;9.507952790004623e-06;-0.9513282579285018;1.1435964832283834;-0.2922650457492527;-9.517922848244122e-06;2.301001702741806e-05;0.100085904063569;0.2300388102287196;0.1300323781619599;2.8857629354561712e-05;0.9999607387749468;9.130919118318449e-06;-3.6523676473273796e-05;3.6523676473273796e-05;0.2300541502400712;0.12987897804844373;-6.318243875513829e-05;1.0000076025096258;0.0;5.935097426906993e-05;-6.848189338738837e-05;-0.005313147336269974;0.03910272165488005
2.399491310119629;-0.10944786998067271;-0.06652908612540222;0.7509617475842802;0.005035820719565696;0.12015992019363335;-0.011894646371785743;-0.001623185967976009;9.497982731764693e-06;-0.9514911645642564;1.1435936199272094;-0.2922784987042977;9.527892906483729e-06;-0.0015100683206992905;9.507952790004623e-06;-0.9513282579285018;1.1435964832283834;-0.2922650457492527;-9.517922848244122e-06;2.301001702741806e-05;0.100085904063569;0.2300388102287196;0.1300323781619599;2.8857629354561712e-05;0.9999607387749468;9.130919118318449e-06;-3.195821691411457e-05;3.195821691411457e-05;0.2300541502400712;0.12987897804844373;-6.318243875513829e-05;1.0000076025096258;0.0;7.304735294654759e-05;-8.217827206486605e-05;-0.005313147336269974;0.037566831913125036
2.4194817543029785;-0.10923599669496502;-0.06642831235762246;0.7510015167908781;0.005255258190876088;0.12042169521444052;-0.012063614014303937;-0.001623185967976009;9.497982731764693e-06;-0.9514911645642564;1.1435936199272094;-0.2922784987042977;9.527892906483729e-06;-0.0015100683206992905;9.507952790004623e-06;-0.9513282579285018;1.1435964832283834;-0.2922650457492527;-9.517922848244122e-06;2.301001702741806e-05;0.100085904063569;0.2300388102287196;0.1300323781619599;2.8857629354561712e-05;0.9999607387749468;9.130919118318449e-06;-4.108913603243303e-05;4.108913603243303e-05;0.2300541502400712;0.12987897804844373;-6.318243875513829e-05;1.0000076025096258;0.0;5.022005515075147e-05;-5.935097426906993e-05;-0.005313147336269974;0.037566831913125036
2.4394495487213135;-0.10918011776811372;-0.0663766780123019;0.7510144364955194;0.005351853522085868;0.12048707494636374;-0.012151283967312106;-0.0016116807388493713;9.497982731764693e-06;-0.9514911645642564;1.1435936199272094;-0.2922784987042977;9.527892906483729e-06;-0.0015100683206992905;9.507952790004623e-06;-0.9513282579285018;1.1435964832283834;-0.2922650457492527;-9.517922848244122e-06;2.301001702741806e-05;0.100085904063569;0.2300388102287196;0.1300323781619599;2.8857629354561712e-05;0.9999607387749468;9.130919118318449e-06;-4.108913603243303e-05;4.108913603243303e-05;0.2300541502400712;0.12987897804844373;-6.318243875513829e-05;1.0000076025096258;0.0;2.739275735495535e-05;-3.6523676473273796e-05;-0.005313147336269974;0.037566831913125036
2.459455966949463;-0.10912293829779508;-0.06632474508344974;0.7510277922571931;0.0053079389292806705;0.12056668537397829;-0.012221460236133751;-0.0015886702805960953;9.497982731764693e-06;-0.9514911645642564;1.1435936199272094;-0.2922784987042977;9.527892906483729e-06;-0.0015100683206992905;9.507952790004623e-06;-0.9513282579285018;1.1435964832283834;-0.2922650457492527;-9.517922848244122e-06;2.301001702741806e-05;0.100085904063569;0.2300388102287196;0.1300323781619599;2.8857629354561712e-05;0.9999607387749468;9.130919118318449e-06;-3.6523676473273796e-05;3.6523676473273796e-05;0.2300541502400712;0.12987897804844373;-6.318243875513829e-05;1.0000076025096258;0.0;7.304735294654759e-05;-8.217827206486605e-05;-0.005313147336269974;0.03910272165488005
2.479461193084717;-0.10914871561579535;-0.06640364379582424;0.7510205042951905;0.005278180548555682;0.12053509894963067;-0.012156363561922928;-0.0014160918436965245;9.497982731764693e-06;-0.9514911645642564;1.1435936199272094;-0.2922784987042977;9.527892906483729e-06;-0.0015100683206992905;9.507952790004623e-06;-0.9513282579285018;1.1435964832283834;-0.2922650457492527;-9.517922848244122e-06;2.301001702741806e-05;0.100085904063569;0.2300388102287196;0.1300323781619599;2.8857629354561712e-05;0.9999607387749468;9.130919118318449e-06;-3.195821691411457e-05;3.195821691411457e-05;0.2300541502400712;0.12987897804844373;-6.318243875513829e-05;1.0000076025096258;0.0;6.848189338738838e-05;-7.761281250570684e-05;-0.005313147336269974;0.037566831913125036
2.499450445175171;-0.10909659034620463;-0.06637004109468896;0.7510342678287292;0.005299845504075747;0.1205628998619755;-0.012223751780464377;-0.001347060468936696;9.497982731764693e-06;-0.951442682066438;1.1435936199272094;-0.2922784987042977;9.527892906483729e-06;-0.0015100683206992905;9.507952790004623e-06;-0.9513282579285018;1.1435964832283834;-0.2922650457492527;-9.517922848244122e-06;2.301001702741806e-05;0.100085904063569;0.2300388102287196;0.1300323781619599;2.8857629354561712e-05;0.9999607387749468;9.130919118318449e-06;-4.108913603243303e-05;4.108913603243303e-05;0.2300541502400712;0.12987897804844373;-6.318243875513829e-05;1.0000076025096258;0.0;3.6523676473273796e-05;-4.565459559159225e-05;-0.005313147336269974;0.037566831913125036
2.519514799118042;-0.10912749971347126;-0.06645276265374436;0.7510229288847767;0.005428189010605222;0.1204913430962758;-0.012123914507403919;-0.001370070927189972;9.497982731764693e-06;-0.9514184408175288;1.1435936199272094;-0.2922784987042977;9.527892906483729e-06;-0.0015100683206992905;9.507952790004623e-06;-0.9513282579285018;1.1435964832283834;-0.2922650457492527;-9.517922848244122e-06;2.301001702741806e-05;0.100085904063569;0.2300388102287196;0.1300323781619599;2.8857629354561712e-05;0.9999607387749468;9.130919118318449e-06;-4.108913603243303e-05;4.108913603243303e-05;0.2300541502400712;0.12987897804844373;-6.318243875513829e-05;1.0000076025096258;0.0;5.935097426906993e-05;-6.848189338738837e-05;-0.005313147336269974;0.037566831913125036
2.5395991802215576;-0.10919260336772399;-0.0665733240131218;0.75100742525946;0.005515227215316552;0.12026069760540219;-0.011947456892719761;-0.0014621127602030765;9.497982731764693e-06;-0.9512487520751648;1.1435936199272094;-0.2922784987042977;9.527892906483729e-06;-0.0015100683206992905;9.507952790004623e-06;-0.9513282579285018;1.1435964832283834;-0.2922650457492527;-9.517922848244122e-06;2.301001702741806e-05;0.100085904063569;0.2300388102287196;0.1300323781619599;2.8857629354561712e-05;0.9999607387749468;9.130919118318449e-06;-3.6523676473273796e-05;3.6523676473273796e-05;0.2300541502400712;0.12987897804844373;-6.318243875513829e-05;1.0000076025096258;0.0;7.304735294654759e-05;-8.217827206486605e-05;-0.005313147336269974;0.037566831913125036
2.55951189994812;-0.10929691563687988;-0.0666700203355296;0.750981397903318;0.005604592741741308;0.12009531488811799;-0.011785827907053634;-0.001623185967976009;9.497982731764693e-06;-0.9512245108262558;1.1435936199272094;-0.2922784987042977;9.527892906483729e-06;-0.0015100683206992905;9.507952790004623e-06;-0.9513282579285018;1.1435964832283834;-0.2922650457492527;-9.517922848244122e-06;2.301001702741806e-05;0.100085904063569;0.2300388102287196;0.1300323781619599;2.8857629354561712e-05;0.9999607387749468;9.130919118318449e-06;-3.195821691411457e-05;3.195821691411457e-05;0.2300388102287196;0.12987897804844373;-6.318243875513829e-05;1.0000076025096258;0.0;5.022005515075147e-05;-5.935097426906993e-05;-0.005313147336269974;0.037566831913125036
2.579556465148926;-0.10924687709348282;-0.06677673035056768;0.7509810448745371;0.005609982832863684;0.1201229764851874;-0.01164047066192785;-0.001623185967976009;9.497982731764693e-06;-0.9511760283284374;1.1435936199272094;-0.2922784987042977;9.527892906483729e-06;-0.0015100683206992905;9.507952790004623e-06;-0.9513282579285018;1.1435964832283834;-0.2922650457492527;-9.517922848244122e-06;2.301001702741806e-05;0.100085904063569;0.2300388102287196;0.1300323781619599;2.8857629354561712e-05;0.9999607387749468;9.130919118318449e-06;-4.108913603243303e-05;4.108913603243303e-05;0.2300388102287196;0.12987897804844373;-6.318243875513829e-05;1.0000076025096258;0.0;2.739275735495535e-05;-3.6523676473273796e-05;-0.005313147336269974;0.037566831913125036
2.599489688873291;-0.10922237681945575;-0.06688773422375108;0.7509740349148775;0.0055256407085407175;0.12018353480212507;-0.011479276324073931;-0.0016116807388493713;9.497982731764693e-06;-0.9512002695773464;1.1435936199272094;-0.2922784987042977;9.527892906483729e-06;-0.0015100683206992905;9.507952790004623e-06;-0.9513282579285018;1.1435964832283834;-0.2922650457492527;-9.517922848244122e-06;2.301001702741806e-05;0.100085904063569;0.2300388102287196;0.1300323781619599;2.8857629354561712e-05;0.9999607387749468;9.130919118318449e-06;-4.108913603243303e-05;4.108913603243303e-05;0.230023470217368;0.12987897804844373;-6.318243875513829e-05;1.0000076025096258;0.0;7.304735294654759e-05;-8.217827206486605e-05;-0.005313147336269974;0.037566831913125036
