flxalr/sts-optimization-reemc/input/498_104/trq.csv
time;base_link_tx;base_link_ty;base_link_tz;base_link_rz;base_link_ry;base_link_rx;leg_left_1_joint;leg_left_2_joint;leg_left_3_joint;leg_left_4_joint;leg_left_5_joint;leg_left_6_joint;leg_right_1_joint;leg_right_2_joint;leg_right_3_joint;leg_right_4_joint;leg_right_5_joint;leg_right_6_joint;torso_1_joint;torso_2_joint;arm_left_1_joint;arm_left_2_joint;arm_left_3_joint;arm_left_4_joint;arm_left_5_joint;arm_left_6_joint;arm_left_7_joint;arm_right_1_joint;arm_right_2_joint;arm_right_3_joint;arm_right_4_joint;arm_right_5_joint;arm_right_6_joint;arm_right_7_joint;head_1_joint;head_2_joint
0.0;-18.361497047755467;29.97129454792677;537.992331444983;4.25015285976072;2.766581199485593;52.24964751243063;3.8393412008977323;11.161628667799006;-8.852707007813336;13.540355798604558;2.1482774159038014;2.1411650205134776;2.8684011593086027;9.761474537780707;39.29626142625544;2.593155936919999;20.473155482667178;4.34325615778296;-0.19128654351900473;-28.3981169959923;6.18636129493862;3.6364097443540944;0.8427635585474257;5.432254813115392;-0.01880360956977959;0.12377554220631289;0.059934849956255185;6.238210436284584;3.97571723496268;0.9705227876861467;5.424485335475877;-0.019791546023506766;0.14810474964000117;0.06056588278759144;-0.002984687184240991;-0.505045973610942
0.019660472869873047;-18.580896512504452;29.89480857046241;538.4096951431591;4.2468781467034855;2.8278548503577525;52.13242304553101;3.7908126353171;11.04658709948423;-8.876541711613248;13.538929640787051;2.1382451540782244;2.117448017028423;2.9151345766854915;9.797511145973887;39.34898385140676;2.674030714311571;20.466688790390894;4.336571852143072;-0.18870938024581674;-28.399632989029698;6.1862029351090735;3.6383302671647666;0.8434915264423039;5.432088771614372;-0.01878757042655963;0.12390178676676525;0.059943390824504054;6.237532885344355;3.9738838338206293;0.9698071295352905;5.424423759118199;-0.019805206149891147;0.14798167747873717;0.0605574194646909;-0.002849579189090579;-0.5050938058244706
0.03950762748718262;-18.36022168683869;29.585956875649565;536.331628472731;4.233593164960498;2.9693573844814196;52.097439783923;3.8163367027421438;11.092053221197467;-8.840660328871367;13.530453107644536;2.1473793040672873;2.1266376583716893;2.8413735373342224;9.630623566076109;39.5307147803624;2.4904285420560077;20.530536919018516;4.340875955767767;-0.18967193637001453;-28.40330005282074;6.18482105464393;3.637582970992179;0.8432074562893598;5.4317802742781005;-0.018777984156344137;0.12384604982445517;0.05994590770483084;6.235974523427305;3.9748800903620074;0.9700622098333747;5.42359551342682;-0.019785545148757404;0.1480243113327104;0.06054861622832108;-0.0028914922907347213;-0.5052189772170677
0.05953407287597656;-18.593601499459705;29.883043151843523;536.5662958425003;4.270077963315298;3.0740641582309394;52.29237355674525;3.8149260157537284;11.086617134635954;-8.842581004344549;13.54542816125166;2.149223767019944;2.125493659343719;2.9200856145544063;9.792845078211345;39.618088695325554;2.5745117059639036;20.55321339717275;4.367160456500813;-0.18971973781520143;-28.410087792349458;6.182608879956127;3.6377036541405507;0.8432275228259035;5.43119178751759;-0.018774180505660605;0.12384331740699028;0.05994874005390292;6.233376598965319;3.9751443170145544;0.9700592921379705;5.422608968532845;-0.0197628017830404;0.14802209745681993;0.0605377690046547;-0.0028743957284007083;-0.5054334256247126
0.07960295677185059;-18.55378465878521;30.22806906731926;537.3771981494349;4.297292653895567;2.8825582339262183;52.469868037813654;3.8335069505995123;11.141502109946222;-8.842716972128478;13.545844706848117;2.1491471778753484;2.136714989545626;2.949623266453843;9.933340567469621;39.42869957732832;2.580318988785237;20.505876840668755;4.397940155384746;-0.1897151045825555;-28.412867441762828;6.1820710210570775;3.6380076036044047;0.8433071113010311;5.4310571636816425;-0.01877792236988446;0.12384655889513183;0.05995416665297714;6.232515485676316;3.975061556943251;0.9699883624360901;5.42235263844256;-0.01980938296621032;0.14806085305962619;0.06053612645682806;-0.0028359481249671976;-0.5055339252279503
0.0995187759399414;-18.698121577494017;29.965552523592237;537.9956358460107;4.205634301735112;2.8535483304285805;52.21218875056033;3.8180973046810522;11.094365996287952;-8.911997242419444;13.501696507503478;2.136043185507312;2.126692327998663;2.8662055297514026;9.821278806225319;39.44409773714345;2.682883915212204;20.485677302514482;4.385168774363395;-0.18720491085256263;-28.412564407656227;6.183096796350393;3.6402875025271815;0.8441352829166909;5.431228189993186;-0.018764776289053813;0.12397079643108933;0.05996441658980356;6.232652489447222;3.972743084581511;0.9691546569587481;5.422638281967076;-0.019798781696477738;0.1479291234257841;0.06053303672243538;-0.002659546429333411;-0.5055512904674336
0.11949658393859863;-18.831445054221614;29.984047019772817;537.3942451649478;4.18820948708611;2.9677640483946846;52.23488270596124;3.8277432405268073;11.09266653523838;-8.868575967630175;13.458011066036951;2.1335444431037622;2.126427789903474;2.854919565961106;9.857991190518854;39.52124972015744;2.6958283221701507;20.486956178894125;4.41147581936145;-0.18875077979996535;-28.416586757482804;6.182435670809795;3.6398976013928634;0.8439157401544873;5.4311454458610084;-0.018768550362874767;0.12389651893747176;0.059957333721028794;6.231653668288758;3.9732553244934854;0.9694254205309829;5.422441096641894;-0.019759168860674636;0.14799592383663931;0.06054299009640898;-0.0026698110857258156;-0.5056942237117947
0.13954997062683105;-18.98909361525328;30.11223007117251;537.6901694791784;4.236700426919093;2.981981951902476;52.31727514702771;3.7934034346912364;11.020763426053097;-8.782393761085212;13.562477244711399;2.1496114107299182;2.1119501673366727;2.925917537275322;9.976971251656257;39.44894590171077;2.651391563076813;20.478465877174738;4.4151793851963745;-0.190463194608018;-28.427469973892897;6.180213662128673;3.6397646293561694;0.8437560040463491;5.430649379046811;-0.018784908121924612;0.12382922226893472;0.059939744163740316;6.228725277491894;3.9738165470685507;0.9696862069835878;5.421646893510367;-0.019750610685092616;0.14809170976871106;0.06055969235354746;-0.0026951458624672906;-0.5078103598138681
0.1595761775970459;-18.817311167439797;30.023371416494633;537.2932191540021;4.2323498925305305;2.919397260961091;52.33887802724617;3.8014734562796684;11.07499865476639;-8.844035131672918;13.561233323906144;2.1507615571150716;2.123008185538726;2.907278738010251;9.895230076790913;39.501780776561894;2.601070939885253;20.528694407178634;4.414783632452819;-0.1921650974231668;-28.435549245969177;6.178379620864263;3.639577229493667;0.8435837938805569;5.430282396641278;-0.018809696978681914;0.12377870126592122;0.059920245097975826;6.226233978809254;3.9743808166890777;0.9699579974336694;5.421003969521783;-0.01974360579865348;0.14818621807656146;0.060581175172942134;-0.0027107368953907026;-0.5080788795410842
0.17950439453125;-19.24924522419341;29.823873370232953;537.5054287437338;4.186981405362543;3.139133474849487;52.19305923642738;3.7789926013613746;11.010918526566392;-8.98697153052399;13.46522915563718;2.114943222179323;2.1101077999187026;2.9333039371725875;9.844722792661184;39.80795337358673;2.827235582830853;20.562120854793708;4.406351837832378;-0.19446713716047834;-28.436857735449355;6.178191998143046;3.6389056489267233;0.8432630577671791;5.4304084174714555;-0.018814275114165974;0.12367494005980752;0.05989823917801909;6.225466381413437;3.975119063185309;0.9703213363388457;5.420789670298145;-0.019693395022756313;0.14826692427539792;0.060607200310994536;-0.0031214605846083027;-0.506361215839494
0.19961309432983398;-19.062187616570775;29.689558726134045;535.8224715798763;4.289115304077758;3.262907230907331;52.191505908444796;3.815864137043302;11.057652347102444;-8.700304094454482;13.604079478840543;2.170759896187648;2.119280474605053;2.9173614843885343;9.733779620229992;39.70512724570196;2.5416294188049218;20.574302265777195;4.383378608391058;-0.19615496621230524;-28.440232846710842;6.178424221451819;3.6382994790569927;0.8429762674259813;5.43065124525701;-0.018836360614735523;0.12360533174511483;0.0598755489882684;6.225126002805292;3.9757533027171945;0.9706358327554628;5.420669919412175;-0.019641993363178727;0.14833054565008771;0.06063494373254022;-0.002815327712350816;-0.5082807615084721
0.2194972038269043;-18.152407402648016;30.063296760997417;535.7807434746517;4.411705259600885;2.6319176089381173;52.46131893496418;3.8041071674775693;11.053384332562096;-8.900233239894117;13.508544772042589;2.137068929216526;2.1186413158117428;3.0531946731487243;9.910717203298729;39.409208021754736;2.3199522153281817;20.559383107389024;4.371486480330303;-0.19899952558224215;-28.442167327245066;6.177713471165141;3.6370392009470724;0.8424329142315986;5.430680322598518;-0.01886615148018022;0.12349195643165847;0.05984510420149667;6.223975710461488;3.9772480048905936;0.9712328185471208;5.420235839738396;-0.0196582340628852;0.14848770832929784;0.0606690025180371;-0.0029110843708767425;-0.5065851572837239
0.23948216438293457;-18.99118741020526;30.254123173630067;537.7743356989947;4.359710529030206;2.896777753788875;52.39344749831245;3.799959250126659;11.045418856045469;-8.792462098097108;13.492005640113637;2.145199408449534;2.117576420944954;3.079728199720325;10.021090482771847;39.40506395877746;2.7121092368370707;20.49929850447991;4.372391316436677;-0.20374685578420124;-28.439081400343866;6.1792304262071465;3.6343375201934207;0.841357792609548;5.431435262770919;-0.018904367461348923;0.12328342126333859;0.05981162178642267;6.225295745117724;3.9798195433972006;0.9722866194555813;5.420382690926719;-0.019622620480561417;0.1487027020305828;0.06071228238396222;-0.0031272863680457874;-0.5065105190709556
0.2594928741455078;-18.39337085479013;29.8448188052435;538.2083280666566;4.2792404497908905;2.4028480358709956;52.17581585836071;3.776312566819245;10.978613750682294;-9.035085016967177;13.39836750781598;2.1003662682805717;2.1045329971056947;2.9927631868408366;9.884941014511423;39.228348033034315;2.599963567873762;20.464594326993335;4.353383293665208;-0.2078453708462572;-28.438072682310576;6.180022794983764;3.632088174250125;0.8404591799922803;5.4319534998536705;-0.01891750108494491;0.1231023612771158;0.059779287260248;6.225839535701268;3.9820141953168635;0.9731955356178031;5.4203449941890325;-0.01956558552231597;0.14887315215367392;0.060749295973663936;-0.0033140893462685977;-0.5064843356654329
0.2794811725616455;-18.646574106511203;29.81494386951153;539.1191193861788;4.273886262342265;2.437580091370293;52.09823635889928;3.847077557280951;11.15370240256292;-8.85308437910957;13.508571644592044;2.142662101515851;2.1407123842642592;2.9007329698554525;9.707950017662393;39.02431492029347;2.6166345099704094;20.38795048795667;4.31884793348275;-0.21130325212832857;-28.436869676537828;6.180921062822066;3.630272190634992;0.8397201324688911;5.432465168727256;-0.0189388639958818;0.12293926720709943;0.05975410459055237;6.2264911814818085;3.983854841704396;0.9739525453527526;5.4203950666332705;-0.01954721181388592;0.14903856661800616;0.060781083806760186;-0.003465564225173978;-0.5064463861980445
0.29949116706848145;-18.608096619635923;30.02990142924439;538.7435807815991;4.312276719151268;2.4983419114676053;52.32646994716563;3.7941407824927675;11.026687694059746;-8.869093856343984;13.53297665762054;2.144991574475711;2.1151802608153814;3.0160548949194426;9.965685827326334;39.11549238286128;2.590115762185402;20.428338212992223;4.3654594563056905;-0.21416541593243107;-28.439462242490976;6.180327975407337;3.6290017176310174;0.8391626896535143;5.432485586565594;-0.018958918711349054;0.12281223595081814;0.059733358534279024;6.225363625090385;3.9853931490963;0.9745759194158179;5.419986617837041;-0.019557933063861346;0.1491993396208974;0.06080249393108317;-0.0035700079497495945;-0.5065151057087504
0.31948089599609375;-18.854787860411264;29.846246465108543;538.7589445011995;4.242931278534082;2.690182647557407;52.21895033455579;3.7923607571941385;11.022906919771467;-8.927579778986049;13.495663466526622;2.133496704856888;2.1143002935801847;2.9743190388740786;9.88675306685435;39.32806055922927;2.7278683305758786;20.462708963616095;4.37385762916408;-0.21446633474251356;-28.439886115693646;6.180473106515813;3.6293339931764224;0.8392300940539094;5.432529766186944;-0.018973554832851833;0.12280770981978774;0.05973063162796101;6.225097575393319;3.9851791974462856;0.9745514044705634;5.4199522462103085;-0.019530493750711635;0.14920490585125734;0.06080459219560663;-0.0035472115561631704;-0.5065119758844028
0.33949780464172363;-18.999428566448994;29.873632006518484;537.1860269258304;4.288313332400502;3.0943097900538703;52.351939407990685;3.788606815046906;10.951291050435527;-8.916326124043701;13.467955792145638;2.130459601047827;2.0997941104836855;3.049749058709508;9.995629640053439;39.705275026778395;2.756132188249003;20.55431308975763;4.42028889528211;-0.21589817300722264;-28.43346813453349;6.182753172789182;3.6283446665816887;0.8388493522950242;5.433169041616561;-0.018950461609307218;0.12270648011890549;0.05974089790129772;6.226671439225556;3.98591237479876;0.9748792078654591;5.420360180914506;-0.01952302236940283;0.1492794663355651;0.060796205096856105;-0.003604041493876872;-0.5081133761756517
0.3596012592315674;-18.230950264223395;30.135333595168547;536.4849768679859;4.403769697389338;2.7650055481062026;52.53008285173536;3.8106327257784005;11.072417291887815;-8.895566257390971;13.519133844781582;2.1409778768267325;2.1239152738266633;3.0773026481431973;9.973411842465488;39.4428913111805;2.4490111781026522;20.55077667730284;4.401875394401838;-0.21018337056735942;-28.420316733073697;6.186863233202207;3.632376511074732;0.8403821655005947;5.433903077510875;-0.01893599334391688;0.12297806062696247;0.05978164105876892;6.230007543124228;3.9815705357788502;0.973262208842452;5.42166267357405;-0.01959581927350567;0.14903408736107646;0.06076592978092092;-0.003260604925969436;-0.505952163514835
0.3795022964477539;-18.255946285543754;30.582112110002686;536.4816748962074;4.444144029883006;2.8536007039387954;52.788321794354935;3.7921448146828474;11.016177414437697;-8.892110752552359;13.521641135267886;2.1415546940689674;2.1120058534059125;3.171854145845285;10.245837922063147;39.508758327888415;2.4982262046437693;20.580851241817907;4.448847222458756;-0.2064933892603643;-28.416644992379602;6.187581466739871;3.6346715226208746;0.8412612116260771;5.433764753678451;-0.018910697228244594;0.1231328009063026;0.05982132412214729;6.230586028187513;3.979284819539301;0.9723845790841323;5.422047327799506;-0.019630421045968773;0.14888131125118056;0.06072141679101105;-0.003049299219730783;-0.5058257794375431
0.3994455337524414;-18.418495995363706;30.558112477891783;537.076235479846;4.3686666719331235;2.9198988446797927;52.69322852085529;3.7718416472644303;10.955709773442837;-8.969061057624614;13.472022402222603;2.127129428159512;2.099667021729231;3.1385697611698693;10.273642562771704;39.58811499609766;2.6346912148563826;20.558766634281522;4.463885528124906;-0.20378509701982242;-28.405225307859162;6.190891833090487;3.635924421775058;0.8417850674517413;5.434401863818495;-0.018886736994539077;0.123232571450048;0.05986720046584101;6.234361318639894;3.977631711159897;0.9717716505328938;5.423269523952369;-0.01964880741617947;0.14876376180952192;0.06068006104642101;-0.0028989823787373176;-0.5054775750235537
0.41945505142211914;-18.474887123580636;30.134551292658944;537.6905948594091;4.279054987512134;2.873963251294633;52.31881129342272;3.7911523090309482;11.011920100644986;-8.909217179264386;13.511642542116608;2.1389188255713223;2.1110265898877976;2.9800301059347505;9.970744983139314;39.448971439902124;2.6275831598105315;20.492310582261602;4.426474443838443;-0.20067138145940758;-28.40017644139326;6.191889389963922;3.6374628512137184;0.8424177321764671;5.434365957259157;-0.018836813330982277;0.1233393216855722;0.05990943750777439;6.235864091061584;3.976003244711953;0.971121448479009;5.423853859442741;-0.01970050143205781;0.14865169369919357;0.06063332013595907;-0.0027333300701409004;-0.5053089247974829
0.43948817253112793;-18.31628337684586;29.869693767582085;537.5166559616817;4.217876189960991;2.803098059485137;52.13525647866962;3.8163565446607364;11.084971063265321;-8.902141166043087;13.51596507128024;2.1402409277002734;2.1257419814952967;2.8568196014314555;9.761652168366322;39.3861751829437;2.549293449371458;20.465423673709992;4.418919297803507;-0.1969428495113096;-28.396296646620485;6.192501911405377;3.6394349958828247;0.843212496549552;5.434196613386831;-0.018802649659295206;0.12349046449305794;0.05995129207670755;6.23689526962947;3.974031509440798;0.9703200050596706;5.424319481800701;-0.019773730744948842;0.14852013948710693;0.060586515854343534;-0.0025456234236681864;-0.505179160539757
0.4594404697418213;-18.265335914010024;30.410204457250707;537.2151992345288;4.318199867679227;2.8710200998238307;52.48143095665859;3.7743327983336137;10.960350976919097;-8.894794894260333;13.503987484970498;2.139040900635819;2.100323154508336;3.0399557253749725;10.15622364612255;39.44202256796747;2.55971916010383;20.494298062633657;4.477639203033616;-0.1949468008633449;-28.39115509851327;6.193302061705796;3.6400347545503333;0.8434998624031977;5.434173928397177;-0.018775603196091076;0.12355585056461256;0.05998603462883384;6.238449922882811;3.9733002069620325;0.9700041240548771;5.424798995866318;-0.019798809513686698;0.14844408369277445;0.06054512877051677;-0.002458130505256283;-0.5050220463672138
0.4794604778289795;-18.31437897275025;30.37634568277283;537.4172182671978;4.310543209052199;2.953536690553797;52.403543362935046;3.7922258314544224;11.013720083393874;-8.904027793187478;13.495339474610915;2.1371396572476327;2.1111145902807054;3.011196726418288;10.057715911794778;39.49965101050431;2.640891917488041;20.51894424588972;4.451076181725393;-0.19190786436178053;-28.383388074797473;6.195639810647621;3.6411334863351494;0.8440114405764121;5.434543559349435;-0.01875684430015019;0.12368293967167561;0.060023679643901776;6.241481752179569;3.9718350786791143;0.9694069248921806;5.42570647241596;-0.01981345357615797;0.1482971481930864;0.06050513219770217;-0.002365668054107202;-0.5065750560047653
0.4994828701019287;-18.582688801892743;30.150868194009767;537.1326799054657;4.299382972948238;3.3091286819379206;52.311909815647994;3.7813946247993484;10.951505963818136;-8.965637102944967;13.54771343634912;2.1393519415393962;2.098587381132691;3.0109937479584388;9.956355804045064;39.86230225619602;2.7623833941624234;20.62490756843426;4.41142514584581;-0.19082267132152758;-28.37658544677145;6.196542391811599;3.6403708095963574;0.8438656686855516;5.434639529089016;-0.01870919269160056;0.12369040084783718;0.0600544610166683;6.243847523782596;3.9723921490822587;0.969489306758358;5.426263398799224;-0.019907343618462844;0.1483038624180209;0.060469652656193716;-0.0023887158422658933;-0.5063892233251935
0.5198938846588135;-18.1551742315795;30.66200852519269;536.715830552149;4.394267116826622;3.0889754955995556;52.57810327642881;3.789622697166812;11.00776636574745;-8.956366241480163;13.431060467277579;2.122633234619099;2.1104814491424055;3.121981008396239;10.160617452361164;39.67468452248595;2.6889988824643574;20.597596412402492;4.419566784528579;-0.18978352645558844;-28.36645043074813;6.197969055787369;3.6394404455433906;0.843668882525358;5.434906512816929;-0.01867737552242031;0.12370598886051205;0.060084862663519215;6.246799695221464;3.9729732671596025;0.969599426481318;5.426963597497955;-0.019947483811099558;0.14827596444259156;0.060435755054217596;-0.002410204684022278;-0.5043390823768769
0.5394761562347412;-18.347067756571395;30.358850571085437;537.8020117877079;4.317437436770977;3.0560354305127575;52.27315126434856;3.770320161055527;10.948698779588568;-8.962063956572788;13.441761677120612;2.1233751346154013;2.097969303600878;3.0467043882827314;10.033303908396242;39.597440441621444;2.7931095371916443;20.553601855929053;4.393911087210146;-0.1857534110466148;-28.365431915785265;6.197282071955873;3.640995358757725;0.8443791793256175;5.43444040008993;-0.018655960485925313;0.12389209445626265;0.06011415767322962;6.246906149908745;3.9713753962236478;0.9688820544715916;5.427031043120255;-0.019953921743476523;0.14807291620722812;0.06039453838003164;-0.0022972800473098067;-0.504313045246173
0.5595703125;-18.16907520003603;30.45904829312096;537.5263015850624;4.318336750564176;2.995807346068233;52.41860045758435;3.757882189076524;10.943866226684207;-8.98572312497337;13.446563781727669;2.1221690273971374;2.0972564391319604;3.0560005733461337;10.13039836043885;39.57637607259072;2.7178872026461818;20.554471231294432;4.4313906318027545;-0.1841404493628292;-28.358344495079365;6.198553282310805;3.6407267225086417;0.8444170718996821;5.434670548840824;-0.018642733639555265;0.12395844102732048;0.06013829240833398;6.24906426796996;3.9715977327546255;0.9688615700415594;5.4275371163452375;-0.019990657107237582;0.1480254965773504;0.060369569716738965;-0.0023091316303432705;-0.5041275963343543
0.5797848701477051;-17.588684168021974;30.153230677539117;537.8094290781119;4.34299198008839;2.527274014978559;52.18717119720538;3.7687943308759686;10.947486472666355;-8.931993893085174;13.481794960295062;2.132829776999577;2.09789587897545;2.9760344332182815;9.965657657384847;39.121660220839765;2.4619300702975604;20.4590342813545;4.405089030319198;-0.18216100993992448;-28.352637635535707;6.1996733365946115;3.6407387427174394;0.8445737806280875;5.4348809492800205;-0.018611754120701568;0.124037612964614;0.06015681391805019;6.251134444302733;3.9712782813728276;0.9686278911536482;5.428051465903821;-0.02004103342332448;0.1479477324260325;0.06035229979947841;-0.002313443693413218;-0.5039780603168249
0.5995616912841797;-18.32373773668697;29.72375287124681;538.20901920887;4.1921095192021;2.893773827845635;51.998436052696896;3.776188405566673;11.00418584024142;-8.861228554573827;13.56172623812537;2.150812221324162;2.1099434497518343;2.833791245189605;9.759873369744188;39.333910555487336;2.6134103114238405;20.441435915542453;4.420090911930694;-0.18366235749036927;-28.36158604617821;6.195582261612329;3.6386451243852687;0.8438712807845581;5.4338483870342;-0.018597911456374627;0.12395408949995565;0.06015063016130138;6.248388957068852;3.973667547798133;0.9694116334233096;5.4270244744515015;-0.020027357958515603;0.14802368603122956;0.060342616542601514;-0.002483321144426077;-0.5042401789010458
0.6196784973144531;-18.381971997209764;30.068960533470893;537.27208378883;4.199888415068422;3.05485438925988;52.362083177873345;3.7540252572337667;10.944621168439728;-8.938688054177195;13.472382933309188;2.128859809685155;2.0980000648013375;2.936095655583269;10.068291119483305;39.6034316574691;2.685961293265988;20.53063395703626;4.490901882542651;-0.1851211843903389;-28.370931564893628;6.192226362431236;3.63669247234417;0.8432214547815157;5.4330537801270635;-0.018595622627572035;0.12388657452189415;0.060140717788683865;6.246189841279716;3.9760950062193645;0.9702210237036777;5.426153223172634;-0.020005820352460242;0.14810359156204603;0.06034213252398806;-0.002674694384268386;-0.5062927071906864
0.6394741535186768;-18.538743796529584;30.136846407409347;537.8927042844368;4.235969175644337;3.063015931599601;52.397649262228626;3.7798562681639076;10.992639965106516;-8.906505048549507;13.512145860346187;2.1383529074725898;2.108305971848459;2.949607892159481;10.055625358346159;39.54033479893881;2.7303052018935308;20.50792919987256;4.4639508679967195;-0.18756512578280984;-28.36562748431789;6.19290664727809;3.634018647298892;0.8423094681429307;5.433460505541416;-0.018606103978271414;0.12377019637840601;0.06013134071302875;6.24791472082915;3.978531418857875;0.9710603624701147;5.426375214215079;-0.020048998604778913;0.14824781757570346;0.06036043621885634;-0.0028691565241025204;-0.5043930058941037
0.6595430374145508;-18.630999808920116;29.982588343051376;535.2008075350768;4.2518984196982705;3.5614047657643795;52.6118430209579;3.746207951034294;10.925983532698327;-8.862021659414816;13.578681002475166;2.152650399975262;2.0953307190380976;2.9927543171588304;10.101229618288551;40.03803036504314;2.5995941966628804;20.661751143830887;4.494909341182698;-0.19046058111655614;-28.369458062491105;6.1910837786701745;3.6313725675936652;0.8413723946539213;5.433176172516922;-0.01859410365647901;0.12361995306025689;0.06011349481757155;6.247004376042085;3.98146032254782;0.9721022182433188;5.425841906832595;-0.02003624549251142;0.14840140992122597;0.060376098162202595;-0.0030829051722019276;-0.5045154227266697
0.679602861404419;-18.383189483228918;30.476860485569986;535.7401470769743;4.363809731054072;3.2813091928395863;52.84640685039928;3.7631231478890625;10.977166565628652;-8.953530540647291;13.46568573827679;2.1266031125501;2.105844485240878;3.133532353868298;10.287661215212875;39.88059905129051;2.6427755340856933;20.647841131444164;4.486656423700038;-0.19119446537643534;-28.370587533342103;6.1906974238716606;3.630613605681142;0.8411147069447739;5.433171373576471;-0.018601029282053885;0.12359152240651605;0.06010285890482935;6.24678873547347;3.9820938057985638;0.9723291177270085;5.425688479394258;-0.019994385942174134;0.14840343152736826;0.06038949743568513;-0.003160327274854629;-0.504561283703642
0.6996831893920898;-18.411719118724317;30.169673200172;536.0603499368374;4.3043897895219825;3.215100191627407;52.64540688974887;3.742222075895615;10.913183585044905;-8.970711269673929;13.471373150179087;2.125740036365478;2.092343536733134;3.0698633276023286;10.207460590974108;39.8320963403731;2.643065511845437;20.62774226030297;4.496010072558582;-0.18955328834344182;-28.37354229138495;6.190010259441417;3.631848247101344;0.8415829999738993;5.432944534731533;-0.018613940210781645;0.12369274166951146;0.06009826168872443;6.245673992921354;3.9811322376637386;0.9719459644589049;5.425434981193235;-0.019983108738195823;0.1483181266270204;0.060397956070882323;-0.003098569374259455;-0.5046577225444759
0.7194318771362305;-18.25244998136614;30.15846169107041;536.8129487116585;4.344431909313373;2.9319577744010275;52.552643104974784;3.772557546682868;10.970996165657318;-8.906854184026251;13.512604753638254;2.1379611653655166;2.1036900099753124;3.0432846920690237;10.12391560212743;39.50853835437562;2.5469118621021405;20.545945208002475;4.465685426510739;-0.18836032265390876;-28.379105267446427;6.189021763461003;3.632889650830206;0.8419648348172437;5.432650294370105;-0.01863377059919706;0.12377732776868304;0.06009014936989664;6.244232842511868;3.9806863831146995;0.9717486557185343;5.425055320337069;-0.01999260617444481;0.14828341808526718;0.060411125003738964;-0.0030738579656261126;-0.5065994225316094
0.7394392490386963;-18.29362314840045;29.93432198050919;538.2308840651106;4.300851833438763;2.706220172031337;52.32770848174588;3.771651137994158;10.968861547780168;-8.926238723515329;13.53610664043436;2.1396621870747508;2.103491925485438;2.9827337779679994;9.998364061525793;39.2780899774817;2.5841449869821647;20.46902274866769;4.432452112922466;-0.19042942533928628;-28.378749850086983;6.188488222339585;3.6314868456965774;0.841432223576284;5.43265718418637;-0.01863653713046371;0.12367514539835094;0.06006650949592216;6.243686843616013;3.982186047606865;0.9723212661562677;5.424724390146684;-0.01994858837805811;0.14836316051931808;0.06043867166552205;-0.0031791685792795445;-0.5048270808169387
0.7596085071563721;-18.23194825845338;30.012981273682605;538.9541307420343;4.29791139287461;2.5175601040223086;52.36101349193831;3.7881520750777433;11.023278301168627;-8.912807862447966;13.511646753109385;2.13759519142496;2.1155084349728055;2.9741175688824635;10.025430113622244;39.06318250267181;2.583442681984141;20.395125394925863;4.439892440478894;-0.19600955373623058;-28.37096126725209;6.190802208619109;3.627543367711589;0.8399379855010719;5.433595191140558;-0.018662364311487947;0.12340488403347333;0.060031833234069576;6.246449755506623;3.986581329394241;0.9740313152245034;5.425076490080934;-0.019891584736807702;0.14865690272916962;0.060489602898657645;-0.003484041472529329;-0.5046169002653451
0.7795746326446533;-18.342703132766506;29.98058309069168;539.1594682918173;4.27001789350694;2.560253557111068;52.365753916886504;3.765210964127234;10.956490296657671;-8.913362738543025;13.510687057233683;2.1372919718544665;2.101997867121614;2.982303357566253;10.098842301540927;39.09251906559008;2.6403164324908044;20.40555295800997;4.450391210424518;-0.19847667489398954;-28.37225489575;6.190266904354651;3.626150872926726;0.8393783755008569;5.433613131909499;-0.018700956537993883;0.12330869664544479;0.05999258076340111;6.245556346322242;3.987862663461422;0.9745073372092128;5.424581613865708;-0.019896327529012298;0.1487579044195206;0.06053365782152284;-0.003634604215266588;-0.5046479961182476
0.7994894981384277;-18.249173919063747;29.935992935081153;538.5934500265873;4.306178974400173;2.5913486929927956;52.41070546934171;3.7624315898024814;10.95016409510467;-8.91982494272581;13.50817947391205;2.1364712922786917;2.10099458977506;3.016423310682434;10.092027990491914;39.1495729496621;2.5892586030691245;20.43174710228016;4.433140811871288;-0.20120766731934642;-28.370257514400873;6.190794123145759;3.6243364488118748;0.8386856569259556;5.433963594985756;-0.018744673281039424;0.12320175009392666;0.05995438337374519;6.245912108563874;3.9893510868552946;0.9750785752133985;5.424403410520215;-0.019850392326088755;0.14883593924024371;0.06057893076341386;-0.0038185041273920035;-0.504584698510018
0.8197429180145264;-18.116290833941452;29.768583847986246;536.9637329016215;4.309862279938876;2.7539613422057343;52.51359346643757;3.757496130113112;10.940412053479145;-8.905211094134025;13.499319302068209;2.136389402209248;2.0997175366093557;3.0221464763917765;10.083721737418307;39.34621589521326;2.47839133633655;20.50238873164563;4.452209962557035;-0.2071669438860832;-28.37151746097338;6.189705410171921;3.619924178175093;0.8370353996878384;5.434044286678126;-0.01875915713342719;0.12290753913572264;0.05990622344278827;6.245503617246906;3.9935312557297165;0.976644568506307;5.423805773079155;-0.019786058470508718;0.14907511273081134;0.060626790565580534;-0.004181658125801745;-0.5046089425503444
0.8394491672515869;-18.6096342682108;29.715800108486622;537.0589881814515;4.303867137548156;3.102964880482702;52.5884972334416;3.7769626744930953;11.003580226840933;-8.869120894770575;13.57641962395745;2.1514058289483384;2.1205427284050997;3.027209513883953;10.046569786595652;39.59635436169374;2.611795290927927;20.553610058324935;4.461447714272617;-0.2084889384957422;-28.375177441595703;6.1882752701431825;3.6191308936405626;0.8367276203651598;5.433778313766206;-0.01879252162397895;0.12287154511556798;0.059867455566729545;6.243777792863149;3.994309003503955;0.9769097868033837;5.423099579833188;-0.01975082796292444;0.14909210310229826;0.0606626503443554;-0.004304746059624849;-0.5046989253458762
0.8594470024108887;-18.493153270022507;29.549249443589243;535.8553513493138;4.267039940975436;3.2006927288727383;52.58783456502604;3.7351952347241153;10.874808331458306;-8.966269741100973;13.460954520555838;2.1245027501915863;2.0864251044015427;3.0509575685769557;10.127338899041504;39.82052174200066;2.610538126983851;20.60531999623963;4.494447113127884;-0.2101484964126766;-28.37239827928679;6.189020802365233;3.6179913170789746;0.8363057298904691;5.434129141537807;-0.018832571961487604;0.12282004776733069;0.05983140496913423;6.244272593091897;3.995182268048879;0.9772215541179766;5.422991219417456;-0.019741764235838136;0.14913702486113103;0.06070307002966312;-0.004447197898506628;-0.5046096333068845
0.8794803619384766;-18.491044687057055;29.58439226406808;536.4348516898887;4.285623911081671;3.125181461590479;52.592014086856906;3.709244276060531;10.801379187832865;-8.894889475248176;13.48865963673117;2.135481850441861;2.071813399145259;3.0941754636361267;10.230994803155943;39.6591794816587;2.621394664669035;20.57675631366838;4.492400835087904;-0.21496950576994459;-28.371137019602315;6.18885339080755;3.6146401963030987;0.8350308853612433;5.434363053239679;-0.018877510566649935;0.12260499274811885;0.05978401346450131;6.244422021408808;3.998291566312716;0.9784172268287505;5.422639553705236;-0.019687819369392484;0.14932137477177093;0.06074808323622762;-0.004740242194027523;-0.5045601562767315
0.8994696140289307;-18.378379919584344;29.841741609883293;536.2356080017619;4.317852931446548;3.1069181299800874;52.869130448416094;3.7465525803791864;10.913533845450528;-8.929836501906234;13.502573606310277;2.134704017744906;2.0947778663045282;3.1099978766852208;10.297957633359378;39.6789453113583;2.5675675903463295;20.578151242568183;4.500104059377147;-0.21666468687871937;-28.364088891147862;6.191114830608168;3.6137027024597494;0.8346767408781965;5.435102321224203;-0.018908228132053437;0.1225455352807482;0.05974292411979184;6.246090456322592;3.9987276936587612;0.9786286921069787;5.422841893273946;-0.019619752228021606;0.149325150569179;0.06079041350744012;-0.004867970530802023;-0.5043561756065602
0.9195053577423096;-18.364211580505934;29.695149746971452;537.2224806742478;4.297296110044886;2.932886411110566;52.76796684569928;3.7563026682334706;10.914724140993082;-8.851067503846982;13.554966398560785;2.1497186465262983;2.095519769714644;3.066316044044043;10.26171628562478;39.42027703259993;2.554764476072042;20.514449221571695;4.50121728159606;-0.2220998035355349;-28.369247551637287;6.189195011826587;3.61020442174104;0.8333164965970987;5.434841346005309;-0.018947860090030216;0.1222991385000263;0.05968584647521653;6.244335300501423;4.002337336826709;0.9799682917762519;5.421848618355578;-0.019629933639782868;0.14958461145099355;0.060835557986679056;-0.005200683855543595;-0.5062672628524534
0.9395835399627686;-18.334426692335825;29.641323186798893;537.238851736237;4.243648656463939;2.9155730639240858;52.79297847607508;3.7220551864258393;10.84775099483368;-8.954680600657058;13.45085603327287;2.124124340717301;2.082629578094477;3.0886410685129575;10.356079707909279;39.494106922964036;2.6336193545291877;20.510708004460877;4.529736576356623;-0.22760758973650466;-28.36217487824591;6.190245639881142;3.606548546577709;0.8319125483137131;5.435396699631629;-0.01899464288350613;0.12204738250231349;0.05963386754559548;6.245491110676075;4.005665677683608;0.9812600885756093;5.4216640110402325;-0.019591808524121748;0.14981133266649999;0.06088237882148387;-0.005485778105900145;-0.5042966807142408
0.9594464302062988;-18.4074963099476;29.502920362489192;537.1667484397942;4.228139545925644;3.0528786686366587;52.81162500451171;3.7361440287460987;10.893617199862499;-8.937137718699788;13.50069810668373;2.1340295271862204;2.092524641973514;3.0538552599986692;10.287615157618836;39.574030164368594;2.6420799763770715;20.526521388143298;4.533266116126994;-0.23186447625836376;-28.350216300975788;6.193719594160611;3.603683330871804;0.8308249500055727;5.4365430476861745;-0.01904242416088254;0.12185755352701527;0.05959519523330753;6.24891497167011;4.007893225824199;0.9821683232117151;5.422203533304982;-0.019538494061605294;0.14995918976264422;0.06092233572655667;-0.005725348435188713;-0.5039644591404647
0.9794459342956543;-18.24552417251857;29.385580301533388;535.8567236364314;4.222169922358489;3.175457726860671;52.86851327831987;3.7050056409388423;10.83267762923881;-8.991167412108965;13.448820593435208;2.1211302307835913;2.0804352568572178;3.0850940815904613;10.31960396938217;39.78029747425688;2.5816403668164547;20.582639118070553;4.548757840736542;-0.23441551647600914;-28.344875517521178;6.194957737559422;3.602006290864492;0.8301873970559553;5.43696217867021;-0.019054290670348722;0.1217332278298952;0.05956623322393431;6.250071994689844;4.009287948841111;0.9827135898030963;5.422226988623596;-0.019528310373186836;0.15005775785738215;0.0609444821694785;-0.005870258725909147;-0.5038215764908611
0.999652624130249;-18.32243009456611;28.962652158368414;536.5305311965361;4.198114679668686;3.1535950396293586;52.484986585076356;3.6921910966101663;10.82831645887275;-8.924036569167965;13.492036865261502;2.1340072563467114;2.0798015055194936;3.029628575644024;10.045795230478943;39.66723153922757;2.620266179748051;20.562260119358992;4.467709604540705;-0.23597664469511856;-28.34684506442315;6.194350124327076;3.6009693943031347;0.8297840601636306;5.436806249306227;-0.019064060079831496;0.12165814570394957;0.0595509039031124;6.249622141788702;4.010355547513387;0.9831084069531668;5.421947189074864;-0.019555258942488087;0.1501414230290176;0.06094959405340464;-0.0059799537595651275;-0.5056619852973188
1.019460678100586;-18.1042217435231;29.148202009171655;536.3418654587688;4.265346336424124;3.0972840418731877;52.607928070447485;3.728909817516467;10.87679702855755;-8.93425577190656;13.486776226691571;2.1322921784468636;2.0894900652292905;3.057314566534581;10.080440746220708;39.635924395202565;2.582036944565827;20.590888505848223;4.459277971818067;-0.23632357602646642;-28.340564157160877;6.196289183342263;3.600728503375073;0.8296915890529868;5.437291319093018;-0.019068682757775145;0.12163595007183595;0.05955512594690522;6.251568840712151;4.010294614619588;0.9831320472021863;5.422482766969978;-0.019546726679963114;0.15014289583805562;0.06094451913731955;-0.005980067989305512;-0.5055081605623168
1.039635419845581;-18.20364962539383;29.592657248659478;537.344762655266;4.332659869354259;3.015739852396841;52.776037448240075;3.69116517970783;10.760500096985725;-8.93686932352145;13.501615590089823;2.13395106231585;2.065304580502523;3.197391267124118;10.3816078238278;39.53172000752996;2.660910623934183;20.56291521878261;4.488704000838219;-0.23387978662787096;-28.344219467030406;6.195165246510263;3.602837355230109;0.8304377848379718;5.436744144518562;-0.019067298267418556;0.12175542715309749;0.05957078623422823;6.250165945403291;4.008341747482163;0.9824729216879037;5.4224378420568895;-0.019535701953866162;0.1500161577029929;0.060918110381357485;-0.005804300943737057;-0.5056230538839903
1.0594961643218994;-17.894606617411846;29.777328818053117;537.260025058805;4.369371558836102;2.7860679418581924;52.84396376273045;3.730868551290552;10.875791378801011;-8.929699322381659;13.489335453659262;2.132853693385585;2.0884379919319174;3.176677601400572;10.344549267135845;39.33438990975441;2.5240993401932244;20.50815198368047;4.483531696694564;-0.23106399022070812;-28.34055949305514;6.196130168733976;3.6053201486839823;0.831327758361932;5.436743228603203;-0.019039042663687764;0.12187312503429341;0.059595779879335356;6.250422536264275;4.005884472998181;0.9815898814208894;5.422795905679193;-0.019604000981115678;0.1499197226708777;0.060891659626279585;-0.00555388439472901;-0.5037607930335185
1.07950758934021;-17.99575544032173;29.553866121142903;538.2474628743278;4.294586038753979;2.6865137718766903;52.59347974202764;3.7361890025950815;10.8894560770091;-8.935946333513487;13.50207231985135;2.1342112601582226;2.0909350087976257;3.077715565923499;10.200089467198985;39.21285782754025;2.5785185205247565;20.45324726758064;4.487674142990554;-0.22858282393767138;-28.340892616463087;6.196348907742447;3.607696607165998;0.8321542366307783;5.436537186472774;-0.01902016176738506;0.1219786403279716;0.05962333853258202;6.2499711499470925;4.0036074389008185;0.9808028736856793;5.422965534701613;-0.019623885087970805;0.149816126598861;0.060859298101349775;-0.005327046624111957;-0.5037728693064963
1.0997610092163086;-17.892685058066963;29.534034309639143;538.1842833846333;4.25238403317444;2.598365237071704;52.522872599241865;3.6975923247942233;10.773698021162765;-8.990572842974244;13.448681797692586;2.1209081445437326;2.067093177348083;3.072385003079107;10.282845190868022;39.19476329560602;2.5640769737583726;20.43319948970721;4.51603649739134;-0.22672574468162288;-28.33982887909252;6.197123719626721;3.609766881909151;0.832850077353143;5.436516084555244;-0.019007179825777543;0.12205446455052245;0.059650156122577715;6.249950615824361;4.001471564554954;0.9801286462719379;5.4231890721771565;-0.01961856353875973;0.14973095963455407;0.06082940681804907;-0.005115996739266732;-0.5037431162738983
1.119729995727539;-17.966567368822055;29.506687425937184;537.696866448715;4.255738875425001;2.6986672169936554;52.455665493800026;3.6982259720260853;10.77162171268751;-8.90600572524125;13.484522880450859;2.133924197854037;2.0660163336933848;3.0564688612228545;10.232875092713961;39.22339903497756;2.5186624279183345;20.442138904540514;4.508478536059434;-0.2237442999068376;-28.346035256879365;6.195513002321905;3.6129651697612437;0.833935590628066;5.435766379352354;-0.019003374887033478;0.12220073490673869;0.05967093325446222;6.2471802120565885;3.9987224493345517;0.9791536337316076;5.422706773458278;-0.019647521714945812;0.14961506593455406;0.06079856219291669;-0.004841069330026874;-0.5039119640915892
1.139502763748169;-17.93386541579409;29.870970847822647;536.3003705421145;4.316916602255997;2.9404150342709627;52.818928778955495;3.7155317826934815;10.821777641539375;-8.917083602573175;13.49557411563526;2.1345017975817697;2.076321025810297;3.1311652164495154;10.386336487801906;39.50345910498141;2.473183478140685;20.54406429368303;4.548657349701039;-0.2243369470074476;-28.34718717498043;6.195895195403608;3.6133094146431315;0.8339836139860382;5.435766362687313;-0.01897788248845568;0.12215445753955655;0.059683687630669106;6.247106565785866;3.9984670231301234;0.9791367125527479;5.422765129291645;-0.019682223782232007;0.1496825399193945;0.06078372992196116;-0.004781678384580834;-0.5057120092962761
1.1595005989074707;-18.12977253162238;29.94328061823518;536.802243255504;4.31551960182848;3.0458255371485095;52.77355026873428;3.691056383234766;10.812498157861004;-8.926903255241761;13.490520395071002;2.133119748992782;2.0749323284906867;3.1717818453603233;10.383189129588235;39.56925053963772;2.6029448554399623;20.562568332864352;4.525266890729347;-0.22573597761630745;-28.341444977450568;6.197199159279421;3.612851756534254;0.8337445465467742;5.436070125389827;-0.01896568993505541;0.12205168664988034;0.059695968893686474;6.248237404512533;3.99883741989698;0.9793731770303344;5.423093680966773;-0.019681112314471325;0.14977013050044036;0.060771467252735516;-0.004731873063557548;-0.503770431422452
1.1796531677246094;-18.198118271174227;29.890649464650135;535.7238288274299;4.327355999375404;3.3259198263433376;52.83186005491572;3.69527714291165;10.795874245172215;-8.886909657910731;13.536916332149023;2.144080006712144;2.071564132086138;3.1688018702625493;10.378338773282138;39.80231414518477;2.5724982092579536;20.64058450853153;4.547879658900408;-0.226141597075945;-28.336607578211495;6.198779870328346;3.612814066406502;0.8336925428568929;5.436412133755374;-0.018950182779242056;0.1220069800214132;0.05971917961316164;6.2498392587111224;3.998756020830998;0.9794214552959248;5.423616977172856;-0.019678565399949326;0.14980874767120161;0.060750793185114206;-0.004670742067642918;-0.5036215043927111
1.1996943950653076;-18.27054572775138;30.05204421112927;535.8003823313476;4.324773293024538;3.3505384511149714;52.84856275141643;3.6798934312587197;10.745411937917364;-8.984695782165062;13.45284240096332;2.1217385381906406;2.0604811722458236;3.21937819414249;10.47380322356689;39.91952836432442;2.674210471984976;20.653219245333396;4.56793704612719;-0.2209881794319038;-28.340058883221474;6.1979145921301955;3.616741182619841;0.8351350724657907;5.435797864293259;-0.01893105484050602;0.12225200349033204;0.05975988193833319;6.248339177484955;3.9949321541879805;0.9780853654316713;5.423565996659565;-0.01975441716193079;0.14962188569000925;0.06070779104834218;-0.004341689529385754;-0.5037000753756052
1.219482660293579;-18.26022414777147;30.04129333368132;536.5085208932721;4.298883616528014;3.2044679306640944;52.73284045373801;3.731348901849683;10.863286154964973;-9.07571917140073;13.406757299821026;2.0983358222388206;2.083752088126976;3.1429729253484586;10.314633507369265;39.85294610534143;2.7166599743823436;20.607987339103456;4.547549850590334;-0.21525345056496978;-28.339424721075396;6.198583588961998;3.620847567190173;0.8366830535539791;5.435606488328266;-0.018885491282898778;0.12250923828224022;0.05980749181305763;6.248435994444653;3.9906559223416878;0.9766065579842399;5.42401652186986;-0.01978136782655434;0.14937415936337678;0.060662960977020924;-0.003993523373646532;-0.5036658252592028
1.2394957542419434;-18.061299375993517;30.01233578016701;536.7528997205422;4.3617249581049355;3.0509158004122625;52.628873286885224;3.734316384437822;10.869576397146224;-8.82722778831987;13.576376518919023;2.15564723545799;2.084769026106384;3.113879487345588;10.25989245324983;39.46778854652519;2.4987206497058354;20.529173057948515;4.538959768525466;-0.21159697870495603;-28.33749941581361;6.200085385779802;3.6230560286636266;0.8375541033241837;5.435801251455944;-0.018848952471993072;0.12266598722142927;0.05985543492515539;6.2501031140391365;3.988414669780151;0.9757734530123191;5.424816774271935;-0.01978960900745183;0.14922087755580443;0.06062388087415608;-0.003799768507721107;-0.5053721199506624
1.2596275806427002;-17.513147117699447;30.16281944099915;536.3393860286667;4.387586218567462;2.7105976365530253;52.66892118543485;3.719893982459146;10.8241903404201;-8.983651698833189;13.436394979257319;2.1196937441090293;2.075008662631615;3.1553725370276227;10.34660126589343;39.36660253877585;2.395577114750381;20.512506324625008;4.541780942435796;-0.20640907369449182;-28.335367907395852;6.200598595003748;3.6261090195265018;0.8387708145064819;5.435716874649915;-0.018818285309905543;0.12291172047123748;0.059903508026663874;6.250843738156767;3.9855139178796057;0.9746469580710622;5.425471381304948;-0.019825985338585296;0.14900969453212118;0.06058577507572781;-0.0035273577484507567;-0.5035269145714218
1.2794640064239502;-18.34664844086538;30.272579502877996;537.9393935888687;4.352616938780295;3.0795171121869416;52.61991403921475;3.7141369756192546;10.8101015788703;-9.006119287367195;13.439066035474442;2.1182146533328297;2.0727136979685143;3.198414357024601;10.38708852870089;39.60543656311674;2.7953637565847256;20.52786614660589;4.526537088596059;-0.20711852519775775;-28.3333772098025;6.2012591377061845;3.624463660639764;0.8382562488039355;5.436073416562432;-0.018789145074815716;0.12285498354141493;0.05993692499035948;6.253018370142301;3.987233695543602;0.9752186201297891;5.42615464422582;-0.019885716044176868;0.14911810949493112;0.060569873064412375;-0.0036092530980334045;-0.5034628024873441
1.299605369567871;-17.842863156515048;30.279235021539506;537.0659569942334;4.391213213548106;2.853421125630078;52.74492351898738;3.730590334141439;10.86075011002103;-9.08127122177227;13.443515413081636;2.1110896401521413;2.0836033889101366;3.1985749952572533;10.338504015987374;39.56799425868306;2.5926748272099465;20.57502945270434;4.506204672583122;-0.20812330043505756;-28.346229949776482;6.196814803251715;3.62249779612458;0.8376225742756018;5.435098462402108;-0.018728716848122218;0.12277115218416056;0.05996235485514753;6.250493822190248;3.989876768440326;0.9760821228360196;5.4255141559752165;-0.019892054987627437;0.14922396089251078;0.06054479705753925;-0.003731076089700554;-0.5038137745758492
1.3194983005523682;-17.731728361778345;30.279398846980072;537.7696890970225;4.480784917368846;2.6052779951007494;52.52745386840347;3.725086295930104;10.807068038638352;-8.979410765605357;13.439785571076857;2.1203029841372225;2.0726917010726216;3.258211993736798;10.295448731552662;39.24702194065523;2.564784650187277;20.517240602737285;4.43794980813543;-0.20531983035837398;-28.35817687754256;6.193271729193481;3.623282331699303;0.8380315364198707;5.434214194547293;-0.01868086765098586;0.12289584128015991;0.06000331164202514;6.248249329928954;3.989752756745961;0.9758965207186084;5.425212532727537;-0.0198988875021694;0.1491307385950926;0.0605094315569569;-0.0036641087074297096;-0.5041441739001564
1.339571237564087;-17.61904465071467;30.212328806326106;536.5008599862567;4.497998019643415;2.694723002291461;52.625318548116;3.743301632649097;10.857001719126322;-8.936753482158547;13.502285096208379;2.133743857050661;2.082447722894438;3.224724259342705;10.245280286012646;39.345901137794584;2.390491253944692;20.552381387732026;4.467593176873627;-0.2009368760041783;-28.36444355694822;6.192043048733006;3.625421440527676;0.8389385434005302;5.433863848334724;-0.018640309549187432;0.12310440261180775;0.06005331969952;6.247763709689835;3.988082568391061;0.9751420766465513;5.425537531678271;-0.019975900596644135;0.1489935612703103;0.060475724824633086;-0.003489766212834824;-0.5043210144710628
1.3594839572906494;-18.048455368964024;30.23532100659512;536.8513287669377;4.433275690986188;2.893132072039492;52.59706305984351;3.7143613527896124;10.80102010931602;-9.000688063798538;13.461149753778288;2.1214923658556666;2.070989028518007;3.230738531242824;10.303779588527208;39.55177883435944;2.5694983526095463;20.55686574691072;4.488683128479217;-0.19764873970514224;-28.368530293421525;6.191517732636649;3.626925001620686;0.8395852297335769;5.43372707631789;-0.018603213051829097;0.12325297988713084;0.060103794937244916;6.248007122827497;3.9868705014171324;0.9746133409318697;5.426032371639615;-0.020003927981750817;0.14888030408474584;0.060441492091797756;-0.0033439402947061346;-0.504440916491
1.3794925212860107;-18.108943349618485;30.497862151733226;537.6863448282948;4.441619550657109;2.726187895729069;52.652876511049165;3.7179777632127733;10.80649716005001;-8.987923135674526;13.46706219027995;2.123078021053613;2.071201094713872;3.245769031903223;10.41443662223335;39.38109185263655;2.5867125999299807;20.503122040895562;4.514021815898461;-0.19122363732619227;-28.38045750335415;6.1887343511593995;3.6313409853923537;0.8412708205814784;5.4327508665996955;-0.018550564299102616;0.12355833482279932;0.060151020471198184;6.244931023326188;3.98306420669053;0.9731300726954057;5.425789691261043;-0.019998300240934234;0.14858584198301628;0.06039723807923615;-0.003001462064967484;-0.5047825453316402
1.3994872570037842;-17.717014085043953;30.27802080550515;537.0054670495375;4.450168664191313;2.491984840500706;52.519647509640365;3.7371667875695898;10.862174758122377;-8.923274608987313;13.509093092630698;2.1352599770134164;2.0823986328587325;3.1625931977797017;10.230754940944822;39.17364544803978;2.3378730923556317;20.47498149771068;4.494158924980904;-0.18858798011902175;-28.388923286311144;6.186889937134874;3.6332742923653676;0.8419876210879724;5.43220009001221;-0.018519081624237682;0.12367666430538536;0.060184410307494524;6.243090861906214;3.981603710632981;0.9725630626065284;5.425684639796152;-0.02002113604148148;0.14850083722219307;0.06037085612316227;-0.0028255951202552226;-0.5050321026921777
1.4195282459259033;-18.14558373439914;30.2132972675891;537.3889125226682;4.41304688341931;2.6997549514602355;52.44373404718981;3.7690379233852136;10.92440793066336;-8.791767178547074;13.595712323126484;2.1610085976061404;2.094742833119691;3.087130561698059;10.14525708093809;39.20099972750735;2.4152260759286;20.46774652079777;4.504129938112338;-0.18749988755810135;-28.394686751289836;6.18585188102826;3.6343109302341876;0.8423453067211987;5.431925986175024;-0.018502733809920437;0.12372342261097603;0.06020639214737304;6.241982954040914;3.9809243670626753;0.9723115278733871;5.425672237638395;-0.020059813179099883;0.14849786552140426;0.06035749851586112;-0.002717287800443233;-0.5052100345243696
1.439516305923462;-18.285980222634972;30.6544963641701;536.8121428086112;4.424070346033875;2.842652824331033;52.808886642788316;3.7192516319801583;10.813203578188087;-8.923672875446622;13.50481713233235;2.1268895725052266;2.0803693562347605;3.2254952057295747;10.518019056781121;39.47742247083474;2.5022867637283985;20.52134956303838;4.5818751761217476;-0.18732904948196846;-28.398736237097204;6.185285188677807;3.634813082447957;0.8424892102293952;5.43181100339735;-0.01849962641672869;0.12373069448647728;0.06021937604587168;6.241278116914527;3.980629145392198;0.9722428529442432;5.425686670661605;-0.020045234578591684;0.14850132114720746;0.060350829323038445;-0.0026537362290279852;-0.5053443166671697
1.4594850540161133;-18.193627490443696;30.591839530625442;536.1212114447443;4.4259292596711735;2.846561294396274;52.81287442907497;3.737379559910468;10.860397398335337;-8.909347166101762;13.516860540631715;2.1370857637545906;2.0818755210152986;3.1948058869977296;10.443339307122812;39.50938827448778;2.4083471908425587;20.53163277676996;4.590854749809403;-0.18645956448562775;-28.405184926895124;6.18388995086982;3.6359402054299617;0.8428650176239353;5.431415516501846;-0.01848027391869545;0.12376629577503817;0.06022471243264837;6.239463481255063;3.9797701474848406;0.9719607174128368;5.425390541647004;-0.020014390107014564;0.1484547448399078;0.06034498142549674;-0.0025586752091701485;-0.5055502986514413
1.4795258045196533;-18.303753558274856;30.507521148465898;535.1052441535252;4.460419193528727;3.084307224183924;52.81568545711834;3.747013541206509;10.856508201131453;-8.90568786209966;13.51885417054664;2.13757279378079;2.080688171698173;3.219899842456929;10.389714349020192;39.75971576795584;2.419184562579317;20.61703632749445;4.580858711890588;-0.1866187483016891;-28.41167697951439;6.183026744750218;3.6364659872551064;0.8430006351455054;5.431211607504936;-0.018483641729214115;0.12376508240959753;0.06022125856176723;6.238139988861671;3.979513959063524;0.9718888533565373;5.4251478558424555;-0.020051706301272565;0.14849721169484587;0.06035202870540281;-0.00253492560620869;-0.5075358846922053
1.4997224807739258;-18.042661767044283;30.60887759350542;535.3078834738802;4.505919953895065;2.8439229546132765;52.831715848022846;3.738794055998973;10.860287453061005;-8.914725443039558;13.51370846920636;2.136161712775315;2.0810787575542276;3.251523633375874;10.414916578860977;39.56186585397678;2.320150503012208;20.575791031279373;4.570407765231767;-0.18551409773810754;-28.409621015706296;6.184126206394224;3.6380263677973916;0.843526128051227;5.431500927352499;-0.018505853758064933;0.12384301450319608;0.06021377880852819;6.238221318209426;3.9779176149554334;0.9713645969500317;5.425341473826338;-0.020025257581320982;0.14842327560288973;0.06036711127201242;-0.0024160936566792576;-0.5057428547239738
1.5196120738983154;-18.257299433228674;30.587170955494635;534.8898109338913;4.489145542482138;3.0035679358318816;52.86676069535524;3.7154493022391004;10.798008670382652;-8.889495931161232;13.510904462789407;2.1374233815097514;2.0765191998183288;3.280844614026313;10.484528409099978;39.700535671559024;2.3619012460062674;20.609800612814006;4.578039296892869;-0.18915684417374792;-28.421880037039028;6.181058385111454;3.6365706039698873;0.8428559411969896;5.430863579816724;-0.018541184222468948;0.12368910326652166;0.06017513130567842;6.234655373412362;3.9797878972383747;0.97214661481317;5.424203746502538;-0.019962655835830498;0.14857768433523832;0.06039694794293394;-0.002566589174788915;-0.5078875488572567
1.5394480228424072;-18.348056673045424;30.863112834117693;536.3666140612684;4.506570277885253;2.8031139887866345;52.95591829459265;3.731050948668379;10.839771407122994;-8.89121164964935;13.526912707551144;2.1393018191807953;2.0775071379059926;3.310219088061029;10.573974660779848;39.47893778039559;2.442149769293602;20.555867626209913;4.566424174033086;-0.19346036220085297;-28.425945479120756;6.1796334479931465;3.6347575534398544;0.8420572845921498;5.430726479108563;-0.01856741182981582;0.12349658726266993;0.06012476034263975;6.232478216968725;3.9817905294521796;0.9729983676752958;5.423389604584017;-0.019920605712345288;0.148770315067143;0.060443787955968525;-0.0027150398639115758;-0.5062547582817445
1.5594446659088135;-17.864716933721667;30.34067790455005;536.7747663144875;4.4438896509409815;2.3273154350753273;52.586559126302;3.71061203264464;10.78109126429812;-8.952344888106005;13.485462859984061;2.1267449834143393;2.0655025008355667;3.2060662477111412;10.353619831907418;39.1480468506716;2.28730884982416;20.485681028546093;4.52049540001718;-0.19837780196312865;-28.43443630396318;6.177830398327744;3.6327621138339827;0.8411638572492891;5.430496399505899;-0.018618658918734793;0.1232927369816164;0.06006258645011165;6.2297340235236724;3.984044619067983;0.9739456894969175;5.422340120351742;-0.019891957890039988;0.14899618184881833;0.06050032908091615;-0.002932993289696149;-0.5082775723079371
1.5794622898101807;-18.71405924646635;30.086370336510107;537.7550253503974;4.394738953825312;2.7432372211239198;52.416790133454406;3.74467311387387;10.884217242842459;-8.571582004552662;13.736907303694615;2.2011029176543597;2.0873499895792795;3.0921569230731896;10.169756844067242;39.060840134730455;2.3837707214907127;20.439013754070743;4.505172897480108;-0.20507246689765776;-28.43742995418361;6.176452545325453;3.6297295512468724;0.8398511715266809;5.430441812635433;-0.01868594898304573;0.12300407043794001;0.05998652141571393;6.227340906485261;3.9871866393711293;0.9752819533954608;5.421250209673715;-0.01980756545639243;0.14927407769736217;0.0605678040565204;-0.0031893475013754684;-0.5065890868537498
1.599449634552002;-18.357235573914576;30.440643741838663;537.9647432929531;4.367539124410002;2.406684483080234;52.707493759338945;3.693491937292866;10.759356890308863;-8.927569425396529;13.50179464216142;2.1309918770753247;2.0539677275376724;3.213613233745057;10.521099777845908;39.135126985061795;2.4629136754868624;20.442670585363214;4.57108043595329;-0.20993603290013138;-28.439182450292613;6.176009057272269;3.627890181282595;0.8390071867648649;5.4305274151620635;-0.018761506580530593;0.12281585580699253;0.059914367531338004;6.225626297198873;3.9889854729136727;0.9761075910679402;5.420393790824828;-0.019713808493386553;0.14944170240616875;0.060631162912098184;-0.0033923055045130364;-0.506620201270941
1.6194889545440674;-18.671527869401235;30.09778459875579;537.9058841564656;4.309041867132463;2.6314771660492724;52.564778832170255;3.6786422822774623;10.69511940084581;-8.874899117119384;13.518256132267465;2.138618010104368;2.0491473343542967;3.1722802298381105;10.470020146401783;39.255984148187075;2.5463771609658785;20.449294245957542;4.585359916636644;-0.21668342675727137;-28.435082028975593;6.177045909295213;3.6242285898603437;0.8375298806165288;5.431106035010458;-0.018809140135026242;0.12250689542617821;0.05984223755354049;6.226044161361694;3.992373790567324;0.9774900883846828;5.419981615137742;-0.019703507318750618;0.14975330035873496;0.06070087582449631;-0.0037132976367595574;-0.5064737207538414
1.6394648551940918;-18.335844570023006;29.835032912086653;535.091978181653;4.357425267000654;2.882888280871221;52.71965036751271;3.6748988259760034;10.684974052139406;-8.84431464192436;13.593295425002488;2.15281821774589;2.047430652219663;3.176415700247113;10.395228040637914;39.571282819179146;2.2648005155065514;20.586377777422467;4.586407193227375;-0.22100492207096953;-28.43372761773373;6.177037257300722;3.6220833157356687;0.8366399160995334;5.431258085263346;-0.018864877064515617;0.12232859237645424;0.05977955036966729;6.225321978826327;3.994325996223468;0.9783118404073603;5.419343489943384;-0.019646963183009333;0.14991090487806188;0.06075465073633282;-0.0039340258973415195;-0.5063927980122477
1.6596300601959229;-18.580442501196796;30.38017780295403;535.4548438256779;4.440422270672589;2.9708491375221513;53.0600386841694;3.678307887269758;10.732418102909024;-8.78533067844322;13.544011544231132;2.1506890327914885;2.057883477116854;3.3334640634390413;10.674488067792531;39.55437286370145;2.394399348332948;20.56800995780611;4.619011347472546;-0.22758017181019602;-28.43137687212647;6.176897054569053;3.617833142531462;0.8349917178113034;5.4314920877168325;-0.018910471195123034;0.12202061735504215;0.05972252163367704;6.225373329946165;3.998289866285237;0.9798749491586726;5.418791573571143;-0.019581501809655136;0.15018419950481846;0.060803500230286855;-0.004284074778877296;-0.5062772905142776
1.6795177459716797;-18.5062193024642;30.350770262521422;534.238948040264;4.425184162840321;3.1122499696271007;53.274176812762775;3.6631258277450542;10.663382184617635;-8.868477606640809;13.538727132262562;2.141284349946787;2.043751724077819;3.3507326202454175;10.807771296102278;39.80888385501589;2.3201124952756658;20.633878373234523;4.684690725650574;-0.23044338702533576;-28.429785819408647;6.176740637684668;3.615897482942167;0.8342516611793117;5.431544552556429;-0.018943672817961887;0.12189585142613885;0.05969129424619418;6.225282889196016;4.000027068044741;0.9805439937953779;5.4184444663843045;-0.019563920101685194;0.15030119488561755;0.06083024867071326;-0.004458130075680403;-0.5061822242772259
1.6995408535003662;-18.771097142841256;30.128762673996228;535.8055211646229;4.363469431312835;3.0071880481401365;53.002066550632094;3.665966393401205;10.667873780402847;-8.886185502919478;13.563336750699545;2.1430455026885618;2.0440729945740066;3.2770798455423398;10.657991461637168;39.674108956395926;2.44346200620173;20.57241491956976;4.649070087475616;-0.2277513546442808;-28.434580710424598;6.174981368240469;3.617923303344964;0.8350177195938939;5.4308835137576;-0.018939748431962937;0.12203907111979874;0.0596838906785618;6.222916494697455;3.998138478064347;0.9797920086539387;5.41783355254749;-0.0195785928719096;0.15016019379324327;0.06082959218226678;-0.004347828327974163;-0.5062654153811768
1.7194581031799316;-18.211519648817355;30.142355642944867;535.6179243237232;4.397569663246012;2.5902695040469297;53.00905546182206;3.6649548631514772;10.664273847475256;-8.856468090885565;13.546952570077373;2.143030050342368;2.043373150670167;3.266893673813979;10.68679188111665;39.327649192921044;2.224487520265347;20.528081603993105;4.663786878923064;-0.22752119301316825;-28.439883514369157;6.172849729118934;3.61786315228581;0.8350111951987386;5.430274398718674;-0.018933112134743593;0.12204785318258761;0.05968400773572423;6.221015175495799;3.9983173759998905;0.9798218126471974;5.417270057930517;-0.01956070117160285;0.1501350920097727;0.0608231574256978;-0.0043603116960726895;-0.5063664283555214
1.739473819732666;-18.254114745034418;29.86704495224504;536.9193544014573;4.317627218478508;2.3177386644905837;52.71388142819638;3.6968352400059006;10.790840254703408;-8.831035117222594;13.544812655101433;2.1448684684251687;2.06962308062754;3.1306471756088703;10.417453282723773;39.024972714926136;2.2376137434496863;20.4192895133821;4.625516626910634;-0.2275899904470389;-28.44715709178842;6.169952192147414;3.6173207089556536;0.8348396321639531;5.429486266499627;-0.018917625427231646;0.12203326272744612;0.05969346866393968;6.218776295871952;3.999068158327736;0.9800406621646351;5.416622994840458;-0.01954501487010482;0.150133129720438;0.060806811835916776;-0.004393092702160309;-0.5065268293955183
1.7594892978668213;-18.472062385977246;29.577406502779112;535.9115723220075;4.252983707897743;2.5892856012439722;52.573628223177884;3.668209400150758;10.674979429443614;-8.826921900681734;13.52821119010304;2.1428453129954135;2.0456401894169374;3.082606635613985;10.383016253660209;39.283334794681195;2.2552908126138655;20.46075921953421;4.637107981597715;-0.224495240061208;-28.446750976306404;6.1701440813393;3.618821373881468;0.8354769152821455;5.4294197641398;-0.018901239268563137;0.12218136669994788;0.059725048162925;6.219233688408311;3.9975175977549093;0.979366691511159;5.416950912213744;-0.019611963827568968;0.15001234982900655;0.06078442097924459;-0.004271283507942298;-0.5064821537188305
1.779479742050171;-18.6523597752167;29.9908874240148;537.309252186504;4.301795718139962;2.5001432013991263;52.744313568645296;3.6856979922181723;10.725404660405706;-8.925934799232285;13.534085380792984;2.1340346208209438;2.056050338694155;3.162078506640771;10.492264048226055;39.26226491846526;2.4129223257732013;20.466527960199063;4.611225917340672;-0.22310352685484403;-28.454248178822024;6.16774704886521;3.618913934979703;0.8355939085246611;5.428725326939543;-0.01884713771235439;0.12221709708457384;0.059756924613103675;6.218937584526176;3.9975913983117906;0.979296466336737;5.41699229550465;-0.01963834691420823;0.1499657416736911;0.06075408807424017;-0.00423405192021452;-0.5066307075748628
1.799494981765747;-18.350918389724427;30.146017458475512;535.5649926479562;4.38530937857359;2.5182002446665166;52.89366119231583;3.676668543698607;10.728983970852337;-8.886750625682135;13.508236210076435;2.133549961034917;2.0568293484312647;3.2367674528720682;10.541084198817158;39.33497868146914;2.235302010261244;20.526619998276043;4.602807952616229;-0.2202628586981688;-28.46226027928745;6.165006543955643;3.619982168409855;0.836077578030486;5.427869054465866;-0.018799396997486097;0.12233044589740545;0.059799763960155294;6.217238915609076;3.996755489546953;0.9788695004980118;5.4167442048606524;-0.019647283046498695;0.1498342774358891;0.06070999390626139;-0.004121170221975858;-0.5068302021630033
1.8194842338562012;-18.5637726218746;30.29787713237721;534.839673897503;4.454078334072054;2.7531998639713677;52.96119011735195;3.7067100593204394;10.784945093290334;-8.791634820047193;13.531794337449448;2.1457045688650647;2.0677478591135325;3.2791450042935835;10.529804916516497;39.47844845528792;2.2556677388594117;20.58076680884414;4.592223507296399;-0.21565855705616008;-28.470480676943104;6.162375715154268;3.6223708500848364;0.8370530752948319;5.426937285666417;-0.0187519816705123;0.12253440934155449;0.05985249158575821;6.215365020397375;3.9946661546359072;0.9779540784437383;5.416568951737739;-0.019693676469729644;0.1496360857360772;0.06065749835949586;-0.003907594444406007;-0.50704461263351
1.839484691619873;-18.385961295727203;30.551123698120346;533.8151395695924;4.510687743400313;2.788418495050756;53.23463362461901;3.706424530027024;10.781826382336742;-8.83852441658648;13.55533314390427;2.1451767350061224;2.0668890399989084;3.333311558394549;10.669447765618731;39.59949249663671;2.1203383831917098;20.6188624720774;4.634955176331479;-0.21147143884750963;-28.468740378368423;6.1631128026974915;3.6241927914277814;0.8378481434686706;5.426964311168033;-0.018699981943089243;0.12270682932501537;0.059916422312734786;6.216813379872725;3.9927141334516496;0.9771061668315639;5.417330042516534;-0.019772026699462916;0.14947311910349056;0.060607356731872085;-0.0037130765907594817;-0.5070001519899858
1.8594787120819092;-18.531983317643192;30.32567888392673;535.0401346469209;4.472687830460357;2.664340354464194;52.87678101153239;3.6890683539893594;10.727237698829073;-8.780301227764573;13.594976439078838;2.1568790442705668;2.055317089874766;3.2661095029471343;10.52403254400505;39.387552985694334;2.1728326279651933;20.553349749156585;4.591059862254358;-0.20535391173479137;-28.47323561451483;6.162668391805983;3.627769121216279;0.8392735905161498;5.426545954147417;-0.018637265935333193;0.1229759323489466;0.059980332374353865;6.216484735900056;3.9891573574602326;0.9756817623712777;5.417725437190482;-0.019798101076100943;0.1491797349575842;0.06054979844731906;-0.003420323003783311;-0.5089120077136507
1.8794515132904053;-18.497934226924055;30.305361742260658;532.2091812917186;4.424791663644126;3.0206158274877595;53.064731770194655;3.689006523114446;10.717724954560712;-8.808408978114457;13.539982658952574;2.145180310045922;2.0450331025259594;3.2293799251462056;10.565429642512012;39.84939572336462;2.0490114235702697;20.673964350061954;4.656270191635512;-0.20023332727196186;-28.480369121472858;6.160071808619316;3.6309051783214805;0.8404908404482725;5.425579997205246;-0.01858753566455086;0.12320213920202427;0.06003360050497297;6.213988876863067;3.986336841209614;0.9745388633753227;5.417463165992656;-0.019808097469855547;0.1489371135101887;0.06049542327670438;-0.0031224096094572547;-0.5073648019980727
1.8995790481567383;-18.39633453031548;30.28737200775167;530.0711475174144;4.388832162455559;3.233145439008304;53.212815536383616;3.72872006773997;10.831236110672572;-8.70339450965415;13.558756623621326;2.165536130396978;2.060534082565373;3.134052560052983;10.498955546362772;40.020723084034756;1.8591463617957498;20.716095160302178;4.699235261733268;-0.19905778816484077;-28.484976168742236;6.159647658752526;3.631031310158577;0.8405951068181372;5.425446855695969;-0.018544978432592903;0.1232281378503607;0.06007863687910327;6.214138128671648;3.9863005635758575;0.9744369655205577;5.417726462697451;-0.019892662244800303;0.14894080683676356;0.060462198994920044;-0.0030730808651253;-0.5092903621499136
1.919494390487671;-17.79797947387621;30.03757201990701;528.1205550768939;4.381382544694554;3.105394927928664;53.20984235507142;3.737600408603305;10.819454307976647;-8.768921799173462;13.536362110349659;2.1634537770217825;2.0498509565282186;3.0605180621127195;10.397608516537604;40.08322525560948;1.572255186952006;20.76695620328606;4.71993021497709;-0.1966893968182622;-28.486553556614094;6.159568896038962;3.632115743205822;0.8410539741000496;5.425367073163616;-0.018515678391527096;0.12332598464575284;0.060120450361278284;6.214496782975018;3.9852108232450547;0.9739719021970088;5.418105885793445;-0.019916942118655342;0.1488423577669657;0.06043178188618827;-0.002949588060104795;-0.509374224964559
1.9394586086273193;-17.259060780965683;30.393255275311738;524.8880115792356;4.4740607723446795;3.1825897962667966;53.7199079714549;3.7059532997486944;10.757024576240498;-8.816184442775096;13.489271337809932;2.1517959700666625;2.037437813421337;3.1925388265430987;10.69123203707027;40.35483929617425;1.245695648932724;20.869139267080786;4.793377012534607;-0.1961720389654162;-28.49318239910214;6.156887406961785;3.6319047094368644;0.8410176472231085;5.4246664897215595;-0.018462482313710366;0.12331567219153418;0.060149698726063565;6.212640479918013;3.985686520008837;0.974083882410667;5.4177482283356655;-0.019915273457554512;0.14883111718818318;0.06040296520517492;-0.0029021433229677067;-0.5078273717850811
1.9594616889953613;-16.870049683526002;30.05226047628555;519.68081527028;4.468113197963803;3.6648131537781055;53.91607791627063;3.6855769393487923;10.690131343635123;-8.834622932131415;13.404197551864293;2.136717778785811;2.0160541557474425;3.1796236649064085;10.677669171552665;41.01572715804041;0.9044494630117832;21.0608539065776;4.88394964661648;-0.19380849804804665;-28.500050028281684;6.15504021315294;3.633014363700818;0.841485615772269;5.424129151678087;-0.018426484126565827;0.12341544571002637;0.06018409670109898;6.2113056173629095;3.984842926858918;0.9736854277516688;5.41764868736347;-0.019943718020069362;0.14874270030858333;0.06037420388674844;-0.0027926522069401136;-0.5080591966268958
1.9794507026672363;-16.933826001767354;30.072347492171097;517.1478857556306;4.523387764249812;4.092925234354524;54.11640048435555;3.6921556831057263;10.72780727025024;-8.633924558662061;13.539670582999188;2.183549074985656;2.007636765002347;3.191020492461548;10.660916585028717;41.29841849887855;0.6857494443394483;21.16016517284793;4.905021216628636;-0.191293908840147;-28.50958092185219;6.152919258139642;3.634258961364054;0.8420004524114646;5.423512894617106;-0.018397870663510424;0.12352880767242916;0.06021592501217935;6.20966391641438;3.983960571636351;0.9732599260536698;5.417462767400562;-0.019993457037590222;0.14866280016188707;0.060347346830556134;-0.0027013496117060647;-0.5101394945981983
1.9995296001434326;-16.784210436846102;30.19972325068347;513.2101562015312;4.569227947042091;4.587767578437287;54.4574779909813;3.7059288997784168;10.696404289477009;-8.599325951447595;13.464512395258186;2.189386624314148;1.9856518204951021;3.2483156346193462;10.795938470989881;41.85691266241099;0.5189156685528777;21.328605173033555;4.9547434942831785;-0.19187196659415234;-28.514500478791213;6.151316166901965;3.633149427165438;0.841631198262042;5.423184289436649;-0.018375207136325677;0.12348011508482869;0.06023870904221316;6.209131098970311;3.9852704752706223;0.9736926848556342;5.417385259143627;-0.01999904031551244;0.14871615194911722;0.0603275272834558;-0.002750186111148266;-0.5103222274451509
2.019596576690674;-16.10858552623757;30.332853008879887;509.9442467015374;4.617625517701551;4.635614833751802;54.69342274806792;3.692837866772585;10.656244158783815;-8.62693711552365;13.364793260764191;2.193714455099313;1.9376162524675613;3.299448098938521;10.889941515041718;42.09369329723363;0.2421248250346748;21.4462286231416;4.988422716986397;-0.18969305508196135;-28.51883228083759;6.149887398180117;3.634040403683146;0.8420244525694495;5.42271693686911;-0.018335091527229036;0.12356149677402818;0.06026314326436452;6.208258194771671;3.984302242578279;0.9732663025667783;5.417321663554174;-0.019994316240510616;0.14859943869986494;0.06029814088404611;-0.0026670774330058203;-0.5104808006267632
2.039482593536377;-15.382886480730429;30.17536152855928;508.47135297191363;4.6203490778255105;4.428564079364854;54.495507696544806;3.6882497729457353;10.606678138598921;-8.644981555037667;13.209657376980363;2.1911671262416164;1.8800355840729945;3.256787959837291;10.790414733282933;41.99909439755992;0.09492397812190845;21.46954820672849;4.9695329660498295;-0.18733193537879508;-28.50405898864265;6.155049385009464;3.634901953131741;0.8424448282196012;5.424054715776402;-0.01832097469038311;0.12366384641139704;0.060294204073190194;6.213282115494203;3.982681961635855;0.9726280223811231;5.418895061899696;-0.020065435742211757;0.14850415422845206;0.06028393349504951;-0.0025602833986828775;-0.508314294082275
2.059518814086914;-14.112372416855154;29.706075863552158;507.1993438051162;4.524071497174889;3.649945417254841;53.929125736679254;3.6310348688425536;10.473163218561009;-8.746558388639496;12.837129387565929;2.161840907577252;1.774136753707544;3.165386613136404;10.582996440630616;41.51885635003107;-0.14724673715851377;21.354452563933204;4.9350129887304695;-0.1893485873233303;-28.50241434778072;6.1547991414305665;3.6327054782834995;0.8416664736743628;5.424063171798324;-0.018309666079168382;0.12353813764948711;0.0603004160850622;6.214251964642912;3.9843900931861502;0.9732253082412241;5.419026586055409;-0.020085969943620177;0.14859916642345675;0.06026858295978113;-0.0026963814404079305;-0.5082836348772533
2.0794992446899414;-13.058417485304993;28.70123428752646;512.0552204511949;4.346545578304936;2.0240958067807924;52.38913394007222;3.5420425511146285;10.208144536279892;-9.05319323969955;12.391825956195081;2.0797317764446115;1.6330089610332699;2.9890339943658994;10.0148609523747;40.2561496991433;0.004380340881993128;20.98115621736343;4.728399475469091;-0.18996759919001782;-28.50054200337172;6.155676565206796;3.6316603074112073;0.8413139152861459;5.424294479584421;-0.01831271062696535;0.12349430857176553;0.0603050992107964;6.215648860160876;3.9843287714641606;0.9731872480822764;5.419347060509975;-0.020072764650189874;0.14856100549081855;0.06025149129715708;-0.0027835261963534046;-0.5100052076570114
2.0996530055999756;-11.422393052586456;28.08497902041816;514.5810892686269;4.30100986631498;0.36393594733569756;51.19244659396425;3.3937510299147653;9.903187036263775;-9.451354410218737;11.826577369987149;1.9338629823839422;1.4983194356263478;3.0046646720421513;9.639885641357376;39.16342934521484;-0.046095787989968606;20.72683421585858;4.483191479392034;-0.189993571218275;-28.49350297504485;6.156672278505476;3.631229662999554;0.8411843614788587;5.4244839189063025;-0.018300988812291502;0.12347206125186827;0.06030318621442677;6.217063366617921;3.9839572984562115;0.9730233531522978;5.419655270260933;-0.020113304679119544;0.14854117662558342;0.060237693825340284;-0.002791287948215754;-0.5080424344744519
2.119591236114502;-10.460427643778218;28.081754038786933;517.2411286174297;4.390338739677135;-0.7778922576143188;51.05216448856329;3.3339889260617785;9.824419069123751;-9.971472384434474;11.644418751382197;1.7606261286160934;1.5202287058123913;3.1230039068191466;9.6128274163754;38.605565344298924;-0.17620464709302386;20.592684459826078;4.376145124602288;-0.18888603498235512;-28.48543346880941;6.158613934270088;3.631900592682721;0.8414509243171769;5.424835123379528;-0.018316736726241893;0.12354099170334183;0.06029633320893694;6.21889755804336;3.9829336069845924;0.9726372008838479;5.420067815995081;-0.02013842462564308;0.14847687676274626;0.060227832805133386;-0.0027579897917458787;-0.5078135494930552
2.13950514793396;-10.474755694311934;28.103022946901525;522.15891795793;4.805115721091604;-1.3876177063450328;50.98134059752066;3.416900878745784;9.958895991793957;-9.569926628303943;12.304628904158628;1.824149724899139;1.6821722587396588;3.2564577560132153;9.441891213371393;37.46160752831936;-0.5184632892498771;20.351717132385286;4.2040724356698;-0.1888512283344983;-28.473746016953243;6.162062012765242;3.6317713986840676;0.8414270937671373;5.42563623390201;-0.018349628947531532;0.12354851296111657;0.0602774919833358;6.222267550130185;3.982692685072686;0.9725733277396894;5.4207497959629665;-0.020120048952406253;0.14844272244208787;0.06022910905978669;-0.002818112693492433;-0.5092495175503328
2.159475326538086;-8.095283540271803;28.838489316248214;523.0512591013312;5.348419840564858;-2.993115595870705;51.512592373713595;3.5168527232967284;10.229898293745393;-9.311313703664414;12.66352422943331;1.9099551510772534;1.7941338743198956;3.483618444956756;9.519972581852766;35.86231395845974;-1.5649288470020162;20.13382792485971;4.091567912930202;-0.19277480711776873;-28.45652921425359;6.165620839661221;3.62907150278135;0.8404006553194878;5.426638671509897;-0.018409592417821204;0.12337660895794939;0.06022790822384065;6.225905317121283;3.984927891898542;0.9734740795123548;5.4211831810276525;-0.020084388523736257;0.14859155326312545;0.0602568731782244;-0.0030395140235477333;-0.5069814572413804
2.179492712020874;-7.600921274382043;29.27717813147217;525.6443601453545;5.584831340281402;-3.578036227874435;51.79448719876851;3.5365389661225186;10.328502883719269;-9.057930884123902;12.934473065796908;1.9924921953240795;1.8565769838303539;3.6503115011383644;9.720925394057463;34.975916268005804;-1.829102953711394;19.902329816454504;4.09328028781062;-0.20177013294717594;-28.43484547550697;6.1713560983566795;3.622709780626589;0.8380090046624888;5.4284923105425325;-0.018463730560926504;0.12293812092527324;0.060151813051747126;6.232262192602942;3.9904699327134563;0.9756277129457701;5.422011973753733;-0.02010736407977637;0.14902078889063775;0.060318290690088;-0.0035712364755896807;-0.5081242445284343
2.199449062347412;-7.683724209086623;28.311978666261076;527.1944367247255;5.4410012246568105;-3.7016742903567206;51.13465828715418;3.5426109553016207;10.174899584663876;-8.987495986990488;12.932926469863432;1.9926828968524721;1.7953877671428156;3.4443308500628538;9.467664792633236;34.656119935230244;-1.7959456535370704;19.69959849099605;4.15385983617321;-0.2081061676325369;-28.40305866224967;6.179789157616871;3.618658170841899;0.8364646910202035;5.430960530423681;-0.018556199749365204;0.12266533353547306;0.060069462453703544;6.240178020713051;3.9933462231265473;0.9768493563053273;5.423386627917045;-0.020057727645770303;0.14924829328786135;0.06039156463016354;-0.003923946413561113;-0.5054380409389313
2.2195026874542236;-6.056253016560095;27.07731701785417;527.5494551175786;5.169349458078104;-4.967036000923528;50.21705070970655;3.409278130736102;9.865534504900994;-9.402726553696382;12.454886735785855;1.8582732343748005;1.67786902650201;3.2308038186939827;9.163140395761431;33.96768477392309;-2.053688064498404;19.473522403453696;4.162229188604647;-0.21891286159205703;-28.382210087053185;6.184740301628134;3.6118524695813012;0.8338177021631287;5.4326863559108025;-0.018662490671459697;0.12218349884676001;0.05995882205710803;6.244989755980089;3.9993524125699844;0.9792643203627175;5.423624599389197;-0.019966256742124898;0.14968483255231319;0.060480804351603544;-0.004506087129374387;-0.504821738097207
2.2395286560058594;-6.425609950814158;27.660114002627274;527.5599194251334;5.162470601710597;-4.631546236884731;50.45729024598986;3.526598363372;10.15058940263673;-9.239316034945505;12.327624618314463;1.8393172846151336;1.681222689417066;3.2061295385952073;9.171336441156729;34.025987156578466;-1.8108968743501945;19.447355773649452;4.112674251389604;-0.22789448398018877;-28.363896280375073;6.189909642829897;3.6067482927476466;0.8317855855635116;5.434391785525387;-0.018784130315515256;0.12179492227647205;0.05984441659563816;6.249268900139783;4.003732333581496;0.9810627646393963;5.423827175101978;-0.019916795440614796;0.15004642093403522;0.06057803887743658;-0.00500956405611596;-0.5060513867385644
2.2597994804382324;-7.05081777830735;26.9522538591947;526.6642285586338;5.082281607097584;-3.810904163141167;49.86215180837095;3.482061067971073;9.884600951124874;-8.97065075746075;12.321751920534236;1.856498858133752;1.5626127454590109;3.1443670614816357;8.963270807658596;34.427942437313945;-1.497012389338952;19.584914554036438;4.016020741257685;-0.23845942377781332;-28.336933180607083;6.196821229421397;3.6003417781391835;0.8292893946540885;5.436690978039258;-0.0188842910120723;0.12131667237247239;0.05972724005463258;6.255512205665223;4.009084839417966;0.9832547279028554;5.424502539723656;-0.019855205091520438;0.1504784994815495;0.060686587688321816;-0.005548824368596606;-0.5034974132694641
2.2795357704162598;-7.245951868993167;27.033149703657827;524.588758687895;5.133793207025187;-3.0112298017209156;50.205088885498704;3.4495655596771764;9.840559564461701;-9.032544565537236;12.351629308557477;1.8558075253225985;1.577108968211422;3.2867143711305515;9.067315240422317;35.239285462933374;-1.3052350983007752;19.897378908307147;3.9587166034500494;-0.24673901404241194;-28.31813481351013;6.201851734349852;3.595453736658635;0.827373333973643;5.438393685016301;-0.018988091473781256;0.12096447021777647;0.05962170458407595;6.25978391726164;4.01314654836026;0.9849329671864119;5.424786027025385;-0.01975890200201358;0.15077704891294794;0.060780777217122564;-0.006009727141940086;-0.5029463261874969
2.299607276916504;-8.62232237660993;27.110018890390947;524.2202831987414;5.226042878211016;-1.6560520562537207;50.42333593742975;3.4459469841716253;9.731642308881838;-8.772071737883202;12.604857979018295;1.9346255404447081;1.5798213084484674;3.4588404525722165;9.233724889298054;36.093315256379164;-0.8266943187983342;20.152777341921137;3.9246444000183796;-0.2554038370337594;-28.301927221125613;6.206024898849977;3.589824916173032;0.8252186801550941;5.4399450099288424;-0.019080617162559307;0.12058597047415599;0.059526596084912516;6.263812411202725;4.018020521099194;0.9868739387222485;5.425018510573901;-0.019671847984023022;0.15110973448815412;0.06086864704367448;-0.006514670005488861;-0.5024752189851144
2.3194782733917236;-10.265346869256582;26.769217489475075;525.1274906252975;5.175191908173851;-0.4137729179108831;50.27672671017881;3.4934269322972638;9.792312326122506;-8.402415402656285;12.942891018846968;2.029178255514561;1.6076069268126243;3.3823900038213868;9.027720480232784;36.68213667866618;-0.35353052680432384;20.29127503102841;3.8658929982145764;-0.26007738609250447;-28.29079953198226;6.209155686759529;3.5868958302816503;0.8241047349562018;5.44107842330249;-0.019164062222868698;0.12041536166680931;0.059453033244153165;6.266462756438951;4.020485495890281;0.9878353896242899;5.425170758500531;-0.019659500690166212;0.15129269557740813;0.06094206373283969;-0.006829599722475701;-0.5021587107700047
2.339447259902954;-11.710953448809782;26.22962336569376;528.953376653949;5.056595325905207;0.17467230142648305;49.66538583135758;3.505345872111436;9.754229091613869;-8.179464139577503;13.153182688606545;2.0976751638587015;1.623869750768172;3.2654238298061413;8.735478533912005;36.764738111880185;0.2910673913218256;20.302278861771917;3.7442914488296144;-0.26420629208851815;-28.28769617831575;6.210704428996616;3.584341345127222;0.8231431270370698;5.441824221716551;-0.0192130076133063;0.12025819305569002;0.05938655942977106;6.267584073017413;4.022729772960827;0.9887186216696505;5.425024853213323;-0.019595922272217403;0.15142638093503547;0.06100862290649178;-0.007139561236418415;-0.5038555173540455
2.3594791889190674;-13.206075859125496;25.889063016389272;532.4455039675131;4.936091118336409;0.6649907456134727;49.13886992903119;3.5307768092817207;9.73383579381716;-7.789235447996181;13.391672650506102;2.170632712141523;1.6119966479380523;3.1206671369516106;8.521875811968899;36.61323377261518;0.770066704591148;20.210611552481375;3.646212157373394;-0.2689276049472063;-28.29432631913253;6.208047236170751;3.581586358708044;0.8220638303919467;5.441502752965029;-0.01926759089768905;0.12007975092173617;0.059316788293681574;6.264622431989478;4.025745915720748;0.9898760679213053;5.42378559509856;-0.01949978893824284;0.15159241967879128;0.06107074724874897;-0.007412116534758917;-0.502286885609788
2.379577875137329;-13.774307254313754;26.163767742441166;535.4309021454657;4.94665632711284;0.6135813019791101;49.29133104179236;3.600418017940338;9.931459067965276;-7.655968896617497;13.602945360944862;2.2224994064947023;1.683156459549017;3.0880177195928735;8.521210565728715;36.3201632785529;0.962245626036478;20.142821489766813;3.605045875013565;-0.2766317448449958;-28.303168889115522;6.206161744122351;3.5767448878691392;0.8201967670928134;5.441611313262901;-0.019321362881294428;0.11975043353609686;0.0592463229238709;6.2628791107191955;4.030798286314326;0.9918058174800941;5.422823065079974;-0.019459423093090837;0.15195188962920803;0.06114693699198309;-0.007872934138854102;-0.5043364185637538
2.399491310119629;-13.060665548907382;27.000056159844725;539.0367594400528;4.930893468258114;-0.4801078538235046;50.216949400566065;3.6028580778299952;10.237488154133343;-8.274199607392204;13.599216143681975;2.194045346693856;1.8655849155158535;3.2017853909443867;8.932705324488776;35.925841288174766;0.9233911719694046;20.032855403590744;3.723016773764026;-0.28243900415444534;-28.315174196611938;6.202545720631775;3.573691136099851;0.8189579617664281;5.441158575427582;-0.019373307897618056;0.1195207860888786;0.059180008550762914;6.258796386228089;4.034362146547876;0.9931910637495255;5.4213938747620976;-0.01940435703992323;0.1522168092651636;0.06121618409674557;-0.00814769717675431;-0.5029292720782791
2.4194817543029785;-13.102172738853655;27.454111078002384;541.5303548136806;4.868068737896542;-1.0896807245068771;50.79649000246554;3.62104613616372;10.460741232198654;-8.600070060580862;13.568275720616194;2.1658598868342827;1.969387350163049;3.2467262340266925;9.218612778479937;35.656481429287986;0.9352574412763621;19.845976422722668;3.886542240420575;-0.28991573260680115;-28.337983932619778;6.195603469837778;3.5694396682537235;0.8172510241687229;5.4398465966726866;-0.01939409266061879;0.1191826246757339;0.059115674826083556;6.251950056671674;4.039474907190181;0.9951476112998774;5.419145882846817;-0.019323302607154383;0.15256806652830882;0.061271921341525544;-0.008513627226377173;-0.5035916403325252
2.4394495487213135;-13.57160295293229;27.612745008754576;543.8600761719324;4.720568957139164;-1.3526650576310857;51.118164389999734;3.641574057975748;10.609082145787186;-8.852828269095266;13.527417893044701;2.1352641602869498;2.0324187406980005;3.1924187349160635;9.414350736477967;35.582155314458575;1.0965285931128452;19.683172491977984;4.079812925024856;-0.2936537260625515;-28.3513884597904;6.1920164196723775;3.5673698030117498;0.8164206846595385;5.43924017683383;-0.01940522617456209;0.1190212373897837;0.05908748015382199;6.248352443653379;4.0419918353852315;0.9961240136519514;5.41805738873579;-0.019266356439432857;0.15273883100286997;0.06130339075736344;-0.00869177141487433;-0.503988160681681
2.459455966949463;-13.586332636988349;28.117468713895644;543.6516371144464;4.688827463886666;-1.5166406134143244;51.68467342299559;3.622851199796913;10.560344971449538;-9.019275699593724;13.420952898343955;2.110115913733682;2.0312396915949655;3.283143644476888;9.93455219242945;35.625755287503424;1.0545758697962508;19.60605324631207;4.314898685787466;-0.2946555952868667;-28.36573035158108;6.188353343848108;3.5667825192111384;0.8161823691149169;5.43838007951816;-0.01939241623333849;0.11897359631195306;0.059092298473262854;6.244981673524435;4.043108954733292;0.9964990983317685;5.417201452535217;-0.019312203237997608;0.15284010085965585;0.06130167473325876;-0.00875401899205602;-0.5061756356776772
2.479461193084717;-13.508013928354666;28.665408326357294;545.2910336460029;4.684178369979295;-1.9745259124413437;52.05978807655657;3.6320618838285714;10.614311697582785;-9.05029477093688;13.435460666603772;2.1095258599734916;2.0418915700020155;3.304009889743202;10.302351372155332;35.200345901217545;0.9805367565481937;19.44064811872296;4.5027955522309915;-0.2902523610266888;-28.369467900960508;6.18711294785054;3.5696941917224456;0.8172963167947763;5.437815412977366;-0.019357783096261086;0.1191740536067604;0.05913806429186633;6.24360875083221;4.0403885878677785;0.9954468643490183;5.417233939259767;-0.01933523190496194;0.1526501773315321;0.06126129198529704;-0.008466179686962571;-0.5045132008647564
2.499450445175171;-13.718307335470623;29.0773637153749;542.3584962012363;4.688578042842533;-1.432844421034197;52.66995820280737;3.650171684980589;10.66908352285989;-8.918931500490876;13.523236241008238;2.134845091447394;2.0530365199353247;3.320477965030694;10.604879315081256;35.65166646881225;0.7976767421710864;19.550886910783007;4.67723603707941;-0.28728174155925734;-28.37596188245066;6.184761851179512;3.571269443488985;0.8179120981729582;5.436886637431925;-0.019280256130305644;0.11925505951896931;0.059202078336044905;6.241966624896179;4.039028423871039;0.9949016684931071;5.417134129978687;-0.019362980745491004;0.1525500054737174;0.061193335426707594;-0.0082457479780257;-0.5046853272954498
2.519514799118042;-14.321852026015623;29.844576662682222;539.7757283682146;4.678892862680102;-0.5967165966955434;53.3402723844909;3.6334931040886267;10.615398000062463;-8.897776759429604;13.500887097132068;2.133387384434148;2.0413866634510143;3.4305032239306477;11.1071398773968;36.43429868810371;0.9403677026610611;19.751845177070503;4.830032064259779;-0.2787474551427773;-28.37639919317847;6.184718838125206;3.57675665947091;0.8200098215037246;5.436210060419021;-0.019194196632761736;0.11960634163984342;0.05930499070665886;6.241947492425969;4.033609024017077;0.9928143225107833;5.417855392465406;-0.019471232996631317;0.15221442409173896;0.06109318044495838;-0.007709982441253574;-0.5046792475888782
2.5395991802215576;-15.401945768813373;30.379468844600865;534.4571414347798;4.580040404023865;1.0825335808851264;54.14061148848326;3.6380908920595947;10.627798382341894;-8.963861469164215;13.456349286631273;2.1203235540851195;2.0427719577026506;3.4705205268346004;11.480376629699428;38.11051631742588;1.1999352579931877;20.163483634282432;5.019492340953898;-0.26677967800609204;-28.36909241563064;6.187454572815817;3.5843306194679836;0.8229318639451435;5.436076691139303;-0.01909188726219927;0.12011262220058182;0.05944369915709823;6.244600265455259;4.025767402473569;0.9898234109982592;5.419578326622154;-0.01959556776749024;0.15171380011648536;0.06096644010982042;-0.006986160269288094;-0.5044529310505429
2.55951189994812;-16.766906115645877;30.519546102125524;529.9003294019708;4.412525179089407;2.830117438016373;54.55666690598365;3.624733615071825;10.58237310049422;-9.040187632443363;13.405234640919362;2.105693375722638;2.0325333414903257;3.443487953135506;11.64492099377826;39.82175356107791;1.6056422195673754;20.57133707948745;5.15179606212262;-0.25387961565643685;-28.36559179322044;6.188880222338689;3.5922780890568626;0.8260121785889589;5.435556547975062;-0.01896952597276562;0.12065076938247897;0.05959978850592266;6.2460802915366465;4.017728670741596;0.9867342461635625;5.421093600011328;-0.01969856332773668;0.15116629438595508;0.06081935941569942;-0.006216328929460524;-0.5043390158356533
2.579556465148926;-18.315523529375216;30.63591410538246;528.0599664166386;4.300885165708502;4.247841186107287;54.648105720528164;3.64914561308119;10.648585153258393;-8.936805005675918;13.509358936311127;2.130872344688863;2.045052090784924;3.3801199619436857;11.558485339048598;40.976724817150135;2.0509593450491437;20.847103499838024;5.15209875380172;-0.2401726331207861;-28.37405477422845;6.186488731275476;3.600565383806587;0.8292364437954289;5.4340112847435895;-0.018814740200053297;0.1212156962980138;0.05976441186187556;6.244406362902644;4.009896655241352;0.983655068287764;5.421840991348629;-0.019810214593506764;0.15060473693918092;0.060656646258709625;-0.0054211198934517755;-0.5045553092720766
2.599489688873291;-19.267277293278298;30.242856954662894;525.9178114320189;4.181403693150327;5.291660688590426;54.21902412273147;3.6469621967758172;10.590279760359852;-8.731645717517175;13.560606953866863;2.172540546102376;2.016344464934431;3.233406017907052;11.23780975922793;41.757899045407704;2.3357902730288362;21.10042650533253;5.071542821031542;-0.22569517792152696;-28.38680282985799;6.183020925783808;3.609191367546779;0.8326121222858757;5.432251059742207;-0.01866379773213897;0.12183229652400457;0.0599337247825066;6.241597055964833;4.002031662150347;0.9804915426065789;5.422375407276076;-0.019989587191470225;0.1500558062458232;0.06049605582976706;-0.004616763988419428;-0.504905434017512
2.6196048259735107;-20.211798378904895;30.096569596471475;526.4465141632677;4.13156328426044;5.920044252462212;53.67456600898061;3.6323366465386777;10.510553215240556;-8.67849280105387;13.586885982072545;2.203391423697946;1.9667516663445306;3.1907344172554892;10.926183927635462;42.24101387198015;2.79462745235267;21.277149208900482;4.89806103401623;-0.21056528661462434;-28.403214049175666;6.178974466378477;3.618304374289329;0.8361815269064468;5.430421654936792;-0.018524621999310723;0.12250320221502821;0.06009731441968851;6.238284918811555;3.9937649714726584;0.9771879410318531;5.422842182933856;-0.020102645082550094;0.1494348710724125;0.060344769154474995;-0.0038072321006600127;-0.5053591589456364
2.6394667625427246;-19.992369106220522;30.228809354450043;527.3539822404895;4.192769186870635;5.537235479016566;53.173561705100056;3.567762593196486;10.384324593876434;-8.685614347061321;13.41475861095505;2.205595383961682;1.9163405180685524;3.289168588948696;10.806909793047053;41.94900805935302;2.94451977674521;21.28508270676334;4.720721927475372;-0.20004207138581362;-28.427238580559184;6.172155335584564;3.6243803243282002;0.8385763772692146;5.428161274918264;-0.018404253627372552;0.12296058865516353;0.06022373304480804;6.232205822810621;3.9888265915589436;0.975156967571763;5.422297070099889;-0.020160924644398684;0.14902126847793642;0.06022370055237024;-0.003253085293570624;-0.5060427665566712
2.6594767570495605;-19.751958020328612;29.911478656770893;528.9919952091809;4.240846521320009;4.963441771460886;52.51369794255931;3.512801496841201;10.23367466979078;-8.698178207062433;13.389249184757869;2.2154713740475636;1.861254499227382;3.305568822889569;10.51845841387796;41.46069133687432;2.9137271857775415;21.190129424344;4.539892742387048;-0.19492972514788967;-28.450700516000182;6.165553719163803;3.626874163972831;0.8396053934603837;5.426322754706226;-0.018296967828717675;0.1231576283816468;0.06031019304329837;6.22682231047869;3.9874490941932077;0.9744700718412199;5.4215574760247165;-0.020245819230377445;0.1488959797253931;0.06014799775322399;-0.0029876127781289113;-0.5067116938568323
2.6795620918273926;-20.08057998213775;30.032328067043558;533.0936386598328;4.283236012566974;4.325050388953066;52.03233167392702;3.51423563449697;10.234226990922341;-8.717624501131661;13.333702556149014;2.1967516596192187;1.8601421550114008;3.3476619159872163;10.383567245946143;40.801424015175364;3.1667602636354957;20.990162727590338;4.400323284429679;-0.19019569208056722;-28.477791293848625;6.157952436673538;3.629846316303512;0.8407519602655007;5.424248261635669;-0.018236542595724492;0.12337990407417955;0.06036037215382945;6.219540640913923;3.985745299388057;0.9736979403357022;5.420175331147548;-0.020283010570946565;0.14874663659826182;0.060101746676336804;-0.0027474787270463843;-0.5074834781863174
2.6994876861572266;-19.404862538338953;30.132055044761863;536.5673532131327;4.3576339993039745;3.1291169594571002;51.842001124326536;3.555073213523409;10.373936423702812;-8.839366921995149;13.314319574579752;2.167674266324582;1.9126249648280056;3.3238680310096314;10.24988467135796;39.8056817949216;3.001701388063193;20.743124553851892;4.3246552909808145;-0.19103124749513367;-28.491365867098605;6.154718864545186;3.629045157878119;0.8404703629131581;5.42368136946676;-0.01821632634128463;0.12334085071898784;0.06037340210074157;6.217012263818287;3.9870872221378995;0.9741794387650451;5.41971158752008;-0.02025591154570805;0.1488172120980123;0.06010378759853471;-0.0028006645384222794;-0.5078736520994966
2.7196452617645264;-18.892410283343068;30.008360504153593;540.616839791315;4.401258205374086;1.921007707612901;51.60346291760031;3.5933873339695843;10.510137314487029;-8.868996711008673;13.438002208484532;2.146514528028145;1.9645864038272676;3.232230493192988;10.063507738523825;38.666717967733746;2.7317549400832837;20.419770957753325;4.280177014747935;-0.19402369458325203;-28.5023635807274;6.152223615533463;3.6273927888553557;0.8398124916624043;5.423394499859838;-0.01823387789413161;0.12322269558004936;0.06034867807976498;6.214574103309552;3.989408057558212;0.9750888596532591;5.419025955398295;-0.02019690174035739;0.14897523336375776;0.060139931762474175;-0.0029562870157845964;-0.5081925207394471
2.739607095718384;-18.076303871707726;29.95523668635895;541.2993480997252;4.479719928429832;1.0602219116300802;51.83209478342148;3.6313881931141876;10.595500940601482;-8.847710900517626;13.553695675544667;2.1426631565777714;2.0228334954486034;3.192348333784513;10.154352896183001;37.910875989317894;2.2154161223887767;20.214356577805784;4.3892388490356025;-0.2001015867529166;-28.509263173854013;6.150736484706754;3.6238809762954354;0.8384312607289972;5.423508075548532;-0.01826443493537918;0.12295714217398566;0.0602926347011748;6.213014578927347;3.993705616895748;0.9767536137939652;5.418294253400138;-0.020187494590520848;0.14932255628825905;0.060208181450978636;-0.003268987812689449;-0.5083990580572123
2.759580135345459;-17.632900623290823;30.080955264644224;541.5409792809216;4.531834230366431;0.559449952023634;52.105349014521046;3.655953008578244;10.647950444343422;-8.834535498333183;13.546680430525093;2.14237527613454;2.0428110064432334;3.2213807873633815;10.348751504733524;37.47192069980311;1.9537282255832045;20.064689503650033;4.510731697057498;-0.20841369263368872;-28.515797568092566;6.149524238464832;3.6188382585800003;0.8364598330674209;5.423777783766236;-0.01831917317644704;0.12258961795459494;0.060217306577499234;6.2118501180362395;3.999091058926944;0.9788622662785802;5.417459552909949;-0.020115498965650305;0.149714725657637;0.06028981485619327;-0.0037289687737646253;-0.5103671551935755
2.779475450515747;-17.20940688034443;30.314995779727305;539.2675354440166;4.575723544276748;0.5036573458684259;52.72018956089454;3.6270794190800943;10.567937021996872;-8.910365688909593;13.513567801325085;2.129937408232441;2.027360321299514;3.3362087825880504;10.77622791533242;37.59728506379306;1.6277317843815862;20.056348458814284;4.702110914261427;-0.21699858053505658;-28.51828126564221;6.148625353599129;3.6133790073091197;0.8343437579191967;5.424106186803651;-0.018379799137074403;0.12220444572617484;0.06014009434264502;6.21117731703628;4.004491754049154;0.9809756025673619;5.416681602862817;-0.020018450370473388;0.15008116498139995;0.06036845460477125;-0.00419860843052179;-0.510449892242707
2.799582004547119;-17.28675176927277;30.640440889536336;538.2459184852855;4.664761907465104;0.6972876164565918;53.251968395694874;3.661660276546036;10.673417822131665;-8.748191123602147;13.658007997849094;2.167575185213423;2.0493879641044286;3.4106491891414823;11.018019357684135;37.63043486276783;1.4389869653349123;20.045646915752158;4.831943122463904;-0.22229386091915154;-28.51624049253053;6.148455953919237;3.6099857082695523;0.8330351453321331;5.424411733492716;-0.01843347584372909;0.12197873113562732;0.06007960527883607;6.211001214768821;4.007795387596505;0.9822451418567265;5.416177103941032;-0.0199901076883338;0.15031614329863593;0.060430307180230916;-0.0044922916641863654;-0.5086267513973913
