flxalr/sts-optimization-reemc/input/498_104/vel.csv
time;base_link_tx;base_link_ty;base_link_tz;base_link_rz;base_link_ry;base_link_rx;leg_left_1_joint;leg_left_2_joint;leg_left_3_joint;leg_left_4_joint;leg_left_5_joint;leg_left_6_joint;leg_right_1_joint;leg_right_2_joint;leg_right_3_joint;leg_right_4_joint;leg_right_5_joint;leg_right_6_joint;torso_1_joint;torso_2_joint;arm_left_1_joint;arm_left_2_joint;arm_left_3_joint;arm_left_4_joint;arm_left_5_joint;arm_left_6_joint;arm_left_7_joint;arm_right_1_joint;arm_right_2_joint;arm_right_3_joint;arm_right_4_joint;arm_right_5_joint;arm_right_6_joint;arm_right_7_joint;head_1_joint;head_2_joint
0.0;0.0002561867287092414;-0.0002007160083927548;-2.1298504445504282e-06;0.004591248786671009;0.0003862424135653436;-0.00041788070628580147;-0.0006776597651127247;2.220446049250313e-16;1.6633862532066337e-05;2.220446049250313e-16;2.220446049250313e-16;2.220446049250313e-16;2.220446049250313e-16;2.220446049250313e-16;2.220446049250313e-16;2.220446049250313e-16;2.220446049250313e-16;2.220446049250313e-16;1.3445853900888804e-05;1.3445851236634965e-05;-8.03515491922318e-11;4.799571469837136e-06;0.00014673935941445;-8.398681119041583e-06;3.7380562448207016e-06;9.658048290321942e-05;-9.658048290344145e-05;2.3505998245546357e-06;-0.00017772071255734573;2.220446049250313e-16;4.5631561976904317e-07;2.220446049250313e-16;7.374789316250135e-05;-7.374789316227931e-05;1.1122142594163954e-11;-0.0044387000570853714
0.019660472869873047;0.0002544183949464046;-0.00019924843573034535;-2.323433344938133e-06;0.004591521066369758;0.0003844628055194248;-0.0004194107396867674;-0.00043942270054355;2.220446049250313e-16;1.3548384994008854e-05;2.220446049250313e-16;2.220446049250313e-16;2.220446049250313e-16;2.220446049250313e-16;2.220446049250313e-16;2.220446049250313e-16;2.220446049250313e-16;2.220446049250313e-16;2.220446049250313e-16;1.0951732038860806e-05;1.0951729868809404e-05;-6.544683901425525e-11;3.909280959504032e-06;0.00011952012536406584;-6.840778263216361e-06;3.0446701742579913e-06;-4.803454368027089e-05;4.803454368004885e-05;1.9145782483486537e-06;-0.00014475463113241153;2.220446049250313e-16;-0.00014659652540401682;2.220446049250313e-16;0.00018768358543430093;-0.00018768358543407889;9.059054656337754e-12;-0.0036153489383713923
0.03950762748718262;0.000247344886559425;-0.00019477184650589367;-3.213788927861586e-06;0.004592569463341246;0.00037723029251877433;-0.00042365197942549257;0.0014051879697647407;2.220446049250313e-16;1.103524425502642e-05;2.220446049250313e-16;2.220446049250313e-16;2.220446049250313e-16;2.220446049250313e-16;2.220446049250313e-16;2.220446049250313e-16;2.220446049250313e-16;2.220446049250313e-16;2.220446049250313e-16;8.920254193977368e-06;8.920252426456939e-06;-5.330685941985474e-11;3.1841337745220307e-06;9.734988910981514e-05;-5.571856650253869e-06;2.479902886121722e-06;-3.9124436043499234e-05;3.9124436043277176e-05;1.5594359493940303e-06;-0.00011790355177379373;2.220446049250313e-16;-0.0013220564434086766;2.220446049250313e-16;-7.342825900248563e-05;7.342825900270767e-05;7.378656636678702e-12;-0.002944724306234362
0.05953407287597656;0.0002319115865059382;-0.00018690991981870904;-5.249547836827723e-06;0.004593417131814651;0.000361346631388676;-0.00043098165989665944;0.0016095700155792881;2.220446049250313e-16;8.988275415995614e-06;2.220446049250313e-16;2.220446049250313e-16;2.220446049250313e-16;2.220446049250313e-16;2.220446049250313e-16;2.220446049250313e-16;2.220446049250313e-16;2.220446049250313e-16;2.220446049250313e-16;7.265602792583279e-06;7.265601352926843e-06;-4.341877016534305e-11;2.593496860184284e-06;7.929209311675136e-05;-4.5383120657358415e-06;2.0198964001391798e-06;6.114496090899238e-06;-6.114496091121282e-06;1.2701703272561213e-06;-9.603317981695357e-05;2.220446049250313e-16;-0.001987257770847839;2.220446049250313e-16;-0.0002751281698849744;0.0002751281698851964;6.009961947178781e-12;-0.0023984963519548016
0.07960295677185059;0.0002070057765308717;-0.00017505604472358387;-8.457790953912056e-06;0.004590600797198811;0.00033600659849261963;-0.0004430650228410328;0.0010826019937547017;2.220446049250313e-16;7.321006503049775e-06;2.220446049250313e-16;2.220446049250313e-16;2.220446049250313e-16;2.220446049250313e-16;2.220446049250313e-16;2.220446049250313e-16;2.220446049250313e-16;2.220446049250313e-16;2.220446049250313e-16;5.917878884576535e-06;5.917877711967367e-06;-3.536485966698545e-11;2.112419401975476e-06;6.458390541917594e-05;-3.6964835419922525e-06;1.6452182422658631e-06;9.282907688844014e-05;-9.28290768886622e-05;1.0345616701146557e-06;-7.821962516828249e-05;2.220446049250313e-16;-0.0020564458841439504;2.220446049250313e-16;0.00020789392858425526;-0.00020789392858403327;4.895151568239285e-12;-0.0019535902692693853
0.0995187759399414;0.0001731459475891731;-0.00015877367604528057;-1.2604572676246637e-05;0.004580350862403231;0.0003021245255842291;-0.00046150024706347975;-0.00022687041404137841;2.220446049250313e-16;5.963005553024685e-06;2.220446049250313e-16;2.220446049250313e-16;2.220446049250313e-16;2.220446049250313e-16;2.220446049250313e-16;2.220446049250313e-16;2.220446049250313e-16;2.220446049250313e-16;2.220446049250313e-16;4.820149338230616e-06;4.820148383133122e-06;-2.880489922913256e-11;1.7205788055302869e-06;5.260399461332766e-05;-3.0108089479748265e-06;1.3400405409395594e-06;-4.464085258360496e-05;4.464085258338291e-05;8.426569463188252e-07;-6.371037357222339e-05;2.220446049250313e-16;-0.0018102310212278199;2.220446049250313e-16;0.00012418043166307504;-0.000124180431662853;3.987131547028199e-12;-0.0015912114842590972
0.11949658393859863;0.00012895441169570587;-0.00013864561637262355;-1.7874093072616687e-05;0.004558178802776753;0.00025799643255699394;-0.00048558373429901405;-0.001388175550998748;2.220446049250313e-16;4.8569052917233135e-06;2.220446049250313e-16;2.220446049250313e-16;2.220446049250313e-16;2.220446049250313e-16;2.220446049250313e-16;2.220446049250313e-16;2.220446049250313e-16;2.220446049250313e-16;2.220446049250313e-16;3.926041761922198e-06;3.92604098398932e-06;-2.3461770452748642e-11;1.4014221907219531e-06;4.28462823875217e-05;-2.45232270568142e-06;1.091471395848652e-06;-3.6360253434695475e-05;3.636025343447343e-05;6.863493493825976e-07;-5.1892497464410774e-05;2.220446049250313e-16;-0.0014744444807339415;2.220446049250313e-16;-0.00014877317849151908;0.0001487731784917411;3.2475435646266363e-12;-0.0012960516990008107
0.13954997062683105;7.203007800831877e-05;-0.00011591878873363045;-2.4733637268173414e-05;0.004519001978475139;0.00020018552536261232;-0.0005123113155440018;-0.001130677662385674;2.220446049250313e-16;3.9559797157667115e-06;2.220446049250313e-16;2.220446049250313e-16;2.220446049250313e-16;2.220446049250313e-16;2.220446049250313e-16;2.220446049250313e-16;2.220446049250313e-16;2.220446049250313e-16;2.220446049250313e-16;3.1977855528466427e-06;3.1977849192154514e-06;-1.9109758669829096e-11;1.141467133231723e-06;3.489856479390134e-05;-1.9974321707944277e-06;8.89010273614951e-07;8.5230570195735e-06;-8.523057019795545e-06;5.590358347555592e-07;-4.226676351287171e-05;2.220446049250313e-16;-0.001351708486803941;2.220446049250313e-16;3.044088123971077e-05;-3.0440881239488733e-05;2.6451445305356736e-12;0.012463266563975759
0.1595761775970459;2.0928923544664355e-06;-9.163558831614359e-05;-3.335421836351762e-05;0.0044614488598699415;0.00012724292553080527;-0.0005387568423022841;-0.0006957984515381272;2.220446049250313e-16;3.2221702033652087e-06;2.220446049250313e-16;2.220446049250313e-16;2.220446049250313e-16;2.220446049250313e-16;2.220446049250313e-16;2.220446049250313e-16;2.220446049250313e-16;2.220446049250313e-16;2.220446049250313e-16;2.604616318953294e-06;2.6046158028567293e-06;-1.5565017872567473e-11;9.297321141868206e-07;2.8425099140662598e-05;-1.6269209870631286e-06;-8.861727148158584e-05;9.54014792037303e-05;-9.540147920395236e-05;4.553381813823703e-07;-3.4426543048505956e-05;2.220446049250313e-16;-0.0011009750106798519;2.220446049250313e-16;0.00017847370851590226;-0.00017847370851568022;2.1544867522746217e-12;0.010960524768864005
0.17950439453125;-7.813940816479838e-05;-6.73323444739985e-05;-4.34855756795767e-05;0.004387249103127596;4.104694490965746e-05;-0.0005619188769441161;-0.0003505624042874368;2.220446049250313e-16;2.624477769204733e-06;2.220446049250313e-16;2.220446049250313e-16;2.220446049250313e-16;2.220446049250313e-16;2.220446049250313e-16;2.220446049250313e-16;2.220446049250313e-16;2.220446049250313e-16;2.220446049250313e-16;2.121476270639452e-06;2.121475850275573e-06;-1.2677804338567912e-11;7.572726178308789e-07;2.315242090693931e-05;-1.3251373122190868e-06;6.8004652057412456e-06;-4.302277763818061e-05;4.3022777637958566e-05;3.7087579459957406e-07;-2.8040634478902142e-05;2.220446049250313e-16;-0.000896751027292556;2.220446049250313e-16;-7.543402351589254e-05;7.543402351611459e-05;-0.01519272546176539;-0.004737428405002638
0.19961309432983398;-0.00016623886030916004;-4.438287965683685e-05;-5.4877260257976476e-05;0.0042974213257083345;-5.704678568668235e-05;-0.0005791687807150645;0.0011325001012792654;2.220446049250313e-16;2.137653546003313e-06;2.220446049250313e-16;2.220446049250313e-16;2.220446049250313e-16;2.220446049250313e-16;2.220446049250313e-16;2.220446049250313e-16;2.220446049250313e-16;2.220446049250313e-16;2.220446049250313e-16;1.7279556816625245e-06;1.727955339273518e-06;-1.0326150870040676e-11;6.168032801771122e-07;1.8857791531332726e-05;-1.0793326229106476e-06;5.53902141298378e-06;-3.504232127867893e-05;3.504232127845689e-05;3.0208065267506927e-07;-2.283927203703129e-05;2.220446049250313e-16;-0.0007304093164237072;2.220446049250313e-16;-0.000269511632593552;0.000269511632593774;0.0018335355815274734;0.011044389657944012
0.2194972038269043;-0.00025713640954995475;-2.5492341326281677e-05;-6.690556207336394e-05;0.004195200803107689;-0.00016315455125976789;-0.0005873377552195537;0.0016195399323486726;2.220446049250313e-16;1.7411321735543598e-06;2.220446049250313e-16;2.220446049250313e-16;2.220446049250313e-16;2.220446049250313e-16;2.220446049250313e-16;2.220446049250313e-16;2.220446049250313e-16;2.220446049250313e-16;2.220446049250313e-16;1.4074307024371362e-06;1.4074304235591508e-06;-8.410714422091069e-12;5.023901267247589e-07;1.5359789063467574e-05;-8.791231671896156e-07;4.511567559759118e-06;1.1672413163765884e-05;-1.1672413163987927e-05;2.460465796079232e-07;-1.8602729819612214e-05;2.220446049250313e-16;-0.0005949229532853372;2.220446049250313e-16;0.00021012197712927264;-0.0002101219771290506;0.0014934261907515115;-0.004478999070898532
0.23948216438293457;-0.0003483681953294136;-1.3016799971484836e-05;-7.920347422831967e-05;0.00407825760235321;-0.00027647229992097596;-0.000584100570199459;0.0011006524718684047;2.220446049250313e-16;1.4181630374361109e-06;2.220446049250313e-16;2.220446049250313e-16;2.220446049250313e-16;2.220446049250313e-16;2.220446049250313e-16;2.220446049250313e-16;2.220446049250313e-16;2.220446049250313e-16;2.220446049250313e-16;1.1463611035769372e-06;1.146360876429075e-06;-6.850579463758311e-12;4.0919989815560814e-07;1.2510644190875987e-05;-7.160513141957367e-07;3.6746999747210494e-06;0.00010013751898389028;-0.00010013751898411231;2.0040647688177592e-07;-1.515203970513552e-05;2.220446049250313e-16;-0.00048456846371936494;2.220446049250313e-16;0.0001239012168160327;-0.00012390121681581066;0.0012164049662807984;-0.003648172736991047
0.2594928741455078;-0.00043558243857806504;-8.593692905922588e-06;-9.100755627506329e-05;0.003946766539016284;-0.00039458457304922446;-0.0005688297673123193;-8.717257718250703e-05;2.220446049250313e-16;-0.000205838275410227;2.220446049250313e-16;2.220446049250313e-16;2.220446049250313e-16;2.220446049250313e-16;2.220446049250313e-16;2.220446049250313e-16;2.220446049250313e-16;2.220446049250313e-16;2.220446049250313e-16;9.337182836203129e-07;9.337180986069592e-07;-5.5798397893527925e-12;3.332958745471062e-07;1.0189997884994685e-05;-5.832282707331411e-07;-8.760142514549299e-05;-3.796231589715865e-05;3.796231589693661e-05;1.6323232796068694e-07;-1.2341431040081035e-05;2.220446049250313e-16;-0.000394684042252321;2.220446049250313e-16;-0.00015480891124318655;0.0001548089112434086;0.0009907694475667494;-0.002971459495358813
0.2794811725616455;-0.0005155131925708382;-1.1464086064367073e-05;-0.00010154943616786844;0.0038022312478667064;-0.0005166260027816038;-0.0005436914124653039;-0.0013895552905069462;2.220446049250313e-16;-0.0017247360098754582;2.220446049250313e-16;2.220446049250313e-16;2.220446049250313e-16;2.220446049250313e-16;2.220446049250313e-16;2.220446049250313e-16;2.220446049250313e-16;2.220446049250313e-16;2.220446049250313e-16;7.605193777480172e-07;7.605192270534846e-07;-4.5448143824265326e-12;2.7147157291783386e-07;8.299816964814949e-06;-4.7504307168883543e-07;5.07809975342787e-06;-3.0920543562730656e-05;3.092054356250862e-05;1.3295375132602927e-07;-1.0052172716090006e-05;2.220446049250313e-16;-0.0003214726191897795;2.220446049250313e-16;-5.9706842038015005e-05;5.9706842038237036e-05;0.0008069879073521643;-0.002420272330591599
0.29949116706848145;-0.0005872728735281838;-1.8310680858634455e-05;-0.00011039923539480995;0.003644410237381457;-0.0006421872771962454;-0.000512730225541032;-0.0011318014688384732;2.220446049250313e-16;-0.0018223453365056102;2.220446049250313e-16;2.220446049250313e-16;2.220446049250313e-16;2.220446049250313e-16;2.220446049250313e-16;2.220446049250313e-16;2.220446049250313e-16;2.220446049250313e-16;2.220446049250313e-16;6.194477864218709e-07;6.194476636802321e-07;-3.7017797195762985e-12;2.2111529283890639e-07;6.760252791697805e-06;-3.869255509097545e-07;4.136143987290458e-06;1.3852590944129086e-05;-1.3852590944351129e-05;-0.00014999278968778359;-8.187557503334784e-06;2.220446049250313e-16;-0.0002618414575339453;2.220446049250313e-16;0.0001855938055686412;-0.00018559380556841916;0.0006572966942127588;-0.0036011677314296757
0.31948089599609375;-0.0006501780846348496;-2.4161302117256567e-05;-0.00011721965029706621;0.003475476505906543;-0.0007681282120078875;-0.000481817210525696;-0.0006930148396365762;2.220446049250313e-16;-0.0014843116662421722;2.220446049250313e-16;2.220446049250313e-16;2.220446049250313e-16;2.220446049250313e-16;2.220446049250313e-16;2.220446049250313e-16;2.220446049250313e-16;2.220446049250313e-16;2.220446049250313e-16;5.045440935892789e-07;5.045439936154471e-07;-3.0151227177181426e-12;1.8009978798786946e-07;5.506268150417808e-06;-3.1515327950068805e-07;3.368915128547998e-06;0.00010091863060821911;-0.00010091863060844116;-0.00012217006465563532;-6.668816758700576e-06;2.220446049250313e-16;-0.000213271503670508;2.220446049250313e-16;-7.472471894527514e-05;7.472471894549718e-05;0.0005353722655406307;-0.0029331736245477922
0.33949780464172363;-0.0007013601661339494;-2.407312604862921e-05;-0.00012135499785015097;0.0032994271198214303;-0.0008883896672692563;-0.00045719670066033297;-0.0003319594853440493;2.220446049250313e-16;-0.001208981129102163;2.220446049250313e-16;2.220446049250313e-16;2.220446049250313e-16;2.220446049250313e-16;2.220446049250313e-16;2.220446049250313e-16;2.220446049250313e-16;2.220446049250313e-16;2.220446049250313e-16;4.109543176290525e-07;4.1095423619974156e-07;-2.4558362980984124e-12;1.4669240293979455e-07;4.4848898226912456e-06;-2.566943158613073e-07;2.744002427921897e-06;-3.817112645799264e-05;3.817112645777059e-05;-0.0007083613858618332;-5.431792930066359e-06;2.220446049250313e-16;-0.00017371097268652666;2.220446049250313e-16;-0.0002726753901110488;0.0002726753901112709;0.00043606405635950333;0.01129506041845372
0.3596012592315674;-0.0007373538005886076;-1.2378757547058504e-05;-0.00012195842400221863;0.0031205073169086116;-0.0009966110916414623;-0.0004463785362644792;0.0007141903103370611;2.220446049250313e-16;-0.0009847226857857686;2.220446049250313e-16;2.220446049250313e-16;2.220446049250313e-16;2.220446049250313e-16;2.220446049250313e-16;2.220446049250313e-16;2.220446049250313e-16;2.220446049250313e-16;2.220446049250313e-16;3.347248601733484e-07;3.347247938486657e-07;-2.00029401377802e-12;1.1948187902198106e-07;3.6529707911434103e-06;-2.0907912460850888e-07;2.2350071275575598e-06;-3.1090621069595955e-05;3.109062106937391e-05;-0.0005769647760431246;-4.424229290244861e-06;2.220446049250313e-16;-0.00014148867294675526;2.220446049250313e-16;0.00024813375391617004;-0.00024813375391594794;0.00035517689930516757;-0.006740770000043635
0.3795022964477539;-0.0007567396600136404;1.4154418855315907e-05;-0.00011870237331986515;0.002947096233863228;-0.0010883598149472864;-0.0004548722672705186;0.0018061974845832547;2.220446049250313e-16;-0.0008020627820892947;2.220446049250313e-16;2.220446049250313e-16;2.220446049250313e-16;2.220446049250313e-16;2.220446049250313e-16;2.220446049250313e-16;2.220446049250313e-16;2.220446049250313e-16;2.220446049250313e-16;2.7263549064156825e-07;2.726354366196997e-07;-1.6292519760597826e-12;9.73187372251474e-08;2.9753675404537516e-06;-1.702962537381592e-07;1.8204272741901786e-06;1.4631945986459682e-05;-1.4631945986681725e-05;-0.0006041923204286398;-3.6035624083375038e-06;2.220446049250313e-16;-0.00011524340841933802;2.220446049250313e-16;0.0001568989730607606;-0.00015689897306053855;0.00028929380433967964;-0.00549039929484804
0.3994455337524414;-0.0007598203690099038;5.508558109680818e-05;-0.00011163774186838506;0.002781549178893496;-0.001163204617792923;-0.0004835505946410605;0.0011404286668593785;2.220446049250313e-16;-0.0006532851489041183;2.220446049250313e-16;2.220446049250313e-16;2.220446049250313e-16;2.220446049250313e-16;2.220446049250313e-16;2.220446049250313e-16;2.220446049250313e-16;2.220446049250313e-16;2.220446049250313e-16;2.2206331109937386e-07;2.2206326709822425e-07;-1.3270359173255433e-12;7.926671971199018e-08;2.423455457746708e-06;-1.387073630213165e-07;1.4827493924983641e-06;0.00010148586520733418;-0.00010148586520755624;-0.0004921184211911299;-2.9351241038559483e-06;2.220446049250313e-16;-9.386647642885344e-05;2.220446049250313e-16;-0.0001215200264635944;0.00012152002646381645;0.0002356316117209461;-0.004471964540649321
0.41945505142211914;-0.0007470968595715785;0.00010884920021571704;-0.00010093557154985383;0.0026263824809605388;-0.0012203256195045225;-0.0005323321569613419;0.00014259499001429966;2.220446049250313e-16;-0.0005321048368145849;2.220446049250313e-16;2.220446049250313e-16;2.220446049250313e-16;2.220446049250313e-16;2.220446049250313e-16;2.220446049250313e-16;2.220446049250313e-16;2.220446049250313e-16;2.220446049250313e-16;1.8087195478613435e-07;1.8087191894692301e-07;-1.0808790486361379e-12;6.456323862241423e-08;1.9739196169313045e-06;-1.1297801410188114e-07;1.2077086473736203e-06;-3.643848267522027e-05;3.643848267499823e-05;-0.00040083352980030764;-2.3906769271163185e-06;2.220446049250313e-16;-7.645483171677878e-05;2.220446049250313e-16;-3.5144333348323264e-05;3.51443333485453e-05;0.0001919234204442838;-0.0036424430681372493
0.43948817253112793;-0.0007203503586712777;0.0001736328123024877;-8.703039589730971e-05;0.0024841392346990256;-0.0012603706248681893;-0.0006002097011497341;-0.0015376710759108802;2.220446049250313e-16;-0.00043340271524070943;2.220446049250313e-16;2.220446049250313e-16;2.220446049250313e-16;2.220446049250313e-16;2.220446049250313e-16;2.220446049250313e-16;2.220446049250313e-16;2.220446049250313e-16;2.220446049250313e-16;1.473213376230238e-07;1.4732130843176216e-07;-8.803827406081882e-13;5.258716137819777e-08;1.6077698649881531e-06;-9.202129859857033e-08;9.836862414648595e-07;-2.9679371879504223e-05;2.9679371879282178e-05;-0.00032648141523191184;-1.9472212988670358e-06;2.220446049250313e-16;-6.227293827601453e-05;2.220446049250313e-16;0.00019955007252182028;-0.00019955007252159824;0.0001563228254732469;-0.0029667926442669646
0.4594404697418213;-0.0006806429785046947;0.0002471428870288322;-7.041223943019239e-05;0.0023570185059828015;-0.0012827159199348067;-0.0006840290093537565;-0.0011556052202889155;2.220446049250313e-16;-0.00035300922033052796;2.220446049250313e-16;2.220446049250313e-16;2.220446049250313e-16;2.220446049250313e-16;2.220446049250313e-16;2.220446049250313e-16;2.220446049250313e-16;2.220446049250313e-16;2.220446049250313e-16;1.1999415025231298e-07;1.1999412647584796e-07;-7.170772446174979e-13;4.2832571612300685e-08;1.3095386035945065e-06;-7.495192284165176e-08;8.636605584842584e-06;1.4252632857840533e-05;-1.4252632858062576e-05;-0.0002659211532152373;-1.5860239180603175e-06;2.220446049250313e-16;-5.0721697431678054e-05;2.220446049250313e-16;-1.9623997410704794e-05;1.962399741092684e-05;0.00012732591836561879;-0.0024164711512094693
0.4794604778289795;-0.0006275488693944615;0.00032775404941267;-5.131072411210554e-05;0.0022471197365589784;-0.0012857779822426111;-0.0007806370515486474;-0.000941247674457948;2.220446049250313e-16;-0.000287528216266842;2.220446049250313e-16;2.220446049250313e-16;2.220446049250313e-16;2.220446049250313e-16;2.220446049250313e-16;2.220446049250313e-16;2.220446049250313e-16;2.220446049250313e-16;2.220446049250313e-16;9.773598534394797e-08;9.77359659778686e-08;-5.840638974737309e-13;3.488739728179148e-08;1.0666273772439976e-06;-6.104880960404309e-08;7.0345692276391895e-06;0.00010192647914593258;-0.00010192647914615461;-0.00021659444130101832;-1.2918263939096164e-06;2.220446049250313e-16;-4.131313956871071e-05;2.220446049250313e-16;-0.00026960144348719576;0.0002696014434874178;0.0001037077562957863;0.013316821417403866
0.4994828701019287;-0.0005616985573667037;0.000412224643650411;-3.0301330736760766e-05;0.002161348264465619;-0.0012687460394187888;-0.0008854383930991928;-0.00045241284105952207;2.220446049250313e-16;-0.0002341935292006944;2.220446049250313e-16;2.220446049250313e-16;2.220446049250313e-16;2.220446049250313e-16;2.220446049250313e-16;2.220446049250313e-16;2.220446049250313e-16;2.220446049250313e-16;2.220446049250313e-16;7.960657091255401e-08;7.960655513876133e-08;-4.757236948917128e-13;2.841600313225217e-08;8.687746651863438e-07;-4.9724636977553114e-08;5.7297006019697895e-06;-3.576774481405539e-05;3.5767744813833355e-05;-0.00017641752615493752;-1.0522006717543443e-06;2.220446049250313e-16;-3.3649810385837173e-05;2.220446049250313e-16;0.0002132303724371739;-0.00021323037243695182;8.447061567639478e-05;0.01283406976131977
0.5198938846588135;-0.0004836504501281125;0.0004995707061500488;-7.669370989285129e-06;0.002103734290580382;-0.00123184045082216;-0.0009966747615591622;0.0004782295674037;2.220446049250313e-16;-0.00019075209324352304;2.220446049250313e-16;2.220446049250313e-16;2.220446049250313e-16;2.220446049250313e-16;2.220446049250313e-16;2.220446049250313e-16;2.220446049250313e-16;2.220446049250313e-16;2.220446049250313e-16;6.484004954934344e-08;6.48400367014907e-08;-3.874799227623932e-13;2.3145012151238964e-08;7.076223946359343e-07;-4.050102759719812e-08;4.6668769509331565e-06;-2.9133051699473804e-05;2.913305169925176e-05;-0.00014369317766273502;-8.57024023398112e-07;2.220446049250313e-16;-2.7407980870579285e-05;2.220446049250313e-16;0.00013035639139600196;-0.00013035639139577992;6.880184440977151e-05;-0.0030708180850610696
0.5394761562347412;-0.0004020757224400889;0.0005835889234721126;1.4443599934185247e-05;0.0020776085575738303;-0.001180544337932186;-0.0011060786490677404;0.0018843427368497282;2.220446049250313e-16;7.30038036871503e-05;2.220446049250313e-16;2.220446049250313e-16;2.220446049250313e-16;2.220446049250313e-16;2.220446049250313e-16;2.220446049250313e-16;2.220446049250313e-16;2.220446049250313e-16;2.220446049250313e-16;5.281262560824991e-08;5.2812615143593556e-08;-3.156048188394865e-13;1.8851757053510083e-08;5.763628630709346e-07;-3.2988340109340346e-08;3.801200444515998e-06;1.9238522753158555e-05;-1.9238522753380603e-05;-0.00011703899128865808;-6.980514234579081e-07;2.220446049250313e-16;-2.2323971718967264e-05;2.220446049250313e-16;-0.00015044416300609586;0.00015044416300631787;5.603953228328644e-05;-0.0025012005228952725
0.5595703125;-0.0003155830945139771;0.0006679721395957092;3.673505055798289e-05;0.0020792433712328658;-0.0011146474212909191;-0.001219132448854622;0.0013141376213046641;2.220446049250313e-16;5.946205437695697e-05;2.220446049250313e-16;2.220446049250313e-16;2.220446049250313e-16;2.220446049250313e-16;2.220446049250313e-16;2.220446049250313e-16;2.220446049250313e-16;2.220446049250313e-16;2.220446049250313e-16;-7.49605938903237e-05;-7.496059389884724e-05;-2.570620974748795e-13;1.5354873943565544e-08;4.6945115423917036e-07;-2.6869209196183403e-08;3.096101519561058e-06;0.00010476103651695364;-0.00010476103651717569;-0.00023142499077001143;0.00014943865296082894;2.220446049250313e-16;-1.8183014489922078e-05;2.220446049250313e-16;-6.374852214229579e-05;6.374852214251783e-05;4.564454929181357e-05;-0.002037243458401467
0.5797848701477051;-0.00023007887452424386;0.0007471455495232287;5.7794172993157725e-05;0.002108491091342726;-0.0010381469109042355;-0.0013300058326764855;0.0004293787611709813;2.220446049250313e-16;0.0004799348472103259;2.220446049250313e-16;2.220446049250313e-16;2.220446049250313e-16;2.220446049250313e-16;2.220446049250313e-16;2.220446049250313e-16;2.220446049250313e-16;2.220446049250313e-16;2.220446049250313e-16;-0.00013457848140710908;1.2466736945405713e-05;-2.0937868503139847e-13;1.2506640794996279e-08;3.823708991975181e-07;-2.1885138822848848e-08;2.5217940383169787e-06;-3.960444602551794e-05;3.960444602529589e-05;-0.00018849710138836654;0.00012171871682817617;2.220446049250313e-16;-1.4810178945882093e-05;2.220446049250313e-16;0.00017251502799537293;-0.00017251502799515089;3.717777067661522e-05;-0.0016593475296396098
0.5995616912841797;-0.00015470815606195972;0.0008149842758821043;7.571379003510399e-05;0.0021617769369971108;-0.0009604005549742595;-0.0014310897929722545;-0.0014504971768297815;2.220446049250313e-16;0.0013245758930932976;2.220446049250313e-16;2.220446049250313e-16;2.220446049250313e-16;2.220446049250313e-16;2.220446049250313e-16;2.220446049250313e-16;2.220446049250313e-16;2.220446049250313e-16;2.220446049250313e-16;-0.00010961501422159916;1.015423515913887e-05;-1.705402475748555e-13;1.0186737094029438e-08;3.1144348721449837e-07;-1.7825582353328028e-08;2.054017005421918e-06;-3.225806881559261e-05;3.2258068815370565e-05;-0.00015353206718770826;9.914065559852964e-05;2.220446049250313e-16;-1.2062983315039376e-05;2.220446049250313e-16;-8.064182373659098e-05;8.064182373681303e-05;3.028152657716983e-05;-0.0013515489338135221
0.6196784973144531;-9.130987336490727e-05;0.0008714381864552291;9.024878419370655e-05;0.0022379432360175294;-0.0008845748950915827;-0.0015220091001747244;-0.001181439016135212;2.220446049250313e-16;0.0019362095967223121;2.220446049250313e-16;2.220446049250313e-16;2.220446049250313e-16;2.220446049250313e-16;2.220446049250313e-16;2.220446049250313e-16;2.220446049250313e-16;2.220446049250313e-16;2.220446049250313e-16;-8.928211417733141e-05;8.270688001088345e-06;-1.3890609752626713e-13;8.297161030193813e-09;2.53672666858004e-07;-1.4519048236675385e-08;1.6730096885224356e-06;1.2501064555131732e-05;-1.2501064555353775e-05;-0.00012505282829980825;0.0002235732546550707;2.220446049250313e-16;-9.825375303745289e-06;2.220446049250313e-16;-0.00027225987301126133;0.00027225987301148337;2.466449265664593e-05;0.01408462818519973
0.6394741535186768;-4.0652766953352935e-05;0.0009143251981405031;0.00010112529018440552;0.002330919782531;-0.0008137166004023659;-0.0015976351248925653;-0.0009622894626359807;2.220446049250313e-16;0.0013603164385911574;2.220446049250313e-16;2.220446049250313e-16;2.220446049250313e-16;2.220446049250313e-16;2.220446049250313e-16;2.220446049250313e-16;2.220446049250313e-16;2.220446049250313e-16;2.220446049250313e-16;-0.00015069865687137657;-7.124128979204009e-05;-1.1313988459825407e-13;6.758089516349296e-09;2.066179726100121e-07;-1.1825855532823575e-08;1.3626768476120769e-06;9.94573733359089e-05;-9.945737333613095e-05;-0.00010185631023037068;0.0001821018132493966;2.220446049250313e-16;-8.002829593496188e-06;2.220446049250313e-16;0.00019943640061564745;-0.0001994364006154254;2.008938342191721e-05;-0.0023111100942791053
0.6595430374145508;8.009915490262684e-07;0.0009464452942286749;0.00010918038878815916;0.002438194696751758;-0.000746075158380195;-0.001660310880294279;-0.0005732686551125014;2.220446049250313e-16;0.0011079862412102387;2.220446049250313e-16;2.220446049250313e-16;2.220446049250313e-16;2.220446049250313e-16;2.220446049250313e-16;2.220446049250313e-16;2.220446049250313e-16;2.220446049250313e-16;2.220446049250313e-16;-0.00012274499788834166;-5.802647579367784e-05;-9.215314312955667e-14;5.504506149125979e-09;1.6829163005318365e-07;-9.632233243081882e-09;9.150192435388754e-06;-3.901892059310887e-05;3.9018920592886825e-05;-8.296260128457585e-05;0.0002986435035911144;2.220446049250313e-16;-6.5183547215876025e-06;2.220446049250313e-16;0.00011770416509668982;-0.00011770416509646774;1.6362928355797953e-05;-0.00188241361622842
0.679602861404419;3.267114738598513e-05;0.0009707109576859455;0.00011466997691348592;0.0025524128069857625;-0.0006842996004851533;-0.0017117996914560256;0.0002805293159541418;2.220446049250313e-16;0.0009024617183797467;2.220446049250313e-16;2.220446049250313e-16;2.220446049250313e-16;2.220446049250313e-16;2.220446049250313e-16;2.220446049250313e-16;2.220446049250313e-16;2.220446049250313e-16;2.220446049250313e-16;-0.0001743332442961534;-0.00012161960355928667;-7.505931103616847e-14;4.48345466162654e-09;1.3707458450100588e-07;-7.845514177947962e-09;7.45288892732686e-06;-3.1781154691361465e-05;3.178115469113943e-05;-6.757355726254504e-05;0.00024324700019686006;2.220446049250313e-16;-5.3092406604501095e-06;2.220446049250313e-16;-0.000163826036350266;0.00016382603635048805;1.3327707414099655e-05;-0.001533237655503149
0.6996831893920898;5.568219952881125e-05;0.0009911913843112744;0.0001181321285039442;0.00266841042250082;-0.0006292246388253167;-0.0017563743498241757;0.001656550143395359;2.220446049250313e-16;0.0007350607100060435;2.220446049250313e-16;2.220446049250313e-16;2.220446049250313e-16;2.220446049250313e-16;2.220446049250313e-16;2.220446049250313e-16;2.220446049250313e-16;2.220446049250313e-16;2.220446049250313e-16;-0.00014199551706199382;-9.905992722156124e-05;-6.113627795965317e-14;3.651801843486452e-09;1.116481057922224e-07;-6.390220332402227e-09;6.070424611863521e-06;1.3857653812544631e-05;-1.3857653812766674e-05;-5.503908472507583e-05;0.0003471489799971353;2.220446049250313e-16;-4.3244097006907415e-06;2.220446049250313e-16;-7.654135789166524e-05;7.654135789188728e-05;1.0855500986955504e-05;-0.0012488316531426614
0.7194318771362305;7.033713556806834e-05;0.001008558214339725;0.00011988331888398305;0.0027811545538057067;-0.0005823066866050069;-0.0017950283409105185;0.0014526974083279149;2.220446049250313e-16;0.0005987115424293598;2.220446049250313e-16;2.220446049250313e-16;2.220446049250313e-16;2.220446049250313e-16;2.220446049250313e-16;2.220446049250313e-16;2.220446049250313e-16;2.220446049250313e-16;2.220446049250313e-16;-0.0002730849504344759;-8.068492984650675e-05;-4.979588049987475e-14;2.974415425281236e-09;9.093807996842632e-08;-5.204874399618689e-09;4.944398786516661e-06;0.0001009872742811358;-0.00010098727428135784;-4.4829678502853776e-05;0.0005646200259405872;2.220446049250313e-16;-3.522258728773237e-06;2.220446049250313e-16;0.0001822821596549906;-0.00018228215965476852;8.841873400756424e-06;0.014745072297528463
0.7394392490386963;7.855265222753959e-05;0.001020402694662378;0.00012012946140831336;0.002890846981956593;-0.0005413971287765817;-0.001826170024849174;0.0006409146479504615;2.220446049250313e-16;0.0004876542932558537;2.220446049250313e-16;2.220446049250313e-16;2.220446049250313e-16;2.220446049250313e-16;2.220446049250313e-16;2.220446049250313e-16;2.220446049250313e-16;2.220446049250313e-16;2.220446049250313e-16;-0.00044175789541258916;-0.0002850468761435596;-4.05590558914011e-14;2.4226799539879748e-09;7.406963449728303e-08;-4.2394027289544185e-09;4.027243714110236e-06;-3.638049408259812e-05;3.638049408237608e-05;-3.6514053326065036e-05;0.0005938044923857244;2.220446049250313e-16;-2.8689017487028562e-06;2.220446049250313e-16;-2.8562096249257074e-05;2.856209624947912e-05;7.201761146624861e-06;-0.0013983291880298356
0.7596085071563721;8.239531875046205e-05;0.0010221211064805956;0.00011893529848657392;0.0029925332879811293;-0.0005045891660832578;-0.001844277392765545;-0.0015125888525753242;2.220446049250313e-16;0.00039719746969622566;2.220446049250313e-16;2.220446049250313e-16;2.220446049250313e-16;2.220446049250313e-16;2.220446049250313e-16;2.220446049250313e-16;2.220446049250313e-16;2.220446049250313e-16;2.220446049250313e-16;-0.0011560575573556324;-0.0010284154527171376;-3.303560451764551e-14;1.973287964272917e-09;6.033018023325263e-08;-0.00012716270271693946;3.2802151754159987e-06;-2.9632139808384772e-05;2.963213980816273e-05;-2.9740924646913262e-05;0.0010642738494685037;2.220446049250313e-16;-2.336738404954405e-06;2.220446049250313e-16;-0.0002743829588115094;0.0002743829588117315;5.865879464933114e-06;-0.002131624959767011
0.7795746326446533;8.312914181345446e-05;0.00101165945142875;0.00011637800820826956;0.003081384524378701;-0.0004713723354345724;-0.0018457915441638295;-0.00123201307410293;2.220446049250313e-16;0.0003235198215517614;2.220446049250313e-16;2.220446049250313e-16;2.220446049250313e-16;2.220446049250313e-16;2.220446049250313e-16;2.220446049250313e-16;2.220446049250313e-16;2.220446049250313e-16;2.220446049250313e-16;-0.0009416161058258957;-0.0008376508138346878;-2.6907706352150486e-14;1.6072553799500676e-09;4.9139308863610705e-08;-0.00010357481612983916;2.671755761721177e-06;1.353575021314463e-05;-1.3535750213366674e-05;-2.422416900568989e-05;0.000866857702103655;2.220446049250313e-16;-1.9032880354503936e-06;2.220446049250313e-16;0.00022079726154041298;-0.00022079726154019096;4.777795485934676e-06;-0.001736221852386229
0.7994894981384277;8.133946517941627e-05;0.0009884865967121975;0.00011242351559515498;0.00315921589732691;-0.00044143763324056386;-0.0018290571068409506;-0.0010034823489385493;2.220446049250313e-16;0.00026350891665279433;2.220446049250313e-16;2.220446049250313e-16;2.220446049250313e-16;2.220446049250313e-16;2.220446049250313e-16;2.220446049250313e-16;2.220446049250313e-16;2.220446049250313e-16;2.220446049250313e-16;-0.0007669522032958536;-0.0006822718231859395;-2.1916494996991268e-14;1.3091195523154545e-09;4.00242741900913e-08;-8.436233508035478e-05;2.176161766395409e-06;0.00010107943771640888;-0.00010107943771663093;-1.9730737056190694e-05;0.0007060610162240652;2.220446049250313e-16;-1.5502400004245668e-06;2.220446049250313e-16;0.00013463377529187356;-0.00013463377529165149;3.8915442845155805e-06;-0.0014141635501551605
0.8197429180145264;7.7374541639102e-05;0.000950236166316032;0.00010681304630524723;0.0032310264270040655;-0.00041440947303432544;-0.0017904552364150482;-0.0006053891275734804;2.220446049250313e-16;0.00021462965954443;2.220446049250313e-16;2.220446049250313e-16;2.220446049250313e-16;2.220446049250313e-16;2.220446049250313e-16;2.220446049250313e-16;2.220446049250313e-16;2.220446049250313e-16;2.220446049250313e-16;-0.0006246873630357429;-0.0005557146641838424;-1.785112215314312e-14;1.0662860573581393e-09;3.2600021479543055e-08;-6.87136491875432e-05;1.7724973597401006e-06;-4.02980519041528e-05;4.029805190393075e-05;-1.607080864937392e-05;0.0005750911105958523;2.220446049250313e-16;-1.2626801693458124e-06;2.220446049250313e-16;-0.00014659016837139546;0.0001465901683716175;3.169687141889718e-06;-0.0015234462096626788
0.8394491672515869;7.158774575264358e-05;0.0008990094026746744;9.978985296996913e-05;0.003295786214327223;-0.0003916056656340838;-0.0017315387835730115;-5.470039437080828e-05;2.220446049250313e-16;0.00017481719913431035;2.220446049250313e-16;2.220446049250313e-16;2.220446049250313e-16;2.220446049250313e-16;2.220446049250313e-16;2.220446049250313e-16;2.220446049250313e-16;2.220446049250313e-16;2.220446049250313e-16;-0.0005088117614886317;-0.0004526330671943907;-1.4539850563248522e-14;8.684966580060627e-10;2.6552921245222054e-08;-5.5967696723561366e-05;1.4437101776168096e-06;-3.2823015138777446e-05;3.2823015138555395e-05;-1.3089774087469115e-05;0.0004684153038997629;2.220446049250313e-16;-1.0284608896832224e-06;2.220446049250313e-16;-5.8024017174743505e-05;5.802401717496555e-05;2.581729987613812e-06;-0.002613409991337445
0.8594470024108887;6.555591407361907e-05;0.0008341642968327853;9.141041492959041e-05;0.003356572663462844;-0.00036968901115771454;-0.001651266255486896;0.0017435071500705801;2.220446049250313e-16;0.00014238970130239035;2.220446049250313e-16;2.220446049250313e-16;2.220446049250313e-16;2.220446049250313e-16;2.220446049250313e-16;2.220446049250313e-16;2.220446049250313e-16;2.220446049250313e-16;2.220446049250313e-16;-0.00041443035980599964;-0.0003686724621865012;-1.184279915783194e-14;7.073959560500505e-10;2.1627520309991145e-08;-4.558603877944525e-05;1.1759109628575014e-06;1.1078762017626179e-05;-1.1078762017848223e-05;-1.066170280533164e-05;0.0003815271926220061;2.220446049250313e-16;-8.376878225275452e-07;2.220446049250313e-16;0.00017961895331323856;-0.0001796189533130165;2.102835210723872e-06;-0.0021286387717567947
0.8794803619384766;6.182180933441936e-05;0.0007552109383135589;8.206194056589497e-05;0.0034116427806858162;-0.0003455082403488412;-0.0015492512581279747;0.0015332989768716075;2.220446049250313e-16;0.00011597730164643007;2.220446049250313e-16;2.220446049250313e-16;2.220446049250313e-16;2.220446049250313e-16;2.220446049250313e-16;2.220446049250313e-16;2.220446049250313e-16;2.220446049250313e-16;2.220446049250313e-16;-0.00033755611825173537;-0.0003002860246537938;-9.646033931548849e-15;5.761784274274914e-10;1.7615750464489724e-08;-3.713011349860052e-05;9.577868286909528e-07;9.918357963877153e-05;-9.918357963899356e-05;-8.684023570585154e-06;0.00031075628293557783;2.220446049250313e-16;0.0001346281596798185;2.220446049250313e-16;-2.9689087186436205e-05;2.9689087186658253e-05;1.7127724218546602e-06;-0.003405399477372393
0.8994696140289307;6.250160246080778e-05;0.0006612311795670691;7.209338678771318e-05;0.0034586456268591126;-0.00031596683589538523;-0.00142558665986882;0.0009371087035557197;2.220446049250313e-16;9.446423704915256e-05;2.220446049250313e-16;2.220446049250313e-16;2.220446049250313e-16;2.220446049250313e-16;2.220446049250313e-16;2.220446049250313e-16;2.220446049250313e-16;2.220446049250313e-16;2.220446049250313e-16;-0.00027494156804177747;-0.0002445848438681691;-7.856754924958609e-15;4.693009302548631e-10;1.434813885176728e-08;-3.0242709507819483e-05;7.801233581364602e-07;-4.145116655736618e-05;4.1451166557144135e-05;-7.0731914733889205e-06;0.0002531129346777965;2.220446049250313e-16;0.00010965547748521012;2.220446049250313e-16;-0.00027844888837406343;0.00027844888837428547;1.3950638424282572e-06;-0.0027737191580665477
0.9195053577423096;6.856997714594474e-05;0.0005504538851485931;6.158296845281514e-05;0.003496759827332578;-0.00027925435887691256;-0.0012792881481738533;-0.0011115952868925776;2.220446049250313e-16;7.694171147801632e-05;2.220446049250313e-16;2.220446049250313e-16;2.220446049250313e-16;2.220446049250313e-16;2.220446049250313e-16;2.220446049250313e-16;2.220446049250313e-16;2.220446049250313e-16;2.220446049250313e-16;-0.00022394162555482798;-0.00019921588398589786;-6.399375991097068e-15;3.822485408233999e-10;1.168664877063227e-08;-2.4632875911053386e-05;6.35415350973135e-07;-3.376223423078633e-05;3.3762234230564286e-05;-5.761158662521984e-06;0.0002061620672509069;2.220446049250313e-16;8.931507175843788e-05;2.220446049250313e-16;0.0002045347544801609;-0.0002045347544799389;1.1362882188068305e-06;0.011435517520293526
0.9395835399627686;8.170650292134675e-05;0.0004222505364904557;5.072895455855591e-05;0.003525473537778519;-0.00023274679632408763;-0.001109754248926096;-0.0012811912352688525;2.220446049250313e-16;6.266950488454103e-05;2.220446049250313e-16;2.220446049250313e-16;2.220446049250313e-16;2.220446049250313e-16;2.220446049250313e-16;2.220446049250313e-16;2.220446049250313e-16;2.220446049250313e-16;2.220446049250313e-16;-0.00025727537095296464;-8.738906530239108e-05;-5.212331740848506e-15;3.1134382555403933e-10;9.5188484652348e-09;-2.006363138502742e-05;5.175497747135619e-07;1.0808661265101973e-05;-1.0808661265324018e-05;-4.692499737865796e-06;0.000167920292288784;2.220446049250313e-16;7.274768416644613e-05;2.220446049250313e-16;0.00012202746137544011;-0.00012202746137521806;9.255138560195308e-07;-0.004956963718188133
0.9594464302062988;0.00010485026652036418;0.0002810488924571932;4.028247979200742e-05;0.0035444437453849733;-0.00017254268754125695;-0.00092196829515585;-0.0010435382685717006;2.220446049250313e-16;5.104470341286418e-05;2.220446049250313e-16;2.220446049250313e-16;2.220446049250313e-16;2.220446049250313e-16;2.220446049250313e-16;2.220446049250313e-16;2.220446049250313e-16;2.220446049250313e-16;2.220446049250313e-16;-0.00020955239761225812;-7.117893987045566e-05;-4.2454767799944885e-15;2.535914918126747e-10;7.753161567736651e-09;-1.6341953160800987e-05;1.8886169964553177e-06;9.914956068546203e-05;-9.914956068568409e-05;-3.822070364615052e-06;0.00013677212757104136;2.220446049250313e-16;5.9253443426596396e-05;2.220446049250313e-16;-0.0001520784440811626;0.00015207844408138464;7.538368201895078e-07;-0.0040374779294874725
0.9794459342956543;0.0001388727558182491;0.00012882351170160212;3.0415691951706636e-05;0.0035564148912264363;-9.682630072032559e-05;-0.0007178405657950586;-0.0006447477081663131;2.220446049250313e-16;4.1576229959174203e-05;2.220446049250313e-16;2.220446049250313e-16;2.220446049250313e-16;2.220446049250313e-16;2.220446049250313e-16;2.220446049250313e-16;2.220446049250313e-16;2.220446049250313e-16;2.220446049250313e-16;-0.00017068173755766924;-5.7975691392860315e-05;-3.457967371535385e-15;2.0655185502824733e-10;6.3149985541813e-09;-1.3310622986679655e-05;1.538290347469084e-06;-4.1372492677133455e-05;4.137249267691141e-05;-3.1131001999187375e-06;0.00011140175273241047;2.220446049250313e-16;4.826230000498418e-05;2.220446049250313e-16;-5.5223128646957104e-05;5.5223128647179135e-05;6.140048015244801e-07;-0.0032885510078046053
0.999652624130249;0.00018199597461401756;-2.9929435003339235e-05;2.1162961443225264e-05;0.0035653258899900797;-7.871624922269056e-06;-0.0005029774307708314;-0.00020989219672541692;2.220446049250313e-16;3.3864099153184625e-05;2.220446049250313e-16;2.220446049250313e-16;2.220446049250313e-16;2.220446049250313e-16;2.220446049250313e-16;2.220446049250313e-16;2.220446049250313e-16;2.220446049250313e-16;2.220446049250313e-16;-0.0001390213420015813;-4.722156298755592e-05;-2.816536036411643e-15;1.6823777686960134e-10;5.1436057911216295e-09;-1.0841585614044247e-05;1.2529471023282404e-06;-3.3698153863625015e-05;3.369815386340298e-05;-2.5356395697100607e-06;9.073742386150291e-05;2.220446049250313e-16;0.00017381774170281908;2.220446049250313e-16;0.00018876960280702493;-0.0001887696028068029;5.001107483716985e-07;0.012855353870075026
1.019460678100586;0.00023121129659690236;-0.0001843816965436264;1.3018600228686528e-05;0.0035724761595757903;8.949677176330972e-05;-0.0002915701876890836;0.001815222149063352;2.220446049250313e-16;2.7582520410888575e-05;2.220446049250313e-16;2.220446049250313e-16;2.220446049250313e-16;2.220446049250313e-16;2.220446049250313e-16;2.220446049250313e-16;2.220446049250313e-16;2.220446049250313e-16;2.220446049250313e-16;-0.00011323375194367546;-3.846225818813296e-05;-2.29408620500751e-15;1.3703072074639572e-10;4.189499064404762e-09;-8.830539242549126e-06;1.0205332457657409e-06;1.2886113678154538e-05;-1.2886113678376582e-05;-2.0652942772761554e-06;7.390619884409323e-05;2.220446049250313e-16;0.00029848811068802214;2.220446049250313e-16;-2.740180861769497e-05;2.740180861791701e-05;4.073433302409257e-07;0.010470766073137794
1.039635419845581;0.0002863435858947678;-0.00033416771795206847;5.950672971997262e-06;0.003576841447116155;0.00019660376699475916;-8.440457938007408e-05;0.0016845911742045276;2.220446049250313e-16;2.2466135265421312e-05;2.220446049250313e-16;2.220446049250313e-16;2.220446049250313e-16;2.220446049250313e-16;2.220446049250313e-16;2.220446049250313e-16;2.220446049250313e-16;2.220446049250313e-16;2.220446049250313e-16;-9.222959866907329e-05;-3.132774968334796e-05;-1.8685475520173978e-15;1.1161237848994392e-10;3.4123731723268307e-09;-7.192529403926527e-06;8.31230707008982e-07;9.972853074751564e-05;-9.972853074773769e-05;-1.6821950969306615e-06;6.019706087225669e-05;2.220446049250313e-16;0.0008218944639656362;2.220446049250313e-16;-0.0002752851992759131;0.00027528519927613515;3.317836883770479e-07;0.010618315269674723
1.0594961643218994;0.0003436832348170312;-0.00046947308089966076;4.644628315153875e-07;0.0035751558776249896;0.00030778969848346046;0.00010380952233126488;0.0009544837689277364;2.220446049250313e-16;1.8298807587031065e-05;2.220446049250313e-16;2.220446049250313e-16;2.220446049250313e-16;2.220446049250313e-16;2.220446049250313e-16;2.220446049250313e-16;2.220446049250313e-16;2.220446049250313e-16;2.220446049250313e-16;-0.00014118880799027846;4.0550575523804174e-05;-1.5219436595403702e-15;9.090897985742488e-11;2.7793992761925297e-09;-5.85836015280693e-06;6.770426060507345e-07;-3.885168559840702e-05;3.8851685598184966e-05;-1.3701584201693797e-06;4.903088231208352e-05;2.220446049250313e-16;0.0008051082497721907;2.220446049250313e-16;0.00019617350758267563;-0.0001961735075824536;2.702398878311579e-07;-0.007059169518349385
1.07950758934021;0.0004037125415594639;-0.0005908625053291708;-3.3497068245849818e-06;0.003564129571041521;0.00042484625101524336;0.000272816358160671;-0.0006429308597188771;2.220446049250313e-16;1.4904493147184216e-05;2.220446049250313e-16;2.220446049250313e-16;2.220446049250313e-16;2.220446049250313e-16;2.220446049250313e-16;2.220446049250313e-16;2.220446049250313e-16;2.220446049250313e-16;2.220446049250313e-16;-0.00011499916653813174;3.3028697205235524e-05;-1.2396326228435033e-15;7.404593227499667e-11;2.263838081704291e-09;-4.7716709592121985e-06;5.51455434144611e-07;-3.1644940742958086e-05;3.164494074273604e-05;-1.1160025967180854e-06;3.993596008620647e-05;2.220446049250313e-16;0.0008060556668759255;2.220446049250313e-16;0.00011461181001513692;-0.00011461181001491487;2.2011207763777684e-07;-0.0057497376925050615
1.0997610092163086;0.00046574963559156473;-0.0006970297936526729;-5.44038083869747e-06;0.003540734588567426;0.0005472874344021937;0.0004207004458300184;-0.0014099000002863633;2.220446049250313e-16;1.2139802821463713e-05;2.220446049250313e-16;2.220446049250313e-16;2.220446049250313e-16;2.220446049250313e-16;2.220446049250313e-16;2.220446049250313e-16;2.220446049250313e-16;2.220446049250313e-16;2.220446049250313e-16;-9.366753989009916e-05;2.6902080303021866e-05;-1.0096885190099258e-15;6.031087462506151e-11;1.843910266536156e-09;-3.8865558192218304e-06;4.49163897707249e-07;1.2802194832413715e-05;-1.2802194832635758e-05;-9.089910900431099e-07;3.25280890899657e-05;-0.0001414411939599869;0.0006565373785183592;2.220446049250313e-16;-0.00016291817325293288;0.00016291817325315492;1.7928266293645448e-07;-0.004683197286405951
1.119729995727539;0.0005270635930370125;-0.0007842871282129649;-5.8852895708217425e-06;0.0035029073316062884;0.000670487187129026;0.0005435780801793536;-0.0010444104855635763;2.220446049250313e-16;9.887945271849826e-06;2.220446049250313e-16;2.220446049250313e-16;2.220446049250313e-16;2.220446049250313e-16;2.220446049250313e-16;2.220446049250313e-16;2.220446049250313e-16;2.220446049250313e-16;2.220446049250313e-16;-7.629279666261005e-05;2.191191254481319e-05;-8.223976092868286e-16;4.9123584325079003e-11;1.5018764365328644e-09;-3.1656240057300505e-06;3.658468019569149e-07;9.881502357405396e-05;-9.8815023574276e-05;-7.403789240344257e-07;2.6494331864333876e-05;-0.00011520473648787156;0.0005347537981618193;2.220446049250313e-16;1.610168226337603e-05;-1.6101682263153986e-05;1.4602684947838552e-07;-0.0038144934597606865
1.139502763748169;0.0005884985032827644;-0.0008543191822449632;-4.7971505791282e-06;0.003450205421460405;0.0007953934478569275;0.0006451555855245641;-0.0007496370714881219;2.220446049250313e-16;8.05379322357963e-06;2.220446049250313e-16;2.220446049250313e-16;2.220446049250313e-16;2.220446049250313e-16;2.220446049250313e-16;2.220446049250313e-16;2.220446049250313e-16;2.220446049250313e-16;2.220446049250313e-16;-6.214095971167502e-05;1.7847389717203743e-05;-6.698479927491799e-16;4.0011466455178866e-11;1.2232877442837462e-09;-2.578420537817161e-06;-9.253517437935391e-05;-3.9872141703779435e-05;3.987214170355739e-05;-6.030432609943147e-07;2.1579798893074088e-05;-9.383497789897444e-05;0.0004355603108140401;2.220446049250313e-16;0.00017378525324852364;-0.0001737852532483016;1.1893978156795423e-07;0.010381638663527593
1.1595005989074707;0.0006539550998208583;-0.0009101133622138949;-1.9664839173291567e-06;0.003382851959580476;0.000927433252526261;0.0007306399022214399;-0.00029731821738552037;2.220446049250313e-16;6.559864916813256e-06;2.220446049250313e-16;2.220446049250313e-16;2.220446049250313e-16;2.220446049250313e-16;2.220446049250313e-16;2.220446049250313e-16;2.220446049250313e-16;2.220446049250313e-16;2.220446049250313e-16;-5.06142000661575e-05;1.4536810470848182e-05;-5.455953766441616e-16;3.258958949940852e-11;9.96375513267513e-10;-2.10013964318044e-06;3.100271728631384e-06;-3.2476108618634586e-05;3.247610861841255e-05;-4.911825051002504e-07;1.757688107215192e-05;-7.642917596732652e-05;0.00035476659540997833;2.220446049250313e-16;-3.381486965808376e-05;3.3814869658305796e-05;9.68771954607335e-08;-0.004976574629961096
1.1796531677246094;0.0007251025329534625;-0.0009508948335446635;2.8936312518952068e-06;0.003305047993727585;0.0010674672553734773;0.0007993465057465079;0.0015912882420112404;2.220446049250313e-16;5.3430509739001255e-06;2.220446049250313e-16;2.220446049250313e-16;2.220446049250313e-16;2.220446049250313e-16;2.220446049250313e-16;2.220446049250313e-16;2.220446049250313e-16;2.220446049250313e-16;2.220446049250313e-16;-4.1225582292635685e-05;1.184032298357128e-05;-4.443908442477737e-16;2.654442433220261e-11;8.115540829033472e-10;-1.7105768652432376e-06;2.525190699668566e-06;1.1827813922085558e-05;-1.1827813922307604e-05;-4.0007122029481076e-07;1.4316479488774435e-05;-6.225204150773724e-05;0.00028895960925264853;2.220446049250313e-16;-0.00027783016161718184;0.0002778301616174039;7.890708118523905e-08;-0.004053451139694749
1.1996943950653076;0.0008008553919166167;-0.0009744177504530006;9.924052390510033e-06;0.0032244485157846927;0.001211697193605808;0.0008467686124013137;0.0017145183558005285;2.220446049250313e-16;4.351948412310237e-06;2.220446049250313e-16;2.220446049250313e-16;2.220446049250313e-16;2.220446049250313e-16;2.220446049250313e-16;2.220446049250313e-16;2.220446049250313e-16;2.220446049250313e-16;2.220446049250313e-16;-3.3578494437241085e-05;9.644017072137454e-06;-3.6195912008258805e-16;2.1620599521231092e-11;6.610158727377944e-10;-1.3932755478460243e-06;2.05678360732192e-06;9.811659979163615e-05;-9.811659979185821e-05;-3.258605093752502e-07;1.1660862021603582e-05;-0.0004972459612564118;0.00023535940773384;2.220446049250313e-16;0.0001973015462343093;-0.00019730154623408722;6.427031079463461e-08;-0.004805132574127669
1.219482660293579;0.000880350212721374;-0.0009803638411034932;1.9222472556975738e-05;0.003146574105782502;0.0013568381276192311;0.0008700226061719554;0.001075974720088517;2.220446049250313e-16;3.544689181504264e-06;2.220446049250313e-16;2.220446049250313e-16;2.220446049250313e-16;2.220446049250313e-16;2.220446049250313e-16;2.220446049250313e-16;2.220446049250313e-16;2.220446049250313e-16;2.220446049250313e-16;-2.734989358472309e-05;7.855112180362656e-06;-2.9481796555176846e-16;1.761011343878973e-11;5.384015596941381e-10;-1.1348316416927607e-06;1.675263103061249e-06;-4.3433325465159e-05;4.343332546493695e-05;-2.654154215143249e-07;9.497844996983752e-06;-0.0008155094321923111;0.00019170170859551095;2.220446049250313e-16;0.00011413939021310544;-0.00011413939021288338;5.2348569831672335e-08;-0.005614273574938229
1.2394957542419434;0.0009664220717267203;-0.0009716542563260765;3.1102662881500065e-05;0.003074004154094561;0.0015054595035045495;0.0008711583713989126;-0.0004439035800692985;2.220446049250313e-16;2.887171492642606e-06;2.220446049250313e-16;2.220446049250313e-16;2.220446049250313e-16;2.220446049250313e-16;2.220446049250313e-16;2.220446049250313e-16;2.220446049250313e-16;2.220446049250313e-16;2.220446049250313e-16;-2.2276659261591856e-05;6.398037965356508e-06;-2.401310755542001e-16;1.4343547459103226e-11;4.385314353806235e-10;-9.24327464856514e-07;1.364512267837781e-06;-3.5376715049676745e-05;3.537671504945471e-05;-2.16182519669802e-07;7.736054111574496e-06;-0.0006642375294545884;0.00015614223978672242;2.220446049250313e-16;-0.00016289566922582916;0.00016289566922605118;4.2638237306458566e-08;0.010621580979145121
1.2596275806427002;0.0010584945088575478;-0.0009526553337450192;4.526024685772288e-05;0.0030141633394842673;0.0016537393936924827;0.0008542667154114586;-0.0013457396846275169;2.220446049250313e-16;2.3516192255792314e-06;2.220446049250313e-16;2.220446049250313e-16;2.220446049250313e-16;2.220446049250313e-16;2.220446049250313e-16;2.220446049250313e-16;2.220446049250313e-16;2.220446049250313e-16;2.220446049250313e-16;-1.8144478197686948e-05;5.211241910520156e-06;2.220446049250313e-16;1.1682909052611195e-11;3.5718659493898893e-10;-7.528704971722857e-07;1.1114037703555463e-06;9.402381208238774e-06;-9.40238120846082e-06;-1.760820134118016e-07;6.3010644242156235e-06;-0.0005410256192253213;0.0002696466645741917;2.220446049250313e-16;-7.860616176188928e-05;7.860616176211133e-05;3.472911077509365e-08;-0.005612979468849117
1.2794640064239502;0.0011527020876588583;-0.0009293119247678495;6.068321204816756e-05;0.002974249532774266;0.0017931477388785006;0.0008270465900034486;-0.0010961133840021412;2.220446049250313e-16;1.915408556854444e-06;2.220446049250313e-16;2.220446049250313e-16;2.220446049250313e-16;2.220446049250313e-16;2.220446049250313e-16;2.220446049250313e-16;2.220446049250313e-16;2.220446049250313e-16;2.220446049250313e-16;-9.038433405937133e-05;7.985013227074719e-05;2.220446049250313e-16;9.515802441533393e-12;2.9093071399402484e-10;-6.132177253874341e-07;9.052453172281572e-07;9.809010641363615e-05;-9.80901064138582e-05;-1.4341990043649625e-07;5.1322563551762745e-06;-0.00044066874826914415;0.0002196288935873327;2.220446049250313e-16;0.00017737639236004623;-0.00017737639235982419;2.828707778325612e-08;-0.004571806858499286
1.299605369567871;0.0012479483288210123;-0.000905290782751988;7.69165187713529e-05;0.002958822161072876;0.0019192248636304282;0.0007950537907727912;-0.0007903644213678917;2.220446049250313e-16;-0.00022691168686484326;2.220446049250313e-16;2.220446049250313e-16;2.220446049250313e-16;2.220446049250313e-16;2.220446049250313e-16;2.220446049250313e-16;2.220446049250313e-16;2.220446049250313e-16;2.220446049250313e-16;-7.361860499344583e-05;6.503843179785028e-05;2.220446049250313e-16;7.750680562394207e-12;2.369648848650956e-10;-4.994696699388487e-07;7.373279686655666e-07;-4.2720525311494e-05;4.272052531127196e-05;-1.1681640527990387e-07;4.1802548778932955e-06;-0.00035892744964489466;0.00017888910650746737;2.220446049250313e-16;-7.376860911930235e-05;7.376860911952441e-05;2.3040001648698254e-08;-0.004461910799346467
1.3194983005523682;0.0013386299062205116;-0.0008808803872009672;9.316413008464423e-05;0.0029727610649230183;0.0020211797993486937;0.0007591731630848695;-0.00031657921169774364;2.220446049250313e-16;-0.001993431677932264;2.220446049250313e-16;2.220446049250313e-16;2.220446049250313e-16;2.220446049250313e-16;2.220446049250313e-16;2.220446049250313e-16;2.220446049250313e-16;2.220446049250313e-16;2.220446049250313e-16;-5.9962813883442825e-05;5.2974209189547776e-05;2.220446049250313e-16;6.3129777598235965e-12;1.9300937975315069e-10;-4.068211678506293e-07;6.005582387779081e-07;-3.4796134869515665e-05;3.479613486929361e-05;-9.514769220301467e-08;3.4048437246370744e-06;-0.00029234865103232684;0.00014570629530724782;2.220446049250313e-16;-0.00027531205639817557;0.00027531205639839767;1.8766225342875026e-08;-0.0036342542330101923
1.339571237564087;0.001425554514528962;-0.0008515927847798126;0.00010988325988721553;0.0030143550559997606;0.0021000631152595585;0.0007144735666530507;0.0012745009899803874;2.220446049250313e-16;-0.0016281322435540136;2.220446049250313e-16;2.220446049250313e-16;2.220446049250313e-16;2.220446049250313e-16;2.220446049250313e-16;2.220446049250313e-16;2.220446049250313e-16;2.220446049250313e-16;2.220446049250313e-16;-4.8840086675650937e-05;4.3147824473694095e-05;2.220446049250313e-16;5.141959841487316e-12;1.572073461175647e-10;-3.3135838384663657e-07;2.6735602213953625e-06;9.794967946639067e-06;-9.794967946861113e-06;-7.749838997243171e-08;2.773266493990176e-06;-0.00023811980344489917;0.000118678688192099;2.220446049250313e-16;0.0002098529788342624;-0.00020985297883404042;1.52852078306801e-08;-0.002960122786875757
1.3594839572906494;0.0015057355192957947;-0.000814303844035728;0.00012676855087353402;0.0030772371573716934;0.002155815202281968;0.0006575111132141193;0.0015873942126368506;2.220446049250313e-16;-0.001326123888201266;2.220446049250313e-16;2.220446049250313e-16;2.220446049250313e-16;2.220446049250313e-16;2.220446049250313e-16;2.220446049250313e-16;0.00011811647647370354;2.220446049250313e-16;2.220446049250313e-16;-0.00011530195988548467;0.00011066557674535208;2.220446049250313e-16;4.188158428140428e-12;1.2804636595866963e-10;-2.698934746329845e-07;2.177631510077906e-06;9.768205515158353e-05;-9.768205515180556e-05;-6.312292299748295e-08;2.2588428922705856e-06;-0.00019395006815464187;9.666453327426579e-05;2.220446049250313e-16;0.00012558854449694652;-0.00012558854449672445;1.244989731063788e-08;-0.002411038510677722
1.3794925212860107;0.001577868190367835;-0.0007660596216051937;0.00014389637422020215;0.003155135131822336;0.002189210478339939;0.000583874619309536;0.0010769952028477088;2.220446049250313e-16;-0.0010801361952142321;2.220446049250313e-16;2.220446049250313e-16;2.220446049250313e-16;2.220446049250313e-16;2.220446049250313e-16;2.220446049250313e-16;9.620660831580949e-05;2.220446049250313e-16;2.220446049250313e-16;-9.391416696397652e-05;9.013780391894391e-05;2.220446049250313e-16;3.411281215710554e-12;1.0429456536312364e-10;-2.1982992192278227e-07;1.773694475155392e-06;-4.246184169907445e-05;4.24618416988524e-05;-5.141401529971858e-08;1.8398416535224685e-06;-0.00015797354269988172;7.873386650522245e-05;2.220446049250313e-16;-0.00015497967218831819;0.00015497967218854026;1.0140519171372745e-08;-0.001963805935937696
1.3994872570037842;0.0016397879163674019;-0.0007065898684688795;0.00016097985171795057;0.0032391310263279335;0.002200566360074789;0.0004929183278511602;0.00011563102961210471;2.220446049250313e-16;-0.0008797776818532119;2.220446049250313e-16;2.220446049250313e-16;2.220446049250313e-16;2.220446049250313e-16;2.220446049250313e-16;2.220446049250313e-16;7.836088376452878e-05;2.220446049250313e-16;2.220446049250313e-16;-7.649367595570241e-05;7.341780465325428e-05;2.220446049250313e-16;2.7785098707038444e-12;8.494857532929772e-11;-1.790528453431181e-07;1.4446852356045363e-06;-3.458543545042734e-05;3.4585435450205294e-05;-4.187703679921641e-08;1.4985625258043847e-06;-0.0001286704378636955;6.412922635516933e-05;2.220446049250313e-16;-6.274189622936373e-05;6.274189622958577e-05;8.259516243327918e-09;-0.001599532208608353
1.4195282459259033;0.0016921400776584675;-0.0006375116607448157;0.00017796547243409795;0.0033221578957612495;0.0021930761234741493;0.00038687347911805955;-0.0014322604453676025;2.220446049250313e-16;-0.0007165844204799528;2.220446049250313e-16;2.220446049250313e-16;2.220446049250313e-16;2.220446049250313e-16;2.220446049250313e-16;2.220446049250313e-16;6.382542958173221e-05;2.220446049250313e-16;2.220446049250313e-16;-6.230457715139432e-05;5.9799260751354686e-05;2.220446049250313e-16;2.263113655374972e-12;6.919114553430879e-11;-1.4583966161225305e-07;1.1767051536826171e-06;1.0762167508121983e-05;-1.0762167508344031e-05;-3.410910820444175e-08;1.220588543283457e-06;-0.0001048028758302166;5.223365567395013e-05;2.220446049250313e-16;0.00018248965843327582;-0.00018248965843305372;6.7274276021671084e-09;-0.002814079601195927
1.439516305923462;0.0017357029693828706;-0.000560715354989221;0.0001946817780899638;0.0033990971914816376;0.00217025372702664;0.0002694049954489187;-0.0011614360003138636;2.220446049250313e-16;-0.0005836624891335492;2.220446049250313e-16;2.220446049250313e-16;2.220446049250313e-16;2.220446049250313e-16;2.220446049250313e-16;2.220446049250313e-16;5.198621130325576e-05;2.220446049250313e-16;2.220446049250313e-16;-0.00012297249213523114;0.00012093189626917136;2.220446049250313e-16;1.84332021676326e-12;5.6356620482354076e-11;-1.1878731588106515e-07;6.0828994529145075e-06;9.730988092069189e-05;-9.730988092091392e-05;-2.7782081814444082e-08;9.941769971827713e-07;-8.536259738168534e-05;4.2544639006780335e-05;2.220446049250313e-16;-2.690499707824104e-05;2.690499707846309e-05;5.4795318283876216e-09;-0.002292085423171589
1.4594850540161133;0.0017710067367386778;-0.00047705136290302554;0.0002109757549688516;0.0034677441276008943;0.0021343855982893655;0.0001432497324112578;-0.0008302347364927307;2.220446049250313e-16;-0.000475396745289833;2.220446049250313e-16;2.220446049250313e-16;2.220446049250313e-16;2.220446049250313e-16;2.220446049250313e-16;2.220446049250313e-16;4.234309402032245e-05;2.220446049250313e-16;2.220446049250313e-16;-0.00010016186342222158;9.849978533559173e-05;2.220446049250313e-16;1.50139583730503e-12;4.5902819611755397e-11;-9.675301120585179e-08;4.954559622520446e-06;-4.212710159519268e-05;4.212710159497064e-05;-2.262867927587604e-08;8.097633778115995e-07;-6.952836908361633e-05;3.465287437501637e-05;2.220446049250313e-16;-0.0002763811948815208;0.0002763811948817428;4.463112921295645e-09;-0.0018669179027071539
1.4795258045196533;0.0017983237558193243;-0.0003873225539212164;0.00022668433670759532;0.0035262275500616467;0.002087006148152051;1.0950929009564123e-05;-0.0003595288550966732;2.220446049250313e-16;-0.0003872136202682269;2.220446049250313e-16;2.220446049250313e-16;2.220446049250313e-16;2.220446049250313e-16;2.220446049250313e-16;2.220446049250313e-16;3.448871472389025e-05;2.220446049250313e-16;2.220446049250313e-16;-8.158246376904585e-05;8.02286907794978e-05;2.220446049250313e-16;1.22289629320893e-12;3.738813346639734e-11;-7.880593233348631e-08;4.035519778540544e-06;-3.431278754368999e-05;3.4312787543467946e-05;-1.8431200699446505e-08;6.595573322486589e-07;-5.6631291170912265e-05;2.822498275891568e-05;2.220446049250313e-16;0.00020165797592022609;-0.00020165797592000404;3.6352333688510598e-09;0.013831090378150123
1.4997224807739258;0.0018179382258601965;-0.0002929271053681423;0.0002416111443074179;0.0035715749453398937;0.0020297270534315086;-0.00012419400353585214;0.000686099018743295;2.220446049250313e-16;-0.00031538791379359747;2.220446049250313e-16;2.220446049250313e-16;2.220446049250313e-16;2.220446049250313e-16;2.220446049250313e-16;2.220446049250313e-16;2.8091273697075636e-05;2.220446049250313e-16;2.220446049250313e-16;-6.644942663028638e-05;6.534677006921829e-05;2.220446049250313e-16;9.96056673920506e-13;3.0452868384214787e-11;-6.418792442270168e-08;3.2869560816198874e-06;1.1032851783725161e-05;-1.1032851783947206e-05;-1.5012328164703553e-08;5.372135693498592e-07;-4.612654060427786e-05;2.2989424863279056e-05;2.220446049250313e-16;0.00012053867790687441;-0.00012053867790665237;2.9609202991377426e-09;-0.0025633091336573523
1.5196120738983154;0.0018278465324074915;-0.00019975142780884894;0.00025478400119200887;0.003598397480621666;0.001963480336965167;-0.0002532016705086644;0.001686776155078974;2.220446049250313e-16;-0.0002568854269593463;2.220446049250313e-16;2.220446049250313e-16;2.220446049250313e-16;2.220446049250313e-16;2.220446049250313e-16;2.220446049250313e-16;2.2880517996728706e-05;2.220446049250313e-16;2.220446049250313e-16;-5.412347329928469e-05;5.322535263869123e-05;2.220446049250313e-16;8.112943862624639e-13;2.4804051629370353e-11;-5.2281465616818137e-08;2.6772462719549075e-06;9.69356452972765e-05;-9.693564529749856e-05;-1.2227635117202071e-08;4.375638098202686e-07;-3.7570355613063066e-05;1.8725030235046184e-05;2.220446049250313e-16;-0.00015939338049261124;0.00015939338049283328;2.411688089399561e-09;0.012021927947846626
1.5394480228424072;0.001826652445722488;-0.00011163078437662801;0.0002657192895637285;0.003602219089469238;0.0018871460636012446;-0.0003712390984135908;0.001257651469664341;2.220446049250313e-16;-0.00020923478579230602;2.220446049250313e-16;2.220446049250313e-16;2.220446049250313e-16;2.220446049250313e-16;2.220446049250313e-16;2.220446049250313e-16;1.8636324911573008e-05;2.220446049250313e-16;2.220446049250313e-16;-4.408390727397549e-05;4.3352382382668e-05;2.220446049250313e-16;6.608043482006908e-13;2.0203055077444828e-11;-4.258358050405848e-08;2.180633821296472e-06;-4.2403476875992213e-05;4.240347687577017e-05;-9.959485225680566e-09;3.5639845787242017e-07;-3.0601289461562454e-05;1.525165415788408e-05;2.220446049250313e-16;-6.819426592139142e-05;6.819426592161347e-05;1.9643350218665004e-09;-0.005516477881492801
1.5594446659088135;0.0018144153144653953;-3.199500186450985e-05;0.00027420789177567625;0.0035788721560303413;0.0018018537129638672;-0.0004746481657048108;0.00013326982387740143;2.220446049250313e-16;-0.00017042304074524442;2.220446049250313e-16;2.220446049250313e-16;2.220446049250313e-16;2.220446049250313e-16;2.220446049250313e-16;2.220446049250313e-16;1.517940311750691e-05;2.220446049250313e-16;2.220446049250313e-16;-3.590661799907349e-05;3.531078640307297e-05;2.220446049250313e-16;5.382292716366387e-13;1.6455514629673042e-11;-3.468459246793377e-08;1.776139876407359e-06;-3.453789693724672e-05;3.453789693702467e-05;-8.11206296309948e-09;2.9028877142744785e-07;-2.4924941524501745e-05;1.2422567634435067e-05;2.220446049250313e-16;0.00017119193027300604;-0.000171191930272784;1.599963152404151e-09;0.009632485234212163
1.5794622898101807;0.00179201661021676;3.5447233461351476e-05;0.00028003023379203566;0.003523084313777506;0.0017114279974232687;-0.0005587352429044017;-0.0014234034936933824;2.220446049250313e-16;-0.0001388106318310062;2.220446049250313e-16;2.220446049250313e-16;2.220446049250313e-16;2.220446049250313e-16;2.220446049250313e-16;2.220446049250313e-16;1.2363718710478857e-05;2.220446049250313e-16;2.220446049250313e-16;-2.924616477660785e-05;2.8760856217717938e-05;2.220446049250313e-16;4.3839110568098995e-13;1.3403119512835125e-11;-2.8250817343834973e-08;1.4466770302080209e-06;1.0665667933487918e-05;-1.0665667933709964e-05;-6.6073259838380445e-09;2.3644201863247766e-07;-2.0301520652591195e-05;1.0118258979295076e-05;2.220446049250313e-16;-3.723789648177153e-05;3.723789648199359e-05;1.3031799874028832e-09;-0.005770102361777567
1.599449634552002;0.0017617032951699812;8.929129418300659e-05;0.00028327328957885353;0.0034332066518123474;0.0016210200811819697;-0.0006210450540662532;-0.0011593710418850954;2.220446049250313e-16;-0.00011306212719280349;2.220446049250313e-16;2.220446049250313e-16;2.220446049250313e-16;2.220446049250313e-16;2.220446049250313e-16;2.220446049250313e-16;1.0070326162926967e-05;2.220446049250313e-16;2.220446049250313e-16;-2.3821183999076942e-05;2.3425897144682613e-05;2.220446049250313e-16;3.5707229552157674e-13;1.0916924612701161e-11;-2.301046729416198e-08;1.1783274828358716e-06;9.813237127208584e-05;-9.813237127230789e-05;-5.381708309623486e-09;1.9258350193876946e-07;-1.6535715456039607e-05;8.241385177754458e-06;2.220446049250313e-16;-0.0002847104856013362;0.00028471048560155824;0.0015280459465671602;-0.006227829321926504
1.6194889545440674;0.001726125231676118;0.00012911720449214483;0.00028410823281240687;0.0033128266760142602;0.0015357426955881187;-0.000660333900206996;-0.0009446153809241867;2.220446049250313e-16;-9.208980923683338e-05;2.220446049250313e-16;2.220446049250313e-16;2.220446049250313e-16;2.220446049250313e-16;2.220446049250313e-16;2.220446049250313e-16;-9.809840209485392e-05;2.220446049250313e-16;2.220446049250313e-16;-8.501189291622336e-05;8.468992930277635e-05;2.220446049250313e-16;2.908376164041712e-13;8.891903327823922e-12;-1.8742169426515517e-08;9.597550993165849e-07;-3.888176665050593e-05;3.888176665028388e-05;-4.3834350538652644e-09;1.568604659760148e-07;-1.3468443587165855e-05;6.712659735938365e-06;2.220446049250313e-16;0.00019876402867912132;-0.00019876402867889933;0.001244602973766118;-0.006853415592724356
1.6394648551940918;0.0016864311168716404;0.00015477477679201569;0.00028247325057587216;0.003168529773062835;0.001459242978581052;-0.0006761647003734764;-0.00044967857664958037;2.220446049250313e-16;0.0001329298151026008;2.220446049250313e-16;2.220446049250313e-16;2.220446049250313e-16;2.220446049250313e-16;2.220446049250313e-16;2.220446049250313e-16;-7.990176162127159e-05;2.220446049250313e-16;2.220446049250313e-16;-6.924271810459464e-05;6.898047672916944e-05;2.220446049250313e-16;2.3688905629629997e-13;7.242510834908382e-12;-1.5265614136455802e-08;2.1150026802914827e-06;-3.1669441947899234e-05;3.166944194767719e-05;-3.570335247842344e-09;1.2776382991537638e-07;-1.0970131479519007e-05;5.467503309045146e-06;2.220446049250313e-16;0.00011537551280425491;-0.00011537551280403284;0.001013736900901089;-0.007043962462087105
1.6596300601959229;0.0016408392144121363;0.0001675847491709991;0.0002780553702148242;0.0030050059135094133;0.0013908168609385806;-0.0006700473074676181;0.0004931593140159466;2.220446049250313e-16;0.0005581425491242146;2.220446049250313e-16;2.220446049250313e-16;2.220446049250313e-16;2.220446049250313e-16;2.220446049250313e-16;2.220446049250313e-16;-6.508048422653584e-05;2.220446049250313e-16;2.220446049250313e-16;-5.639862666318047e-05;5.618502942388809e-05;2.220446049250313e-16;1.9294761690993813e-13;5.8990703407255945e-12;-1.2433938124231602e-08;1.7226829018641644e-06;1.3084616957055445e-05;-1.3084616957277491e-05;-2.9080603739628873e-09;1.04064437990011e-07;-8.935240653389975e-06;4.4533156171129506e-06;2.220446049250313e-16;-0.00015917628082092643;0.00015917628082114848;0.0008256950416395674;-0.0076465211793181964
1.6795177459716797;0.001588315396988153;0.00017003201768783714;0.00027080743135666097;0.002833641235354183;0.0013300805968078754;-0.0006467488856826934;0.0016304563797975712;2.220446049250313e-16;0.0017800819080449047;2.220446049250313e-16;2.220446049250313e-16;2.220446049250313e-16;2.220446049250313e-16;2.220446049250313e-16;2.220446049250313e-16;-5.300846115553984e-05;2.220446049250313e-16;2.220446049250313e-16;-4.593703390857713e-05;4.5763057622190726e-05;2.220446049250313e-16;1.5715703989575024e-13;4.804829661710625e-12;-1.0127520314299914e-08;1.4031359903364979e-06;9.93618670111552e-05;-9.936186701137726e-05;-2.368633349970109e-09;8.476113514560139e-08;-7.277809357440217e-06;3.6272534033611054e-06;2.220446049250313e-16;-6.252915950250323e-05;6.252915950272529e-05;0.0006725337720094378;-0.006228139291312042
1.6995408535003662;0.0015256223371681724;0.00016689419672328984;0.0002608163565451682;0.0026582225837627543;0.0012709630457007678;-0.0006142699555408941;0.0013047985229167778;2.220446049250313e-16;0.0014360820327711527;2.220446049250313e-16;2.220446049250313e-16;2.220446049250313e-16;2.220446049250313e-16;2.220446049250313e-16;2.220446049250313e-16;-4.317572291406941e-05;2.220446049250313e-16;2.220446049250313e-16;-3.7416001224998e-05;3.727429645238448e-05;2.220446049250313e-16;1.2800539122658792e-13;3.913563789648689e-12;-8.248928592999243e-09;1.1428630337290168e-06;-3.960227348086706e-05;3.9602273480645015e-05;-1.929266667509091e-09;6.9038474333187e-08;-5.9278212079435386e-06;2.9544205673713907e-06;2.220446049250313e-16;0.0001797354491692413;-0.0001797354491690193;0.0005477829606377622;-0.007297679994012177
1.7194581031799316;0.0014521256802160908;0.00016115091219728024;0.00024852091565722285;0.0024855926718307976;0.0012089336154618097;-0.0005793537984846751;0.0006350189204960452;2.220446049250313e-16;0.0011696977912048086;2.220446049250313e-16;2.220446049250313e-16;2.220446049250313e-16;2.220446049250313e-16;2.220446049250313e-16;2.220446049250313e-16;-3.516689616177774e-05;2.220446049250313e-16;2.220446049250313e-16;-3.0475566847768525e-05;3.0360147424819982e-05;2.220446049250313e-16;1.04261191187751e-13;3.1876221664425417e-12;-6.718803894801588e-09;9.308690838662449e-07;-3.225629926439606e-05;3.225629926417401e-05;-1.571399758602826e-09;5.623226883484538e-08;-4.828247422752561e-06;2.4063940172525435e-06;2.220446049250313e-16;-3.051184135452021e-05;3.0511841354742254e-05;0.00044617264508296133;-0.005944005965622878
1.739473819732666;0.0013665762116695046;0.0001538347502927559;0.0002340448189176419;0.0023184502863779098;0.0011396873438471126;-0.0005451975940993891;-0.00148046807329107;2.220446049250313e-16;0.0009527261615475117;2.220446049250313e-16;2.220446049250313e-16;2.220446049250313e-16;2.220446049250313e-16;2.220446049250313e-16;2.220446049250313e-16;-2.8643656716868982e-05;2.220446049250313e-16;2.220446049250313e-16;-2.4822539669800256e-05;2.472852982843728e-05;2.220446049250313e-16;8.492139185486807e-14;2.5963381772059905e-12;-5.472507764840236e-09;7.581986867408305e-07;1.134780482847938e-05;-1.1347804828701426e-05;-1.279914924630493e-09;4.580153441766177e-08;-3.932637702378352e-06;1.960022967014804e-06;2.220446049250313e-16;-0.000279226467526288;0.00027922646752651006;0.0003634104079991036;-0.004841430009037119
1.7594892978668213;0.0012701933182450588;0.00014755002822831761;0.00021790377655979515;0.0021622149285208496;0.0010620783837018521;-0.0005161459038653672;-0.0012058504986210345;2.220446049250313e-16;0.0007760014131189576;2.220446049250313e-16;2.220446049250313e-16;2.220446049250313e-16;2.220446049250313e-16;2.220446049250313e-16;2.220446049250313e-16;-2.333043741874426e-05;2.220446049250313e-16;2.220446049250313e-16;-2.021811370192524e-05;2.0141542098573583e-05;2.220446049250313e-16;6.916900442448912e-14;2.1147336724478864e-12;-4.4573917776359006e-09;6.175575690921984e-07;9.901614289021876e-05;-9.90161428904408e-05;-1.0424987055798153e-09;3.7305636042775614e-08;-3.2031579875728063e-06;1.5964509567771013e-06;2.220446049250313e-16;0.00020350070113542173;-0.0002035007011351997;0.0002960000486303198;-0.003943375001298289
1.779479742050171;0.001163365107896176;0.00014541447624820693;0.00020043309792036813;0.002021188762907965;0.0009743531990273024;-0.0004958914465697997;-0.000982172767692449;2.220446049250313e-16;0.0006320580009942227;2.220446049250313e-16;2.220446049250313e-16;2.220446049250313e-16;2.220446049250313e-16;2.220446049250313e-16;2.220446049250313e-16;-1.9002787092801063e-05;2.220446049250313e-16;2.220446049250313e-16;-1.6467779973428743e-05;1.6405411923926294e-05;2.220446049250313e-16;5.633858641002404e-14;1.722463793294256e-12;-3.6305734615830503e-09;5.030044997604023e-07;-4.164864345296277e-05;4.164864345274073e-05;0.0007559236876055173;3.0385673717065995e-08;-2.6089922006154728e-06;1.3003192821134286e-06;2.220446049250313e-16;0.00011934926104085683;-0.00011934926104063479;0.00024109388960969947;-0.003211903584651215
1.799494981765747;0.0010449563124328026;0.00015032190202204392;0.00018170410030756212;0.0018984592716694735;0.0008733427052877975;-0.00048766057666626417;-0.0006007826823846093;2.220446049250313e-16;0.0005148151921723006;2.220446049250313e-16;2.220446049250313e-16;2.220446049250313e-16;2.220446049250313e-16;2.220446049250313e-16;2.220446049250313e-16;-1.5477888854505794e-05;2.220446049250313e-16;2.220446049250313e-16;-1.341310971198254e-05;1.3362310545862488e-05;2.220446049250313e-16;4.5888130747129636e-14;1.4029575250368791e-12;-2.9571247755435297e-09;4.0970030883297117e-07;-3.392308039648035e-05;3.39230803962583e-05;0.0007520194769097606;2.474932115301098e-08;-2.125040453602556e-06;1.0591181822769006e-06;2.220446049250313e-16;-0.00015871778711764846;0.0001587177871178705;0.00019637247992391023;-0.00414226703152884
1.8194842338562012;0.0009156473184879427;0.00016607535570495248;0.00016213663686106837;0.0017958330207754527;0.0007584935863091785;-0.0004958314923580954;5.661299093749736e-05;2.220446049250313e-16;0.0004193201916192898;2.220446049250313e-16;2.220446049250313e-16;2.220446049250313e-16;2.220446049250313e-16;2.220446049250313e-16;2.220446049250313e-16;-1.2606837208800309e-05;2.220446049250313e-16;2.220446049250313e-16;-1.0925061692345474e-05;1.0883685454045907e-05;2.220446049250313e-16;3.737616929435425e-14;1.1427176726270697e-12;-2.4085966117100517e-09;3.337034621713852e-07;1.0656824820008563e-05;-1.0656824820230607e-05;0.0007411707442629852;2.0158476762384647e-08;-1.7308587309621162e-06;8.626583789531746e-07;2.220446049250313e-16;-6.32471390985004e-05;6.324713909872245e-05;0.00015994661222602438;-0.0033739023863491864
1.839484691619873;0.0007774756400068009;0.00019587655695963604;0.00014230273944385225;0.001713829194132481;0.0006316516099829237;-0.0005242015566572156;0.001828335076098113;2.220446049250313e-16;0.00034153891682510906;2.220446049250313e-16;2.220446049250313e-16;2.220446049250313e-16;2.220446049250313e-16;2.220446049250313e-16;2.220446049250313e-16;-1.0268347699300404e-05;2.220446049250313e-16;2.220446049250313e-16;-8.898531030050965e-06;8.864829825354477e-06;2.220446049250313e-16;3.0443123491309615e-14;9.307506863402017e-13;-1.96181699396666e-09;3.1216049726604444e-06;5.338746991713518e-05;-5.338746991735722e-05;0.0006036882035193531;1.6419205313442056e-08;-1.4097952542357119e-06;7.02640641272229e-07;2.220446049250313e-16;0.00018274670453136181;-0.00018274670453113971;0.00013027751532442323;-0.0027480645805713264
1.8594787120819092;0.0006318788928514064;0.00024139203080978004;0.00012264402447335123;0.001651214477055412;0.0004941280297823037;-0.0005755658002483062;0.0014891903465761387;2.220446049250313e-16;0.00027818558237228144;2.220446049250313e-16;2.220446049250313e-16;2.220446049250313e-16;2.220446049250313e-16;2.220446049250313e-16;2.220446049250313e-16;-8.363633378253299e-06;2.220446049250313e-16;2.220446049250313e-16;-7.247909139795447e-06;7.220459297937628e-06;2.220446049250313e-16;2.4796114353193498e-14;7.581022512158839e-13;-1.5979122029420566e-09;2.5425667602630102e-06;-4.049762034916506e-05;4.049762034894301e-05;0.0004917078148177848;1.3373545347831762e-08;-1.1482870457953262e-06;5.723051938202384e-07;2.220446049250313e-16;-3.223500762053669e-05;3.223500762075874e-05;0.00010611185046621347;0.011888100716463785
1.8794515132904053;0.00047782329217852865;0.000302065821838349;0.00010311206611930289;0.0016045426958474244;0.0003443531604185682;-0.0006504157266083311;0.0007973650725904702;2.220446049250313e-16;0.00022658389550211304;2.220446049250313e-16;2.220446049250313e-16;2.220446049250313e-16;2.220446049250313e-16;2.220446049250313e-16;2.220446049250313e-16;-6.812231659295924e-06;2.220446049250313e-16;2.220446049250313e-16;-5.903467293795514e-06;5.881109226040807e-06;2.220446049250313e-16;2.019659011639081e-14;6.174790217544075e-13;-1.301509476247573e-09;2.0709365172764734e-06;-3.298556488454271e-05;3.2985564884320665e-05;0.0004004990883429284;1.0892836270467392e-08;-9.352869755943293e-07;4.6614615727404545e-07;2.220446049250313e-16;-0.0002807101322216537;0.00028071013222187585;8.642876540379629e-05;-0.005688191275079616
1.8995790481567383;0.00031385764428044525;0.0003752886520092997;8.336420713125884e-05;0.0015718709029040386;0.00018074000117009642;-0.0007464186344864275;-0.0015101085030771427;2.220446049250313e-16;0.00018455399903581792;2.220446049250313e-16;2.220446049250313e-16;2.220446049250313e-16;2.220446049250313e-16;2.220446049250313e-16;2.220446049250313e-16;-5.5486052629444e-06;2.220446049250313e-16;2.220446049250313e-16;6.622702433042647e-05;7.582563555943639e-05;0.00014554142793312278;1.645024887848854e-14;5.029405224628507e-13;-1.0600876028378748e-09;1.68679073667492e-06;1.133168367081826e-05;-1.1331683671040304e-05;0.00032620901057461724;8.872283222522379e-09;-7.617970871651784e-07;3.7967895851319296e-07;2.220446049250313e-16;0.00020446953790764587;-0.00020446953790742383;7.039676960117582e-05;0.010335308149823941
1.919494390487671;0.0001440282429829886;0.00045685171305680504;6.366515992222788e-05;0.0015537119665097207;7.5286717871330696e-06;-0.0008578973155645111;-0.0012299928139344765;2.220446049250313e-16;0.00015032038567716762;2.220446049250313e-16;2.220446049250313e-16;2.220446049250313e-16;2.220446049250313e-16;2.220446049250313e-16;2.220446049250313e-16;-4.519373665451106e-06;2.220446049250313e-16;2.220446049250313e-16;0.00013004740768058276;0.00013786553651793152;0.00011854440268545308;1.3398830525584404e-14;4.096481989242573e-13;-8.634479780589668e-10;1.3739015974638264e-06;9.928654119857188e-05;-9.928654119879392e-05;0.00026569927791934183;7.2265301365146175e-09;-6.204884887278325e-07;3.0925088470248627e-07;2.220446049250313e-16;0.00012124127079373257;-0.00012124127079351055;5.7338608819967685e-05;0.010082432325191905
1.9394586086273193;-3.410266280175755e-05;0.00054622152179555;4.3496899890614504e-05;0.0015505030751911872;-0.00017798064942275245;-0.000982988862497797;-0.001001836834404718;2.220446049250313e-16;0.00012243689363646346;2.220446049250313e-16;2.220446049250313e-16;2.220446049250313e-16;2.220446049250313e-16;2.220446049250313e-16;2.220446049250313e-16;-3.681058096595335e-06;2.220446049250313e-16;2.220446049250313e-16;0.0007633608000368238;0.0007697287148381497;9.655515688981828e-05;1.0913431205779282e-14;3.3366101832505075e-13;-7.032837746788911e-10;9.189200741529083e-06;-4.1376947653079216e-05;4.137694765285718e-05;0.00021641372248579086;5.886053962004508e-09;-5.053917521218741e-07;2.518867784082044e-07;2.220446049250313e-16;-0.00016020295092287432;0.00016020295092309636;4.67026552501688e-05;-0.007503589518070218
1.9594616889953613;-0.00022102304425180802;0.0006424817433495698;2.2622520648839896e-05;0.0015644654804506017;-0.00037672511191390675;-0.0011195605714280456;-0.0004867405501417514;2.220446049250313e-16;9.97256150974847e-05;2.220446049250313e-16;2.220446049250313e-16;2.220446049250313e-16;2.220446049250313e-16;2.220446049250313e-16;2.220446049250313e-16;-2.998244826290003e-06;2.220446049250313e-16;2.220446049250313e-16;0.0010183358620506203;0.001023522568455768;7.864477875648755e-05;8.88905792605226e-15;2.7176898480711835e-13;-5.728290299995484e-10;7.48466143648007e-06;-3.370178246937645e-05;3.370178246915441e-05;0.0001762703295504421;4.7942277398899334e-09;-4.116447408017172e-07;2.051633553058475e-07;2.220446049250313e-16;-6.752015067622633e-05;6.752015067644836e-05;3.803960459285779e-05;-0.00611172055990268
1.9794507026672363;-0.0004159755628922432;0.0007450518661643167;1.0345250093841764e-06;0.0015972404340264762;-0.0005880591853517533;-0.0012660170244708116;6.460936167999789e-05;2.220446049250313e-16;8.122713678199564e-05;2.220446049250313e-16;2.220446049250313e-16;2.220446049250313e-16;2.220446049250313e-16;2.220446049250313e-16;2.220446049250313e-16;-2.4420891500433707e-06;2.220446049250313e-16;2.220446049250313e-16;0.0008294409242393683;0.0008336655290232757;6.405666382702632e-05;7.240193237381604e-15;2.213575366815529e-13;-4.665728251160695e-10;6.096303519146995e-06;1.4669702182584579e-05;-1.4669702182806625e-05;0.00014357328510839474;3.904928458063724e-09;-3.352872141626285e-07;1.6710683516758346e-07;2.220446049250313e-16;0.00017284936318283126;-0.00017284936318260922;3.0983495688411376e-05;0.010733103394742406
1.9995296001434326;-0.0006181044150905604;0.0008532591101867208;-2.1255176337354314e-05;0.0016490663420154765;-0.0008107262351786918;-0.0014208485013723086;0.0018735932878106176;2.220446049250313e-16;6.616001057854033e-05;2.220446049250313e-16;2.220446049250313e-16;2.220446049250313e-16;2.220446049250313e-16;2.220446049250313e-16;2.220446049250313e-16;-1.9890968757675134e-06;2.220446049250313e-16;2.220446049250313e-16;0.0006755848167987418;0.0006790257837990144;5.217455304126185e-05;5.897182643055048e-15;1.8029709711172907e-13;-3.800264821371956e-10;4.965477318242221e-06;0.00010191154760876556;-0.0001019115476089876;0.00011694133805381944;3.180588634895765e-09;-2.7309353148054944e-07;1.3610956166171647e-07;2.220446049250313e-16;-3.4423289188071776e-05;3.442328918829383e-05;2.523625088505912e-05;0.01040813801406991
2.019596576690674;-0.0008220995030097549;0.0009650810513706024;-4.358381003033179e-05;0.001719714465475516;-0.001038127836740247;-0.0015819124607708672;0.0015448137133608991;2.220446049250313e-16;5.3887742116287206e-05;2.220446049250313e-16;2.220446049250313e-16;2.220446049250313e-16;2.220446049250313e-16;2.220446049250313e-16;2.220446049250313e-16;-1.6201318371681125e-06;2.220446049250313e-16;2.220446049250313e-16;0.0005502680556876801;0.0005530707448154459;4.249649954306427e-05;4.803292120159854e-15;1.4685311245436025e-13;-3.0953394486625907e-10;4.0444123099415265e-06;-4.22810396572752e-05;4.2281039657053165e-05;9.524945072819874e-05;-0.00012364581617103841;-2.2243638822547922e-07;1.1086208865822845e-07;2.220446049250313e-16;-0.0002784589688167925;0.0002784589688170145;2.0555084072448678e-05;0.00853670411216879
2.039482593536377;-0.0010195386724136761;0.0010779680103437028;-6.479156282368995e-05;0.001807165572894795;-0.0012596578734371026;-0.0017471420127420862;0.0009293394142028881;2.220446049250313e-16;4.389190275210415e-05;2.220446049250313e-16;2.220446049250313e-16;2.220446049250313e-16;2.220446049250313e-16;2.220446049250313e-16;2.220446049250313e-16;-1.3196075071974098e-06;2.220446049250313e-16;2.220446049250313e-16;0.00044819677053296327;0.00045047957834433563;0.0003032582900577061;3.912311452445953e-15;1.1961277792602926e-13;-2.521173326807234e-10;3.2941991040243097e-06;-3.443817105736909e-05;3.443817105714705e-05;7.758127292718491e-05;-0.0002518719695985651;-1.811758284370792e-07;9.029786410018117e-08;2.220446049250313e-16;0.00020362916245215601;-0.00020362916245193397;1.6742244446284893e-05;-0.0065291288504485115
2.059518814086914;-0.0012088847794199749;0.0011906258816055978;-8.467671784768196e-05;0.0019108960076913324;-0.001472935223039214;-0.0019161784689363038;-0.000895349843935034;2.220446049250313e-16;3.5750229115981024e-05;2.220446049250313e-16;2.220446049250313e-16;2.220446049250313e-16;2.220446049250313e-16;2.220446049250313e-16;2.220446049250313e-16;-1.07482856215921e-06;2.220446049250313e-16;2.220446049250313e-16;0.0003650590708289144;0.0003669184320588259;0.0002470057726163144;3.1866021299638052e-15;9.742535520061284e-14;-2.0535114320177842e-10;2.6831457589722e-06;1.0026137461910083e-05;-1.002613746213213e-05;6.319043168214787e-05;-0.0005041312537104086;-1.4756884461092866e-07;7.354817467124816e-08;2.220446049250313e-16;0.00011956068203631325;-0.0001195606820360912;1.3636662740526835e-05;-0.005318016255745627
2.0794992446899414;-0.0013857474303516242;0.0012995970917689193;-0.00010281635273552971;0.0020279398772154607;-0.0016730937834026106;-0.0020842830520127146;-0.0012921149726388779;2.220446049250313e-16;2.911878505389851e-05;2.220446049250313e-16;2.220446049250313e-16;2.220446049250313e-16;2.220446049250313e-16;2.220446049250313e-16;2.220446049250313e-16;-8.754545815571897e-07;2.220446049250313e-16;2.220446049250313e-16;0.0002973428948093433;0.00029885735615211385;0.0003501277487956838;2.5955073511188307e-15;7.935356071936916e-14;-1.672597895824935e-10;2.18543899034385e-06;9.906187070529173e-05;-9.906187070551376e-05;5.146900154530745e-05;-0.000989148076264313;-1.2019574624088016e-07;5.99054479458233e-08;2.220446049250313e-16;-0.00020166431550874456;0.0002016643155089666;1.1107147031301236e-05;0.011334734521480391
2.0996530055999756;-0.0015480659789236123;0.0014062591840872272;-0.00011882569438112015;0.0021561115700454467;-0.0018577058847817508;-0.002252143192592747;-0.0010524357209329449;2.220446049250313e-16;2.371743241880692e-05;2.220446049250313e-16;2.220446049250313e-16;2.220446049250313e-16;2.220446049250313e-16;2.220446049250313e-16;2.220446049250313e-16;-7.130632282694659e-07;2.220446049250313e-16;2.220446049250313e-16;0.00017469934938361384;0.0003109094812760616;0.00028518123969251434;2.1140569594072322e-15;6.463397116568064e-14;-1.3623414398862582e-10;1.7800537166287557e-06;-3.808683088523684e-05;3.808683088501479e-05;4.1921823439912564e-05;-0.001220241981604803;-9.790018653661088e-08;4.8793361760922736e-08;2.220446049250313e-16;6.443660601056019e-05;-6.443660601033815e-05;9.0468406766638e-06;-0.00428206508546388
2.119591236114502;-0.0016874066043107328;0.0015086237053098044;-0.00013164792020690886;0.002288904234369538;-0.0020170615159016934;-0.002414742891378234;-0.0007477282879679806;2.220446049250313e-16;1.931799693907085e-05;2.220446049250313e-16;2.220446049250313e-16;2.220446049250313e-16;2.220446049250313e-16;2.220446049250313e-16;2.220446049250313e-16;-5.807944560706564e-07;2.220446049250313e-16;2.220446049250313e-16;0.00014229371194388708;0.00025323771568361005;0.00023228190211230096;1.7219126062931863e-15;5.264477347676667e-14;-1.1096356174213564e-10;-8.827935623447032e-05;-3.102196179873902e-05;3.1021961798516976e-05;3.414558720320528e-05;-0.0011446404726924285;-7.974031381023541e-08;3.974249811278256e-08;2.220446049250313e-16;0.00016625508196741818;-0.0001662550819671961;7.368708273896892e-06;-0.0034877687750171143
2.13950514793396;-0.0017984489523692943;0.0016054649331848497;-0.0001406481849487617;0.0024250569805591106;-0.0021451053877373297;-0.002569033290359001;-0.00016823313809621263;2.220446049250313e-16;1.573462924435407e-05;2.220446049250313e-16;2.220446049250313e-16;2.220446049250313e-16;2.220446049250313e-16;2.220446049250313e-16;2.220446049250313e-16;-4.730607144349e-07;2.220446049250313e-16;2.220446049250313e-16;0.00011589911771399562;0.00020626370216002336;0.00018919506103235733;1.4025085797795892e-15;4.287949702666068e-14;-9.038051456123036e-11;7.106866265311108e-06;1.4237895059777027e-05;-1.4237895059999072e-05;2.781179418693072e-05;-0.000932316819010937;-6.494898397539804e-08;3.2370513103474596e-08;2.220446049250313e-16;-8.512046399803555e-05;8.512046399825759e-05;6.00185894351573e-06;0.010831313119611068
2.159475326538086;-0.001873897748336596;0.0016918910663161614;-0.00014517817941054156;0.002560625038632444;-0.002233574265654449;-0.0027068329909342493;0.0017340025229871955;2.220446049250313e-16;1.2815953860959164e-05;2.220446049250313e-16;2.220446049250313e-16;2.220446049250313e-16;2.220446049250313e-16;2.220446049250313e-16;2.220446049250313e-16;-3.853109085366912e-07;2.220446049250313e-16;2.220446049250313e-16;9.440055574753515e-05;0.0001680030745574775;0.00015410055967998644;1.1423520039090992e-15;3.4925618325071526e-14;-7.361549398833812e-11;5.788586991010057e-06;0.000101145703373712;-0.00010114570337393404;2.2652880188968727e-05;-0.0007593778760645268;-5.2901353379111534e-08;2.636598523848696e-08;2.220446049250313e-16;-0.0002775676825215992;0.00027756768252182117;4.888551621111958e-06;-0.005175468929602739
2.179492712020874;-0.0019055089872031083;0.001760384582104097;-0.000144564645535479;0.0026888544922456705;-0.0022732593376780523;-0.002817227933288262;0.0017224549637512982;2.220446049250313e-16;1.043867451946287e-05;2.220446049250313e-16;2.220446049250313e-16;2.220446049250313e-16;2.220446049250313e-16;2.220446049250313e-16;2.220446049250313e-16;-3.138381431963133e-07;2.220446049250313e-16;2.220446049250313e-16;7.688984265984079e-05;0.00013683955424628137;0.0001255158689878469;9.304528468839855e-16;2.844713441088528e-14;-5.996027995033883e-11;4.714840282846383e-06;-3.700088819015856e-05;3.7000888189936514e-05;1.845091249441621e-05;-0.0006185180261662824;-4.3088482960744966e-08;2.1475259764155358e-08;2.220446049250313e-16;0.00018885744637211002;-0.00018885744637188798;3.981755848843321e-06;0.01105920285242476
2.199449062347412;-0.0018861146133221452;0.0018044146311211736;-0.0001380911359904979;0.0028027331938705077;-0.0022567658086455095;-0.0028918738076897394;0.000869424464050191;2.220446049250313e-16;8.502365637818251e-06;2.220446049250313e-16;2.220446049250313e-16;2.220446049250313e-16;2.220446049250313e-16;2.220446049250313e-16;2.220446049250313e-16;-2.5562312912179214e-07;2.220446049250313e-16;2.220446049250313e-16;6.262725740795695e-05;0.00011145667218081018;0.00010223345976478246;7.578596591172991e-16;2.3170368772256125e-14;-4.8838022771300644e-11;3.8402668781301456e-06;-3.013745468645592e-05;3.0137454686233874e-05;1.5028383544905087e-05;-0.0005037867980501005;-3.509583867454528e-08;1.7491733298278063e-08;2.220446049250313e-16;0.00010702491092754471;-0.00010702491092732268;3.24316502485694e-06;-0.005298181726124467
2.2195026874542236;-0.0018125370103953063;0.0018199939372325828;-0.00012538435750365738;0.0028953981533483357;-0.0021824444797944004;-0.0029258007057217953;-0.000630292076140723;2.220446049250313e-16;-0.00118799428689846;2.220446049250313e-16;2.220446049250313e-16;2.220446049250313e-16;2.220446049250313e-16;2.220446049250313e-16;2.220446049250313e-16;-2.0820663631425667e-07;2.220446049250313e-16;2.220446049250313e-16;5.101029257913972e-05;9.078215609547102e-05;8.326979193753884e-05;6.172814289739095e-16;1.8872410179807443e-14;-3.9778874784866686e-11;-8.744656579912675e-05;1.5966456181129058e-05;-1.5966456181351106e-05;1.2240712324722348e-05;-0.00041033749567929463;-2.8585779949408834e-08;1.4247126094780592e-08;2.220446049250313e-16;-0.0002055315136226495;0.0002055315136228715;2.6415781825273827e-06;-0.004315402129564165
2.2395286560058594;-0.0016860715724243893;0.0018044707924389665;-0.0001067499798170103;0.002959641738628684;-0.0020529943450270927;-0.0029148151107071486;-0.0013966578971078961;2.220446049250313e-16;-0.0015798710234622313;2.220446049250313e-16;2.220446049250313e-16;2.220446049250313e-16;2.220446049250313e-16;2.220446049250313e-16;2.220446049250313e-16;-1.6958560656943902e-07;2.220446049250313e-16;2.220446049250313e-16;4.1548202120037927e-05;7.394263352823672e-05;6.782376596932497e-05;5.027795819081802e-16;1.537169604401678e-14;-3.240014213024132e-11;5.6450516350909006e-06;0.00010180443577418906;-0.00010180443577441109;9.97013669293838e-06;-0.0003342224548401333;-2.3283296429918166e-08;1.1604373248736882e-08;2.220446049250313e-16;6.99298920506762e-05;-6.992989205045416e-05;2.151581939532193e-06;0.011887125788858205
2.2597994804382324;-0.0015070210314961374;0.0017569695302408236;-8.237822042578683e-05;0.0029927529371247793;-0.0018682213343644346;-0.002856542958245187;-0.0010403285437051463;2.220446049250313e-16;-0.0014917352457831895;2.220446049250313e-16;2.220446049250313e-16;2.220446049250313e-16;2.220446049250313e-16;2.220446049250313e-16;2.220446049250313e-16;-1.381285364608491e-07;2.220446049250313e-16;2.220446049250313e-16;3.3841270303034137e-05;6.022673715020836e-05;5.524288128055249e-05;4.0951711183659985e-16;1.2520342500951945e-14;-2.639011826596986e-11;4.597929838354257e-06;-3.996665694522127e-05;3.996665694499921e-05;8.120738649752639e-06;-0.0002722262783576313;-1.8964390462771037e-08;9.451834538428994e-09;2.220446049250313e-16;0.0001727389905875543;-0.00017273899058733227;1.7524769371360928e-06;-0.004496659047267221
2.2795357704162598;-0.001288548382818803;0.001680671302675416;-5.420991769086779e-05;0.002996283778657641;-0.0016412886282779215;-0.0027542400512464726;-0.0007350019464913612;2.220446049250313e-16;-0.0014541578873237596;2.220446049250313e-16;2.220446049250313e-16;2.220446049250313e-16;-0.00010160288391953682;2.220446049250313e-16;2.220446049250313e-16;-1.1250655625071444e-07;2.220446049250313e-16;2.220446049250313e-16;2.7563926169760686e-05;4.905505382595189e-05;4.499567207101799e-05;3.3355424707285937e-16;1.0197897219165985e-14;-2.149491626587161e-11;3.7450425904010314e-06;-3.2553091873509226e-05;3.255309187328717e-05;6.614392384840082e-06;-0.00022173000513653042;-1.5446614559367398e-08;7.698578305516278e-09;2.220446049250313e-16;-8.084875439324335e-05;8.084875439346539e-05;1.4274034182782048e-06;-0.0036625568981181952
2.299607276916504;-0.001029969110603984;0.0015738907889203688;-2.2376764050199876e-05;0.0029781295333962702;-0.0013718763710135714;-0.0026057200770909475;-0.0003947877988594713;2.220446049250313e-16;-0.0011844206877119974;2.220446049250313e-16;2.220446049250313e-16;2.220446049250313e-16;-8.275618397048723e-05;2.220446049250313e-16;2.220446049250313e-16;-9.163729323218344e-08;2.220446049250313e-16;2.220446049250313e-16;2.2450990139808638e-05;3.9955647935324215e-05;3.664925612479459e-05;2.716820189548881e-16;8.306251021868314e-15;-1.7507743641779082e-11;3.0503605963978288e-06;1.2238055632394515e-05;-1.2238055632616561e-05;5.387463937404652e-06;-0.00018060047499623608;-1.2581364099945736e-08;6.270540145957417e-09;2.220446049250313e-16;-0.00027330227212844457;0.0002733022721286666;1.1626290054589616e-06;-0.0029831754844978826
2.3194782733917236;-0.0007478769114361048;0.0014413620325458146;1.0835330613531632e-05;0.0029466076856652385;-0.0010781645746944168;-0.0024177716001167345;0.0013337268134125664;2.220446049250313e-16;-0.0009647180527707199;2.220446049250313e-16;2.220446049250313e-16;2.220446049250313e-16;-6.740542907011164e-05;2.220446049250313e-16;2.220446049250313e-16;-7.46391480706961e-08;2.220446049250313e-16;2.220446049250313e-16;1.8286471787562506e-05;3.254412496612116e-05;2.9851048171495973e-05;2.220446049250313e-16;6.765493371380626e-15;-1.4260166619626823e-11;2.4845377705197586e-06;0.00010017279036464136;-0.00010017279036486342;4.388123048665697e-06;-0.000147100215637403;-1.0247599692931424e-08;5.1073941397582274e-09;2.220446049250313e-16;0.00019359599974026919;-0.0001935959997400472;9.469685913776079e-07;-0.002429815076970303
2.339447259902954;-0.0004504740629991599;0.0012835621243333169;4.4216898578382626e-05;0.0029060062312849335;-0.0007701213817862451;-0.0021918122411091383;0.0017704928836034676;2.220446049250313e-16;-0.0007857688834695812;2.220446049250313e-16;2.220446049250313e-16;2.220446049250313e-16;-5.490214326153761e-05;2.220446049250313e-16;2.220446049250313e-16;-6.079405259825741e-08;0.00030144319626495365;2.220446049250313e-16;1.4894445561418329e-05;2.650739318568672e-05;2.431386530473453e-05;2.220446049250313e-16;5.51053663532309e-15;-1.1614994837727414e-11;2.0236715424494087e-06;-4.078380612385377e-05;4.078380612363172e-05;3.5741536489072638e-06;-0.00011981404501301247;-8.346733997390723e-09;4.160004448046448e-09;2.220446049250313e-16;0.00011077263455288803;-0.00011077263455266599;7.713118362307578e-07;0.013802981735461524
2.3594791889190674;-0.00015195581794761175;0.0011008903982974814;7.572250895857084e-05;0.0028569469891712536;-0.0004642243663726248;-0.0019299760762500127;0.0011027539713562439;2.220446049250313e-16;-0.0006400136666414954;2.220446049250313e-16;2.220446049250313e-16;2.220446049250313e-16;-4.471813882491775e-05;2.220446049250313e-16;2.220446049250313e-16;-4.951713580410938e-08;0.00011980798803158472;2.220446049250313e-16;1.2131619000059985e-05;2.159043742094924e-05;1.980379525236443e-05;2.220446049250313e-16;4.488366530324627e-15;-9.460485889046717e-12;1.6482931192721831e-06;-3.321866498668775e-05;3.3218664986465706e-05;2.911170485495272e-06;-9.758928850087995e-05;-6.798467007962225e-09;3.3883496229616322e-09;2.220446049250313e-16;-0.00020441695346002;0.00020441695346024198;6.282383113089285e-07;-0.003742843248087015
2.379577875137329;0.00013537104336756525;0.0008927628145878034;0.00010352372454590063;0.0027972534485398437;-0.00017438544635772952;-0.0016328942405298128;-7.284301200827784e-05;2.220446049250313e-16;-0.0005212951315649144;2.220446049250313e-16;2.220446049250313e-16;2.220446049250313e-16;-3.642320356126316e-05;2.220446049250313e-16;2.220446049250313e-16;-4.033201659454587e-08;9.758435505165094e-05;2.220446049250313e-16;9.881279498167604e-06;1.758554621959703e-05;1.6130315006771152e-05;2.220446049250313e-16;3.655802591240222e-15;-7.705624884665355e-12;1.3425450474791884e-06;1.144928461840796e-05;-1.1449284618630005e-05;2.371166555251433e-06;-7.948708541701985e-05;-5.5373938684040325e-09;2.7598319450873927e-09;2.220446049250313e-16;6.351635195338354e-05;-6.35163519531615e-05;5.117040310505679e-07;0.011932642854138508
