flxalr/sts-optimization-reemc/input/436_104/acc.csv
time;base_link_tx;base_link_ty;base_link_tz;base_link_rz;base_link_ry;base_link_rx;leg_left_1_joint;leg_left_2_joint;leg_left_3_joint;leg_left_4_joint;leg_left_5_joint;leg_left_6_joint;leg_right_1_joint;leg_right_2_joint;leg_right_3_joint;leg_right_4_joint;leg_right_5_joint;leg_right_6_joint;torso_1_joint;torso_2_joint;arm_left_1_joint;arm_left_2_joint;arm_left_3_joint;arm_left_4_joint;arm_left_5_joint;arm_left_6_joint;arm_left_7_joint;arm_right_1_joint;arm_right_2_joint;arm_right_3_joint;arm_right_4_joint;arm_right_5_joint;arm_right_6_joint;arm_right_7_joint;head_1_joint;head_2_joint
0.0;0.0;0.0;0.0;0.0;0.0;0.0;8.075121665211574e-24;1.9454840606070945e-25;-0.0019069268127383386;2.0633204930864466e-23;-9.262147418719698e-23;4.8641688057671197e-26;4.829674991658252e-25;4.921315393179961e-05;9.047287898347024e-21;2.2916983933423432e-23;-2.3093777046280613e-18;3.0730618604129257e-25;8.836637224220184e-05;0.00010124982114807765;-1.0274138213705083e-06;0.00020834999811731865;2.488166890843005e-11;-1.7284427647941726e-05;0.0;4.7180045469706375e-05;4.7180045469707385e-05;-0.0014680815311134128;4.841979442175007e-06;2.4089351126469636e-06;-0.002017441723267261;-6.697338702033147e-05;-1.5944358047310095e-05;-3.1347097443933907e-05;-0.003967734016347277;0.013500454307394385
0.02008676528930664;0.00012006707695239804;-6.583805465718296e-05;1.593364768020416e-05;-0.0001685350435291466;0.00019538217297635171;0.00013416853395123757;8.082388160457306e-24;1.9495378888982025e-25;-0.0019024848571793773;2.0488183931749103e-23;-9.269402105807363e-23;4.849494321993725e-26;4.818010454182431e-25;4.90981525093223e-05;9.07050227198039e-21;2.2774520670352653e-23;-2.3124126794329216e-18;3.077996552754578e-25;8.815989175874848e-05;0.00010101323409141543;-1.0355543280135976e-06;0.00021897691592338478;2.4835775982376603e-11;-1.838360364160333e-05;0.0;4.6438508629417614e-05;4.643850862941821e-05;-0.0014646676334187046;4.8215452826921615e-06;2.180725903437682e-06;-0.002020056101601866;-6.629163638794484e-05;-1.6007885495137743e-05;-3.151337948942108e-05;-0.003966875396814772;0.013398508919800935
0.040021657943725586;0.00033613775230733554;-0.00015135157672152772;4.790082489975187e-05;-0.0002767242913429242;0.0005265952481804548;0.0002871913666371837;8.107932751523506e-24;1.9647524928001112e-25;-0.0018867595309789288;1.9906542864254e-23;-9.294432821630197e-23;4.789075788647702e-26;4.7698509223675945e-25;4.869106083209278e-05;9.158731368312892e-21;2.220208553278272e-23;-2.32350233361103e-18;3.096295747409107e-25;8.74289770295057e-05;0.00010017574452069275;-1.0673408356281553e-06;0.00025887679034451846;2.464445376434273e-11;-2.272359476834318e-05;0.0;4.441392203887721e-05;4.44139220388778e-05;-0.0014526535707753729;4.744743210978495e-06;1.2772938859267542e-06;-0.0020295978214101493;-6.36993581488249e-05;-1.6358631466263747e-05;-3.2091115645517144e-05;-0.003962668222668163;0.013011456988454713
0.06000971794128418;0.0007617919028240838;-0.0002985766212079289;0.00011304840229958784;-0.000526035127817411;0.0011823075396078012;0.0005631573646376431;8.156678204469123e-24;1.9969264812830559e-25;-0.0018559497433992991;1.8573643679253165e-23;-9.340721023725997e-23;4.6484316580903764e-26;4.6560745693088e-25;4.7893577275592634e-05;9.34763526969693e-21;2.088743670186651e-23;-2.345967264002675e-18;3.134165129265803e-25;8.599713719289848e-05;9.853512387562499e-05;-1.137832237966753e-06;0.00034319868875276095;2.4186273733070688e-11;-2.9868695943146488e-05;0.0;4.142479343083342e-05;4.14247934308335e-05;-0.0014293212107613863;4.581717962631698e-06;-7.606939407462314e-07;-0.0020488938632824065;-5.812238281775347e-05;-1.7292104523046163e-05;-3.324600687858066e-05;-0.003950813778862061;0.012140924346276307
0.08008480072021484;0.0012732671129401952;-0.00039142627734768096;0.00019972995174976887;-0.0008548937132073454;0.0019718648555674292;0.0007720236685627632;8.227307976543707e-24;2.050470555627176e-25;-0.0018084871541075049;1.614988498890884e-23;-9.404541645789205e-23;4.3865053957161295e-26;4.442939946147163e-25;4.666529119232838e-05;9.666725217174488e-21;1.8491636887815842e-23;-2.381398793861961e-18;3.1955637953178904e-25;8.379182450694763e-05;9.600824054746397e-05;-1.2616931525023937e-06;0.0004815807583874406;2.331683009683982e-11;-3.72370768013949e-05;0.0;3.773424158232788e-05;3.773424158232813e-05;-0.0013937797657797729;4.3067375760639075e-06;-4.407160542880075e-06;-0.0020792585124372693;-5.027718659832282e-05;-1.8125748159662407e-05;-3.4210443816899294e-05;-0.003924885465867333;0.010883740522212536
0.10001254081726074;0.0017949975777214098;-0.00040178601378878484;0.0002965683938971216;-0.0014246361042479258;0.0027997584492933884;0.0009018781756969896;8.310857791866421e-24;2.127167366838006e-25;-0.0017453195659858408;1.2328543651924708e-23;-9.473738866075934e-23;3.9655457810481723e-26;4.097256016509392e-25;4.5031012628729296e-05;1.0132109431479018e-20;1.470628594474237e-23;-2.4288933022041997e-18;3.2808297938441705e-25;8.085759254289767e-05;9.264613766058526e-05;-1.450302276198032e-06;0.0006739089534851735;2.1890018631055148e-11;-4.3000736181720234e-05;0.0;3.3644312809960096e-05;3.364431280996052e-05;-0.0013471364865398976;3.9027883902686845e-06;-1.0064490792218753e-05;-0.002119838348719993;-4.24716458537167e-05;-1.813828735842686e-05;-3.4212608669574144e-05;-0.0038464577099379996;0.009667730028498786
0.12032890319824219;0.002134733972996106;-0.0003597093161466965;0.00036443957029702866;-0.002158699937323852;0.003375060888220838;0.000982690736948896;8.394777454082358e-24;2.2304785668866836e-25;-0.0016659501411910558;6.616017603028646e-24;-9.530866177858719e-23;3.3236426233961534e-26;3.566243831868721e-25;4.2978307867209944e-05;1.0772247648167687e-20;9.035653936660693e-24;-2.487559957865666e-18;3.391344543855024e-25;7.717212731535085e-05;8.84232382179729e-05;-1.7224197915487487e-06;0.0009132861106785075;1.967449776246625e-11;-4.61926108442243e-05;0.0;2.9282758304437863e-05;2.9282758304440587e-05;-0.0012895555911032696;3.3376768195464943e-06;-1.8386391733634412e-05;-0.0021697510276324408;-3.4637496422590766e-05;-1.749420801243587e-05;-3.3389990898997954e-05;-0.0036442430013758653;0.008550757399789747
0.14005780220031738;0.00233879633450337;-0.00025289942574604183;0.00041330391861369044;-0.0028401034086509842;0.0037437815412229717;0.0009535628317878634;8.454334239759068e-24;2.3543244041060986e-25;-0.0015765065013074162;-1.0421101957301385e-24;-9.547623705238125e-23;2.446651637023865e-26;2.83600261143181e-25;4.066616781855364e-05;1.1558632723100037e-20;1.4183017348686528e-24;-2.55027685088728e-18;3.517534787255823e-25;7.302089295878579e-05;8.366662453707259e-05;-2.07451327144244e-06;0.0011610489787970502;1.6597736389082962e-11;-4.6196803011670995e-05;0.0;2.505002079552063e-05;2.5050020795519717e-05;-0.0012260652352462178;2.6244595972600064e-06;-2.9367908167794153e-05;-0.0022227769666918608;-2.5637289960431674e-05;-1.635830075560484e-05;-3.191392320353943e-05;-0.0032726904682119293;0.007642191837048773
0.16005158424377441;0.0024995434038581374;-0.00013836480402625059;0.00045482995637640664;-0.0036007727228335833;0.00405641950499168;0.0009278296105047089;8.464680999427235e-24;2.5009794464252496e-25;-0.0014759631763968178;-1.1295513931324767e-23;-9.491626874637003e-23;1.251792736130085e-26;1.8341158904239392e-25;3.8068743331341e-05;1.2517420053505944e-20;-8.800674575189419e-24;-2.6133627605702223e-18;3.657714575801521e-25;6.835748767537724e-05;7.83231170683643e-05;-2.529274236822738e-06;0.0014021062916295818;1.2338452425789292e-11;-4.301444005761342e-05;0.0;2.0917584937483714e-05;2.091758493748379e-05;-0.0011566160203825716;1.7208083095775054e-06;-4.3841927298243416e-05;-0.0022755680638078955;-1.3787360513531498e-05;-1.4781495658185873e-05;-2.9833410486094985e-05;-0.0026673903599417274;0.0072410466388503816
0.1800997257232666;0.0024926317996277173;-3.730575460307223e-05;0.0004635506691146817;-0.004240512730363499;0.0041094556060421086;0.0008981466373572417;8.389920178431576e-24;2.6649131041450155e-25;-0.0013678161721403185;-2.4464518844049608e-23;-9.320206895724123e-23;-3.0937933318205806e-27;5.1676926864284743e-26;3.527721901232288e-05;1.3629472034263786e-20;-2.1951056603669218e-23;-2.6678923963966425e-18;3.801304776381091e-25;6.334563154492566e-05;7.258029945218596e-05;-3.0922218818383126e-06;0.0016174267280480614;6.690624938389759e-12;-3.688114753201065e-05;0.0;1.7086817608512332e-05;1.7086817608512227e-05;-0.0010844575125465623;6.175119295923477e-07;-6.214115579034231e-05;-0.002322864956594647;2.7375990892208565e-07;-1.2822978372076865e-05;-2.722665766185664e-05;-0.001781410787035776;0.007388783122929338
0.20001769065856934;0.002348106114392183;1.0739621171314928e-05;0.00044117379707099986;-0.004755018797305584;0.0039473258873514725;0.0009242532689088211;8.190300993173109e-24;2.838262162656345e-25;-0.0012557142365164334;-4.076776101057025e-23;-8.986984654296738e-23;-2.2752121764305521e-26;-1.1513166640573853e-25;3.238674651632708e-05;1.4861023511376474e-20;-3.8262363100364255e-23;-2.7031790283937735e-18;3.934658712389014e-25;5.81561625722707e-05;6.663391316429185e-05;-3.7634587679657223e-06;0.001796001366641368;-5.171178259378165e-13;-2.8425730174939595e-05;0.0;1.3743469618328234e-05;1.3743469618326906e-05;-0.0010128691472888025;-6.872000950643812e-07;-8.444226631891067e-05;-0.002359908840189045;1.2514289127932773e-05;-1.059837965163103e-05;-2.4238641009147543e-05;-0.0008809031501774117;0.007815190705687208
0.22011375427246094;0.002022161831520115;-8.127818931378137e-05;0.0003707755000232953;-0.004996285907658813;0.003491581522032797;0.0011100490126757694;7.813979626539583e-24;3.015131266367347e-25;-0.00114039430071743;-6.081129871171494e-23;-8.429380826339489e-23;-4.7313680519215394e-26;-3.2475719242615094e-25;2.9417489965922394e-05;1.6197641091307077e-20;-5.835385895440286e-23;-2.7071692878444873e-18;4.044393401471439e-25;5.2825284262947006e-05;6.052542876059969e-05;-4.557280714602008e-06;0.0019365335400408413;-9.64219916981977e-12;-1.8304103633594964e-05;0.0;1.0958908129543613e-05;1.0958908129543973e-05;-0.0009432584710247692;-2.225885327725638e-06;-0.00011142772238029283;-0.0023800797760260943;2.1314387932921632e-05;-8.204374222641776e-06;-2.0979328697433225e-05;-0.0001920225669506708;0.008294442767681634
0.24007439613342285;0.001365192806033392;-0.00026869983705834875;0.00022872188695194443;-0.005182662283576065;0.002543100813063461;0.0014290273057570163;7.212197937106885e-24;3.182136194778846e-25;-0.0010258584597087096;-8.45986927453883e-23;-7.592259994001944e-23;-7.69385501746321e-26;-5.789346418670638e-25;2.647378808295993e-05;1.757353471592643e-20;-8.224326844195575e-23;-2.665208713993714e-18;4.1103147891649757e-25;4.7540319300478814e-05;5.446948034650791e-05;-5.462143301775202e-06;0.002036777074756995;-2.078435796626329e-11;-7.640137964029142e-06;0.0;8.871629826017924e-06;8.871629826016367e-06;-0.0008789952336710517;-3.984426265982063e-06;-0.0001429416090928779;-0.0023733843778035828;2.8253190314112673e-05;-5.763979311939844e-06;-1.7610711253681845e-05;0.0003539225711210965;0.008616931339499846
0.26017141342163086;0.00048229539531485083;-0.000576743452250474;3.225459955665719e-05;-0.005245847798319047;0.001250257458503771;0.0019069954786180765;6.315664975693065e-24;3.328214483013052e-25;-0.0009124899836305112;-1.1271414605990149e-22;-6.393461054855425e-23;-1.125110443339833e-25;-8.857924851928182e-25;2.3566916861995103e-05;1.8948590815699787e-20;-1.1053314847759166e-22;-2.559863349215056e-18;4.111412384632454e-25;4.2321504187332885e-05;4.8489244443830584e-05;-6.487189707553121e-06;0.0020983658224832417;-3.4327057249791536e-11;2.5689405847665207e-06;0.0;7.537549248362623e-06;7.537549248362041e-06;-0.0008212461900323417;-5.99288437695359e-06;-0.00017957799710816916;-0.0023274858162456976;3.303838032479999e-05;-3.306780286969162e-06;-1.4175001696669785e-05;0.0008345287255552126;0.0086034961869147
0.28008556365966797;-0.0004284907282989242;-0.0009018999047439299;-0.00017108193492000877;-0.005051337171561893;-0.00011012203132738466;0.002360722016480329;5.0739903083301844e-24;3.435644382069558e-25;-0.0008036768084880735;-1.4488492270726994e-22;-4.7778351255315506e-23;-1.538728501499074e-25;-1.244417545185654e-24;2.0785219804603648e-05;2.0229356463379396e-20;-1.429662353021409e-22;-2.3743734233101426e-18;4.0232722058472503e-25;3.732743184370728e-05;4.2766442468101556e-05;-7.608297883124183e-06;0.0021205221642404217;-5.025797156964258e-11;1.0908568193614247e-05;0.0;7.049857456112432e-06;7.0498574561111696e-06;-0.0007726099675015758;-8.220231353646269e-06;-0.00022078649028682988;-0.0022314584753240878;3.3501316709412666e-05;-9.146101996613988e-07;-1.0792729670010971e-05;0.0013020447980452814;0.008091069166336772
0.30013084411621094;-0.0012099539757133141;-0.0011916378820895123;-0.00034654178848172394;-0.0048423696362863335;-0.0012822361143686348;0.0027582240944604747;3.397471493057219e-24;3.4878845054999133e-25;-0.0006989830165223717;-1.8170205196655356e-22;-2.6401107861648488e-23;-2.0198775153863108e-25;-1.663712107735459e-24;1.8119096981247306e-05;2.1348676043827447e-20;-1.801578237749171e-22;-2.0852030720182328e-18;3.8164789023449957e-25;3.2540847039038475e-05;3.728129350078407e-05;-8.830015243042944e-06;0.0021059745570524537;-6.900453612139232e-11;1.6130752693874185e-05;0.0;7.45465782443422e-06;7.4546578244329925e-06;-0.0007336823712902769;-1.0696662616235173e-05;-0.00026710343041456546;-0.0020719281158761323;2.9825173011922083e-05;1.4331714100990374e-06;-7.4485503826871105e-06;0.0018161975984869647;0.006918758093751418
0.3200418949127197;-0.001912129882440358;-0.0013338985472667272;-0.0004923085615003524;-0.00461668240248286;-0.002341809360031708;0.0029275533290420647;1.2339876167860015e-24;3.4634169518007616e-25;-0.0006007643712853476;-2.2266199748208024e-22;7.530041618750955e-25;-2.5641739414835657e-25;-2.1405593496131098e-24;1.5630101507128462e-05;2.2189475103080017e-20;-2.216210692911501e-22;-1.673719818532299e-18;3.4628012779169637e-25;2.8072231363909156e-05;3.2160398075021484e-05;-1.0117622376498308e-05;0.0020585371652723805;-9.046157901387932e-11;1.6700442319482608e-05;0.0;7.9148329870115e-06;7.914832987008071e-06;-0.0007060057221021203;-1.3378167960466583e-05;-0.0003176476498724019;-0.0018362183777314797;2.4050804738806814e-05;3.7080733922284873e-06;-4.20189810965467e-06;0.0024147466040077272;0.00525176239896513
0.3400442600250244;-0.002444102050390085;-0.00127512039546637;-0.0005859882633907174;-0.004331907245971225;-0.003159933162511986;0.0027791499658493574;-1.5171327495827725e-24;3.338534687703907e-25;-0.0005085838060262366;-2.6805496307551496e-22;3.4840810749067724e-23;-3.1781560460832657e-25;-2.681295960128513e-24;1.3308637976992117e-05;2.2642006678499345e-20;-2.6767454675470107e-22;-1.1113271514135218e-18;2.924353329823919e-25;2.390432305986646e-05;2.738397418581452e-05;-1.145976519348986e-05;0.0019822923504529697;-1.1495305945879551e-10;1.1070870420306728e-05;0.0;7.650337503989323e-06;7.650337503988613e-06;-0.0006899015803324472;-1.6274023219479325e-05;-0.00037249563516310763;-0.0015103647402047726;1.7760807805866208e-05;5.95303067347897e-06;-1.0137405218246605e-06;0.003142826688973184;0.0034720508920509327
0.36002302169799805;-0.0029554554004628955;-0.0010643960975499445;-0.0006605264359235074;-0.003976032954711566;-0.003957721075210782;0.0023848373024169664;-4.92139457615975e-24;3.086925431832001e-25;-0.0004234388966380419;-3.173065454738766e-22;7.656465164660825e-23;-3.8570572764503275e-25;-3.2825734228842184e-24;1.1181288479856924e-05;2.256453460108481e-20;-3.177646477562838e-22;-3.7495362169996723e-19;2.166351260377102e-25;2.0084804211611055e-05;2.3006668876011344e-05;-1.2815389487780571e-05;0.001882462750824584;-1.4237116606525825e-10;-2.3927879010338926e-06;0.0;6.798019363160328e-06;6.798019363158931e-06;-0.0006858053309551624;-1.9337234249399298e-05;-0.0004306222828046772;-0.0011141653580091701;1.23238916530856e-05;8.129901917267397e-06;2.0602088027843167e-06;0.0040294743319708864;0.0019222533893949972
0.38002538681030273;-0.0034204606834306248;-0.0008157932514491788;-0.0007225053550124345;-0.003468615487599617;-0.004703732188351311;0.0019034192014165561;-9.064175189327972e-24;2.679023894406113e-25;-0.00034533916590675964;-3.699841958742096e-22;1.268609107854094e-22;-4.59843820933398e-25;-3.94310985750991e-24;9.249442797834375e-06;2.180143959033333e-20;-3.7148497102334257e-22;5.636251450010184e-19;1.1477324101027056e-25;1.6616119697703295e-05;1.9031294269671755e-05;-1.414492829655204e-05;0.0017638679038802752;-1.72707360038552e-10;-2.2369028161494267e-05;0.0;5.460609823261962e-06;5.46060982326129e-06;-0.0006935856189484247;-2.2530247025244447e-05;-0.0004911366672019376;-0.0006834863339651182;7.196727407517125e-06;1.0182182301757821e-05;4.956356857463063e-06;0.00479814040256968;0.0006068519278659561
0.40001368522644043;-0.0038367043522751104;-0.0005280246638718643;-0.0007713488110018701;-0.0027619884597794133;-0.005399274753483894;0.001323678358498768;-1.4011430268902862e-23;2.0839484216657793e-25;-0.0002744561424763815;-4.2519169241859815e-22;1.8641579415661638e-22;-5.393793429293861e-25;-4.6564145859767266e-24;7.51816497801193e-06;2.0180719139563696e-20;-4.279612008355008e-22;1.7294990933982044e-18;-1.7078862409273605e-26;1.3507304434928431e-05;1.5468222327256213e-05;-1.539302350102419e-05;0.0016316430702290143;-2.0572040106825267e-10;-4.502955869885669e-05;0.0;3.7927774705889684e-06;3.792777470589634e-06;-0.0007126862197179371;-2.57867775360805e-05;-0.0005525589716349493;-0.00024617103499988347;2.0300875584242765e-06;1.2063701473341737e-05;7.6203170757805315e-06;0.005196181876834498;-0.000756437104611358
0.41998934745788574;-0.004337822686273413;-0.00019839568854952797;-0.0008318421249609275;-0.0019423217044264645;-0.006232685104523187;0.0006574903393575844;-1.982780795363766e-23;1.2684647540013706e-25;-0.00021063363425092871;-4.818364579901163e-22;2.558877304840456e-22;-6.232371631882172e-25;-5.4140167957047286e-24;5.983927170948014e-06;1.7514057309646406e-20;-4.8612290576488115e-22;3.1485119836897262e-18;-1.8304186718326418e-25;1.0751960362169469e-05;1.2310145985590127e-05;-1.649597102048039e-05;0.0014904451694201977;-2.4108444584953513e-10;-6.761785847514001e-05;0.0;1.9864756852231938e-06;1.9864756852236685e-06;-0.0007420805343850072;-2.9028540665888e-05;-0.0006131371968024238;0.00017588650191263061;-1.7719371027627143e-06;1.365868372342458e-05;9.93225527612282e-06;0.005299133029822696;-0.0024171291118411853
0.4400599002838135;-0.004862326895238203;0.00023093050259586777;-0.0008866736643076232;-0.0010939709649051763;-0.007105523773909502;-0.00016674405398483933;-2.6605169601937275e-23;1.9144668864719248e-26;-0.0001533107488592704;-5.3879334078880035e-22;3.362407115781046e-22;-7.103774761879934e-25;-6.208078374764549e-24;4.6331412373070504e-06;1.3573218960873812e-20;-5.448750780430244e-22;4.854892016348879e-18;-3.884191312301437e-25;8.325613273115712e-06;9.529047951147196e-06;-1.738209603432675e-05;0.0013437479532671776;-2.7851490565497736e-10;-8.831324664274554e-05;0.0;1.79456601988945e-07;1.7945660199112071e-07;-0.0007804850168659466;-3.217312187997572e-05;-0.0006709835965058625;0.0005692815800715294;-3.0566140858827594e-06;1.4792923121369514e-05;1.1719229110838295e-05;0.005164063207015162;-0.0042932197152393175
0.46018075942993164;-0.00539852954636386;0.0007247723112987358;-0.0009371818868866995;-0.00013608450922453306;-0.008008182751453917;-0.0011109226574257908;-3.4377985803625594e-23;-1.1841773383727787e-25;-0.00010233644278675495;-5.941047334840343e-22;4.277349502697376e-22;-7.986219635759415e-25;-7.020599624993843e-24;3.4615409168458263e-06;8.131105223346087e-21;-6.022761271228374e-22;6.87045965313311e-18;-6.372292077977439e-25;6.220523251768323e-06;7.116100631647537e-06;-1.795678039852167e-05;0.001195684766846124;-3.1726402866340823e-10;-0.00010575452862294798;0.0;-1.5108391857021685e-06;-1.5108391856994618e-06;-0.0008258659121130066;-3.508866745848004e-05;-0.0007232275479288964;0.0009221951455521603;-2.5884112826678987e-06;1.530987397145056e-05;1.2822095677786906e-05;0.004832475042322342;-0.005975816174377041
0.48038792610168457;-0.005829168144228824;0.0013256467535825015;-0.0009571535348739555;0.0006424015667853811;-0.008738780155048946;-0.0021831460399241273;-4.318813600816985e-23;-2.900817089908119e-25;-5.7270195267038384e-05;-6.455670611327773e-22;5.306983457467743e-22;-8.855177587883288e-25;-7.831425957446639e-24;2.4573722721183917e-06;9.278866118595693e-22;-6.561414006613454e-22;9.220708359671702e-18;-9.34134426536756e-25;4.41549471465997e-06;5.047064214548035e-06;-1.8112774705704676e-05;0.0010493969280644477;-3.56496343260304e-10;-0.00011914678841596305;0.0;-2.9586927961545105e-06;-2.9586927961525136e-06;-0.0008757297419779537;-3.762704244543674e-05;-0.000766627523408493;0.001227933363408204;-2.756672064810383e-06;1.5014620461633788e-05;1.304738622748709e-05;0.004333104352087766;-0.007113612887885861
0.4999878406524658;-0.005934682856638819;0.0019710013879494326;-0.0009117841449204222;0.0010682768137063336;-0.008954465483777404;-0.0032529367313753094;-5.268528094528121e-23;-4.92090236017224e-25;-1.9000424850130243e-05;-6.889472647706147e-22;6.408921368273677e-22;-9.650600549249133e-25;-8.586875944562805e-24;1.6361763712101974e-06;-7.951474946772907e-21;-7.021489892519169e-22;1.1824968807609376e-17;-1.2702213466206927e-24;2.938439449237031e-06;3.353998148012741e-06;-1.7747424530098878e-05;0.0009126059757985919;-3.9373897172578867e-10;-0.00012780511941742057;0.0;-3.991572349434739e-06;-3.991572349434069e-06;-0.0009250960086345006;-3.954582404192581e-05;-0.0007989621429431604;0.0014763666740892367;-3.7046396587851544e-06;1.373590893021478e-05;1.2210782592622354e-05;0.0037088068424539484;-0.007683054210222918
0.5201170444488525;-0.005793349455687077;0.0025034958314412753;-0.0008314822380230415;0.0013732687840424841;-0.00879213742468752;-0.004125336964234505;-6.336985687305899e-23;-7.392927341012001e-25;1.517312143796942e-05;-7.2353292460798215e-22;7.639249129931917e-22;-1.0379307932582662e-24;-9.297351638457815e-24;9.356114646009851e-07;-1.925113164897701e-20;-7.397341050539769e-22;1.4838006202346207e-17;-1.667178356108285e-24;1.6771856182866643e-06;1.908402796670638e-06;-1.67092247743024e-05;0.0007798401136621376;-4.2970276337522494e-10;-0.00013214737814505693;0.0;-4.562792464318939e-06;-4.562792464318434e-06;-0.0009728981113243241;-4.0750851865987894e-05;-0.000822660894138682;0.0016814426890665692;-3.836530277814344e-06;1.2151688416215085e-05;1.1019492490127704e-05;0.0029696272254571155;-0.008031439557738102
0.5400302410125732;-0.005614276234031025;0.0029003572258670535;-0.0007577196295418287;0.0017281794036516774;-0.008576829039635784;-0.0047999397220167645;-7.47833575499554e-23;-1.026333161524077e-24;4.428302976697294e-05;-7.44093482943308e-22;8.94269614544168e-22;-1.0966314501158553e-24;-9.895628802282859e-24;3.71104718774691e-07;-3.2831373197050246e-20;-7.635489504101367e-22;1.8152433929300182e-17;-2.1129310371474492e-24;6.594530635082382e-07;7.421355414188286e-07;-1.487747693930457e-05;0.000658232281684899;-4.6128051427010596e-10;-0.00013200651298209777;0.0;-4.55639958176596e-06;-4.55639958176551e-06;-0.0010127845938806466;-4.0945615775217744e-05;-0.000835589789946958;0.00183394849849181;-1.8056519909040694e-06;1.1046726673314521e-05;1.024614063827604e-05;0.002204704283998702;-0.008428608228203316
0.560145378112793;-0.00553239769867746;0.003107122169374344;-0.0007212572886829741;0.001948368054109432;-0.008487689435271215;-0.005158384087894126;-8.702689064551111e-23;-1.361533042061188e-24;6.933356762189847e-05;-7.466889838930699e-22;1.0328088573048807e-21;-1.1368615012977364e-24;-1.034658725878567e-23;-8.355357741360207e-08;-4.919232439644479e-20;-7.696950365377953e-22;2.182172528926409e-17;-2.6168981496168004e-24;-1.619923972583091e-07;-1.9884147201846833e-07;-1.2054128698086785e-05;0.0005469477767392248;-4.870312485956602e-10;-0.00012763605762732466;0.0;-3.901524854560369e-06;-3.901524854560287e-06;-0.0010402203108256206;-3.9862941154312435e-05;-0.0008355699637940185;0.0019396501668183144;1.7379403311449229e-06;1.0222973681944094e-05;9.70410997983591e-06;0.0014459799598826846;-0.00913036210521144
0.5800416469573975;-0.005363105275885019;0.003046577545289394;-0.0006953002842381017;0.0019140473455960514;-0.008238504119424919;-0.005058340032521738;-9.965004460563187e-23;-1.7393033269061948e-24;9.012918724820307e-05;-7.264153636267857e-22;1.1741286353843889e-21;-1.1515246007713342e-24;-1.0586478825079693e-23;-4.3263426507733177e-07;-6.817516891707821e-20;-7.5315240865814425e-22;2.5739020453367922e-17;-3.1669093284211332e-24;-7.947918257521768e-07;-9.231936215623252e-07;-8.130940268218114e-06;0.000449686528465714;-5.040003640679551e-10;-0.00011947935748887532;0.0;-2.553502377556427e-06;-2.5535023775567016e-06;-0.001048608593016551;-3.7228645938070416e-05;-0.0008189615768455546;0.002000865528801249;4.410924858763078e-06;9.537331978697332e-06;9.249083322984802e-06;0.0007422821001348349;-0.01003280418650092
0.6001791954040527;-0.0050833787363653;0.002716214105967023;-0.0006758126368629956;0.0016557035904286128;-0.007798092313500076;-0.004501771835520014;-1.126777185474472e-22;-2.1688755289017033e-24;0.000107400920598772;-6.771793082147576e-22;1.3181080938265134e-21;-1.1335746449852156e-24;-1.0556423192894969e-23;-6.974627608628152e-07;-9.037511165259197e-20;-7.078536633044744e-22;2.99474525697821e-17;-3.772076603512334e-24;-1.2774489267014657e-06;-1.474913248206508e-06;-2.833162953997031e-06;0.0003653767793115637;-5.096944398770997e-10;-0.00010776367313470346;0.0;-4.3175513618876175e-07;-4.317551361880175e-07;-0.0010311106578512635;-3.264172671616604e-05;-0.0007804433738882566;0.002024832961907476;6.2145222047286635e-06;8.818278436339661e-06;8.719643934469561e-06;9.980901736026789e-05;-0.011072859245517623
0.6200451850891113;-0.004566301418953333;0.0023580025671403014;-0.0006147868124757435;0.0012526234590163933;-0.006990493225787082;-0.0038731282985265828;-1.2543863363080357e-22;-2.6382426750209566e-24;0.00012088247086284607;-5.942953173851727e-22;1.4568516367010956e-21;-1.075498029935985e-24;-1.0187141129545503e-23;-8.838499415462908e-07;-1.153137482860426e-19;-6.289325557893418e-22;3.427241926895739e-17;-4.410788052790438e-24;-1.6202692307092297e-06;-1.8657282183361836e-06;3.884806548719933e-06;0.0002970474275381303;-5.008051395768361e-10;-9.324795629496757e-05;0.0;1.584325600169972e-06;1.584325600169436e-06;-0.000980607762139391;-2.586582335702856e-05;-0.0007152335785468392;0.0020174865258038794;8.870841505068527e-06;7.947533482538585e-06;7.997511852634362e-06;-0.000452095909647493;-0.012157647593116869
0.6401767730712891;-0.003994272342444928;0.0019325845808264275;-0.0005503494911782152;0.0006881775306537607;-0.00608191332840452;-0.0031100711303453676;-1.37839560279635e-22;-3.1573456598397974e-24;0.00013101126335814605;-4.688347576520586e-22;1.5887162041690212e-21;-9.665813730472681e-25;-9.38783776222096e-24;-1.008681740331308e-06;-1.436873694676553e-19;-5.074607115110562e-22;3.8738088428760846e-17;-5.0910158901946094e-24;-1.8538295970074997e-06;-2.130493203961265e-06;1.239443662060603e-05;0.00024360434871083204;-4.734174704719113e-10;-7.603216858128049e-05;0.0;2.7847734416334385e-06;2.784773441634312e-06;-0.0008871103344304269;-1.632577410958501e-05;-0.0006146630349526637;0.0019855563683358135;1.3938005249375514e-05;6.773200448215095e-06;6.939576800943605e-06;-0.0009217613462908867;-0.01324542345140966
0.6600558757781982;-0.0033189074524316844;0.0015307511383008004;-0.00046436914933513943;0.00022637986837293651;-0.005028734587785437;-0.002402392148939983;-1.490354189550252e-22;-3.70812903769519e-24;0.0001374885752742486;-2.9699249041208785e-22;1.7039001268370662e-21;-7.998090611075408e-25;-8.091832368155467e-24;-1.0792572948270018e-06;-1.747008066781257e-19;-3.393990296805087e-22;4.311240544029929e-17;-5.782782279315359e-24;-1.9910049473928716e-06;-2.2839020419016682e-06;2.2660794216178236e-05;0.00020703882284191377;-4.242404266451734e-10;-5.705240424368149e-05;0.0;3.317172044588355e-06;3.3171720445892067e-06;-0.0007438081610797527;-3.861536865995334e-06;-0.0004791430825057116;0.0019365186659311673;2.0972242725487718e-05;5.208867573692937e-06;5.4608428839699985e-06;-0.0012955730385145877;-0.014222466123083288
0.6802544593811035;-0.002754390166015119;0.001029873561569157;-0.0004093268017506123;-0.00021437526576100413;-0.0041358538377092875;-0.001548093993899884;-1.586898042121982e-22;-4.2991965932506895e-24;0.00014033354688473804;-6.599289963002309e-23;1.7977581951851793e-21;-5.592300178235377e-25;-6.162152993221526e-24;-1.1072264266027807e-06;-2.0907511449685033e-19;-1.1191326987196245e-22;4.7368860598509806e-17;-6.489079426612872e-24;-2.0529956912790713e-06;-2.3499930260973523e-06;3.516668702259197e-05;0.00018688010074665356;-3.4726321274017834e-10;-3.627755156052779e-05;0.0;3.3386086894779644e-06;3.3386086894786526e-06;-0.0005513224695619903;1.2329523583896955e-05;-0.00031476620177113703;0.0018754338263335252;2.6558754075077058e-05;3.094636404448074e-06;3.4080545035184823e-06;-0.0015861267832485409;-0.015015006888346491
0.7000248432159424;-0.0022940341847188825;0.0004555259684300033;-0.00038142891706394817;-0.00035418804751431726;-0.0034219503012503753;-0.0006406903260138753;-1.6571654184617113e-22;-4.898389376447777e-24;0.0001392147841586131;2.2266771738688884e-22;1.8581140365602248e-21;-2.4329633649833455e-25;-3.575723439277551e-24;-1.100397461645567e-06;-2.4519976220516033e-19;1.7382054504047483e-22;5.117183801275526e-17;-7.162908963985851e-24;-2.053312600340051e-06;-2.3443023139334083e-06;4.958548700562359e-05;0.00018411591696825276;-2.409221103784735e-10;-1.5007370156979199e-05;0.0;2.974124605187705e-06;2.974124605187763e-06;-0.00033609422162584826;3.2033701012187836e-05;-0.00014193433562222576;0.0018104449958466988;2.8895285313645045e-05;4.105421184095771e-07;7.630422075069083e-07;-0.001788118866392205;-0.01548595737939337
0.719994068145752;-0.0019533737147771953;-0.00027851276426979363;-0.00039231404534615223;-0.00034082718435107535;-0.0028923866884644576;0.00048022670554456975;-1.6949683292054738e-22;-5.5107140644464455e-24;0.00013378718503973512;5.8477318146101715e-22;1.8769324472275698e-21;1.6831808947819733e-25;-1.5626335918642876e-25;-1.0668139258352362e-06;-2.836901076094963e-19;5.33717731554806e-22;5.4427441768151825e-17;-7.799549107752267e-24;-2.0066615118532743e-06;-2.283371881670485e-06;6.646493262689137e-05;0.00019865081490374765;-9.738163639304006e-11;6.866399656279215e-06;0.0;2.3280102179005376e-06;2.3280102179010284e-06;-0.00011072389704079251;5.622172140039877e-05;3.493000962691895e-05;0.0017448426720447288;2.9806947736574687e-05;-3.0166949283922555e-06;-2.6422464855773748e-06;-0.001915919851341829;-0.015526818708046244
0.74015212059021;-0.0017269130225854277;-0.0010430829761127395;-0.0004280460185146324;-0.0002820174371943471;-0.0025289849037967715;0.001638282807426526;-1.6890608605401052e-22;-6.118364496494568e-24;0.00012343088705359692;1.0298208699652589e-21;1.840877133439433e-21;6.901244910296906e-25;4.228446531781374e-24;-1.0124714250682406e-06;-3.2389650357586603e-19;9.775734148426752e-22;5.685279766274804e-17;-8.364981377847306e-24;-1.9236479910918516e-06;-2.1791856233767144e-06;8.595410473794858e-05;0.00023116811444698788;8.958850887896573e-11;2.8759434174762068e-05;0.0;1.4751680520866485e-06;1.4751680520869473e-06;0.00010893153196851316;8.53981254237204e-05;0.00020662547882730167;0.0016832195608603158;3.062797346855875e-05;-6.353535162399841e-06;-5.97148161296709e-06;-0.0019748478649629633;-0.014993033681080811
0.7600533962249756;-0.0016118432548380842;-0.0017899813884715693;-0.00048328270774874126;-0.000382918073542651;-0.0023069729706205943;0.002799772649218957;-1.6284168703281007e-22;-6.686272978827933e-24;0.00010780445938164226;1.5545650219827735e-21;1.7377013708560014e-21;1.3216814366730103e-24;9.584893672863072e-24;-9.443735732562066e-07;-3.6402492624227643e-19;1.5024722577607068e-21;5.809710848870602e-17;-8.809206488695373e-24;-1.816272752032311e-06;-2.0455855692026556e-06;0.00010764526135661714;0.0002809141826101923;3.2085488180449694e-10;4.957803764175103e-05;0.0;4.946642939157715e-07;4.946642939157241e-07;0.00030743788636904585;0.00011923262338004004;0.0003607816624050007;0.00163055538205049;3.067521969616793e-05;-8.700369296281851e-06;-8.322246155100771e-06;-0.0019718452725143954;-0.01379830731658729
0.780076265335083;-0.0015438495855482253;-0.002428617263101624;-0.0005369684537608922;-0.00048058886213224775;-0.002148024754877271;0.00379491306239166;-1.4995765561951978e-22;-7.198731624375562e-24;8.596254976465782e-05;2.174368892625689e-21;1.5511796517596338e-21;2.0850286050365506e-24;1.611051121714965e-23;-8.662660838301685e-07;-4.036660542740984e-19;2.1241216387696738e-21;5.784518710892437e-17;-9.096811784263646e-24;-1.691203152947146e-06;-1.8899286273582141e-06;0.00013189310334132156;0.00034855259664271247;6.055424625871281e-10;6.905829904886486e-05;0.0;-4.937911742218898e-07;-4.937911742224719e-07;0.0004820176678350173;0.00015859188383864902;0.0004950820719055939;0.0015885614065512632;2.9400852829261824e-05;-1.0211889614990954e-05;-9.846597543526975e-06;-0.0019155022647052782;-0.012156852849745974
0.8000569343566895;-0.0013460850914705366;-0.003006597556741937;-0.0005607614052893884;-0.0005918271602482412;-0.0017882122565696214;0.004700757653151216;-1.289137373336218e-22;-7.61928014383975e-24;5.72623325967319e-05;2.8896818621235745e-21;1.2661356972236012e-21;2.9847636314042714e-24;2.3856284622061767e-23;-7.827847293048867e-07;-4.410441431281633e-19;2.843359102488483e-21;5.569633661844719e-17;-9.172846087256944e-24;-1.5562108095661053e-06;-1.7211412215523723e-06;0.00015839585882727216;0.00043333129327393624;9.465390729042633e-10;8.630846274213876e-05;0.0;-1.283069773659385e-06;-1.2830697736601148e-06;0.0006274845142504278;0.00020336344848224727;0.0006054749242520174;0.0015594985290352463;2.8106733998558207e-05;-1.0973770633205996e-05;-1.0627916477503719e-05;-0.0018136727205775327;-0.010324473545133096
0.8201637268066406;-0.0009731811065556955;-0.003481516995513615;-0.0005419811273018558;-0.00040237504919815364;-0.0011920023290698115;0.005391633834684667;-9.793911407639948e-23;-7.912819218576256e-24;2.055365425973967e-05;3.710425280523888e-21;8.619019824712864e-22;4.037859049461088e-24;3.298104582789831e-23;-6.965533601689887e-07;-4.746724354386317e-19;3.670590283519516e-21;5.117569114651368e-17;-8.977070997471485e-24;-1.4155879199757917e-06;-1.5439796934095708e-06;0.0001871662473417622;0.0005355038395546209;1.3515539716268273e-09;0.00010065461937230288;0.0;-1.7198485059765105e-06;-1.7198485059770706e-06;0.0007435837400339503;0.00025401174562732036;0.0006918054094083674;0.001544105598937714;2.7815966487269557e-05;-1.1092370084878585e-05;-1.0770817535320887e-05;-0.0016725554965504527;-0.008208999994484474
0.8400347232818604;-0.0005927458779919345;-0.0038534849585054407;-0.0005120315044149646;-0.0002203640865712824;-0.0005754088280909148;0.0059266637589785775;-5.606199159852141e-23;-8.031901428013947e-24;-2.4330905880921558e-05;4.621938602007951e-21;3.2846380365125156e-22;5.230136464611402e-24;4.337480157523766e-23;-6.117804425490522e-07;-5.018825085850418e-19;4.5914819940643944e-21;4.390505689437117e-17;-8.449784309734067e-24;-1.2759919238569356e-06;-1.366393746218215e-06;0.0002173244152996295;0.0006522085894264354;1.8164251638751175e-09;0.00011099321465112379;0.0;-1.6772337601228158e-06;-1.6772337601231674e-06;0.0008288932594201909;0.0003094707429460107;0.0007531837295701799;0.0015424450546521811;2.7577528064110685e-05;-1.0653297487137166e-05;-1.0358820361472533e-05;-0.0015016273280231596;-0.005765203265536852
0.860424280166626;-3.889667947594049e-05;-0.004192967581389445;-0.00044708002266359136;0.00019248230557450372;0.00028641361400451646;0.006368126918011011;3.147406281852738e-25;-7.9256035035383e-24;-8.023210745177904e-05;5.658903918346064e-21;-3.7712042038904014e-22;6.6130488683715716e-24;5.550266730518802e-23;-5.274140274933268e-07;-5.209929572711346e-19;5.641655557440613e-21;3.300480518316185e-17;-7.487877305970396e-24;-1.135166357812331e-06;-1.1851730838055059e-06;0.00024953705185542185;0.0007868575269428527;2.3628774643960756e-09;0.00011662855431841412;0.0;-1.0512632706478002e-06;-1.0512632706473356e-06;0.0008877206328564294;0.0003716387535786788;0.000792929047561719;0.0015535719549413355;2.4708983923520934e-05;-9.7463961994109e-06;-9.4814553652529e-06;-0.0013000151933678576;-0.003104865155629335
0.8800654411315918;0.0006077709396455431;-0.00450294547159205;-0.0003622517600492254;0.0007901762757913373;0.0012746335604492563;0.006729050742644429;6.915263419725667e-23;-7.549871409742265e-24;-0.00014438081184257477;6.7496653752774034e-21;-1.2270832610909187e-21;8.096679352954936e-24;6.859112681760172e-23;-4.5017064500478645e-07;-5.281650949501531e-19;6.749082207661001e-21;1.8669249674013982e-17;-6.0808556813070835e-24;-1.0036488208669129e-06;-1.013807089362336e-06;0.0002811325652304675;0.0009290723610159955;2.9568920606106357e-09;0.00011626078552602048;0.0;1.6871849346323356e-07;1.6871849346308438e-07;0.0009192591239107795;0.00043602361782161186;0.000810987376204195;0.0015744514559916654;1.8977121498634387e-05;-8.569222978344507e-06;-8.333342273781532e-06;-0.0010859622119707155;-0.0005589845950860434
0.9001643657684326;0.0013069124721881388;-0.004561197438471252;-0.0002431576270828535;0.0014606054584244761;0.0023435920760197203;0.0066914228709875;1.5612503669874006e-22;-6.824282355232084e-24;-0.00022133454344309365;7.948844927416212e-21;-2.2891467822363197e-21;9.762084179442875e-24;8.337298254838946e-23;-3.7636001159939805e-07;-5.207397888339276e-19;7.969865468789479e-21;-4.894140713418385e-19;-4.0659946998302546e-24;-8.742308220706952e-07;-8.430524054442345e-07;0.0003131589929439588;0.0010848394481234446;3.6327004574825553e-09;0.00010881307406711422;0.0;2.090211420311769e-06;2.0902114203114034e-06;0.0009289848897318226;0.0005056143698286195;0.0008114325277471746;0.0016027934875008508;1.1371345510071549e-05;-7.165268867670913e-06;-6.9588460745433905e-06;-0.0008517169383232418;0.001848964683369716
0.9199872016906738;0.0019836601226540834;-0.0043329336206764804;-0.00010012609713980412;0.0019909271505261033;0.0034003235408863056;0.00624309860564394;2.599347677995723e-22;-5.7035786205667445e-24;-0.000309142912979219;9.198562009558347e-21;-3.544830206072088e-21;1.1537691617613645e-23;9.923557252391436e-23;-3.0948707764605806e-07;-4.95142596326914e-19;9.245925103957523e-21;-2.4419370875285564e-17;-1.4203364655390164e-24;-7.518282810348354e-07;-6.796930827299192e-07;0.0003433744998886809;0.0012455077971754028;4.363527625855049e-09;9.322231836140939e-05;0.0;3.8233389933188865e-06;3.823338993319031e-06;0.0009193670105476912;0.0005767456972641955;0.0007966217906450113;0.0016333073092915436;3.1019679521022444e-06;-5.663700278656163e-06;-5.485378944055969e-06;-0.0006099503570277636;0.0038660521371580467
0.9399929046630859;0.002789301190310214;-0.003874201828664356;8.94854524132349e-05;0.002492039386227361;0.004659715559027643;0.00544901148048455;3.844236612785759e-22;-4.090720591657035e-24;-0.00041030103144139816;1.0505435972933279e-20;-5.037988278573697e-21;1.344290975923677e-23;1.1637731658509464e-22;-2.4840376067280966e-07;-4.467745693482186e-19;1.0584976809060161e-20;-5.423803599384803e-17;2.0065629592759462e-24;-6.329747438296962e-07;-5.197108437236483e-07;0.00037114921476279477;0.0014107245739869091;5.159876959641657e-09;7.079671654872996e-05;0.0;4.632318640171685e-06;4.63231864017082e-06;0.0008935769872632753;0.0006494467042847881;0.0007690277462160267;0.0016610543428655538;-5.26639383065318e-06;-4.092192921592112e-06;-3.940756251227354e-06;-0.00035919469488559044;0.005382841496252376
0.9601755142211914;0.0036231151070632607;-0.003285480153607346;0.00029675434771602924;0.0029004050400946242;0.005980475465962762;0.004474483998241458;5.314619792250603e-22;-1.893786659777449e-24;-0.0005254218395339054;1.1840822253353566e-20;-6.78786643362033e-21;1.5449953039627992e-23;1.345823259816646e-22;-1.9348832148302998e-07;-3.7046061066252396e-19;1.1959007362251042e-20;-9.067577524913245e-17;6.330180230856221e-24;-5.166049547686825e-07;-3.625129337675058e-07;0.0003947708658602927;0.0015754568958817096;6.013559163083385e-09;4.536405724406792e-05;0.0;4.649193706564156e-06;4.649193706564131e-06;0.000854405014807352;0.0007216382201302104;0.0007309755071193074;0.0016790115016784555;-1.4677508673692994e-05;-2.4950121702177084e-06;-2.3688216507459536e-06;-0.00010321178482712864;0.006228473692844711
0.9799747467041016;0.004346458953790513;-0.002615319999076264;0.0004911108795889274;0.003230416656210892;0.007151824307388196;0.003390094540481289;6.976682312247279e-22;8.975443164574855e-25;-0.0006510825179575023;1.3130614576792184e-20;-8.751357467675923e-21;1.746195691541556e-23;1.5300638956873357e-22;-1.4613981022934726e-07;-2.639571671119114e-19;1.3293154759090782e-20;-1.3314844621167456e-16;1.1508607532088662e-23;-4.0419545854105243e-07;-2.1122566002056583e-07;0.00041178203491756664;0.0017291545589284143;6.886826695634716e-09;2.05171710783554e-05;0.0;4.0011648234166825e-06;4.001164823415901e-06;0.000806078467874425;0.0007888094543178934;0.0006860936432349117;0.0016817690471880962;-2.518849968446331e-05;-9.476014467233729e-07;-8.441078970357198e-07;0.00014717381222963892;0.006247891736356913
1.0001330375671387;0.005039255514653586;-0.001914103045196193;0.0006823012278173503;0.0034423519027424665;0.008299833512739515;0.0022810418252605736;8.898676461922744e-22;4.4709762424381036e-24;-0.00079151964542218;1.437565840667644e-20;-1.1005651127239844e-20;1.9500646646894363e-23;1.7189499905633033e-22;-1.0438165535238902e-07;-1.1808832201661097e-19;1.459024558792154e-20;-1.8370503311701124e-16;1.782357806715728e-23;-2.8933794719688824e-07;-5.8646688580313636e-08;0.0004205823024409347;0.0018701197632271071;7.79378339188696e-09;-2.6015931355237975e-06;0.0;2.8415374594716545e-06;2.8415374594710586e-06;0.0007495911530270699;0.0008502951837443327;0.0006349932178844177;0.0016653673243377412;-3.551196640825614e-05;5.864537993648594e-07;6.69084392916317e-07;0.0003974708480033338;0.005620087218508653
1.0202295780181885;0.005577604975092725;-0.001157537545331622;0.0008498678982108805;0.0034981930293729543;0.009239025464302563;0.0011168976347722523;1.1046235432273065e-21;8.850642722670478e-24;-0.0009431095629878508;1.549090524898676e-20;-1.3506294107826809e-20;2.145620359557742e-23;1.9029472252577717e-22;-6.891782902979343e-08;7.032287587637398e-20;1.576449310641743e-20;-2.418087859242885e-16;2.5245398777644e-23;-1.7192015691646202e-07;9.369605891213294e-08;0.0004182448359569926;0.001986290023616603;8.692002807375781e-09;-2.2094223386406977e-05;0.0;1.4037645651919272e-06;1.4037645651915147e-06;0.0006884299245054863;0.0009034945976413999;0.000580630035247539;0.0016289887038460665;-4.4086714319190994e-05;2.0639246264240577e-06;2.1280634170836197e-06;0.0006382543056135877;0.004841522808140322
1.0399839878082275;0.005852987311728791;-0.0005213102806608524;0.000956115963929868;0.0034114649076172985;0.009804285729136972;0.0001628692974466159;1.3376156678329392e-21;1.4027819325335285e-23;-0.0011018287150289796;1.639730421631692e-20;-1.619924350175799e-20;2.3223139220559616e-23;2.0728023602111287e-22;-3.966827493253857e-08;3.027027795850513e-19;1.6735832985457878e-20;-3.066219788655851e-16;3.3699812149697645e-23;-5.0995461694721275e-08;2.453734722489253e-07;0.00040231936886704096;0.0020667698155234946;9.539781982892627e-09;-3.698951872476212e-05;0.0;-1.1824244917466531e-07;-1.182424491748417e-07;0.0006256945731937228;0.000948180273521277;0.0005255645948232203;0.0015780027765036615;-4.978576934891132e-05;3.4634735865670683e-06;3.5116634804256877e-06;0.0008620173489024257;0.0043627162149576845
1.0599937438964844;0.005925104714194951;3.091769068936432e-05;0.0010159201272759778;0.003244661839429859;0.010076584052530783;-0.0006484159694081053;1.5942257249822093e-21;2.0224791009690012e-23;-0.0012700706304606029;1.7042543628358027e-20;-1.91418663433766e-20;2.4756680403273844e-23;2.2252560117169953e-22;-1.5252744219298235e-08;5.911681230049756e-19;1.745367800466996e-20;-3.8007011677454917e-16;4.347918823881703e-23;7.993196272729649e-08;4.026365210374981e-07;0.0003723542919023077;0.0021052546048568703;1.0326126637996712e-08;-4.736871751649848e-05;0.0;-1.6414112956092992e-06;-1.6414112956092446e-06;0.000561338803180867;0.000984439529398641;0.00046961572901649696;0.0015137102077772751;-5.3526375755269675e-05;4.827031621928233e-06;4.861247166004832e-06;0.0010705146227700537;0.004222492904596459
1.0799782276153564;0.005797922801842109;0.000410620703005952;0.0010216028327886323;0.0030608150641824317;0.01004813989170876;-0.001193935361699375;1.8686455715256696e-21;2.7430930153375533e-23;-0.0014424101448246198;1.7319559086974697e-20;-2.2261455297377542e-20;2.5914080847086138e-23;2.347790807541949e-22;4.387082286249164e-09;9.377091365375805e-19;1.7809603722929233e-20;-4.610315721717623e-16;5.448473310062205e-23;2.2207246015372002e-07;5.648208352578182e-07;0.00033070849612644904;0.002092235113606359;1.0994642211383306e-08;-5.29397250118811e-05;0.0;-2.9465138064209775e-06;-2.9465138064212612e-06;0.0004977699821611324;0.0010088483254971014;0.0004147759784678104;0.0014380022824229649;-5.581930042334175e-05;6.031791643302334e-06;6.0541301186773676e-06;0.0012546943283702544;0.00416774266068971
1.1002662181854248;0.00550552801329702;0.0005814628487850487;0.0009762141516839297;0.0028159593665656253;0.009768888994269084;-0.0014093715831850536;2.161830264785033e-21;3.58311794842475e-23;-0.0016174499049028382;1.7115298528083428e-20;-2.5561340821830165e-20;2.656615097075815e-23;2.4296526526520984e-22;1.9996205986534365e-08;1.3540374965829892e-18;1.7691182064213415e-20;-5.504550061874541e-16;6.690588497912103e-23;3.8092979907359654e-07;7.35903124651905e-07;0.0002773080493049326;0.0020181611251971062;1.1500060610710222e-08;-5.38885022479458e-05;0.0;-3.7876223536308393e-06;-3.787622353631218e-06;0.00043522280938042464;0.0010173247104765825;0.00036116404728360653;0.0013491634081006394;-5.552754971425405e-05;6.9018518687646245e-06;6.91411476362936e-06;0.0014101653919684914;0.004277979870844545
1.1200430393218994;0.004977510549219375;0.000590264584845515;0.0008720618593504458;0.002497681877783924;0.009121510143137059;-0.0013642488985689794;2.4565570934598138e-21;4.509316604622263e-23;-0.0017829016430115099;1.6326870018611795e-20;-2.8840091599362304e-20;2.654034117329615e-23;2.4547664246047932e-22;3.1511742243126886e-08;1.8262828165530684e-18;1.6990830659714782e-20;-6.437593782099416e-16;8.016526454836476e-23;5.525288543956259e-07;9.096261395508349e-07;0.00021418799441280786;0.0018817961238118668;1.1764731893780676e-08;-5.0627310923854996e-05;0.0;-3.909841981146935e-06;-3.909841981146133e-06;0.00037712287724404046;0.001004481521725097;0.000311636855723588;0.001249664313526374;-5.177328740532065e-05;7.254281504359362e-06;7.258488013208607e-06;0.0015235310932917112;0.004605595136662544
1.140134334564209;0.004047189508217146;0.0005560617050589217;0.0006901611624859671;0.001969577776367989;0.00786629226456135;-0.0012148543504736401;2.757870783076211e-21;5.558090694112321e-23;-0.0019390290162197424;1.479422183117007e-20;-3.214415402571166e-20;2.5664966642459804e-23;2.4091904806482555e-22;3.996989875698644e-08;2.3760322653522528e-18;1.5550454433570928e-20;-7.433989668559872e-16;9.468409007446509e-23;7.461904366031101e-07;1.0932864677446772e-06;0.00014043774756069803;0.001675467218556057;1.1732008031564759e-08;-4.362674172137894e-05;0.0;-3.1110250826551237e-06;-3.1110250826556747e-06;0.0003217286716160418;0.0009662099765114132;0.0002646413955909607;0.0011331973509409415;-4.526736846861118e-05;6.971885978580925e-06;6.969519666147994e-06;0.0015910519587273215;0.004887687521396838
1.1602578163146973;0.00294088512309739;0.0004082829777728094;0.0004667489777777053;0.0012028817935909916;0.006327299833961531;-0.0008463474879203307;3.0525227209036306e-21;6.713224497433564e-23;-0.0020752080420391446;1.2371506600427958e-20;-3.531417362799328e-20;2.3729359959976776e-23;2.274018596442503e-22;4.564288346880752e-08;2.9987616169621035e-18;1.3220802278081707e-20;-8.462399157252338e-16;1.1010662821470323e-22;9.616517892113006e-07;1.283912014888864e-06;5.99154771930015e-05;0.0014020537341638667;1.1314314527490152e-08;-3.3551636149753505e-05;0.0;-1.1278625287602685e-06;-1.1278625287601486e-06;0.00027041967349023877;0.0008996691743396613;0.0002212998210705274;0.0009947706715695184;-3.828582221886494e-05;5.917350325872287e-06;5.9098521983612074e-06;0.0016002885792906324;0.004867960091645151
1.1800196170806885;0.001739559666326853;0.00024141827304486943;0.00022733169451438014;0.00026938919754355105;0.004602035419269801;-0.00041660884682531685;3.323961017521059e-21;7.941054116957531e-23;-0.002179864268404782;8.97211266408569e-21;-3.8157374943663523e-20;2.0582036485002285e-23;2.035005110941072e-22;4.8920690791676246e-08;3.6800099125509755e-18;9.910717160105576e-21;-9.47807830403743e-16;1.2586172060251265e-22;1.1954929775799686e-06;1.476198468377364e-06;-2.123404579495691e-05;0.001073588615775161;1.0442148955731715e-08;-2.1410241761512502e-05;0.0;1.3981494907920473e-06;1.398149490792157e-06;0.00022440656152720003;0.0008049085494555452;0.0001825844974887479;0.0008310212950338934;-3.116431239283746e-05;4.868157954246816e-06;4.856863036068022e-06;0.0015412583839026048;0.004619632492847012
1.200061559677124;0.0004423676626398971;-5.300760403068937e-05;-3.821016036361929e-05;-0.000868030470242099;0.0026779393223033306;0.00024740356725596127;3.5674534809877286e-21;9.266823969632309e-23;-0.0022452915499830343;4.322588420131691e-21;-4.060222652579446e-20;1.5889108651771966e-23;1.6636905978573763e-22;5.0332712492622754e-08;4.438557348441465e-18;5.346209998366364e-21;-1.0482780883747293e-15;1.4211571636033181e-22;1.4557622548792458e-06;1.673895440066291e-06;-9.987277736817315e-05;0.0006875844303637121;8.991828101077785e-09;-7.656166042984976e-06;0.0;3.982010491202098e-06;3.982010491203388e-06;0.00018232333390192772;0.0006775595790387194;0.00014730490915618088;0.0006321946475888851;-2.217546765279749e-05;4.478128313621996e-06;4.464070460475577e-06;0.0013996694677613636;0.0041958231564937
1.2200560569763184;-0.0007547092248922665;-0.0004334893906078485;-0.0002879670866300079;-0.0022374883488477048;0.0008304806280508456;0.001088975937891212;3.762311566933567e-21;1.0650069361370473e-22;-0.002256811903960358;-1.696821518632642e-21;-4.2407015408397977e-20;9.447790595198175e-24;1.141141680923686e-22;5.019026925205433e-08;5.257388294006295e-18;-5.981206901903082e-22;-1.142125304569325e-15;1.5816996265584853e-22;1.7382513198240096e-06;1.8702143071867716e-06;-0.00017083978955222449;0.000270304012125718;6.871679890159397e-09;6.615434870911571e-06;0.0;5.971506169380201e-06;5.971506169378483e-06;0.0001449597248902828;0.0005182561614081693;0.00011609109658692842;0.00040110092138133597;-1.0171757287898532e-05;4.525677322329819e-06;4.509794118474889e-06;0.001162505380026755;0.0036621017566234324
1.240171194076538;-0.0018118556272980766;-0.0007793462274502435;-0.0005010642798401186;-0.003661287563630245;-0.0009226608866681424;0.0018893769640123208;3.890677615954912e-21;1.207484273419271e-22;-0.0021993557617526593;-9.324851920055824e-21;-4.3354167085079596e-20;9.24884328489084e-25;4.377417513141612e-23;4.88172024125263e-08;6.134288241333202e-18;-8.165468413570787e-21;-1.225371921054117e-15;1.7360082717480891e-22;2.0439312728874364e-06;2.0618072294134196e-06;-0.0002323236872704365;-0.0001526093269325289;3.946069132862728e-09;2.0555257188927265e-05;0.0;6.70664069267748e-06;6.706640692678207e-06;0.00011193957983090906;0.000330604596148081;8.859902593881648e-05;0.00013993518906176927;4.2911185943095115e-06;4.807570927156858e-06;4.7906377819398915e-06;0.0008448635139986862;0.0030389180248413974
1.260061502456665;-0.002739527520978001;-0.0010854323674211544;-0.0006803637019337959;-0.005087620572485336;-0.0025780868350878767;0.002630515138236953;3.929078195183538e-21;1.3480691769614966e-22;-0.0020623426074927037;-1.8593675102747875e-20;-4.317627724072414e-20;-9.788518490787018e-24;-4.5782199088080044e-23;4.6534779808366666e-08;7.040395686635409e-18;-1.7394729373077455e-20;-1.2911422043206814e-15;1.8747815399596298e-22;2.364518987429087e-06;2.2390685476527374e-06;-0.00028215236802063044;-0.0005492132209281189;1.5427349826446093e-10;3.291309929484831e-05;0.0;6.40272556157183e-06;6.402725561572079e-06;8.362387745040515e-05;0.0001278287748156696;6.510238889453841e-05;-0.00013906492072606407;1.69935226446393e-05;5.144166936718169e-06;5.126834352926732e-06;0.0004953319253617864;0.002337577464928743
1.2799944877624512;-0.003371242765393667;-0.0013318021173372254;-0.0007911182303628444;-0.0064673848349150066;-0.003921421571146742;0.0032734907245398374;3.8542821680959734e-21;1.484114278407672e-22;-0.0018346196359956628;-2.977301503710125e-20;-4.159299846857067e-20;-2.307815518286017e-23;-1.580072441923741e-22;4.357674644247432e-08;7.969066023649398e-18;-2.8561553096330403e-20;-1.3340228063297207e-15;1.9919670074432867e-22;2.69958174965065e-06;2.3965334541648032e-06;-0.0003207979440762137;-0.0009063328887485569;-4.663104310549339e-09;4.2793496156060595e-05;0.0;5.235744983295429e-06;5.235744983294398e-06;5.9335806041086904e-05;-8.12448295327353e-05;4.501548927650057e-05;-0.00042404717923735406;2.627975898418412e-05;5.388140354505884e-06;5.370920129556344e-06;0.00014089115761344278;0.0015692704425708634
1.3000400066375732;-0.0036821238694103695;-0.0014911581277667098;-0.0008244664271724457;-0.007515654086998551;-0.0049702497860782775;0.003721372384512986;3.636464705297763e-21;1.6103978391936115e-22;-0.0015007766987416924;-4.307913864229283e-20;-3.825299464235552e-20;-3.9287330162857856e-23;-2.9605821726820463e-22;4.014201212149819e-08;8.899789101047965e-18;-4.1890212306006507e-20;-1.3463034419928788e-15;2.0780710271437602e-22;3.044055888047443e-06;2.5246742719846687e-06;-0.00034853924871845905;-0.0012133104063930932;-1.0656431049607308e-08;4.90493601564126e-05;0.0;3.4349353994992235e-06;3.4349353995002925e-06;3.875295660294093e-05;-0.00028464892058381835;2.80525849177665e-05;-0.0006965931347054661;3.378206468640935e-05;5.404963154924285e-06;5.388261478208116e-06;-0.00019767606985460876;0.000784949484177644
1.3201351165771484;-0.0037267796065760146;-0.0015903672662554032;-0.0007921147488764301;-0.008265829389957471;-0.005822430976572876;0.004021425954273534;3.243147961232092e-21;1.7195434489532634e-22;-0.001044337669616949;-5.862699974332629e-20;-3.2781635378007336e-20;-5.864903564082532e-23;-4.621910794094437e-22;3.641957343779359e-08;9.799122632102884e-18;-5.750474813301932e-20;-1.3188828644342137e-15;2.121157604524009e-22;3.3883661532082502e-06;2.610923049821067e-06;-0.0003658694194256609;-0.0014628143132148377;-1.7939126536068954e-08;5.039380174557931e-05;0.0;1.3049719390619278e-06;1.304971939064338e-06;2.16685232645526e-05;-0.00047062421201135893;1.4026630129062504e-05;-0.0009404794234071421;3.899709556374432e-05;5.07047721524531e-06;5.0546045308365695e-06;-0.0005043312997846591;6.472401554272368e-05
1.3402092456817627;-0.0032778372415492;-0.0016157499043054997;-0.0006578803305812223;-0.008830955156235413;-0.005998206074036156;0.004175864998871628;2.6410395827022573e-21;1.802995641428671e-22;-0.00046688192554194847;-7.646354553956515e-20;-2.4799574413412715e-20;-8.131926780219335e-23;-6.580232252513485e-22;3.2573815609653726e-08;1.0626253744350416e-17;-7.546164023911135e-20;-1.24201693154617e-15;2.1080517173131378e-22;3.7202854468101253e-06;2.6410802009124554e-06;-0.0003737067119312972;-0.001652418300704187;-2.6597863068470468e-08;4.552590858264655e-05;0.0;-9.106283263533305e-07;-9.106283263525261e-07;7.813803700697683e-06;-0.0006315826260078415;2.702060361981541e-06;-0.0011458814592665825;3.972727450549251e-05;4.274102984605701e-06;4.259281652380376e-06;-0.0007689676929493132;-0.0007915922736595886
1.3601396083831787;-0.0026280737201908053;-0.0016461099969813904;-0.0004947866543241863;-0.009236709153841668;-0.005751971565739073;0.004307716470330883;1.799962340750767e-21;1.851164149930067e-22;0.00019169796079588426;-9.650042071679931e-20;-1.3971602403916523e-20;-1.0728647633614306e-22;-8.837369963659325e-22;2.875134824454944e-08;1.133212617926312e-17;-9.568157492453151e-20;-1.1061075480753383e-15;2.0250759508136324e-22;4.0243701451190475e-06;2.5999503403016407e-06;-0.00037327482052100904;-0.001783377408412875;-3.6656556352755235e-08;3.322212257382129e-05;0.0;-3.018320555101134e-06;-3.01832055509922e-06;-3.1051609725985404e-06;-0.0007631708654600279;-6.175042209842657e-06;-0.0013079774426555891;3.614157847071055e-05;2.8994178064185776e-06;2.8857886043558243e-06;-0.0009860169897186535;-0.0019365896173976732
1.380136251449585;-0.0019906718941117714;-0.0016073876284124725;-0.00033594219465778576;-0.009321552054909024;-0.005405591753192608;0.004270890175866043;6.737748055028675e-22;1.8538877016832238e-22;0.00088803287240055;-1.189236562291229e-19;2.3601956708366084e-22;-1.3690821180720353e-22;-1.1427602031285982e-21;2.50084279261044e-08;1.1871321336891145e-17;-1.183634239537628e-19;-8.98357388987196e-16;1.8555738188325066e-22;4.287391442074185e-06;2.4696439280897505e-06;-0.00036585577653386927;-0.0018612741027463136;-4.828582483362824e-08;1.4605199285889189e-05;0.0;-4.8901985588328674e-06;-4.8901985588316104e-06;-1.1559066688545129e-05;-0.0008656295330673002;-1.2998963581689118e-05;-0.001428275211551855;3.0205001121811438e-05;7.933435781315766e-07;7.809978136782989e-07;-0.0011568699094206055;-0.003517283751020289
1.4000327587127686;-0.0013050867428428565;-0.0015064624917794892;-0.00016996859337025996;-0.009021549888976098;-0.004888319632073715;0.004063889879255792;-7.670946729385832e-22;1.7990590822839393e-22;0.0015758163642246316;-1.4345343776846645e-19;1.8139018271433894e-20;-1.6994736738360689e-22;-1.4333766826923508e-21;2.1449082665966895e-08;1.2177962693196735e-17;-1.4323682530085932e-19;-6.082307304252305e-16;1.5835810234393385e-22;4.487714231917146e-06;2.2317651851048146e-06;-0.0003527632523643785;-0.0018908365054558318;-6.14284418496064e-08;-6.898234936638851e-06;0.0;-6.383998761177873e-06;-6.38399876117527e-06;-1.781030331247182e-05;-0.0009386103381458406;-1.7991600844778294e-05;-0.0015080603256877015;2.355510889119658e-05;-1.2621607854993102e-06;-1.2731926517110559e-06;-0.0012814695864840709;-0.00533540871296946
1.420149326324463;-0.0005978959929121512;-0.0013865768150298882;-5.001058262937129e-06;-0.008257465280077755;-0.004267732200532099;0.0037372459874810467;-2.5897009363580016e-21;1.6713534433925658e-22;0.0022361815944871967;-1.7032031478920889e-19;4.051042010633518e-20;-2.068770483127094e-22;-1.7601776060815558e-21;1.8072227728844426e-08;1.2182378715804576e-17;-1.705511112089188e-19;-2.1689712776339517e-16;1.1843641392874234e-22;4.604640666255925e-06;1.859440612422166e-06;-0.0003349519150990867;-0.0018783029135402672;-7.631574417473328e-08;-2.9246101844665172e-05;0.0;-7.4212332946012715e-06;-7.421233294602536e-06;-2.2258158231924683e-05;-0.0009847050813990834;-2.1480889768308854e-05;-0.0015523679823187194;1.7380224226755808e-05;-2.5696096188647e-06;-2.5793168102778147e-06;-0.0013643932655559802;-0.006957023447385669
1.4400339126586914;1.235506071324717e-05;-0.0012730260957493802;0.00013435699970181308;-0.0072197414885428225;-0.003702231789357919;0.0033659686738323003;-4.792197092766771e-21;1.4586825631130793e-22;0.0028334322402584705;-1.9862567456446168e-19;6.727003246234052e-20;-2.466416724513062e-22;-2.1142869139144693e-21;1.4990369566658797e-08;1.1804273958765637e-17;-1.9940988566621603e-19;2.8034371377790705e-16;6.46777347520332e-23;4.6092507902893165e-06;1.3378322739721113e-06;-0.00031394024675589487;-0.0018304375958211384;-9.256889548224369e-08;-5.0278924942794314e-05;0.0;-7.904498063311167e-06;-7.904498063310561e-06;-2.5097479485815585e-05;-0.0010053504431552732;-2.363023403849873e-05;-0.0015654911859403603;1.1192393635751594e-05;-3.308377162616889e-06;-3.316810373895651e-06;-0.0014078307435492574;-0.00795022750731327
1.4600090980529785;0.00044185086923206456;-0.0010504426855516438;0.00024476218590876054;-0.005768284225966185;-0.003343748157368793;0.0027458972643830968;-7.443806085838713e-21;1.1420230420824e-22;0.0033628792221203885;-2.2837907563152677e-19;9.920079581152515e-20;-2.894627118803842e-22;-2.4982040714789944e-21;1.2173729300632687e-08;1.0950674887336723e-17;-2.298427972996972e-19;9.042672907564388e-16;-5.7740572381180534e-24;4.472524050170777e-06;6.350911045443476e-07;-0.000290448706528905;-0.0017534025576270138;-1.1033135059388866e-07;-6.92383797841232e-05;0.0;-7.720199010102921e-06;-7.720199010105023e-06;-2.666602813734659e-05;-0.0010041099781301062;-2.4711337474071184e-05;-0.001554041175447054;4.547367995367077e-06;-3.6969877189723104e-06;-3.7042010024592656e-06;-0.0014176052710789106;-0.008287268871328142
1.4800043106079102;0.0006347820166960837;-0.0007755438745921774;0.0003101823524118502;-0.004076889655843691;-0.0032591052013146203;0.001997267744756919;-1.0572692143190197e-20;7.040240242056485e-23;0.003811328545361926;-2.588989335782746e-19;1.3657600892754934e-19;-3.3462934563453714e-22;-2.906224206794646e-21;9.645700010646193e-09;9.520593521913873e-18;-2.6117853601385897e-19;1.6673357816065838e-15;-9.498961372198633e-23;4.159906203639056e-06;-2.738135583172315e-07;-0.00026545019244158104;-0.0016535867777337698;-1.2937533303677483e-07;-8.536887071386364e-05;0.0;-6.692535002763982e-06;-6.692535002765861e-06;-2.7199626191991558e-05;-0.0009840052715279863;-2.4912998465230852e-05;-0.0015243021357589672;-9.669509923465698e-07;-3.92270193237995e-06;-3.928771897501541e-06;-0.0013984019955449887;-0.008210632293631101
1.500032901763916;0.0007312276389370819;-0.0003716150327748108;0.00036471810532502625;-0.002192555318430516;-0.00323827496096251;0.0010129232729016364;-1.4210898938586348e-20;1.2533418841614436e-23;0.004170574596581414;-2.894375621823674e-19;1.7970844994006573e-19;-3.81365299798725e-22;-3.3321290689522154e-21;7.4072855509784e-09;7.40169129205214e-18;-2.9268101999735867e-19;2.5835654552743977e-15;-2.0528797680600462e-22;3.6329618981683714e-06;-1.4169206344249315e-06;-0.00023971415324549155;-0.0015368450024171533;-1.494532889296443e-07;-9.83323454891099e-05;0.0;-4.678154191037317e-06;-4.6781541910399595e-06;-2.6923994628298603e-05;-0.000948207864490173;-2.4412594587678368e-05;-0.0014797812806785883;-4.0717114409170854e-06;-4.148344373594335e-06;-4.153359299094121e-06;-0.0013551401734417875;-0.007908145840742557
1.5201482772827148;0.0006782238287104239;0.0001726292941574395;0.00039934520272443745;-0.00019040641257107686;-0.0033479198634838664;-0.0002100781251418274;-1.839240648166468e-20;-6.161152053676868e-23;0.004433801439030149;-3.1909168195068036e-19;2.2892250861794267e-19;-4.287183787049005e-22;-3.768241938423415e-21;5.448979694618493e-09;4.4646677288469434e-18;-3.234596137125441e-19;3.668465361397006e-15;-3.3927468323724158e-22;2.847240035680357e-06;-2.825941447335721e-06;-0.00021384087909047966;-0.0014082874632903217;-1.7025661492588863e-07;-0.00010804732207911187;0.0;-2.4767556969321707e-06;-2.4767556969322097e-06;-2.6038660299489457e-05;-0.0008996725617200298;-2.3363027529494505e-05;-0.0014212921970514858;-5.410092488271358e-06;-4.5196727429141465e-06;-4.523726274448307e-06;-0.001292401365664703;-0.007544184475879634
1.5400214195251465;0.0007105261039249956;0.0008601832605938397;0.00045826524405738543;0.0016764125119435942;-0.0032127839835373526;-0.0016254892832586617;-2.3050823166806302e-20;-1.5252894147090332e-22;0.004591188901032954;-3.461967065846582e-19;2.8335798829638177e-19;-4.74541910259624e-22;-4.195932393555934e-21;3.787587826313168e-09;6.461608867200124e-19;-3.5183553497424085e-19;4.911792473885243e-15;-4.9640469333684e-22;1.775465408438014e-06;-4.499685239227311e-06;-0.00018879815971517205;-0.0012750655050328753;-1.9095668854139565e-07;-0.00011448620687749216;0.0;-9.321913961970149e-07;-9.32191396197636e-07;-2.4745717780693922e-05;-0.0008422720051594085;-2.1924552140135122e-05;-0.0013516792348044688;-7.1684647288791025e-06;-5.154852792854815e-06;-5.158056452345841e-06;-0.0012159360523742212;-0.007282683013303461
1.5600357055664062;0.0007099015248690541;0.0016841952716431072;0.0005177188016437179;0.003296776211342939;-0.0029805935725807954;-0.003201949047832855;-2.8265545871715647e-20;-2.6370716959918057e-22;0.004639163980179889;-3.698318566742535e-19;3.4385139347250516e-19;-5.180012344185924e-22;-4.608930502256125e-21;2.3725869757060543e-09;-4.2463195647170586e-18;-3.7691390219204393e-19;6.342825598738199e-15;-6.8118894189212155e-22;3.5331704935438586e-07;-6.491224749396956e-06;-0.0001645393991781484;-0.0011390726071770745;-2.11329103510924e-07;-0.00011801765382373803;0.0;8.751125746836981e-08;8.751125746721509e-08;-2.318444297384238e-05;-0.0007776858052169549;-2.0191430554632563e-05;-0.001271840656659968;-9.394468591671554e-06;-6.172234928752816e-06;-6.174683188176049e-06;-0.0011285378007410843;-0.00697622256156694
1.5801239013671875;0.0006981686089014765;0.002470809342569229;0.0005633799523540511;0.0045999893901947485;-0.002595918529191257;-0.004659849580074768;-3.400260563019252e-20;-3.968409426673917e-22;0.004567049311464988;-3.8811791875987097e-19;4.0989477728427463e-19;-5.567973971715719e-22;-4.987627990147498e-21;1.1934351812299853e-09;-1.0339871091221165e-17;-3.9681138718580457e-19;7.962334099181687e-15;-8.947105735018906e-22;-1.4673881232617384e-06;-8.8181964354431e-06;-0.0001415014011116164;-0.0010046028930648806;-2.3052096622696596e-07;-0.00011888531556668365;0.0;6.47261118759725e-07;6.472611187592027e-07;-2.149668560768726e-05;-0.0007084486117106647;-1.8265878521551895e-05;-0.001184220423892448;-1.0300924113668153e-05;-7.724112526854326e-06;-7.725901578770812e-06;-0.0010340462189942995;-0.006496929747737828
1.6000185012817383;0.0005557006645693733;0.0033670404429770847;0.0005872354313469232;0.005390914608122806;-0.0022091772377691725;-0.006186576061731029;-4.013432125418005e-20;-5.514801908556754e-22;0.004366512060459118;-3.988556875334477e-19;4.798999987031804e-19;-5.879728493382792e-22;-5.3060218825852695e-21;2.4263651829357433e-10;-1.7664018180910157e-17;-4.0929841333457237e-19;9.744757984425102e-15;-1.1345931791107686e-21;-3.705830644522781e-06;-1.1460637461406342e-05;-0.00012022307444198321;-0.0008767026483765276;-2.4735700247578327e-07;-0.00011744599976120579;0.0;8.204754713215477e-07;8.204754713206827e-07;-1.9825584591172136e-05;-0.0006376001232121745;-1.625807540359072e-05;-0.001092350596993458;-8.445021403812487e-06;-9.963606512402461e-06;-9.96483611697016e-06;-0.0009369586354228432;-0.006000675187157361
1.6200616359710693;0.00024077033240334109;0.004325816916828339;0.000577132809694979;0.00558370425761856;-0.0018800842298213678;-0.007693657397587523;-4.669005799647772e-20;-7.314246228845898e-22;0.004025543712833197;-3.999147612421261e-19;5.540582884210422e-19;-6.091275547384956e-22;-5.5442418126988806e-21;-5.192119519648793e-10;-2.6454873358268414e-17;-4.1225964169381687e-19;1.1711395146939224e-14;-1.4048776028229098e-21;-6.445398166616316e-06;-1.4469932931745245e-05;-0.00010049943185944975;-0.0007559709841002065;-2.6100706365356117e-07;-0.00011405221393555841;0.0;6.89549489298477e-07;6.895494892974976e-07;-1.8245805650480986e-05;-0.0005657199044486025;-1.4202713841160188e-05;-0.0009968838640655997;-4.47177214355964e-06;-1.2138901504505959e-05;-1.2139655663343268e-05;-0.0008383537743682029;-0.005306959790773677
1.6400558948516846;-8.441206881036446e-05;0.005291948853319108;0.0005593709515254467;0.005499228258952762;-0.001426479194031536;-0.009158268735982885;-5.350223640496848e-20;-9.358524453217464e-22;0.003543005609475739;-3.885735250191656e-19;6.302961169717196e-19;-6.165723385712039e-22;-5.669775407326402e-21;-1.1055125204557491e-09;-3.6736001581411805e-17;-4.029330905624112e-19;1.3827734554964233e-14;-1.702226404471262e-21;-9.705786953307128e-06;-1.7816969184825612e-05;-8.263322969694704e-05;-0.0006460031123916021;-2.699974180166007e-07;-0.00010908994115897784;0.0;3.1280824397306233e-07;3.128082439721821e-07;-1.6860125028893097e-05;-0.0004949865231202222;-1.2174869004590522e-05;-0.0009007460185217239;-7.928208696798175e-07;-1.3429820372120572e-05;-1.3430181671557235e-05;-0.0007414472728712734;-0.004290251241178
1.660062551498413;-0.0002866485129892615;0.006020666900362168;0.0005459426759974012;0.0052288237484705395;-0.0008604722694813044;-0.010222785107018965;-6.044778918230422e-20;-1.1655114429716898e-21;0.002942100797241172;-3.618695145769497e-19;7.070271010148478e-19;-6.064718445615935e-22;-5.649295460126617e-21;-1.5405746424206994e-09;-4.861351077429296e-17;-3.783296040988084e-19;1.6074069067689473e-14;-2.0254660949470854e-21;-1.3533558768141646e-05;-2.1497471765375654e-05;-6.660183990582128e-05;-0.0005483813989267166;-2.728434734971381e-07;-0.00010290171576774002;0.0;-2.6566882464208924e-07;-2.6566882464271335e-07;-1.5735487709337208e-05;-0.00042637318914122836;-1.0211818703439941e-05;-0.0008054132447167149;2.399615636896875e-06;-1.3956454346726662e-05;-1.3956496566627654e-05;-0.0006477519437575692;-0.003122351430774414
1.6800360679626465;-0.00030219853405025226;0.006456060033568446;0.0005485524652113825;0.004685762911794789;-0.00017116730238315314;-0.010784256335904402;-6.732571477855649e-20;-1.4192858307683102e-21;0.0022786732758526464;-3.166311039841638e-19;7.817702911334698e-19;-5.745095418984288e-22;-5.4447152177016664e-21;-1.844742858019185e-09;-6.210711602975736e-17;-3.352288544403034e-19;1.8408462035009262e-14;-2.370470618232039e-21;-1.79492580294964e-05;-2.5474885291655566e-05;-5.2427376389298064e-05;-0.0004648975225654672;-2.67816310390546e-07;-9.583102743636293e-05;0.0;-9.359884213684706e-07;-9.359884213687633e-07;-1.4931751090364027e-05;-0.00036096194766199735;-8.351362246047257e-06;-0.0007125947482443011;6.673460479579577e-06;-1.383455965596046e-05;-1.383434954266747e-05;-0.0005588772969983236;-0.0019269768198675432
1.7000758647918701;-0.0001172796526984144;0.006643514314995599;0.0005729181788732458;0.003745338830036366;0.0006992609133816752;-0.010887752994599405;-7.393598676574627e-20;-1.6970131646112952e-21;0.0016011454878672986;-2.4902597900713486e-19;8.520121436706796e-19;-5.155998939248761e-22;-5.011503044311529e-21;-2.0392191922592137e-09;-7.729873130974741e-17;-2.6975213329818557e-19;2.0793134684253784e-14;-2.7340300783565184e-21;-2.2995829064471805e-05;-2.9724812679700836e-05;-3.999309123725927e-05;-0.0003964621677813768;-2.529131769551676e-07;-8.813853798959993e-05;0.0;-1.5400523818398175e-06;-1.5400523818407107e-06;-1.4490883763493583e-05;-0.00029913873343688166;-6.609712963696684e-06;-0.0006230597262887965;1.3346509306304666e-05;-1.3177985366545836e-05;-1.3177580846019009e-05;-0.0004754345247590719;-0.0008132830197566173
1.7201273441314697;0.0003463410108418226;0.006645471840391069;0.0006389076501089142;0.002701589006228491;0.0018543965854072352;-0.010685538169922734;-7.997108546284022e-20;-1.995451248513275e-21;0.0009485018566426093;-1.5529662981476004e-19;9.140292391398587e-19;-4.244181817918798e-22;-4.302125084913409e-21;-2.141392922091769e-09;-9.411763582526541e-17;-1.780640650659083e-19;2.3157522532346466e-14;-3.108380600299975e-21;-2.8668244430805102e-05;-3.417189871319011e-05;-2.926199046238412e-05;-0.0003443782626399043;-2.2594597904940786e-07;-8.010477728548583e-05;0.0;-1.9468256777284445e-06;-1.946825677729228e-06;-1.4449227214131473e-05;-0.00024159909599576066;-5.010702045509701e-06;-0.0005380278158329995;2.1911626561249004e-05;-1.2066126932510822e-05;-1.2065579232251885e-05;-0.00039840198271665945;6.846989574622392e-05
1.7400214672088623;0.0009056055929600488;0.006329649618636421;0.0006976136375993907;0.0015967089336914571;0.0030402146200662426;-0.009984809408338166;-8.504429737951404e-20;-2.3079378812883838e-21;0.00035108516447554614;-3.256161093499427e-20;9.63260996690226e-19;-2.964227224476905e-22;-3.274885985551657e-21;-2.1681397137758463e-09;-1.123050138918856e-16;-5.717963670330355e-20;2.5402104942817427e-14;-3.4813150659969305e-21;-3.4898819412173866e-05;-3.8688704349466765e-05;-2.0203198287983377e-05;-0.00030969241695645556;-1.849327721441236e-07;-7.202449618976747e-05;0.0;-2.053415514326252e-06;-2.0534155143258365e-06;-1.4823718857224445e-05;-0.00018911480870617938;-3.5789743074314346e-06;-0.0004588562740521773;2.8540826548739382e-05;-1.0604621242133364e-05;-1.0603975078243966e-05;-0.0003287894080368744;0.0005465047081054007
1.7600164413452148;0.0016369824055505917;0.005690821326778506;0.0007615190635786711;0.0005286360223822912;0.0043819351202108395;-0.008796243845704254;-8.881698878304549e-20;-2.6329201281675498e-21;-0.00018301481782292175;1.2475553526502055e-19;9.95512292505796e-19;-1.2406893834520184e-22;-1.863333805407033e-21;-2.135320136242763e-09;-1.3191555998065032e-16;9.855894480290471e-20;2.7457593429593424e-14;-3.8461911732772966e-21;-4.17298902894617e-05;-4.321773616819582e-05;-1.2572831315163557e-05;-0.0002924703405194928;-1.2686347752733172e-07;-6.398233678043443e-05;0.0;-1.7322304760717705e-06;-1.7322304760709463e-06;-1.5626896907998442e-05;-0.00014118804527868628;-2.3039874989700777e-06;-0.0003849604314360589;3.150542352195106e-05;-8.876793970751827e-06;-8.876085799803348e-06;-0.00026586173299583915;0.0007524596576640953
1.780043125152588;0.0024291535940830717;0.004830610414225835;0.0008191326492540168;-0.00035242015080531126;0.005714672554404476;-0.0073051518438814805;-9.078705006918077e-20;-2.962010596163151e-21;-0.000642458433423552;3.205835348568069e-19;1.0048492846058833e-18;9.87591356851315e-23;-1.149304535114341e-23;-2.055949800555919e-09;-1.5263049930054402e-16;2.9321430349003283e-19;2.919586661267356e-14;-4.187407642579183e-21;-4.907979696220166e-05;-4.759683009357692e-05;-6.28230556179784e-06;-0.0002933461293115748;-4.9086484947571314e-08;-5.616118764463697e-05;0.0;-8.267967422863994e-07;-8.267967422858462e-07;-1.685775708706899e-05;-9.813310853183019e-05;-1.1975170356837975e-06;-0.0003169135978248193;3.233004239618503e-05;-6.951165914578002e-06;-6.950426482672257e-06;-0.00020990815134248794;0.0010773033917494898
1.8001306056976318;0.003110908531983596;0.0037731281914202466;0.0008398485274757342;-0.0010585698717507472;0.006802485588122058;-0.005547135315169779;-9.039514017111631e-20;-3.2861887091387255e-21;-0.0010240538394503198;5.595291614416054e-19;9.84646580548721e-19;3.7914359310575505e-22;2.3452497741651117e-21;-1.9414759880790868e-09;-1.7411593742769202e-16;5.315416673638506e-19;3.047554629584395e-14;-4.487890117128983e-21;-5.686522791695497e-05;-5.164941153619035e-05;-1.1961869216674166e-06;-0.00031265951782514904;5.1448164151981095e-08;-4.867360935718275e-05;0.0;7.926899259512783e-07;7.9268992595169e-07;-1.8505902415210808e-05;-5.994865357740329e-05;-2.629501191875873e-07;-0.000254743965638383;3.225996665206702e-05;-4.900619993349714e-06;-4.89987444331658e-06;-0.00016073801952476384;0.0015902201024708463
1.82015061378479;0.0037074027100960465;0.0026388149473828707;0.000839818040913457;-0.0015404770263941889;0.007689947278574262;-0.0037157646266642625;-8.702639514442346e-20;-3.591560308941862e-21;-0.0013261948250121998;8.438191849872836e-19;9.278084190830582e-19;7.215543245771197e-22;5.2500992115234255e-21;-1.8028347172153087e-09;-1.9574340354829411e-16;8.15939691048051e-19;3.112462477557222e-14;-4.725108498142895e-21;-6.490018164089202e-05;-5.5131102444512845e-05;2.7896624683233357e-06;-0.00035029187619219245;1.7690878656951595e-07;-4.165880191608255e-05;0.0;2.3199264342463125e-06;2.319926434246432e-06;-2.0531981555293137e-05;-2.6855626424387703e-05;4.910976308657588e-07;-0.00019878367718291682;3.0537424356561984e-05;-2.824346237327944e-06;-2.8236145841645483e-06;-0.00011837947542866463;0.0020889479742051765
1.840134620666504;0.004199907623778757;0.0014953815209792316;0.0008216755513165699;-0.0016480664091848751;0.008345562900229274;-0.0019439309003532654;-8.001018456887357e-20;-3.864339413292049e-21;-0.0015536950060223605;1.1768582622663863e-18;8.265310487513259e-19;1.132006942074318e-21;8.759748374896548e-21;-1.6486227391526027e-09;-2.1691734941409123e-16;1.149997515042765e-18;3.096120200760962e-14;-4.875782869347325e-21;-7.30142568385709e-05;-5.779264536312578e-05;5.823362338493465e-06;-0.0004059543711920141;3.300677479328308e-07;-3.516683241495554e-05;0.0;3.004245700804877e-06;3.004245700804829e-06;-2.2892849469661686e-05;1.2794037892127637e-06;1.064755560793046e-06;-0.0001487196210984112;2.6769569615217767e-05;-7.728844602653999e-07;-7.721820336762512e-07;-8.233923974971907e-05;0.0023901512705882047
1.860041856765747;0.004585048410519381;0.0004531685306892342;0.000795360512522592;-0.0014549568326645355;0.008781591279766656;-0.0003859662206740468;-6.864058379644572e-20;-4.087128077159764e-21;-0.0017124192866437096;1.5601715738929893e-18;6.72735917853311e-19;1.6144282232018663e-21;1.2913686645548863e-20;-1.4864318820343108e-09;-2.3682119625163487e-16;1.5354408208489954e-18;2.9781763527837414e-14;-4.912679359739175e-21;-8.095957531783913e-05;-5.933518559670947e-05;8.034423678331857e-06;-0.0004789238943984461;5.129839564307827e-07;-2.9247522453709886e-05;0.0;3.022544705938692e-06;3.022544705938815e-06;-2.552155778718257e-05;2.4484128740277416e-05;1.4556466021278096e-06;-0.00010434015089004549;2.2596412706587213e-05;1.2218018068914356e-06;1.2224638108968871e-06;-5.220008039504718e-05;0.002620738869493111
1.8801305294036865;0.0048614340700636905;-0.0004478427483942943;0.0007642413727096649;-0.000936263986423834;0.00900029381322389;0.0008921509219335707;-5.1909506968171946e-20;-4.241978089393421e-21;-0.0018109616605385174;2.0008559787244447e-18;4.54561853476245e-19;2.1801731305788305e-21;1.7816540948249386e-20;-1.3200314157820863e-09;-2.5474206978083255e-16;1.9796377176523098e-18;2.7324454184579928e-14;-4.803426987051122e-21;-8.854583069414288e-05;-5.941908760001793e-05;9.568064433724106e-06;-0.0005695167181850847;7.306509220036883e-07;-2.3849816813492184e-05;0.0;2.5064090490058127e-06;2.5064090490061066e-06;-2.8375869542431438e-05;4.3048257741054755e-05;1.6638715151228886e-06;-6.478242864376614e-05;1.925127785883255e-05;3.1764536358154624e-06;3.1770668542773024e-06;-2.7128803236845508e-05;0.0028963241205505084
1.9001538753509521;0.00486173652699075;-0.001163829800623184;0.0007007972229978984;-0.00042739008809638537;0.008798479194102767;0.0018877795224564952;-2.9102712907196574e-20;-4.302834048756429e-21;-0.001855279750894229;2.4944261523013016e-18;1.6423309014339926e-19;2.8261707947439176e-21;2.3449150135666474e-20;-1.1561648936402404e-09;-2.6929829872796827e-16;2.4783242162567585e-18;2.3348100731054003e-14;-4.512480251398209e-21;-9.532161224765185e-05;-5.763515877133878e-05;1.0513449621983843e-05;-0.0006756380994539039;9.826352931580482e-07;-1.9049466548475573e-05;0.0;1.605044400182202e-06;1.6050444001819442e-06;-3.1324162290735694e-05;5.669560806497328e-05;1.680643842954852e-06;-3.0212589194358136e-05;1.5992880299024876e-05;5.029882751826618e-06;5.030442251573754e-06;-6.972086040027759e-06;0.0033143807382141543
1.9200632572174072;0.004587887015144245;-0.0017770593288396158;0.0005966242925219453;0.0001188459715690268;0.008182261922833632;0.0027174438730837086;5.497997043841418e-22;-4.244107825069016e-21;-0.0018538486974550125;3.0378306405029252e-18;-2.0675095462534321e-19;3.551195141237369e-21;2.9808351578228215e-20;-9.988501411989207e-10;-2.791647296616786e-16;3.028682010651164e-18;1.7603136758627015e-14;-4.00388339292915e-21;-0.00010085962986871337;-5.357386486097171e-05;1.0980373063402229e-05;-0.0007952611029751522;1.2692146118094416e-06;-1.4841120595456334e-05;0.0;4.816465939186837e-07;4.81646593918955e-07;-3.423795161499877e-05;6.540765082187701e-05;1.5026447903492637e-06;-2.7304914751584757e-07;1.0373261507268653e-05;6.718216238285463e-06;6.718719679838392e-06;8.796352946850947e-06;0.003965679043228947
1.9401459693908691;0.004132644283983383;-0.0022542790746076843;0.0004723664860665556;0.0006156268167550366;0.007299794725932814;0.003347811744453243;3.845019045279669e-20;-4.033921800972879e-21;-0.0018143003083103768;3.6360099180219494e-18;-6.745626506315175e-19;4.365278783530712e-21;3.699132193294564e-20;-8.486173823072705e-10;-2.82895500423141e-16;3.6360439694054594e-18;9.6965047561649e-15;-3.226075602378273e-21;-0.00010473109779475032;-4.667542950979573e-05;1.1069712237667646e-05;-0.0009280660297401129;1.5952761780849354e-06;-1.1146230567164444e-05;0.0;-7.574459349173813e-07;-7.574459349170887e-07;-3.701252177523569e-05;6.918331468623377e-05;1.1192235539708677e-06;2.5823887979771707e-05;2.0822713787178e-06;8.224260603192171e-06;8.224706809427733e-06;2.089629139308962e-05;0.004646555609019906
1.9600389003753662;0.003629303424691503;-0.0025589128207941037;0.0003563507467934438;0.0011519665603848947;0.006345049576537141;0.0037064271479072385;8.482794931586314e-20;-3.643007157246576e-21;-0.0017447480110914988;4.272618638343631e-18;-1.2407165222573182e-18;5.2500203677079865e-21;4.4845752801916033e-20;-7.101148045056101e-10;-2.7867337832255274e-16;4.284181531289809e-18;-5.364618252933219e-16;-2.1478802782774995e-21;-0.00010629501028684982;-3.654430283717251e-05;1.0865349308064697e-05;-0.0010689495013387867;1.9544591756659122e-06;-8.002699284285253e-06;0.0;-1.995248649920013e-06;-1.9952486499195107e-06;-3.942702329039699e-05;6.779933228948683e-05;5.293514677975215e-07;4.7956014793518616e-05;-7.124896725702928e-06;9.441106747451092e-06;9.44149713038202e-06;2.9599316790470303e-05;0.005186131825115453
1.9799740314483643;0.0029684884695147496;-0.002640750052421043;0.00023309460023190957;0.0016560257553084037;0.005164544911466745;0.0037298811155751363;1.4102441860914104e-19;-3.032233962532664e-21;-0.0016515757601403703;4.946224361670822e-18;-1.9202769271279244e-18;6.207821367378109e-21;5.340421384727444e-20;-5.8289595655745e-10;-2.6454774917727896e-16;4.972056501776659e-18;-1.3507794470413382e-14;-7.118097024118148e-22;-0.00010493623631528169;-2.253586499326808e-05;1.044422669162968e-05;-0.0012160236613945293;2.3488680762884133e-06;-5.3336926303341825e-06;0.0;-3.1451485422125526e-06;-3.1451485422125628e-06;-4.131233378785252e-05;6.10745849880943e-05;-2.8061406636076213e-07;6.672930914719637e-05;-1.6070202374788697e-05;1.0270833105685802e-05;1.0271169627428366e-05;3.550772070127266e-05;0.005746718045851668
2.000112295150757;0.002184329736998551;-0.0025853468757460166;0.00010024464713392868;0.0022661417160908764;0.0037967056906252216;0.0035221858934740627;2.0851691691958267e-19;-2.152561714376284e-21;-0.001539904918253432;5.651010168495203e-18;-2.729555497777017e-18;7.236373348033614e-21;6.26610057639292e-20;-4.668824753640563e-10;-2.379796462276708e-16;5.6942991623736656e-18;-2.96960895733999e-14;1.1510707545574415e-21;-9.983621684332613e-05;-3.865036510939256e-06;9.866881121148866e-06;-0.0013662558633364347;2.7790510557382153e-06;-3.0874952674608257e-06;0.0;-4.1062400995280705e-06;-4.106240099527319e-06;-4.243821543183294e-05;4.857199178326952e-05;-1.3308874597874537e-06;8.248873331642484e-05;-2.3799323282381696e-05;1.062052820910904e-05;1.062081335274152e-05;3.905842579139716e-05;0.0064321110088490395
2.0200352668762207;0.0013902004225510322;-0.0023800155930259817;-1.9907028605915096e-05;0.0029882326722621235;0.0024125761164559;0.003063479533508256;2.866091221475948e-19;-9.808333982830485e-22;-0.0014175559966727723;6.356715850139285e-18;-3.6586853071387595e-18;8.298203536708729e-21;7.229519458224736e-20;-3.6473478236118865e-10;-1.9712494131391246e-16;6.4205396434552244e-18;-4.9068796568615006e-14;3.452013684908905e-21;-9.174886420921469e-05;1.821658103250821e-05;9.203451223896217e-06;-0.0015113203780332642;3.230973450396858e-06;-1.2696154631602832e-06;0.0;-4.773197350273434e-06;-4.773197350272798e-06;-4.25182929120197e-05;3.0226502591341725e-05;-2.6086178158606217e-06;9.509603010210488e-05;-3.0886516977368706e-05;1.038578383980425e-05;1.0386021788911717e-05;4.0580100608197765e-05;0.007271625244408688
2.0401270389556885;0.0005541527350113818;-0.0021307939161681645;-0.0001440397194806188;0.0038908792673441922;0.0009578207214849521;0.0025022831787845207;3.7732690816246116e-19;5.485711046166516e-22;-0.0012870462449219675;7.05652711844412e-18;-4.730111538349295e-18;9.391504722811271e-21;8.231036490187737e-20;-2.7432890009610053e-10;-1.3860902302635078e-16;7.144573349480954e-18;-7.227542347256159e-14;6.284009413357484e-21;-8.2320893019988e-05;4.203445037007573e-05;8.492165238628328e-06;-0.0016476438893329565;3.7058722805661392e-06;1.9886679601978294e-07;0.0;-5.089066817774106e-06;-5.0890668177737455e-06;-4.125559271257983e-05;5.328143338116982e-06;-4.1458420490193595e-06;0.0001049174860570968;-3.787108960690825e-05;9.457368462982772e-06;9.457562896219607e-06;4.0480759069467525e-05;0.008321429051040724
2.0599982738494873;-0.00021862330516327034;-0.0019374155744787272;-0.00026275499779089827;0.004644467677571887;-0.0003738663374339726;0.0020558045084278693;4.791879599031037e-19;2.448520897572806e-21;-0.0011549409269522156;7.712007159035401e-18;-5.924544753136423e-18;1.0466862295645582e-20;9.227808623831726e-20;-1.9697314688614894e-10;-6.090002865513667e-17;7.82765041377677e-18;-9.909471500821792e-14;9.636574921666433e-21;-7.292997631021494e-05;6.555565269860108e-05;7.789023369393747e-06;-0.0017652008368396759;4.184716099620505e-06;1.3322384156948671e-06;0.0;-4.906899741793854e-06;-4.9068997417933296e-06;-3.8351087895536145e-05;-2.6010392567935394e-05;-5.9177894596104155e-06;0.00011180127292558103;-4.320313567449124e-05;8.642265369317162e-06;8.64242101475348e-06;3.909707142196628e-05;0.009331121875969255
2.080024242401123;-0.0009323336049946228;-0.0018138979796009183;-0.00037814908117454315;0.005063518899389455;-0.0015713115064019225;0.0017815201890616107;5.940816654083444e-19;4.79703107345854e-21;-0.001022131108270425;8.304807363776768e-18;-7.262126247129074e-18;1.1508577213784769e-20;1.0208409324599996e-19;-1.3052558109650451e-10;4.025439126786348e-17;8.452027594863845e-18;-1.3020257166455893e-13;1.3612333009232277e-20;-6.413610734746582e-05;8.800764432151818e-05;7.116434452667424e-06;-0.0018574550285331076;4.663652080195336e-06;2.194350855648624e-06;0.0;-4.019882725440271e-06;-4.019882725440386e-06;-3.33917416049497e-05;-6.475390152133249e-05;-7.95942034777286e-06;0.0001158289924263351;-4.5816525941157565e-05;8.664145906879463e-06;8.664266809132185e-06;3.6707970261311154e-05;0.01013480596795288
2.1000099182128906;-0.0015506059353530494;-0.0016970776109000202;-0.0004770165080333835;0.005099187112366659;-0.002576019924753644;0.0015925883110177647;7.206401716124933e-19;7.61674010319565e-21;-0.0008926121685966377;8.791782493808908e-18;-8.724549332850973e-18;1.2462081103322691e-20;1.1125776214619086e-19;-7.495809412962165e-11;1.669751311546574e-16;8.974294296917313e-18;-1.6543972352379241e-13;1.821178534217582e-20;-5.637613360794677e-05;0.00010822949343066938;6.510348715880949e-06;-0.001913109638663313;5.12191390753833e-06;2.8131690656963245e-06;0.0;-2.2615541873966363e-06;-2.261554187395049e-06;-2.601433006138371e-05;-0.00011097050445538833;-1.025106621137923e-05;0.00011678061979372554;-4.630056903236755e-05;9.331857680550943e-06;9.331948206375792e-06;3.359187347857438e-05;0.010575607497409488
2.1201250553131104;-0.002058507643762523;-0.0015479292714800363;-0.0005525166945866339;0.004885037511911796;-0.0033816578856424593;0.0014034681734324084;8.591825265140009e-19;1.0973233238852508e-20;-0.0007674351483513091;9.132453357147203e-18;-1.0312747500215225e-17;1.328104574328696e-20;1.1941323831954077e-19;-2.8980488804154625e-11;3.2342457666431404e-16;9.354188093135076e-18;-2.0513894940781797e-13;2.3501809659786544e-20;-4.961808116895997e-05;0.00012563568444940134;5.989639801971321e-06;-0.0019235152069456642;5.543246807612719e-06;3.229205122408232e-06;0.0;-4.0635529065645986e-07;-4.063552906568395e-07;-1.571416023209927e-05;-0.00016544115645202416;-1.2805481247051863e-05;0.00011438853576349164;-4.676908066555977e-05;1.0415492821502458e-05;1.0415556956845262e-05;2.9953323284233703e-05;0.010849254640062053
2.1399776935577393;-0.0024435593244389636;-0.0014248111050307363;-0.0006083030645564255;0.004456483098974638;-0.00397189152794363;0.0012965282364347992;1.0055167354889105e-18;1.4827495864468993e-20;-0.0006505407521369746;9.271903217289247e-18;-1.1975720501772634e-17;1.388856832358558e-20;1.25866316908689e-19;7.539209150632714e-12;5.089792200541116e-16;9.535742133966504e-18;-2.483599571962091e-13;2.938147044194934e-20;-4.3749738978109896e-05;0.00013932218297215402;5.581352867667017e-06;-0.0018839606694264822;5.89628074159269e-06;3.4696998593070855e-06;0.0;7.257549835499842e-07;7.257549835494796e-07;-2.284531382355746e-06;-0.00022726889801583157;-1.5554156860260902e-05;0.00010838840638952669;-4.724224687772207e-05;1.1622732609305679e-05;1.1622774593549937e-05;2.6070823597610365e-05;0.011147501545225985
2.160038471221924;-0.0025274554747138052;-0.0011994171541504241;-0.0005978039349430404;0.003977047767874309;-0.0041050198603061454;0.0010449673440511222;1.1609773594371472e-18;1.9292021866492878e-20;-0.0005402427549610427;9.156241209504267e-18;-1.3724993097923838e-17;1.422573514675993e-20;1.301349197969692e-19;3.647589853754386e-11;7.30414077169996e-16;9.465618570433861e-18;-2.9581957244509784e-13;3.5977508431208606e-20;-3.8171212108104766e-05;0.0001491019245857789;5.288596066837117e-06;-0.0017885647593115688;6.161208361796555e-06;3.5720250368770912e-06;0.0;1.2945329001315588e-06;1.294532900131241e-06;1.5036239588689906e-05;-0.0002980025982351071;-1.8534484804143295e-05;9.820801484433567e-05;-4.604837749605202e-05;1.2750289178810958e-05;1.2750312434534893e-05;2.2035050780786184e-05;0.011364908611765001
2.18000864982605;-0.0023420837489325536;-0.000906275785516598;-0.0005305081824178517;0.0034487525485807405;-0.0038277609124455127;0.0007009670680666427;1.3204507777481093e-18;2.4316655460424394e-20;-0.0004389536083228797;8.720305392961934e-18;-1.5498473144664176e-17;1.420087246828939e-20;1.3140234702719645e-19;5.828551808445979e-11;9.86800083710515e-16;9.077368874623904e-18;-3.4636008143711134e-13;4.3164373418350544e-20;-3.23370771499541e-05;0.000154309110244177;5.125345421872926e-06;-0.0016355213752157107;6.300526071699616e-06;3.560967852731493e-06;0.0;1.3910738102211188e-06;1.3910738102208018e-06;3.647607806127366e-05;-0.0003765969542798175;-2.1665039745445735e-05;8.343536900912401e-05;-4.179230152782593e-05;1.3569297534013286e-05;1.3569305488750333e-05;1.8063042720465908e-05;0.011402153001606656
2.200115442276001;-0.002161399417315673;-0.0005729682176949917;-0.00046041909785607464;0.0026723201993884985;-0.0035245277530209255;0.00034375773686034345;1.4819309526457116e-18;2.995654853913535e-20;-0.0003459223755730233;7.885164688370878e-18;-1.72682792902549e-17;1.3715659375684405e-20;1.2882487648273314e-19;7.413470693255839e-11;1.2826902262588906e-15;8.291720778213922e-18;-3.9983947909874056e-13;5.096355331956808e-20;-2.5389212411025242e-05;0.00015449636131598484;5.094542679349351e-06;-0.0014218349082081281;6.27724341298873e-06;3.460820159960372e-06;0.0;1.1450609179074843e-06;1.1450609179074612e-06;6.274040922146056e-05;-0.0004636701715220831;-2.4927759377192543e-05;6.327105505323928e-05;-3.5071019652624245e-05;1.3885514612725924e-05;1.3885510201836808e-05;1.4251481649883114e-05;0.01117349210121456
2.2200028896331787;-0.00199421389866817;-0.00028661962115492405;-0.00039805855172954754;0.0018385821347303966;-0.003227037175131672;6.933728041486919e-05;1.6377570740366404e-18;3.6085162219677517e-20;-0.00026283524392931804;6.58985793355643e-18;-1.8943810134755146e-17;1.2675591770815478e-20;1.2153847776678827e-19;8.465927733769564e-11;1.6133148283501255e-15;7.045673329166026e-18;-4.5430894977802455e-13;5.913836703595737e-20;-1.656186008282228e-05;0.0001491852507933847;5.196072617393204e-06;-0.0011489599773747044;6.050478485727653e-06;3.295190544405584e-06;0.0;7.094492239003317e-07;7.094492239000139e-07;9.374413968778707e-05;-0.000557037375265562;-2.8194018043945266e-05;3.7435247190297e-05;-2.8312325638397367e-05;1.3518101300805316e-05;1.3518087330199235e-05;1.0790663563446656e-05;0.010608047374163551
2.2401487827301025;-0.0018229173993194563;8.874669697274772e-05;-0.0003261751792506093;0.0009397069333384382;-0.0029121259866481944;-0.00032848502557889447;1.78555713102421e-18;4.280355195656029e-20;-0.00018760232631350729;4.715491073795695e-18;-2.0490410261154148e-17;1.0934542507130095e-20;1.0829482935346971e-19;9.09384410496083e-11;1.9864129276616397e-15;5.220007368352752e-18;-5.097501029522366e-13;6.774810675321337e-20;-6.22954257383929e-06;0.00013927904002054788;5.428762680980909e-06;-0.0008118395718358456;5.565821421466687e-06;3.0787413616484917e-06;0.0;1.9447520922989474e-07;1.9447520922976427e-07;0.0001306147388282184;-0.0006579811987777982;-3.1450467545113863e-05;4.55238699321662e-06;-2.155780575622228e-05;1.2258375377407137e-05;1.2258354096590987e-05;7.713281113760253e-06;0.009617365023539166
2.26004695892334;-0.0015732067395092455;0.00048292713437345363;-0.0002380173970153038;0.00013074458278649115;-0.002485340738338277;-0.0007720859724640575;1.9143685062122307e-18;4.9868264875655225e-20;-0.00012184670968107649;2.2193162909245738e-18;-2.1781365864559336e-17;8.409257334076024e-21;8.829375331493926e-20;9.356639023812787e-11;2.391059966618762e-15;2.768919821307125e-18;-5.631139713225032e-13;7.639511324349699e-20;3.5691457019374977e-06;0.00012726974956230573;5.778826987314257e-06;-0.00043247959394896005;4.783341056179446e-06;2.8325205153869145e-06;0.0;-2.9135152582112586e-07;-2.9135152582133714e-07;0.0001727146699850842;-0.0007625743650183342;-3.450340379974579e-05;-3.530585187448156e-05;-1.3472911022922078e-05;9.93053212935444e-06;9.930505657508881e-06;5.200180329616099e-06;0.00812538977234128
2.280381202697754;-0.0012273137359262;0.0008842543937853306;-0.00013137631491566884;-0.0005316820817209829;-0.0019274676593551403;-0.0012545155335806578;2.019368345904954e-18;5.741491278093168e-20;-6.3032371280199e-05;-1.090582097550594e-18;-2.2749503402243732e-17;4.8608416758293435e-21;5.948569611485921e-20;9.329572245833414e-11;2.838400385664088e-15;-5.003186763578454e-19;-6.140717381732475e-13;8.513389959337359e-20;1.1920306399116703e-05;0.00011444293572156672;6.2471333351042835e-06;-2.6875950052123875e-05;3.6132077377759e-06;2.5612587937970888e-06;0.0;-6.719208889143262e-07;-6.719208889143506e-07;0.00022176068668671388;-0.0008724875468614672;-3.7313148952266266e-05;-8.439899724620841e-05;-2.4293533735845113e-06;7.1951926333674454e-06;7.195162628187626e-06;3.2732437569831344e-06;0.005908198592844331
2.30013108253479;-0.0007710397405335662;0.0012383894451666688;-9.160663512916587e-06;-0.0011515952196467982;-0.0012057525568697567;-0.0016724236225226848;2.085562745458976e-18;6.491507690532609e-20;-1.3579631252687485e-05;-5.133279430703035e-18;-2.323071430453014e-17;3.382976228216483e-22;2.214312223503635e-20;9.077560049212433e-11;3.3006485389818282e-15;-4.511389351635093e-18;-6.576379190969105e-13;9.323580978298305e-20;1.7706377088112617e-05;0.00010260586130711126;6.792244412059798e-06;0.000355053263997939;2.058994025711205e-06;2.289419249332525e-06;0.0;-8.469765626998538e-07;-8.469765626998146e-07;0.00027526969482986473;-0.00097969035950352;-3.9580528432759936e-05;-0.0001408875580407496;1.0387027488480497e-05;4.980035615789064e-06;4.9800036177611985e-06;2.1132154137016193e-06;0.0029404676615739436
2.3201215267181396;-0.00034577155952194335;0.00159363880745845;0.0001071610690186769;-0.0017420112761572112;-0.0005290557544013273;-0.002097998256034482;2.1047662966989425e-18;7.248191079144412e-20;2.925362361279458e-05;-1.0151044717933388e-17;-2.3116499783109638e-17;-5.466320195213595e-21;-2.6394151590305068e-20;8.65054117532025e-11;3.789029456746541e-15;-9.508197918314212e-18;-6.927663185875902e-13;1.0068274690117884e-19;2.087449508217553e-05;9.202485960376305e-05;7.412391064704971e-06;0.0007090971227671102;3.0762594319842425e-09;2.0146624972993704e-06;0.0;-7.597674156779169e-07;-7.597674156780908e-07;0.00033519182314298583;-0.0010854079403122658;-4.121681655087202e-05;-0.00020756853064942017;2.149696456506224e-05;3.1210058821003546e-06;3.1209730518928045e-06;1.7435705786915983e-06;-0.0007169694246717071
2.3399763107299805;4.4103730606112116e-05;0.001728334311036575;0.00019413008428056943;-0.002198972758168515;8.851612270121826e-05;-0.0022126720088573274;2.062969571159343e-18;7.973041331270869e-20;6.50611484918999e-05;-1.614580963900393e-17;-2.2248407505201402e-17;-1.2597831417637067e-20;-8.663194375029193e-20;8.101713491040254e-11;4.284726776277445e-15;-1.5496741924006052e-17;-7.152523481470903e-13;1.0689668113485333e-19;2.12945668755752e-05;8.333544356086182e-05;8.069373316883249e-06;0.0010157177562637302;-2.5835769710827625e-06;1.7489456452088626e-06;0.0;-3.54237614125461e-07;-3.5423761412532806e-07;0.00040010074874664674;-0.001183688611203548;-4.196361101967936e-05;-0.0002838059851804708;2.8907176924982517e-05;1.570126700556434e-06;1.5700939944055734e-06;2.2644240263837487e-06;-0.0045884210633802625
2.360161304473877;0.0003634230245018658;0.001689822470322716;0.0002500144280424221;-0.0025060288861947864;0.0005924833183826472;-0.002092233630836336;1.942910921943616e-18;8.651837611186855e-20;9.501437069858536e-05;-2.3356863438736823e-17;-2.041556205007088e-17;-2.1388274615819138e-20;-1.6151664839256792e-19;7.457459075214732e-11;4.786385165430321e-15;-2.2720594422516143e-17;-7.213010515017381e-13;1.1147942090948837e-19;1.9131079534332347e-05;7.65100802217228e-05;8.745301803534175e-06;0.0012743494041865498;-5.83563152331794e-06;1.491467027275638e-06;0.0;4.5516305913228785e-07;4.5516305913222093e-07;0.000470974583947513;-0.0012718019906476864;-4.1562891211167526e-05;-0.0003719311098235064;3.447737153968257e-05;1.8461263920895255e-07;1.84580819638746e-07;3.7890594459429743e-06;-0.008360003860978425
2.38022518157959;0.0006385425017841459;0.0014962909318350262;0.00028159887551508885;-0.002790268213875037;0.0010347049323339867;-0.0017396105021670342;1.7292427477707125e-18;9.231696915622072e-20;0.00011870272150475155;-3.1709969486595013e-17;-1.7449416115093414e-17;-3.1797536836359665e-20;-2.508536766563678e-19;6.765009495117202e-11;5.266355672123861e-15;-3.111020697856659e-17;-7.058596245520146e-13;1.1369651706748641e-19;1.4778861160287704e-05;7.164038199914042e-05;9.385249114985683e-06;0.0014757935588321845;-9.753019277104262e-06;1.2520042049862708e-06;0.0;1.7378166557533832e-06;1.7378166557540707e-06;0.0005453680958475838;-0.0013417762206414533;-3.971295782032684e-05;-0.00047030084831672816;3.769725862030012e-05;-1.1097078949635256e-06;-1.1097382555973205e-06;6.383663375396016e-06;-0.011548174369018787
2.4001383781433105;0.0008289852712402825;0.0012283256472897068;0.0002895375272577595;-0.002979511544702067;0.0013468350165042134;-0.0012922538152711383;1.405992139416492e-18;9.670391752223421e-20;0.00013648462204919875;-4.121923078017589e-17;-1.3168524003806656e-17;-4.389062452131233e-20;-3.553364377307162e-19;6.05441149672496e-11;5.704281278033091e-15;-4.068428184080056e-17;-6.642037956735637e-13;1.129047007941845e-19;8.827014561193846e-06;6.840307454390343e-05;9.942423605197932e-06;0.001621517509755937;-1.4373808277685167e-05;1.0331463647088255e-06;0.0;3.547437222965459e-06;3.5474372229636226e-06;0.0006217911674151762;-0.0013870965017793646;-3.612328450127601e-05;-0.0005784180269462372;3.658281431036473e-05;-2.4266732607360746e-06;-2.426701759378661e-06;1.010335774159489e-05;-0.014079373351350802
