flxalr/sts-optimization-reemc/input/436_104/augmented.txt
time, StatePelvisPosX, StatePelvisPosZ, StatePelvisRotY, StateHipRotY, StateKneeRotY, StateAnkleRotY, StateMiddleTrunkRotY, StateLShoulderRotY, StateLElbowRotY, StateRShoulderRotY, StateRElbowRotY, StateHeadRotY, StatePelvisVelX, StatePelvisVelZ, StatePelvisRotVelY, StateHipRotVelY, StateKneeRotVelY, StateAnkleRotVelY, StateMiddleTrunkRotVelY, StateLShoulderRotVelY, StateLElbowRotVelY, StateRShoulderRotVelY, StateRElbowRotVelY, StateHeadRotVelY, StateHipTorque, StateKneeTorque, StateAnkleTorque, StateMiddleTrunkTorque, StateShoulderTorque, StateElbowTorque, StateHeadTorque, ControlHipDTorque, ControlKneeDTorque, ControlAnkleDTorque, ControlMiddleTrunkDTorque, ControlShoulderDTorque, ControlElbowDTorque, ControlHeadDTorque, TauPelvisPosX, TauPelvisPosZ, TauPelvisRotY, Tauleg_3_joint, Tauleg_4_joint, Tauleg_5_joint, Tautorso_2_joint, Tauarm_1_joint, Tauarm_4_joint, Tauarm_1_joint, Tauarm_4_joint, Tauhead_2_joint, Heel_Fx, Heel_Fy, Heel_Fz, Toe_Fx, Toe_Fy, Toe_Fz, CoP, Hand_x, Hand_y, Hand_z, Box_Hand_Fx, Box_Hand_Fz, Box_Hand_Ty, Phase
0, -0.0480411, 0.669145, 0.1, -1.22908, 1.48607, -0.356988, 0.1, 0.23, 1, 0.23, 1, 0.03, -1.40936e-18, -3.14072e-18, -5.54716e-18, 9.06626e-19, -1.41568e-18, 1.19608e-18, -3.21721e-18, 6.75873e-19, 7.5362e-18, 9.01186e-19, 1.29968e-18, 9.40918e-19, 37.2185, -2.39559, 2.95589, -16.4558, -0.656214, 4.58395, -0.959171, -0.544687, 0.634618, -4.1485, -23.1646, 7.35454, -2.35001, 5.89802, 4.67308e-310, 0, 0, 37.2185, -2.39559, 2.95589, -16.4558, -0.328107, 2.29198, -0.328107, 0, 0, 21.845, 0, 135.991, 0, 0, 68.2175, 0.000108742, 0, 0, 0, 0, 0, 0, 0
0.000380482, -0.0480411, 0.669145, 0.0999995, -1.22908, 1.48607, -0.356988, 0.100001, 0.23, 1, 0.23, 1, 0.0299952, -0.000338917, 3.40049e-05, -0.00237315, 0.00237315, 2.64818e-18, 6.6118e-18, 0.00707949, -0.00162561, 0.00360378, -0.001634, 0.00361338, -0.0248057, 37.2183, -2.39537, 2.9543, -16.4648, -0.6534, 4.58305, -0.956915, -0.974338, 0.566054, -4.23329, -23.7887, 7.43245, -2.37381, 5.96026, 4.67308e-310, 0, 0, 37.2183, -2.39537, 2.9543, -16.4648, -0.3267, 2.29153, -0.3267, 0, 0, 21.8411, 0, 135.98, 0, 0, 68.2006, 0.000103156, 0, 0, 0, 0, 0, 0, 0
0.000760964, -0.0480413, 0.669146, 0.0999982, -1.22908, 1.48607, -0.356988, 0.100005, 0.229999, 1, 0.229999, 1, 0.0299811, -0.000676951, 6.79204e-05, -0.00474012, 0.00474012, 4.47305e-18, 5.81467e-18, 0.01414, -0.00325295, 0.00719204, -0.00326972, 0.00721123, -0.0495234, 37.2178, -2.39516, 2.95267, -16.4739, -0.650558, 4.58215, -0.954635, -1.40399, 0.497489, -4.31808, -24.4128, 7.51036, -2.39761, 6.0225, 4.67308e-310, 0, 0, 37.2178, -2.39516, 2.95267, -16.4739, -0.325279, 2.29107, -0.325279, 0, 0, 21.8369, 0, 135.968, 0, 0, 68.1834, 9.76247e-05, 0, 0, 0, 0, 0, 0, 0
0.00114145, -0.0480416, 0.669146, 0.0999959, -1.22908, 1.48607, -0.356988, 0.100012, 0.229997, 1.00001, 0.229997, 1.00001, 0.0299576, -0.00101408, 0.000101743, -0.00710078, 0.00710078, 2.25517e-18, 4.91779e-18, 0.021181, -0.00488205, 0.0107645, -0.0049072, 0.0107933, -0.0741521, 37.2172, -2.39499, 2.95101, -16.4833, -0.647685, 4.58123, -0.952332, -1.83364, 0.428925, -4.40288, -25.037, 7.58826, -2.42141, 6.08473, 4.67308e-310, 0, 0, 37.2172, -2.39499, 2.95101, -16.4833, -0.323843, 2.29062, -0.323843, 0, 0, 21.8323, 0, 135.956, 0, 0, 68.166, 9.21505e-05, 0, 0, 0, 0, 0, 0, 0
0.00152193, -0.0480421, 0.669146, 0.0999928, -1.22908, 1.48607, -0.356988, 0.100022, 0.229995, 1.00001, 0.229995, 1.00001, 0.0299247, -0.0013503, 0.000135472, -0.009455, 0.009455, 4.67336e-18, 1.13807e-17, 0.0282023, -0.00651293, 0.0143209, -0.00654645, 0.0143592, -0.0986908, 37.2164, -2.39484, 2.94932, -16.493, -0.644783, 4.5803, -0.950005, -2.26329, 0.36036, -4.48767, -25.6611, 7.66617, -2.44521, 6.14697, 4.67308e-310, 0, 0, 37.2164, -2.39484, 2.94932, -16.493, -0.322392, 2.29015, -0.322392, 0, 0, 21.8273, 0, 135.943, 0, 0, 68.1483, 8.67336e-05, 0, 0, 0, 0, 0, 0, 0
0.00190241, -0.0480427, 0.669146, 0.0999887, -1.22907, 1.48607, -0.356988, 0.100034, 0.229992, 1.00002, 0.229992, 1.00002, 0.0298825, -0.00168557, 0.000169102, -0.0118026, 0.0118026, 2.14661e-18, 5.64788e-18, 0.0352035, -0.00814562, 0.0178609, -0.00818751, 0.0179088, -0.123139, 37.2155, -2.39471, 2.9476, -16.5029, -0.641852, 4.57937, -0.947654, -2.69294, 0.291796, -4.57246, -26.2852, 7.74408, -2.46901, 6.20921, 4.67308e-310, 0, 0, 37.2155, -2.39471, 2.9476, -16.5029, -0.320926, 2.28968, -0.320926, 0, 0, 21.8219, 0, 135.929, 0, 0, 68.1304, 8.13747e-05, 0, 0, 0, 0, 0, 0, 0
0.00228289, -0.0480434, 0.669146, 0.0999838, -1.22907, 1.48607, -0.356988, 0.100048, 0.229989, 1.00002, 0.229989, 1.00002, 0.029831, -0.00201989, 0.000202632, -0.0141436, 0.0141436, -3.30901e-20, -2.00328e-17, 0.0421843, -0.00978016, 0.0213844, -0.00983041, 0.0214418, -0.147494, 37.2144, -2.39462, 2.94584, -16.513, -0.63889, 4.57843, -0.94528, -3.1226, 0.223231, -4.65725, -26.9093, 7.82199, -2.49281, 6.27144, 4.67308e-310, 0, 0, 37.2144, -2.39462, 2.94584, -16.513, -0.319445, 2.28921, -0.319445, 0, 0, 21.8162, 0, 135.914, 0, 0, 68.1121, 7.60742e-05, 0, 0, 0, 0, 0, 0, 0
0.00266337, -0.0480442, 0.669146, 0.099978, -1.22906, 1.48607, -0.356988, 0.100066, 0.229985, 1.00003, 0.229985, 1.00003, 0.0297703, -0.00235323, 0.000236059, -0.0164777, 0.0164777, 3.44159e-18, -4.67586e-17, 0.0491443, -0.0114166, 0.024891, -0.0114752, 0.024958, -0.171758, 37.2131, -2.39454, 2.94405, -16.5233, -0.635899, 4.57747, -0.942882, -3.55225, 0.154667, -4.74205, -27.5335, 7.8999, -2.51661, 6.33368, 4.67308e-310, 0, 0, 37.2131, -2.39454, 2.94405, -16.5233, -0.31795, 2.28874, -0.31795, 0, 0, 21.8101, 0, 135.898, 0, 0, 68.0936, 7.08328e-05, 0, 0, 0, 0, 0, 0, 0
0.00304385, -0.0480452, 0.669146, 0.0999713, -1.22906, 1.48607, -0.356988, 0.100086, 0.22998, 1.00004, 0.22998, 1.00004, 0.0297003, -0.00268559, 0.000269379, -0.0188049, 0.0188049, 8.85708e-18, -6.80103e-17, 0.0560831, -0.0130549, 0.0283804, -0.0131218, 0.028457, -0.195927, 37.2117, -2.3945, 2.94223, -16.5339, -0.632879, 4.57651, -0.94046, -3.9819, 0.086102, -4.82684, -28.1576, 7.97781, -2.54041, 6.39592, 4.67308e-310, 0, 0, 37.2117, -2.3945, 2.94223, -16.5339, -0.316439, 2.28826, -0.316439, 0, 0, 21.8036, 0, 135.882, 0, 0, 68.0748, 6.56512e-05, 0, 0, 0, 0, 0, 0, 0
0.00342434, -0.0480462, 0.669146, 0.0999637, -1.22905, 1.48607, -0.356988, 0.100108, 0.229975, 1.00005, 0.229975, 1.00006, 0.0296212, -0.00301693, 0.000302592, -0.0211249, 0.0211249, 1.51451e-17, -7.60913e-17, 0.0630005, -0.0146951, 0.0318526, -0.0147704, 0.0319386, -0.220002, 37.2101, -2.39448, 2.94038, -16.5448, -0.629829, 4.57554, -0.938015, -4.41155, 0.0175375, -4.91163, -28.7817, 8.05572, -2.56421, 6.45816, 4.67308e-310, 0, 0, 37.2101, -2.39448, 2.94038, -16.5448, -0.314914, 2.28777, -0.314914, 0, 0, 21.7967, 0, 135.864, 0, 0, 68.0557, 6.053e-05, 0, 0, 0, 0, 0, 0, 0
0.00380482, -0.0480474, 0.669146, 0.0999552, -1.22904, 1.48607, -0.356988, 0.100134, 0.229969, 1.00007, 0.229969, 1.00007, 0.0295329, -0.00334724, 0.000335693, -0.0234378, 0.0234378, 2.1001e-17, -8.74916e-17, 0.0698961, -0.0163373, 0.035307, -0.0164209, 0.0354026, -0.243981, 37.2083, -2.39448, 2.9385, -16.5558, -0.626749, 4.57456, -0.935546, -4.8412, -0.051027, -4.99642, -29.4059, 8.13363, -2.58801, 6.52039, 4.67308e-310, 0, 0, 37.2083, -2.39448, 2.9385, -16.5558, -0.313374, 2.28728, -0.313374, 0, 0, 21.7894, 0, 135.846, 0, 0, 68.0363, 5.54698e-05, 0, 0, 0, 0, 0, 0, 0
0.0041853, -0.0480488, 0.669146, 0.0999458, -1.22903, 1.48607, -0.356988, 0.100162, 0.229962, 1.00008, 0.229962, 1.00008, 0.0294355, -0.00367651, 0.00036868, -0.0257434, 0.0257434, 2.49984e-17, -1.01288e-16, 0.0767695, -0.0179815, 0.0387436, -0.0180734, 0.0388487, -0.267863, 37.2064, -2.39452, 2.93658, -16.5672, -0.623639, 4.57357, -0.933053, -5.27085, -0.119592, -5.08121, -30.03, 8.21154, -2.61181, 6.58263, 4.67308e-310, 0, 0, 37.2064, -2.39452, 2.93658, -16.5672, -0.31182, 2.28678, -0.31182, 0, 0, 21.7818, 0, 135.828, 0, 0, 68.0167, 5.04713e-05, 0, 0, 0, 0, 0, 0, 0
0.00456578, -0.0480502, 0.669146, 0.0999356, -1.22902, 1.48607, -0.356988, 0.100192, 0.229955, 1.0001, 0.229955, 1.0001, 0.0293291, -0.00400471, 0.00040155, -0.0280414, 0.0280414, 2.70807e-17, -1.18618e-16, 0.0836204, -0.0196277, 0.0421621, -0.0197279, 0.0422767, -0.291648, 37.2043, -2.39458, 2.93463, -16.5787, -0.6205, 4.57257, -0.930537, -5.70051, -0.188156, -5.16601, -30.6541, 8.28945, -2.63561, 6.64487, 4.67308e-310, 0, 0, 37.2043, -2.39458, 2.93463, -16.5787, -0.31025, 2.28629, -0.31025, 0, 0, 21.7737, 0, 135.808, 0, 0, 67.9967, 4.55353e-05, 0, 0, 0, 0, 0, 0, 0
0.00494626, -0.0480518, 0.669147, 0.0999245, -1.22901, 1.48607, -0.356988, 0.100225, 0.229948, 1.00011, 0.229947, 1.00011, 0.0292136, -0.00433182, 0.000434302, -0.0303319, 0.0303319, 3.09827e-17, -1.33944e-16, 0.0904485, -0.0212759, 0.0455621, -0.0213844, 0.0456862, -0.315335, 37.202, -2.39466, 2.93265, -16.5905, -0.617331, 4.57156, -0.927996, -6.13016, -0.256721, -5.2508, -31.2782, 8.36736, -2.65941, 6.7071, 4.67308e-310, 0, 0, 37.202, -2.39466, 2.93265, -16.5905, -0.308666, 2.28578, -0.308666, 0, 0, 21.7653, 0, 135.787, 0, 0, 67.9765, 4.06623e-05, 0, 0, 0, 0, 0, 0, 0
0.00532675, -0.0480535, 0.669147, 0.0999125, -1.229, 1.48607, -0.356988, 0.100261, 0.229939, 1.00013, 0.229939, 1.00013, 0.0290891, -0.00465784, 0.000466931, -0.0326147, 0.0326147, 3.53046e-17, -1.50766e-16, 0.0972533, -0.0229262, 0.0489435, -0.023043, 0.049077, -0.338922, 37.1996, -2.39477, 2.93063, -16.6025, -0.614133, 4.57055, -0.925433, -6.55981, -0.325285, -5.33559, -31.9024, 8.44527, -2.68321, 6.76934, 4.67308e-310, 0, 0, 37.1996, -2.39477, 2.93063, -16.6025, -0.307066, 2.28527, -0.307066, 0, 0, 21.7564, 0, 135.766, 0, 0, 67.9561, 3.58531e-05, 0, 0, 0, 0, 0, 0, 0
0.00570723, -0.0480554, 0.669147, 0.0998997, -1.22898, 1.48607, -0.356988, 0.100299, 0.22993, 1.00015, 0.22993, 1.00015, 0.0289557, -0.00498273, 0.000499436, -0.0348896, 0.0348896, 4.05953e-17, -1.6735e-16, 0.104035, -0.0245786, 0.0523059, -0.0247037, 0.0524489, -0.362409, 37.197, -2.39491, 2.92859, -16.6148, -0.610905, 4.56952, -0.922845, -6.98946, -0.39385, -5.42038, -32.5265, 8.52318, -2.707, 6.83158, 4.67308e-310, 0, 0, 37.197, -2.39491, 2.92859, -16.6148, -0.305452, 2.28476, -0.305452, 0, 0, 21.7472, 0, 135.744, 0, 0, 67.9353, 3.11085e-05, 0, 0, 0, 0, 0, 0, 0
0.00608771, -0.0480573, 0.669147, 0.099886, -1.22897, 1.48607, -0.356988, 0.10034, 0.22992, 1.00017, 0.22992, 1.00017, 0.0288134, -0.00530649, 0.000531814, -0.0371565, 0.0371565, 4.75514e-17, -1.80652e-16, 0.110792, -0.0262332, 0.0556492, -0.0263666, 0.0558016, -0.385794, 37.1943, -2.39507, 2.92651, -16.6273, -0.607647, 4.56849, -0.920234, -7.41911, -0.462414, -5.50518, -33.1506, 8.60109, -2.7308, 6.89381, 4.67308e-310, 0, 0, 37.1943, -2.39507, 2.92651, -16.6273, -0.303823, 2.28424, -0.303823, 0, 0, 21.7376, 0, 135.721, 0, 0, 67.9143, 2.64291e-05, 0, 0, 0, 0, 0, 0, 0
0.00646819, -0.0480594, 0.669147, 0.0998714, -1.22896, 1.48607, -0.356988, 0.100383, 0.22991, 1.00019, 0.22991, 1.00019, 0.0286622, -0.00562909, 0.000564062, -0.0394153, 0.0394153, 5.66956e-17, -1.89169e-16, 0.117525, -0.0278899, 0.058973, -0.0280316, 0.0591348, -0.409078, 37.1914, -2.39526, 2.9244, -16.64, -0.60436, 4.56744, -0.917599, -7.84876, -0.530979, -5.58997, -33.7748, 8.67899, -2.7546, 6.95605, 4.67308e-310, 0, 0, 37.1914, -2.39526, 2.9244, -16.64, -0.30218, 2.28372, -0.30218, 0, 0, 21.7276, 0, 135.697, 0, 0, 67.8929, 2.18158e-05, 0, 0, 0, 0, 0, 0, 0
0.00684867, -0.0480616, 0.669148, 0.099856, -1.22894, 1.48607, -0.356988, 0.100429, 0.229899, 1.00022, 0.229899, 1.00022, 0.0285021, -0.00595052, 0.000596178, -0.0416659, 0.0416659, 6.87035e-17, -1.90046e-16, 0.124234, -0.0295488, 0.0622771, -0.0296987, 0.0624484, -0.432258, 37.1883, -2.39547, 2.92226, -16.653, -0.601043, 4.56639, -0.914941, -8.27841, -0.599543, -5.67476, -34.3989, 8.7569, -2.7784, 7.01829, 0, 0, 0, 37.1883, -2.39547, 2.92226, -16.653, -0.300521, 2.2832, -0.300521, 0, 0, 21.7172, 0, 135.672, 0, 0, 67.8713, 1.72694e-05, 0, 0, 0, 0, 0, 0, 0
0.00722915, -0.0480639, 0.669148, 0.0998397, -1.22892, 1.48607, -0.356988, 0.100478, 0.229888, 1.00024, 0.229887, 1.00024, 0.0283333, -0.00627075, 0.000628159, -0.0439081, 0.0439081, 8.15643e-17, -1.86883e-16, 0.130918, -0.03121, 0.0655612, -0.0313681, 0.0657419, -0.455334, 37.1851, -2.39572, 2.92008, -16.6662, -0.597696, 4.56533, -0.912259, -8.70807, -0.668108, -5.75955, -35.023, 8.83481, -2.8022, 7.08053, 0, 0, 0, 37.1851, -2.39572, 2.92008, -16.6662, -0.298848, 2.28267, -0.298848, 0, 0, 21.7064, 0, 135.647, 0, 0, 67.8495, 1.27905e-05, 0, 0, 0, 0, 0, 0, 0
0.00760964, -0.0480664, 0.669148, 0.0998226, -1.22891, 1.48607, -0.356988, 0.100529, 0.229875, 1.00027, 0.229875, 1.00027, 0.0281556, -0.00658977, 0.000660002, -0.0461419, 0.0461419, 9.41301e-17, -1.80684e-16, 0.137576, -0.0328734, 0.0688251, -0.0330398, 0.0690152, -0.478305, 37.1817, -2.39598, 2.91787, -16.6796, -0.59432, 4.56426, -0.909553, -9.13772, -0.736672, -5.84435, -35.6471, 8.91272, -2.826, 7.14276, 0, 0, 0, 37.1817, -2.39598, 2.91787, -16.6796, -0.29716, 2.28213, -0.29716, 0, 0, 21.6952, 0, 135.62, 0, 0, 67.8273, 8.37996e-06, 0, 0, 0, 0, 0, 0, 0
0.00799012, -0.048069, 0.669148, 0.0998046, -1.22889, 1.48607, -0.356988, 0.100583, 0.229863, 1.00029, 0.229862, 1.00029, 0.0279693, -0.00690756, 0.000691705, -0.048367, 0.048367, 1.06272e-16, -1.69445e-16, 0.144209, -0.0345391, 0.0720685, -0.0347138, 0.072268, -0.50117, 37.1781, -2.39628, 2.91563, -16.6933, -0.590914, 4.56318, -0.906823, -9.56737, -0.805237, -5.92914, -36.2713, 8.99063, -2.8498, 7.205, 0, 0, 0, 37.1781, -2.39628, 2.91563, -16.6933, -0.295457, 2.28159, -0.295457, 0, 0, 21.6836, 0, 135.593, 0, 0, 67.8049, 4.03866e-06, 0, 0, 0, 0, 0, 0, 0
0.0083706, -0.0480716, 0.669149, 0.0997858, -1.22887, 1.48607, -0.356988, 0.100639, 0.229849, 1.00032, 0.229848, 1.00032, 0.0277743, -0.00722411, 0.000723266, -0.0505833, 0.0505833, 1.16913e-16, -1.53191e-16, 0.150815, -0.0362072, 0.0752912, -0.03639, 0.0755001, -0.523928, 37.1744, -2.3966, 2.91336, -16.7072, -0.587478, 4.56209, -0.90407, -9.99702, -0.873801, -6.01393, -36.8954, 9.06854, -2.8736, 7.26724, 0, 0, 0, 37.1744, -2.3966, 2.91336, -16.7072, -0.293739, 2.28105, -0.293739, 0, 0, 21.6716, 0, 135.565, 0, 0, 67.7821, -2.32621e-07, 0, 0, 0, 0, 0, 0, 0
0.00875108, -0.0480745, 0.669149, 0.0997661, -1.22885, 1.48607, -0.356988, 0.100697, 0.229835, 1.00035, 0.229834, 1.00035, 0.0275706, -0.00753938, 0.000754681, -0.0527908, 0.0527908, 1.24758e-16, -1.321e-16, 0.157396, -0.0378776, 0.0784929, -0.0380686, 0.0787111, -0.546578, 37.1705, -2.39694, 2.91106, -16.7214, -0.584013, 4.56099, -0.901293, -10.4267, -0.942366, -6.09872, -37.5195, 9.14645, -2.8974, 7.32947, 0, 0, 0, 37.1705, -2.39694, 2.91106, -16.7214, -0.292006, 2.2805, -0.292006, 0, 0, 21.6593, 0, 135.536, 0, 0, 67.7591, -4.43303e-06, 0, 0, 0, 0, 0, 0, 0
0.00913156, -0.0480774, 0.669149, 0.0997456, -1.22883, 1.48607, -0.356988, 0.100759, 0.22982, 1.00038, 0.229819, 1.00038, 0.0273584, -0.00785337, 0.000785948, -0.0549892, 0.0549892, 1.29505e-16, -1.07489e-16, 0.16395, -0.0395504, 0.0816733, -0.0397497, 0.0819008, -0.569119, 37.1665, -2.39731, 2.90872, -16.7358, -0.580518, 4.55989, -0.898493, -10.8563, -1.01093, -6.18351, -38.1437, 9.22436, -2.9212, 7.39171, 0, 0, 0, 37.1665, -2.39731, 2.90872, -16.7358, -0.290259, 2.27994, -0.290259, 0, 0, 21.6465, 0, 135.507, 0, 0, 67.7359, -8.56173e-06, 0, 0, 0, 0, 0, 0, 0
0.00951205, -0.0480804, 0.669149, 0.0997243, -1.22881, 1.48607, -0.356988, 0.100822, 0.229805, 1.00041, 0.229804, 1.00041, 0.0271376, -0.00816606, 0.000817065, -0.0571785, 0.0571785, 1.39255e-16, -8.791e-17, 0.170476, -0.0412257, 0.0848322, -0.0414331, 0.085069, -0.59155, 37.1623, -2.39771, 2.90635, -16.7504, -0.576993, 4.55877, -0.895668, -11.286, -1.07949, -6.26831, -38.7678, 9.30227, -2.945, 7.45395, 0, 0, 0, 37.1623, -2.39771, 2.90635, -16.7504, -0.288497, 2.27938, -0.288497, 0, 0, 21.6332, 0, 135.476, 0, 0, 67.7123, -1.26178e-05, 0, 0, 0, 0, 0, 0, 0
0.00989253, -0.0480836, 0.66915, 0.0997021, -1.22879, 1.48607, -0.356988, 0.100888, 0.229789, 1.00045, 0.229788, 1.00045, 0.0269082, -0.00847742, 0.000848029, -0.0593585, 0.0593585, 1.49427e-16, -7.18304e-17, 0.176976, -0.0429034, 0.0879693, -0.043119, 0.0882154, -0.61387, 37.1579, -2.39813, 2.90395, -16.7653, -0.573439, 4.55764, -0.89282, -11.7156, -1.14806, -6.3531, -39.3919, 9.38018, -2.9688, 7.51618, 0, 0, 0, 37.1579, -2.39813, 2.90395, -16.7653, -0.28672, 2.27882, -0.28672, 0, 0, 21.6196, 0, 135.444, 0, 0, 67.6885, -1.66004e-05, 0, 0, 0, 0, 0, 0, 0
0.010273, -0.0480869, 0.66915, 0.0996791, -1.22876, 1.48607, -0.356988, 0.100957, 0.229772, 1.00048, 0.229771, 1.00048, 0.0266704, -0.00878744, 0.000878838, -0.0615292, 0.0615292, 1.60384e-16, -6.21086e-17, 0.183447, -0.0445836, 0.0910843, -0.0448073, 0.0913398, -0.636078, 37.1534, -2.39858, 2.90152, -16.7804, -0.569855, 4.55651, -0.889949, -12.1453, -1.21662, -6.43789, -40.016, 9.45809, -2.9926, 7.57842, 0, 0, 0, 37.1534, -2.39858, 2.90152, -16.7804, -0.284928, 2.27826, -0.284928, 0, 0, 21.6056, 0, 135.412, 0, 0, 67.6643, -2.05087e-05, 0, 0, 0, 0, 0, 0, 0
0.0106535, -0.0480903, 0.66915, 0.0996553, -1.22874, 1.48607, -0.356988, 0.101028, 0.229755, 1.00051, 0.229754, 1.00052, 0.0264242, -0.00909611, 0.000909489, -0.0636902, 0.0636902, 1.72571e-16, -6.20013e-17, 0.189891, -0.0462663, 0.094177, -0.0464983, 0.0944418, -0.658174, 37.1487, -2.39906, 2.89905, -16.7957, -0.566242, 4.55537, -0.887053, -12.5749, -1.28519, -6.52268, -40.6402, 9.536, -3.0164, 7.64066, 4.67308e-310, 0, 0, 37.1487, -2.39906, 2.89905, -16.7957, -0.283121, 2.27768, -0.283121, 0, 0, 21.5912, 0, 135.379, 0, 0, 67.6399, -2.43416e-05, 0, 0, 0, 0, 0, 0, 0
0.011034, -0.0480938, 0.669151, 0.0996306, -1.22871, 1.48607, -0.356988, 0.101101, 0.229737, 1.00055, 0.229736, 1.00055, 0.0261696, -0.00940339, 0.000939979, -0.0658416, 0.0658416, 1.83431e-16, -6.02019e-17, 0.196306, -0.0479517, 0.0972472, -0.0481917, 0.0975212, -0.680156, 37.1438, -2.39956, 2.89655, -16.8113, -0.562599, 4.55422, -0.884134, -13.0046, -1.35375, -6.60748, -41.2643, 9.61391, -3.0402, 7.7029, 0, 0, 0, 37.1438, -2.39956, 2.89655, -16.8113, -0.281299, 2.27711, -0.281299, 0, 0, 21.5763, 0, 135.345, 0, 0, 67.6152, -2.80984e-05, 0, 0, 0, 0, 0, 0, 0
0.0114145, -0.0480974, 0.669151, 0.0996052, -1.22869, 1.48607, -0.356988, 0.101177, 0.229719, 1.00059, 0.229717, 1.00059, 0.0259067, -0.00970927, 0.000970306, -0.0679833, 0.0679833, 1.92788e-16, -5.69426e-17, 0.202692, -0.0496396, 0.100295, -0.0498878, 0.100578, -0.702023, 37.1388, -2.40009, 2.89402, -16.8271, -0.558926, 4.55305, -0.881192, -13.4342, -1.42232, -6.69227, -41.8884, 9.69182, -3.064, 7.76513, 0, 0, 0, 37.1388, -2.40009, 2.89402, -16.8271, -0.279463, 2.27653, -0.279463, 0, 0, 21.5611, 0, 135.309, 0, 0, 67.5903, -3.17779e-05, 0, 0, 0, 0, 0, 0, 0
0.0117949, -0.0481012, 0.669151, 0.0995789, -1.22866, 1.48607, -0.356988, 0.101256, 0.229699, 1.00063, 0.229698, 1.00063, 0.0256354, -0.0100137, 0.00100047, -0.0701149, 0.0701149, 2.01013e-16, -5.51162e-17, 0.209049, -0.0513302, 0.103319, -0.0515865, 0.103611, -0.723774, 37.1336, -2.40064, 2.89146, -16.8432, -0.555224, 4.55188, -0.878225, -13.8639, -1.49088, -6.77706, -42.5126, 9.76972, -3.0878, 7.82737, 0, 0, 0, 37.1336, -2.40064, 2.89146, -16.8432, -0.277612, 2.27594, -0.277612, 0, 0, 21.5454, 0, 135.274, 0, 0, 67.565, -3.53794e-05, 0, 0, 0, 0, 0, 0, 0
0.0121754, -0.0481051, 0.669152, 0.0995518, -1.22864, 1.48607, -0.356988, 0.101336, 0.229679, 1.00067, 0.229678, 1.00067, 0.0253559, -0.0103168, 0.00103046, -0.0722365, 0.0722365, 2.07743e-16, -5.40322e-17, 0.215377, -0.0530235, 0.10632, -0.0532879, 0.106621, -0.745408, 37.1282, -2.40122, 2.88887, -16.8595, -0.551492, 4.5507, -0.875235, -14.2935, -1.55945, -6.86185, -43.1367, 9.84763, -3.1116, 7.88961, 4.67308e-310, 0, 0, 37.1282, -2.40122, 2.88887, -16.8595, -0.275746, 2.27535, -0.275746, 0, 0, 21.5293, 0, 135.237, 0, 0, 67.5395, -3.89018e-05, 0, 0, 0, 0, 0, 0, 0
0.0125559, -0.048109, 0.669152, 0.0995239, -1.22861, 1.48607, -0.356988, 0.101419, 0.229659, 1.00071, 0.229657, 1.00071, 0.0250682, -0.0106184, 0.00106028, -0.0743479, 0.0743479, 2.12794e-16, -5.32743e-17, 0.221674, -0.0547194, 0.109297, -0.054992, 0.109608, -0.766925, 37.1227, -2.40183, 2.88624, -16.876, -0.54773, 4.54952, -0.872222, -14.7232, -1.62801, -6.94665, -43.7608, 9.92554, -3.1354, 7.95184, 4.67308e-310, 0, 0, 37.1227, -2.40183, 2.88624, -16.876, -0.273865, 2.27476, -0.273865, 0, 0, 21.5128, 0, 135.199, 0, 0, 67.5137, -4.23441e-05, 0, 0, 0, 0, 0, 0, 0
0.0129364, -0.0481131, 0.669153, 0.0994952, -1.22858, 1.48607, -0.356988, 0.101505, 0.229638, 1.00075, 0.229636, 1.00075, 0.0247723, -0.0109185, 0.00108993, -0.076449, 0.076449, 2.18446e-16, -5.74977e-17, 0.227942, -0.0564182, 0.11225, -0.0566988, 0.112571, -0.788323, 37.117, -2.40246, 2.88358, -16.8928, -0.543939, 4.54832, -0.869184, -15.1528, -1.69658, -7.03144, -44.3849, 10.0035, -3.1592, 8.01408, 4.67308e-310, 0, 0, 37.117, -2.40246, 2.88358, -16.8928, -0.271969, 2.27416, -0.271969, 0, 0, 21.4959, 0, 135.16, 0, 0, 67.4876, -4.57054e-05, 0, 0, 0, 0, 0, 0, 0
0.0133169, -0.0481173, 0.669153, 0.0994658, -1.22855, 1.48607, -0.356988, 0.101593, 0.229616, 1.00079, 0.229614, 1.0008, 0.0244683, -0.0112171, 0.00111941, -0.0785396, 0.0785396, 2.23574e-16, -6.4071e-17, 0.234178, -0.0581197, 0.11518, -0.0584084, 0.115509, -0.809601, 37.1112, -2.40312, 2.88089, -16.9098, -0.540118, 4.54711, -0.866123, -15.5825, -1.76514, -7.11623, -45.0091, 10.0814, -3.183, 8.07632, 4.67308e-310, 0, 0, 37.1112, -2.40312, 2.88089, -16.9098, -0.270059, 2.27356, -0.270059, 0, 0, 21.4785, 0, 135.121, 0, 0, 67.4612, -4.89846e-05, 0, 0, 0, 0, 0, 0, 0
0.0136973, -0.0481217, 0.669154, 0.0994355, -1.22852, 1.48607, -0.356988, 0.101683, 0.229594, 1.00084, 0.229592, 1.00084, 0.0241563, -0.0115142, 0.00114871, -0.0806196, 0.0806196, 2.2835e-16, -7.29862e-17, 0.240384, -0.0598241, 0.118085, -0.0601209, 0.118423, -0.830759, 37.1052, -2.40381, 2.87816, -16.927, -0.536267, 4.5459, -0.863039, -16.0121, -1.8337, -7.20102, -45.6332, 10.1593, -3.2068, 8.13856, 4.67308e-310, 0, 0, 37.1052, -2.40381, 2.87816, -16.927, -0.268134, 2.27295, -0.268134, 0, 0, 21.4607, 0, 135.08, 0, 0, 67.4345, -5.21807e-05, 0, 0, 0, 0, 0, 0, 0
0.0140778, -0.0481261, 0.669154, 0.0994044, -1.22849, 1.48607, -0.356988, 0.101776, 0.229571, 1.00088, 0.229568, 1.00089, 0.0238362, -0.0118097, 0.00117782, -0.0826889, 0.0826889, 2.32989e-16, -8.42078e-17, 0.246559, -0.0615314, 0.120965, -0.0618362, 0.121312, -0.851795, 37.099, -2.40452, 2.87541, -16.9445, -0.532387, 4.54467, -0.85993, -16.4418, -1.90227, -7.28581, -46.2573, 10.2372, -3.2306, 8.20079, 4.67308e-310, 0, 0, 37.099, -2.40452, 2.87541, -16.9445, -0.266193, 2.27234, -0.266193, 0, 0, 21.4425, 0, 135.039, 0, 0, 67.4076, -5.52927e-05, 0, 0, 0, 0, 0, 0, 0
0.0144583, -0.0481307, 0.669154, 0.0993726, -1.22846, 1.48607, -0.356988, 0.101871, 0.229547, 1.00093, 0.229544, 1.00093, 0.0235081, -0.0121038, 0.00120676, -0.0847473, 0.0847473, 2.37743e-16, -9.7672e-17, 0.252702, -0.0632416, 0.12382, -0.0635544, 0.124177, -0.872708, 37.0926, -2.40525, 2.87262, -16.9622, -0.528477, 4.54344, -0.856798, -16.8714, -1.97083, -7.37061, -46.8815, 10.3151, -3.2544, 8.26303, 4.67308e-310, 0, 0, 37.0926, -2.40525, 2.87262, -16.9622, -0.264239, 2.27172, -0.264239, 0, 0, 21.4239, 0, 134.997, 0, 0, 67.3804, -5.83195e-05, 0, 0, 0, 0, 0, 0, 0
0.0148388, -0.0481353, 0.669155, 0.0993399, -1.22842, 1.48607, -0.356988, 0.101968, 0.229522, 1.00098, 0.22952, 1.00098, 0.0231721, -0.0123962, 0.00123551, -0.0867947, 0.0867947, 2.42909e-16, -1.13288e-16, 0.258812, -0.0649547, 0.12665, -0.0652756, 0.127016, -0.893498, 37.0861, -2.40602, 2.8698, -16.9802, -0.524538, 4.5422, -0.853642, -17.3011, -2.0394, -7.4554, -47.5056, 10.393, -3.2782, 8.32527, 4.67308e-310, 0, 0, 37.0861, -2.40602, 2.8698, -16.9802, -0.262269, 2.2711, -0.262269, 0, 0, 21.4049, 0, 134.954, 0, 0, 67.3528, -6.126e-05, 0, 0, 0, 0, 0, 0, 0
0.0152193, -0.0481401, 0.669155, 0.0993065, -1.22839, 1.48607, -0.356988, 0.102068, 0.229497, 1.00103, 0.229495, 1.00103, 0.0228282, -0.0126871, 0.00126407, -0.088831, 0.088831, 2.46092e-16, -1.28298e-16, 0.264891, -0.0666709, 0.129455, -0.0669997, 0.12983, -0.914162, 37.0795, -2.40681, 2.86695, -16.9984, -0.520568, 4.54094, -0.850463, -17.7307, -2.10796, -7.54019, -48.1297, 10.4709, -3.302, 8.3875, 4.67308e-310, 0, 0, 37.0795, -2.40681, 2.86695, -16.9984, -0.260284, 2.27047, -0.260284, 0, 0, 21.3854, 0, 134.909, 0, 0, 67.325, -6.41132e-05, 0, 0, 0, 0, 0, 0, 0
0.0155998, -0.048145, 0.669156, 0.0992723, -1.22836, 1.48607, -0.356988, 0.10217, 0.229472, 1.00108, 0.229469, 1.00108, 0.0224765, -0.0129764, 0.00129244, -0.090856, 0.090856, 2.47478e-16, -1.42375e-16, 0.270936, -0.0683901, 0.132234, -0.0687269, 0.132618, -0.934702, 37.0726, -2.40762, 2.86406, -17.0168, -0.51657, 4.53968, -0.84726, -18.1604, -2.17653, -7.62498, -48.7538, 10.5488, -3.3258, 8.44974, 4.67308e-310, 0, 0, 37.0726, -2.40762, 2.86406, -17.0168, -0.258285, 2.26984, -0.258285, 0, 0, 21.3654, 0, 134.864, 0, 0, 67.297, -6.6878e-05, 0, 0, 0, 0, 0, 0, 0
0.0159802, -0.04815, 0.669156, 0.0992374, -1.22832, 1.48607, -0.356988, 0.102274, 0.229445, 1.00113, 0.229443, 1.00113, 0.0221169, -0.013264, 0.00132062, -0.0928696, 0.0928696, 2.47547e-16, -1.55402e-16, 0.276949, -0.0701123, 0.134987, -0.0704571, 0.13538, -0.955114, 37.0657, -2.40846, 2.86114, -17.0355, -0.512541, 4.53841, -0.844033, -18.5901, -2.24509, -7.70978, -49.378, 10.6267, -3.3496, 8.51198, 4.67308e-310, 0, 0, 37.0657, -2.40846, 2.86114, -17.0355, -0.256271, 2.26921, -0.256271, 0, 0, 21.3451, 0, 134.818, 0, 0, 67.2686, -6.95533e-05, 0, 0, 0, 0, 0, 0, 0
0.0163607, -0.0481551, 0.669157, 0.0992017, -1.22829, 1.48607, -0.356988, 0.10238, 0.229418, 1.00118, 0.229415, 1.00118, 0.0217497, -0.01355, 0.00134861, -0.0948717, 0.0948717, 2.46077e-16, -1.66523e-16, 0.282928, -0.0718377, 0.137714, -0.0721905, 0.138116, -0.975399, 37.0585, -2.40933, 2.85819, -17.0544, -0.508483, 4.53713, -0.840782, -19.0197, -2.31366, -7.79457, -50.0021, 10.7046, -3.3734, 8.57421, 4.67308e-310, 0, 0, 37.0585, -2.40933, 2.85819, -17.0544, -0.254242, 2.26857, -0.254242, 0, 0, 21.3243, 0, 134.771, 0, 0, 67.2399, -7.21378e-05, 0, 0, 0, 0, 0, 0, 0
0.0167412, -0.0481603, 0.669157, 0.0991652, -1.22825, 1.48607, -0.356988, 0.102489, 0.229391, 1.00123, 0.229388, 1.00124, 0.0213747, -0.0138343, 0.0013764, -0.096862, 0.096862, 2.42823e-16, -1.74791e-16, 0.288873, -0.0735663, 0.140414, -0.073927, 0.140825, -0.995555, 37.0512, -2.41022, 2.85521, -17.0735, -0.504395, 4.53585, -0.837508, -19.4494, -2.38222, -7.87936, -50.6262, 10.7825, -3.3972, 8.63645, 4.67308e-310, 0, 0, 37.0512, -2.41022, 2.85521, -17.0735, -0.252198, 2.26792, -0.252198, 0, 0, 21.3031, 0, 134.723, 0, 0, 67.211, -7.46306e-05, 0, 0, 0, 0, 0, 0, 0
0.0171217, -0.0481656, 0.669158, 0.099128, -1.22821, 1.48607, -0.356988, 0.1026, 0.229362, 1.00129, 0.229359, 1.00129, 0.0209921, -0.014117, 0.00140399, -0.0988406, 0.0988406, 2.37516e-16, -1.79167e-16, 0.294784, -0.075298, 0.143088, -0.0756667, 0.143508, -1.01558, 37.0437, -2.41114, 2.8522, -17.0929, -0.500278, 4.53455, -0.83421, -19.879, -2.45079, -7.96415, -51.2504, 10.8605, -3.421, 8.69869, 4.67308e-310, 0, 0, 37.0437, -2.41114, 2.8522, -17.0929, -0.250139, 2.26727, -0.250139, 0, 0, 21.2814, 0, 134.675, 0, 0, 67.1818, -7.70305e-05, 0, 0, 0, 0, 0, 0, 0
0.0175022, -0.048171, 0.669158, 0.09909, -1.22817, 1.48607, -0.356988, 0.102714, 0.229333, 1.00134, 0.22933, 1.00134, 0.0206019, -0.0143979, 0.00143138, -0.100807, 0.100807, 2.29863e-16, -1.78523e-16, 0.30066, -0.0770331, 0.145735, -0.0774097, 0.146163, -1.03548, 37.0361, -2.41209, 2.84915, -17.1125, -0.496131, 4.53324, -0.830889, -20.3087, -2.51935, -8.04895, -51.8745, 10.9384, -3.4448, 8.76093, 4.67308e-310, 0, 0, 37.0361, -2.41209, 2.84915, -17.1125, -0.248065, 2.26662, -0.248065, 0, 0, 21.2593, 0, 134.625, 0, 0, 67.1523, -7.93362e-05, 0, 0, 0, 0, 0, 0, 0
0.0178826, -0.0481766, 0.669159, 0.0990512, -1.22814, 1.48607, -0.356988, 0.102829, 0.229304, 1.0014, 0.2293, 1.0014, 0.0202042, -0.0146771, 0.00145856, -0.102762, 0.102762, 2.19546e-16, -1.71641e-16, 0.306502, -0.0787714, 0.148354, -0.0791559, 0.148792, -1.05524, 37.0282, -2.41306, 2.84607, -17.1324, -0.491954, 4.53193, -0.827544, -20.7383, -2.58791, -8.13374, -52.4986, 11.0163, -3.4686, 8.82316, 4.67308e-310, 0, 0, 37.0282, -2.41306, 2.84607, -17.1324, -0.245977, 2.26596, -0.245977, 0, 0, 21.2367, 0, 134.574, 0, 0, 67.1225, -8.15466e-05, 0, 0, 0, 0, 0, 0, 0
0.0182631, -0.0481822, 0.66916, 0.0990118, -1.2281, 1.48607, -0.356988, 0.102947, 0.229273, 1.00145, 0.22927, 1.00146, 0.0197989, -0.0149546, 0.00148554, -0.104704, 0.104704, 2.08243e-16, -1.61842e-16, 0.312308, -0.0805131, 0.150946, -0.0809055, 0.151392, -1.07487, 37.0203, -2.41406, 2.84296, -17.1525, -0.487748, 4.5306, -0.824175, -21.168, -2.65648, -8.21853, -53.1227, 11.0942, -3.4924, 8.8854, 4.67308e-310, 0, 0, 37.0203, -2.41406, 2.84296, -17.1525, -0.243874, 2.2653, -0.243874, 0, 0, 21.2137, 0, 134.522, 0, 0, 67.0924, -8.36606e-05, 0, 0, 0, 0, 0, 0, 0
0.0186436, -0.0481879, 0.66916, 0.0989716, -1.22806, 1.48607, -0.356988, 0.103067, 0.229242, 1.00151, 0.229239, 1.00152, 0.0193862, -0.0152303, 0.00151231, -0.106634, 0.106634, 1.9816e-16, -1.53626e-16, 0.318078, -0.0822581, 0.15351, -0.0826584, 0.153965, -1.09437, 37.0121, -2.41508, 2.83982, -17.1728, -0.483512, 4.52927, -0.820782, -21.5976, -2.72504, -8.30332, -53.7469, 11.1721, -3.51619, 8.94764, 4.67308e-310, 0, 0, 37.0121, -2.41508, 2.83982, -17.1728, -0.241756, 2.26463, -0.241756, 0, 0, 21.1903, 0, 134.469, 0, 0, 67.0621, -8.56769e-05, 0, 0, 0, 0, 0, 0, 0
0.0190241, -0.0481938, 0.669161, 0.0989306, -1.22801, 1.48607, -0.356988, 0.103189, 0.229211, 1.00157, 0.229207, 1.00158, 0.0189662, -0.0155042, 0.00153887, -0.108552, 0.108552, 1.87753e-16, -1.42856e-16, 0.323812, -0.0840066, 0.156046, -0.0844148, 0.15651, -1.11373, 37.0038, -2.41613, 2.83664, -17.1934, -0.479246, 4.52793, -0.817366, -22.0273, -2.79361, -8.38812, -54.371, 11.25, -3.53999, 9.00987, 4.67308e-310, 0, 0, 37.0038, -2.41613, 2.83664, -17.1934, -0.239623, 2.26396, -0.239623, 0, 0, 21.1664, 0, 134.416, 0, 0, 67.0314, -8.75942e-05, 0, 0, 0, 0, 0, 0, 0
0.0194046, -0.0481997, 0.669161, 0.098889, -1.22797, 1.48607, -0.356988, 0.103313, 0.229179, 1.00163, 0.229174, 1.00164, 0.0185388, -0.0157764, 0.00156521, -0.110456, 0.110456, 1.77538e-16, -1.3009e-16, 0.32951, -0.0857586, 0.158553, -0.0861746, 0.159027, -1.13296, 36.9954, -2.41721, 2.83344, -17.2142, -0.474951, 4.52658, -0.813926, -22.4569, -2.86217, -8.47291, -54.9951, 11.3279, -3.56379, 9.07211, 4.67308e-310, 0, 0, 36.9954, -2.41721, 2.83344, -17.2142, -0.237476, 2.26329, -0.237476, 0, 0, 21.142, 0, 134.361, 0, 0, 67.0005, -8.94114e-05, 0, 0, 0, 0, 0, 0, 0
0.0197851, -0.0482058, 0.669162, 0.0988466, -1.22793, 1.48607, -0.356988, 0.10344, 0.229146, 1.00169, 0.229141, 1.0017, 0.018104, -0.0160467, 0.00159135, -0.112348, 0.112348, 1.68146e-16, -1.1611e-16, 0.335171, -0.0875141, 0.161032, -0.0879379, 0.161514, -1.15205, 36.9868, -2.41831, 2.8302, -17.2352, -0.470626, 4.52522, -0.810462, -22.8866, -2.93074, -8.5577, -55.6193, 11.4058, -3.58759, 9.13435, 4.67308e-310, 0, 0, 36.9868, -2.41831, 2.8302, -17.2352, -0.235313, 2.26261, -0.235313, 0, 0, 21.1172, 0, 134.305, 0, 0, 66.9693, -9.11273e-05, 0, 0, 0, 0, 0, 0, 0
0.0201655, -0.0482119, 0.669163, 0.0988035, -1.22789, 1.48607, -0.356988, 0.103568, 0.229112, 1.00175, 0.229108, 1.00176, 0.0176621, -0.0163151, 0.00161726, -0.114228, 0.114228, 1.6033e-16, -1.01944e-16, 0.340795, -0.0892732, 0.163482, -0.0897048, 0.163973, -1.171, 36.978, -2.41944, 2.82692, -17.2565, -0.466272, 4.52385, -0.806975, -23.3162, -2.9993, -8.64249, -56.2434, 11.4837, -3.61139, 9.19658, 4.67308e-310, 0, 0, 36.978, -2.41944, 2.82692, -17.2565, -0.233136, 2.26192, -0.233136, 0, 0, 21.0919, 0, 134.249, 0, 0, 66.9378, -9.27404e-05, 0, 0, 0, 0, 0, 0, 0
0.020546, -0.0482182, 0.669163, 0.0987597, -1.22784, 1.48607, -0.356988, 0.103699, 0.229078, 1.00182, 0.229073, 1.00182, 0.017213, -0.0165817, 0.00164295, -0.116094, 0.116094, 1.54973e-16, -8.88846e-17, 0.346381, -0.0910359, 0.165903, -0.0914754, 0.166403, -1.18981, 36.969, -2.42059, 2.82362, -17.278, -0.461888, 4.52247, -0.803464, -23.7459, -3.06787, -8.72728, -56.8675, 11.5616, -3.63519, 9.25882, 4.67308e-310, 0, 0, 36.969, -2.42059, 2.82362, -17.278, -0.230944, 2.26123, -0.230944, 0, 0, 21.0662, 0, 134.191, 0, 0, 66.906, -9.42496e-05, 0, 0, 0, 0, 0, 0, 0
0.0209265, -0.0482246, 0.669164, 0.0987151, -1.2278, 1.48607, -0.356988, 0.103832, 0.229043, 1.00188, 0.229038, 1.00188, 0.0167567, -0.0168465, 0.00166843, -0.117947, 0.117947, 1.53099e-16, -7.85108e-17, 0.351929, -0.0928023, 0.168295, -0.0932495, 0.168804, -1.20848, 36.9599, -2.42177, 2.82028, -17.2998, -0.457474, 4.52108, -0.79993, -24.1755, -3.13643, -8.81208, -57.4916, 11.6395, -3.65899, 9.32106, 4.67308e-310, 0, 0, 36.9599, -2.42177, 2.82028, -17.2998, -0.228737, 2.26054, -0.228737, 0, 0, 21.04, 0, 134.132, 0, 0, 66.8739, -9.56536e-05, 0, 0, 0, 0, 0, 0, 0
0.021307, -0.048231, 0.669164, 0.0986699, -1.22775, 1.48607, -0.356988, 0.103967, 0.229007, 1.00194, 0.229002, 1.00195, 0.0162934, -0.0171093, 0.00169368, -0.119786, 0.119786, 1.5588e-16, -7.27063e-17, 0.357439, -0.0945724, 0.170657, -0.0950274, 0.171175, -1.22701, 36.9506, -2.42298, 2.81691, -17.3218, -0.45303, 4.51968, -0.796371, -24.6052, -3.205, -8.89687, -58.1158, 11.7175, -3.68279, 9.3833, 4.67308e-310, 0, 0, 36.9506, -2.42298, 2.81691, -17.3218, -0.226515, 2.25984, -0.226515, 0, 0, 21.0134, 0, 134.073, 0, 0, 66.8415, -9.69511e-05, 0, 0, 0, 0, 0, 0, 0
0.0216875, -0.0482376, 0.669165, 0.098624, -1.22771, 1.48607, -0.356988, 0.104104, 0.228971, 1.00201, 0.228966, 1.00201, 0.015823, -0.0173702, 0.0017187, -0.121612, 0.121612, 1.52807e-16, -5.61173e-17, 0.36291, -0.0963462, 0.172989, -0.096809, 0.173515, -1.2454, 36.9412, -2.42421, 2.81351, -17.344, -0.448557, 4.51828, -0.792789, -25.0348, -3.27356, -8.98166, -58.7399, 11.7954, -3.70659, 9.44553, 4.67308e-310, 0, 0, 36.9412, -2.42421, 2.81351, -17.344, -0.224279, 2.25914, -0.224279, 0, 0, 20.9863, 0, 134.012, 0, 0, 66.8089, -9.81407e-05, 0, 0, 0, 0, 0, 0, 0
0.0220679, -0.0482442, 0.669166, 0.0985774, -1.22766, 1.48607, -0.356988, 0.104243, 0.228934, 1.00208, 0.228928, 1.00208, 0.0153457, -0.0176292, 0.00174349, -0.123425, 0.123425, 1.505e-16, -3.89014e-17, 0.368343, -0.0981239, 0.175291, -0.0985945, 0.175826, -1.26365, 36.9316, -2.42547, 2.81008, -17.3665, -0.444054, 4.51686, -0.789183, -25.4645, -3.34212, -9.06645, -59.364, 11.8733, -3.73039, 9.50777, 4.67308e-310, 0, 0, 36.9316, -2.42547, 2.81008, -17.3665, -0.222027, 2.25843, -0.222027, 0, 0, 20.9587, 0, 133.95, 0, 0, 66.7759, -9.92211e-05, 0, 0, 0, 0, 0, 0, 0
0.0224484, -0.048251, 0.669166, 0.0985301, -1.22761, 1.48607, -0.356988, 0.104384, 0.228896, 1.00214, 0.228891, 1.00215, 0.0148615, -0.0178862, 0.00176806, -0.125224, 0.125224, 1.49372e-16, -2.21178e-17, 0.373735, -0.0999055, 0.177563, -0.100384, 0.178106, -1.28175, 36.9218, -2.42675, 2.80661, -17.3892, -0.439522, 4.51544, -0.785554, -25.8941, -3.41069, -9.15125, -59.9882, 11.9512, -3.75419, 9.57001, 4.67308e-310, 0, 0, 36.9218, -2.42675, 2.80661, -17.3892, -0.219761, 2.25772, -0.219761, 0, 0, 20.9307, 0, 133.887, 0, 0, 66.7427, -0.000100191, 0, 0, 0, 0, 0, 0, 0
0.0228289, -0.0482578, 0.669167, 0.0984821, -1.22757, 1.48607, -0.356988, 0.104527, 0.228858, 1.00221, 0.228852, 1.00222, 0.0143704, -0.0181412, 0.00179239, -0.127009, 0.127009, 1.49443e-16, -6.35347e-18, 0.379088, -0.101691, 0.179804, -0.102177, 0.180356, -1.2997, 36.9119, -2.42806, 2.80312, -17.4121, -0.43496, 4.51401, -0.781901, -26.3238, -3.47925, -9.23604, -60.6123, 12.0291, -3.77799, 9.63224, 4.67308e-310, 0, 0, 36.9119, -2.42806, 2.80312, -17.4121, -0.21748, 2.257, -0.21748, 0, 0, 20.9022, 0, 133.824, 0, 0, 66.7092, -0.000101049, 0, 0, 0, 0, 0, 0, 0
0.0232094, -0.0482648, 0.669168, 0.0984334, -1.22752, 1.48607, -0.356988, 0.104672, 0.228819, 1.00228, 0.228813, 1.00229, 0.0138725, -0.0183943, 0.00181648, -0.12878, 0.12878, 1.50694e-16, 7.74158e-18, 0.384401, -0.10348, 0.182014, -0.103974, 0.182574, -1.31751, 36.9018, -2.4294, 2.79959, -17.4353, -0.430368, 4.51256, -0.778224, -26.7534, -3.54782, -9.32083, -61.2364, 12.107, -3.80179, 9.69448, 4.67308e-310, 0, 0, 36.9018, -2.4294, 2.79959, -17.4353, -0.215184, 2.25628, -0.215184, 0, 0, 20.8732, 0, 133.759, 0, 0, 66.6754, -0.000101794, 0, 0, 0, 0, 0, 0, 0
0.0235899, -0.0482718, 0.669168, 0.0983841, -1.22747, 1.48607, -0.356988, 0.10482, 0.228779, 1.00235, 0.228773, 1.00236, 0.0133678, -0.0186453, 0.00184034, -0.130536, 0.130536, 1.53061e-16, 1.94528e-17, 0.389673, -0.105274, 0.184192, -0.105775, 0.184762, -1.33518, 36.8915, -2.43076, 2.79602, -17.4587, -0.425747, 4.51111, -0.774524, -27.1831, -3.61638, -9.40562, -61.8605, 12.1849, -3.82559, 9.75672, 4.67308e-310, 0, 0, 36.8915, -2.43076, 2.79602, -17.4587, -0.212874, 2.25556, -0.212874, 0, 0, 20.8437, 0, 133.693, 0, 0, 66.6413, -0.000102424, 0, 0, 0, 0, 0, 0, 0
0.0239704, -0.048279, 0.669169, 0.0983341, -1.22742, 1.48607, -0.356988, 0.104969, 0.228739, 1.00242, 0.228732, 1.00243, 0.0128565, -0.0188943, 0.00186396, -0.132279, 0.132279, 1.56437e-16, 2.79997e-17, 0.394904, -0.107072, 0.18634, -0.107581, 0.186918, -1.35269, 36.8811, -2.43215, 2.79243, -17.4824, -0.421096, 4.50965, -0.7708, -27.6127, -3.68495, -9.49042, -62.4847, 12.2628, -3.84939, 9.81895, 4.67308e-310, 0, 0, 36.8811, -2.43215, 2.79243, -17.4824, -0.210548, 2.25483, -0.210548, 0, 0, 20.8138, 0, 133.626, 0, 0, 66.6069, -0.000102938, 0, 0, 0, 0, 0, 0, 0
0.0243508, -0.0482862, 0.66917, 0.0982834, -1.22737, 1.48607, -0.356988, 0.10512, 0.228697, 1.00249, 0.228691, 1.0025, 0.0123385, -0.0191412, 0.00188734, -0.134007, 0.134007, 1.60661e-16, 3.25348e-17, 0.400094, -0.108873, 0.188455, -0.10939, 0.189042, -1.37005, 36.8705, -2.43357, 2.7888, -17.5063, -0.416415, 4.50818, -0.767052, -28.0424, -3.75351, -9.57521, -63.1088, 12.3407, -3.87319, 9.88119, 4.67308e-310, 0, 0, 36.8705, -2.43357, 2.7888, -17.5063, -0.208208, 2.25409, -0.208208, 0, 0, 20.7834, 0, 133.558, 0, 0, 66.5722, -0.000103334, 0, 0, 0, 0, 0, 0, 0
0.0247313, -0.0482935, 0.669171, 0.0982321, -1.22732, 1.48607, -0.356988, 0.105273, 0.228656, 1.00256, 0.228649, 1.00257, 0.0118139, -0.019386, 0.00191048, -0.13572, 0.13572, 1.65519e-16, 3.21421e-17, 0.405242, -0.110679, 0.190539, -0.111203, 0.191134, -1.38727, 36.8597, -2.43501, 2.78514, -17.5304, -0.411705, 4.5067, -0.763281, -28.472, -3.82208, -9.66, -63.7329, 12.4186, -3.89699, 9.94343, 4.67308e-310, 0, 0, 36.8597, -2.43501, 2.78514, -17.5304, -0.205853, 2.25335, -0.205853, 0, 0, 20.7525, 0, 133.489, 0, 0, 66.5373, -0.000103612, 0, 0, 0, 0, 0, 0, 0
0.0251118, -0.048301, 0.669171, 0.0981801, -1.22726, 1.48607, -0.356988, 0.105429, 0.228613, 1.00264, 0.228606, 1.00264, 0.0112828, -0.0196287, 0.00193337, -0.137419, 0.137419, 1.70739e-16, 2.5836e-17, 0.410348, -0.112489, 0.19259, -0.113021, 0.193193, -1.40433, 36.8488, -2.43648, 2.78145, -17.5547, -0.406965, 4.50522, -0.759485, -28.9017, -3.89064, -9.74479, -64.3571, 12.4965, -3.92079, 10.0057, 4.67308e-310, 0, 0, 36.8488, -2.43648, 2.78145, -17.5547, -0.203483, 2.25261, -0.203483, 0, 0, 20.7211, 0, 133.419, 0, 0, 66.502, -0.000103769, 0, 0, 0, 0, 0, 0, 0
0.0254923, -0.0483085, 0.669172, 0.0981275, -1.22721, 1.48607, -0.356988, 0.105586, 0.22857, 1.00271, 0.228563, 1.00272, 0.0107453, -0.0198693, 0.00195601, -0.139103, 0.139103, 1.76661e-16, 2.85003e-17, 0.415412, -0.114304, 0.194609, -0.114843, 0.19522, -1.42124, 36.8377, -2.43797, 2.77773, -17.5794, -0.402196, 4.50372, -0.755667, -29.3313, -3.9592, -9.82958, -64.9812, 12.5745, -3.94459, 10.0679, 4.67308e-310, 0, 0, 36.8377, -2.43797, 2.77773, -17.5794, -0.201098, 2.25186, -0.201098, 0, 0, 20.6893, 0, 133.348, 0, 0, 66.4665, -0.000103804, 0, 0, 0, 0, 0, 0, 0
0.0258728, -0.0483161, 0.669173, 0.0980743, -1.22716, 1.48607, -0.356988, 0.105745, 0.228526, 1.00278, 0.228519, 1.00279, 0.0102013, -0.0201078, 0.00197841, -0.140771, 0.140771, 1.82642e-16, 3.32605e-17, 0.420432, -0.116123, 0.196594, -0.11667, 0.197215, -1.43799, 36.8265, -2.43949, 2.77397, -17.6042, -0.397397, 4.50222, -0.751824, -29.761, -4.02777, -9.91438, -65.6053, 12.6524, -3.96839, 10.1301, 4.67308e-310, 0, 0, 36.8265, -2.43949, 2.77397, -17.6042, -0.198698, 2.25111, -0.198698, 0, 0, 20.6569, 0, 133.276, 0, 0, 66.4306, -0.000103716, 0, 0, 0, 0, 0, 0, 0
0.0262532, -0.0483238, 0.669174, 0.0980204, -1.2271, 1.48607, -0.356988, 0.105906, 0.228482, 1.00286, 0.228474, 1.00287, 0.00965105, -0.0203441, 0.00200055, -0.142425, 0.142425, 1.88199e-16, 3.87085e-17, 0.42541, -0.117946, 0.198547, -0.1185, 0.199176, -1.45459, 36.8151, -2.44103, 2.77018, -17.6293, -0.392568, 4.5007, -0.747958, -30.1906, -4.09633, -9.99917, -66.2294, 12.7303, -3.99219, 10.1924, 4.67308e-310, 0, 0, 36.8151, -2.44103, 2.77018, -17.6293, -0.196284, 2.25035, -0.196284, 0, 0, 20.6241, 0, 133.202, 0, 0, 66.3945, -0.000103503, 0, 0, 0, 0, 0, 0, 0
0.0266337, -0.0483316, 0.669174, 0.0979659, -1.22705, 1.48607, -0.356988, 0.106068, 0.228436, 1.00293, 0.228429, 1.00294, 0.00909447, -0.0205782, 0.00202244, -0.144063, 0.144063, 1.92875e-16, 4.55994e-17, 0.430343, -0.119773, 0.200467, -0.120336, 0.201104, -1.47104, 36.8035, -2.44261, 2.76636, -17.6546, -0.387709, 4.49918, -0.744068, -30.6203, -4.1649, -10.084, -66.8536, 12.8082, -4.01599, 10.2546, 4.67308e-310, 0, 0, 36.8035, -2.44261, 2.76636, -17.6546, -0.193855, 2.24959, -0.193855, 0, 0, 20.5907, 0, 133.128, 0, 0, 66.3581, -0.000103164, 0, 0, 0, 0, 0, 0, 0
0.0270142, -0.0483394, 0.669175, 0.0979108, -1.22699, 1.48607, -0.356988, 0.106233, 0.228391, 1.00301, 0.228383, 1.00302, 0.00853166, -0.0208102, 0.00204408, -0.145686, 0.145686, 1.96141e-16, 5.48379e-17, 0.435233, -0.121606, 0.202353, -0.122175, 0.202998, -1.48733, 36.7918, -2.4442, 2.76251, -17.6802, -0.382821, 4.49765, -0.740155, -31.0499, -4.23346, -10.1688, -67.4777, 12.8861, -4.03979, 10.3169, 4.67308e-310, 0, 0, 36.7918, -2.4442, 2.76251, -17.6802, -0.191411, 2.24882, -0.191411, 0, 0, 20.5569, 0, 133.052, 0, 0, 66.3214, -0.000102697, 0, 0, 0, 0, 0, 0, 0
0.0273947, -0.0483474, 0.669176, 0.0978551, -1.22694, 1.48607, -0.356988, 0.1064, 0.228344, 1.00309, 0.228336, 1.0031, 0.00796269, -0.0210399, 0.00206546, -0.147293, 0.147293, 1.97398e-16, 6.74889e-17, 0.440078, -0.123442, 0.204205, -0.12402, 0.204858, -1.50345, 36.7799, -2.44583, 2.75862, -17.7059, -0.377903, 4.4961, -0.736217, -31.4796, -4.30203, -10.2535, -68.1018, 12.964, -4.06359, 10.3791, 4.67308e-310, 0, 0, 36.7799, -2.44583, 2.75862, -17.7059, -0.188952, 2.24805, -0.188952, 0, 0, 20.5226, 0, 132.976, 0, 0, 66.2844, -0.000102101, 0, 0, 0, 0, 0, 0, 0
0.0277752, -0.0483555, 0.669177, 0.0977987, -1.22688, 1.48607, -0.356988, 0.106568, 0.228297, 1.00317, 0.228288, 1.00318, 0.00738761, -0.0212673, 0.00208657, -0.148885, 0.148885, 1.9597e-16, 8.47865e-17, 0.444878, -0.125284, 0.206022, -0.125868, 0.206685, -1.51942, 36.7678, -2.44748, 2.75471, -17.732, -0.372956, 4.49455, -0.732256, -31.9093, -4.37059, -10.3383, -68.726, 13.0419, -4.08739, 10.4413, 4.67308e-310, 0, 0, 36.7678, -2.44748, 2.75471, -17.732, -0.186478, 2.24728, -0.186478, 0, 0, 20.4878, 0, 132.898, 0, 0, 66.2471, -0.000101374, 0, 0, 0, 0, 0, 0, 0
0.0281557, -0.0483636, 0.669177, 0.0977418, -1.22683, 1.48607, -0.356988, 0.106738, 0.228249, 1.00325, 0.22824, 1.00326, 0.00680648, -0.0214925, 0.00210743, -0.15046, 0.15046, 1.91105e-16, 1.08144e-16, 0.449633, -0.12713, 0.207806, -0.127722, 0.208476, -1.53523, 36.7556, -2.44915, 2.75076, -17.7582, -0.367979, 4.49299, -0.728272, -32.3389, -4.43916, -10.4231, -69.3501, 13.1198, -4.11119, 10.5036, 4.67308e-310, 0, 0, 36.7556, -2.44915, 2.75076, -17.7582, -0.18399, 2.2465, -0.18399, 0, 0, 20.4525, 0, 132.819, 0, 0, 66.2096, -0.000100514, 0, 0, 0, 0, 0, 0, 0
0.0285361, -0.0483718, 0.669178, 0.0976842, -1.22677, 1.48607, -0.356988, 0.10691, 0.2282, 1.00333, 0.228191, 1.00334, 0.00621937, -0.0217154, 0.00212803, -0.15202, 0.15202, 1.82146e-16, 1.38756e-16, 0.454343, -0.128981, 0.209555, -0.12958, 0.210234, -1.55088, 36.7432, -2.45086, 2.74677, -17.7847, -0.362972, 4.49142, -0.724264, -32.7686, -4.50772, -10.5079, -69.9742, 13.1977, -4.13499, 10.5658, 4.67308e-310, 0, 0, 36.7432, -2.45086, 2.74677, -17.7847, -0.181486, 2.24571, -0.181486, 0, 0, 20.4166, 0, 132.739, 0, 0, 66.1717, -9.95205e-05, 0, 0, 0, 0, 0, 0, 0
0.0289166, -0.0483801, 0.669179, 0.0976261, -1.22671, 1.48607, -0.356988, 0.107084, 0.22815, 1.00341, 0.228141, 1.00342, 0.00562634, -0.021936, 0.00214836, -0.153563, 0.153563, 1.78936e-16, 1.54036e-16, 0.459006, -0.130837, 0.211269, -0.131444, 0.211956, -1.56637, 36.7307, -2.45258, 2.74276, -17.8115, -0.357936, 4.48985, -0.720232, -33.1982, -4.57629, -10.5927, -70.5983, 13.2756, -4.15879, 10.628, 4.67308e-310, 0, 0, 36.7307, -2.45258, 2.74276, -17.8115, -0.178968, 2.24492, -0.178968, 0, 0, 20.3803, 0, 132.658, 0, 0, 66.1335, -9.83911e-05, 0, 0, 0, 0, 0, 0, 0
0.0292971, -0.0483885, 0.66918, 0.0975674, -1.22665, 1.48607, -0.356988, 0.107259, 0.2281, 1.00349, 0.228091, 1.0035, 0.00502744, -0.0221542, 0.00216842, -0.15509, 0.15509, 1.7462e-16, 1.69236e-16, 0.463623, -0.132697, 0.212947, -0.133312, 0.213643, -1.58169, 36.718, -2.45434, 2.73871, -17.8385, -0.35287, 4.48826, -0.716176, -33.6279, -4.64485, -10.6775, -71.2225, 13.3536, -4.18259, 10.6903, 4.67308e-310, 0, 0, 36.718, -2.45434, 2.73871, -17.8385, -0.176435, 2.24413, -0.176435, 0, 0, 20.3435, 0, 132.576, 0, 0, 66.0951, -9.71245e-05, 0, 0, 0, 0, 0, 0, 0
0.0296776, -0.048397, 0.669181, 0.0975081, -1.22659, 1.48607, -0.356988, 0.107437, 0.228049, 1.00357, 0.22804, 1.00358, 0.00442275, -0.0223702, 0.00218821, -0.156601, 0.156601, 1.69219e-16, 1.84034e-16, 0.468194, -0.134563, 0.214591, -0.135184, 0.215294, -1.59684, 36.7051, -2.45612, 2.73464, -17.8657, -0.347774, 4.48666, -0.712097, -34.0575, -4.71341, -10.7623, -71.8466, 13.4315, -4.20639, 10.7525, 4.67308e-310, 0, 0, 36.7051, -2.45612, 2.73464, -17.8657, -0.173887, 2.24333, -0.173887, 0, 0, 20.3061, 0, 132.493, 0, 0, 66.0563, -9.5719e-05, 0, 0, 0, 0, 0, 0, 0
0.0300581, -0.0484055, 0.669182, 0.0974482, -1.22653, 1.48607, -0.356988, 0.107616, 0.227998, 1.00365, 0.227988, 1.00366, 0.00381232, -0.0225837, 0.00220774, -0.158095, 0.158095, 1.62788e-16, 1.98042e-16, 0.472717, -0.136433, 0.216198, -0.137062, 0.21691, -1.61183, 36.6921, -2.45793, 2.73052, -17.8931, -0.342649, 4.48506, -0.707994, -34.4872, -4.78198, -10.8471, -72.4707, 13.5094, -4.23019, 10.8147, 4.67308e-310, 0, 0, 36.6921, -2.45793, 2.73052, -17.8931, -0.171325, 2.24253, -0.171325, 0, 0, 20.2683, 0, 132.408, 0, 0, 66.0173, -9.41729e-05, 0, 0, 0, 0, 0, 0, 0
0.0304385, -0.0484142, 0.669182, 0.0973878, -1.22647, 1.48607, -0.356988, 0.107796, 0.227946, 1.00373, 0.227936, 1.00374, 0.00319623, -0.0227949, 0.00222699, -0.159572, 0.159572, 1.55422e-16, 2.10797e-16, 0.477192, -0.138309, 0.21777, -0.138945, 0.21849, -1.62666, 36.6788, -2.45976, 2.72638, -17.9208, -0.337494, 4.48345, -0.703867, -34.9168, -4.85054, -10.9319, -73.0949, 13.5873, -4.25399, 10.877, 4.67308e-310, 0, 0, 36.6788, -2.45976, 2.72638, -17.9208, -0.168747, 2.24172, -0.168747, 0, 0, 20.2299, 0, 132.323, 0, 0, 65.9779, -9.24847e-05, 0, 0, 0, 0, 0, 0, 0
0.030819, -0.0484229, 0.669183, 0.0973268, -1.22641, 1.48607, -0.356988, 0.107979, 0.227893, 1.00381, 0.227883, 1.00383, 0.00257452, -0.0230036, 0.00224597, -0.161032, 0.161032, 1.47253e-16, 2.21759e-16, 0.481619, -0.14019, 0.219305, -0.140834, 0.220033, -1.64131, 36.6655, -2.46162, 2.72221, -17.9488, -0.33231, 4.48182, -0.699717, -35.3465, -4.91911, -11.0167, -73.719, 13.6652, -4.27779, 10.9392, 4.67308e-310, 0, 0, 36.6655, -2.46162, 2.72221, -17.9488, -0.166155, 2.24091, -0.166155, 0, 0, 20.191, 0, 132.236, 0, 0, 65.9383, -9.06527e-05, 0, 0, 0, 0, 0, 0, 0
0.0311995, -0.0484317, 0.669184, 0.0972652, -1.22635, 1.48607, -0.356988, 0.108163, 0.227839, 1.0039, 0.227829, 1.00391, 0.00194727, -0.0232099, 0.00226467, -0.162476, 0.162476, 1.38461e-16, 2.30304e-16, 0.485998, -0.142076, 0.220804, -0.142727, 0.22154, -1.6558, 36.6519, -2.4635, 2.718, -17.9769, -0.327096, 4.48019, -0.695543, -35.7761, -4.98767, -11.1015, -74.3431, 13.7431, -4.30158, 11.0015, 4.67308e-310, 0, 0, 36.6519, -2.4635, 2.718, -17.9769, -0.163548, 2.24009, -0.163548, 0, 0, 20.1516, 0, 132.148, 0, 0, 65.8984, -8.86751e-05, 0, 0, 0, 0, 0, 0, 0
0.03158, -0.0484405, 0.669185, 0.0972031, -1.22629, 1.48607, -0.356988, 0.108349, 0.227785, 1.00398, 0.227774, 1.004, 0.00131454, -0.0234138, 0.00228309, -0.163902, 0.163902, 1.29269e-16, 2.35719e-16, 0.490329, -0.143967, 0.222266, -0.144625, 0.22301, -1.67011, 36.6383, -2.46541, 2.71376, -18.0053, -0.321852, 4.47855, -0.691345, -36.2058, -5.05624, -11.1863, -74.9672, 13.821, -4.32538, 11.0637, 4.67308e-310, 0, 0, 36.6383, -2.46541, 2.71376, -18.0053, -0.160926, 2.23927, -0.160926, 0, 0, 20.1116, 0, 132.059, 0, 0, 65.8582, -8.65503e-05, 0, 0, 0, 0, 0, 0, 0
0.0319605, -0.0484495, 0.669186, 0.0971405, -1.22622, 1.48607, -0.356988, 0.108536, 0.227729, 1.00407, 0.227719, 1.00408, 0.000676394, -0.0236151, 0.00230123, -0.16531, 0.16531, 1.19952e-16, 2.37201e-16, 0.49461, -0.145863, 0.223691, -0.146529, 0.224443, -1.68426, 36.6244, -2.46735, 2.70949, -18.034, -0.316578, 4.4769, -0.687124, -36.6354, -5.1248, -11.2711, -75.5914, 13.8989, -4.34918, 11.1259, 4.67308e-310, 0, 0, 36.6244, -2.46735, 2.70949, -18.034, -0.158289, 2.23845, -0.158289, 0, 0, 20.0712, 0, 131.969, 0, 0, 65.8177, -8.42766e-05, 0, 0, 0, 0, 0, 0, 0
0.032341, -0.0484585, 0.669187, 0.0970773, -1.22616, 1.48607, -0.356988, 0.108725, 0.227674, 1.00415, 0.227662, 1.00417, 3.29019e-05, -0.023814, 0.00231909, -0.166702, 0.166702, 1.10836e-16, 2.33845e-16, 0.498841, -0.147765, 0.225079, -0.148438, 0.225839, -1.69823, 36.6104, -2.46931, 2.70518, -18.0629, -0.311275, 4.47524, -0.682879, -37.0651, -5.19337, -11.3558, -76.2155, 13.9768, -4.37298, 11.1882, 4.67308e-310, 0, 0, 36.6104, -2.46931, 2.70518, -18.0629, -0.155638, 2.23762, -0.155638, 0, 0, 20.0302, 0, 131.877, 0, 0, 65.7769, -8.18522e-05, 0, 0, 0, 0, 0, 0, 0
0.0327214, -0.0484676, 0.669188, 0.0970137, -1.2261, 1.48607, -0.356988, 0.108916, 0.227617, 1.00424, 0.227606, 1.00425, -0.000615873, -0.0240104, 0.00233667, -0.168075, 0.168075, 1.02304e-16, 2.24645e-16, 0.503023, -0.149673, 0.226429, -0.150353, 0.227197, -1.71202, 36.5962, -2.4713, 2.70084, -18.092, -0.305943, 4.47357, -0.67861, -37.4947, -5.26193, -11.4406, -76.8396, 14.0547, -4.39678, 11.2504, 4.67308e-310, 0, 0, 36.5962, -2.4713, 2.70084, -18.092, -0.152971, 2.23679, -0.152971, 0, 0, 19.9887, 0, 131.785, 0, 0, 65.7358, -7.92755e-05, 0, 0, 0, 0, 0, 0, 0
0.0331019, -0.0484768, 0.669189, 0.0969495, -1.22603, 1.48607, -0.356988, 0.109108, 0.22756, 1.00433, 0.227548, 1.00434, -0.00126986, -0.0242042, 0.00235397, -0.169431, 0.169431, 9.2648e-17, 2.19086e-16, 0.507154, -0.151586, 0.227741, -0.152273, 0.228517, -1.72565, 36.5818, -2.47332, 2.69648, -18.1213, -0.30058, 4.47189, -0.674318, -37.9244, -5.3305, -11.5254, -77.4638, 14.1326, -4.42058, 11.3126, 4.67308e-310, 0, 0, 36.5818, -2.47332, 2.69648, -18.1213, -0.15029, 2.23595, -0.15029, 0, 0, 19.9467, 0, 131.691, 0, 0, 65.6944, -7.65446e-05, 0, 0, 0, 0, 0, 0, 0
0.0334824, -0.048486, 0.669189, 0.0968847, -1.22597, 1.48607, -0.356988, 0.109302, 0.227502, 1.00441, 0.22749, 1.00443, -0.00192901, -0.0243955, 0.00237097, -0.170768, 0.170768, 8.17103e-17, 2.19207e-16, 0.511234, -0.153504, 0.229015, -0.154199, 0.229799, -1.73909, 36.5673, -2.47536, 2.69207, -18.1509, -0.295188, 4.47021, -0.670001, -38.354, -5.39906, -11.6102, -78.0879, 14.2106, -4.44438, 11.3749, 4.67308e-310, 0, 0, 36.5673, -2.47536, 2.69207, -18.1509, -0.147594, 2.2351, -0.147594, 0, 0, 19.9041, 0, 131.596, 0, 0, 65.6527, -7.36578e-05, 0, 0, 0, 0, 0, 0, 0
0.0338629, -0.0484953, 0.66919, 0.0968195, -1.2259, 1.48607, -0.356988, 0.109497, 0.227443, 1.0045, 0.227431, 1.00451, -0.00259323, -0.0245841, 0.00238769, -0.172088, 0.172088, 7.1091e-17, 2.18566e-16, 0.515263, -0.155429, 0.230251, -0.15613, 0.231043, -1.75236, 36.5527, -2.47742, 2.68764, -18.1808, -0.289766, 4.46851, -0.665662, -38.7837, -5.46762, -11.695, -78.712, 14.2885, -4.46818, 11.4371, 4.67308e-310, 0, 0, 36.5527, -2.47742, 2.68764, -18.1808, -0.144883, 2.23426, -0.144883, 0, 0, 19.861, 0, 131.5, 0, 0, 65.6107, -7.06132e-05, 0, 0, 0, 0, 0, 0, 0
0.0342434, -0.0485047, 0.669191, 0.0967538, -1.22584, 1.48607, -0.356988, 0.109694, 0.227383, 1.00459, 0.227371, 1.0046, -0.00326247, -0.0247702, 0.00240412, -0.173389, 0.173389, 6.10939e-17, 2.1733e-16, 0.51924, -0.157359, 0.231448, -0.158068, 0.232248, -1.76545, 36.5378, -2.47952, 2.68317, -18.2108, -0.284315, 4.46681, -0.661298, -39.2133, -5.53619, -11.7798, -79.3361, 14.3664, -4.49198, 11.4994, 4.67308e-310, 0, 0, 36.5378, -2.47952, 2.68317, -18.2108, -0.142158, 2.2334, -0.142158, 0, 0, 19.8173, 0, 131.402, 0, 0, 65.5684, -6.74092e-05, 0, 0, 0, 0, 0, 0, 0
0.0346238, -0.0485142, 0.669192, 0.0966876, -1.22577, 1.48607, -0.356988, 0.109892, 0.227323, 1.00468, 0.22731, 1.00469, -0.00393665, -0.0249536, 0.00242025, -0.174672, 0.174672, 5.20601e-17, 2.15706e-16, 0.523165, -0.159294, 0.232607, -0.16001, 0.233414, -1.77836, 36.5228, -2.48164, 2.67868, -18.2411, -0.278834, 4.46509, -0.656911, -39.643, -5.60475, -11.8646, -79.9603, 14.4443, -4.51578, 11.5616, 4.67308e-310, 0, 0, 36.5228, -2.48164, 2.67868, -18.2411, -0.139417, 2.23255, -0.139417, 0, 0, 19.7731, 0, 131.304, 0, 0, 65.5259, -6.40438e-05, 0, 0, 0, 0, 0, 0, 0
0.0350043, -0.0485237, 0.669193, 0.0966209, -1.2257, 1.48607, -0.356988, 0.110092, 0.227262, 1.00476, 0.227249, 1.00478, -0.00461571, -0.0251344, 0.0024361, -0.175937, 0.175937, 4.43694e-17, 2.13939e-16, 0.527038, -0.161236, 0.233726, -0.161959, 0.23454, -1.79109, 36.5077, -2.48378, 2.67415, -18.2717, -0.273323, 4.46337, -0.6525, -40.0726, -5.67332, -11.9494, -80.5844, 14.5222, -4.53958, 11.6238, 4.67308e-310, 0, 0, 36.5077, -2.48378, 2.67415, -18.2717, -0.136662, 2.23169, -0.136662, 0, 0, 19.7284, 0, 131.204, 0, 0, 65.483, -6.05153e-05, 0, 0, 0, 0, 0, 0, 0
0.0353848, -0.0485333, 0.669194, 0.0965537, -1.22564, 1.48607, -0.356988, 0.110293, 0.2272, 1.00485, 0.227187, 1.00487, -0.00529959, -0.0253125, 0.00245164, -0.177182, 0.177182, 3.84418e-17, 2.12318e-16, 0.530858, -0.163184, 0.234805, -0.163914, 0.235628, -1.80364, 36.4923, -2.48595, 2.66958, -18.3024, -0.267783, 4.46164, -0.648066, -40.5023, -5.74188, -12.0342, -81.2085, 14.6001, -4.56338, 11.6861, 4.67308e-310, 0, 0, 36.4923, -2.48595, 2.66958, -18.3024, -0.133892, 2.23082, -0.133892, 0, 0, 19.6831, 0, 131.103, 0, 0, 65.4398, -5.68218e-05, 0, 0, 0, 0, 0, 0, 0
0.0357653, -0.048543, 0.669195, 0.096486, -1.22557, 1.48607, -0.356988, 0.110496, 0.227138, 1.00494, 0.227124, 1.00496, -0.0059882, -0.025488, 0.00246689, -0.178409, 0.178409, 3.47392e-17, 2.11176e-16, 0.534625, -0.165137, 0.235845, -0.165875, 0.236675, -1.81601, 36.4768, -2.48815, 2.66499, -18.3335, -0.262213, 4.4599, -0.643608, -40.9319, -5.81045, -12.119, -81.8327, 14.678, -4.58718, 11.7483, 4.67308e-310, 0, 0, 36.4768, -2.48815, 2.66499, -18.3335, -0.131107, 2.22995, -0.131107, 0, 0, 19.6373, 0, 131.001, 0, 0, 65.3963, -5.29614e-05, 0, 0, 0, 0, 0, 0, 0
0.0361458, -0.0485527, 0.669196, 0.0964179, -1.2255, 1.48607, -0.356988, 0.1107, 0.227075, 1.00503, 0.227061, 1.00505, -0.00668148, -0.0256607, 0.00248185, -0.179617, 0.179617, 3.37667e-17, 2.10893e-16, 0.538338, -0.167097, 0.236845, -0.167841, 0.237683, -1.82819, 36.4612, -2.49038, 2.66036, -18.3647, -0.256614, 4.45815, -0.639126, -41.3616, -5.87901, -12.2038, -82.4568, 14.7559, -4.61098, 11.8105, 4.67308e-310, 0, 0, 36.4612, -2.49038, 2.66036, -18.3647, -0.128307, 2.22907, -0.128307, 0, 0, 19.5909, 0, 130.897, 0, 0, 65.3526, -4.89322e-05, 0, 0, 0, 0, 0, 0, 0
0.0365263, -0.0485625, 0.669197, 0.0963494, -1.22543, 1.48607, -0.356988, 0.110905, 0.227011, 1.00512, 0.226997, 1.00514, -0.00737936, -0.0258307, 0.0024965, -0.180806, 0.180806, 3.60744e-17, 2.119e-16, 0.541997, -0.169063, 0.237805, -0.169814, 0.23865, -1.84018, 36.4454, -2.49263, 2.6557, -18.3962, -0.250985, 4.45639, -0.63462, -41.7912, -5.94758, -12.2886, -83.0809, 14.8338, -4.63478, 11.8728, 4.67308e-310, 0, 0, 36.4454, -2.49263, 2.6557, -18.3962, -0.125492, 2.22819, -0.125492, 0, 0, 19.544, 0, 130.792, 0, 0, 65.3085, -4.47324e-05, 0, 0, 0, 0, 0, 0, 0
0.0369067, -0.0485724, 0.669198, 0.0962803, -1.22536, 1.48607, -0.356988, 0.111112, 0.226946, 1.00521, 0.226932, 1.00523, -0.00808177, -0.0259979, 0.00251085, -0.181975, 0.181975, 3.97844e-17, 2.1193e-16, 0.545601, -0.171035, 0.238724, -0.171794, 0.239577, -1.85199, 36.4294, -2.4949, 2.65101, -18.4279, -0.245326, 4.45462, -0.630091, -42.2209, -6.01614, -12.3734, -83.705, 14.9117, -4.65858, 11.935, 4.67308e-310, 0, 0, 36.4294, -2.4949, 2.65101, -18.4279, -0.122663, 2.22731, -0.122663, 0, 0, 19.4965, 0, 130.686, 0, 0, 65.2642, -4.03601e-05, 0, 0, 0, 0, 0, 0, 0
0.0372872, -0.0485823, 0.669199, 0.0962109, -1.22529, 1.48607, -0.356988, 0.111321, 0.226881, 1.00531, 0.226866, 1.00532, -0.00878863, -0.0261623, 0.0025249, -0.183125, 0.183125, 4.32638e-17, 2.08991e-16, 0.549151, -0.173014, 0.239602, -0.173779, 0.240463, -1.86361, 36.4132, -2.4972, 2.64629, -18.4599, -0.239637, 4.45284, -0.625538, -42.6505, -6.08471, -12.4581, -84.3292, 14.9896, -4.68238, 11.9972, 4.67308e-310, 0, 0, 36.4132, -2.4972, 2.64629, -18.4599, -0.119819, 2.22642, -0.119819, 0, 0, 19.4485, 0, 130.579, 0, 0, 65.2195, -3.58133e-05, 0, 0, 0, 0, 0, 0, 0
0.0376677, -0.0485923, 0.6692, 0.096141, -1.22522, 1.48607, -0.356988, 0.11153, 0.226814, 1.0054, 0.226799, 1.00541, -0.00949989, -0.0263239, 0.00253864, -0.184255, 0.184255, 4.92455e-17, 2.05939e-16, 0.552645, -0.174999, 0.24044, -0.175771, 0.241308, -1.87505, 36.3969, -2.49953, 2.64153, -18.4921, -0.233919, 4.45106, -0.620962, -43.0802, -6.15327, -12.5429, -84.9533, 15.0676, -4.70618, 12.0595, 4.67308e-310, 0, 0, 36.3969, -2.49953, 2.64153, -18.4921, -0.11696, 2.22553, -0.11696, 0, 0, 19.3999, 0, 130.471, 0, 0, 65.1745, -3.109e-05, 0, 0, 0, 0, 0, 0, 0
0.0380482, -0.0486023, 0.669201, 0.0960707, -1.22515, 1.48607, -0.356988, 0.111741, 0.226747, 1.00549, 0.226732, 1.00551, -0.0102155, -0.0264827, 0.00255207, -0.185365, 0.185365, 5.79616e-17, 2.02856e-16, 0.556083, -0.17699, 0.241236, -0.177769, 0.242112, -1.88629, 36.3804, -2.50189, 2.63674, -18.5246, -0.228171, 4.44926, -0.616361, -43.5098, -6.22183, -12.6277, -85.5774, 15.1455, -4.72998, 12.1217, 4.67308e-310, 0, 0, 36.3804, -2.50189, 2.63674, -18.5246, -0.114086, 2.22463, -0.114086, 0, 0, 19.3507, 0, 130.361, 0, 0, 65.1293, -2.61884e-05, 0, 0, 0, 0, 0, 0, 0
0.0380482, -0.0486023, 0.669201, 0.0960707, -1.22515, 1.48607, -0.356988, 0.111741, 0.226747, 1.00549, 0.226732, 1.00551, -0.0102155, -0.0264827, 0.00255207, -0.185365, 0.185365, 5.79616e-17, 2.02856e-16, 0.556083, -0.17699, 0.241236, -0.177769, 0.242112, -1.88629, 36.3804, -2.50189, 2.63674, -18.5246, -0.228171, 4.44926, -0.616361, -43.5098, -6.22183, -12.6277, -85.5774, 15.1455, -4.72998, 12.1217, 4.67308e-310, 0, 0, 36.3804, -2.50189, 2.63674, -18.5246, -0.114086, 2.22463, -0.114086, 0, 0, 19.3507, 0, 130.361, 0, 0, 65.1293, -2.61884e-05, 0, 0, 0, 0, 0, 0, 0
0.0380482, -0.0486023, 0.669201, 0.0960707, -1.22515, 1.48607, -0.356988, 0.111741, 0.226747, 1.00549, 0.226732, 1.00551, -0.0102155, -0.0264828, 0.00255207, -0.185365, 0.185365, -7.01091e-12, 7.91933e-13, 0.556083, -0.17699, 0.241236, -0.177769, 0.242112, -1.88629, 36.3804, -2.50189, 2.63674, -18.5246, -0.228172, 4.44926, -0.616361, -43.5098, -6.22183, -12.6277, -85.5774, 15.1455, -4.72998, 12.1217, 4.67308e-310, 0, 0, 36.3804, -2.50189, 2.63674, -18.5246, -0.114086, 2.22463, -0.114086, 0, 0, 19.3507, 0, 130.361, 0, 0, 65.1293, -2.61903e-05, 0, 0, 0, 0, 0, 0, 0
0.0384287, -0.0486124, 0.669202, 0.0959999, -1.22508, 1.48607, -0.356988, 0.111953, 0.22668, 1.00558, 0.226664, 1.0056, -0.0109353, -0.0266387, 0.0025652, -0.186455, 0.186455, -7.0109e-12, 7.91932e-13, 0.559465, -0.178988, 0.24199, -0.179774, 0.242874, -1.89734, 36.3638, -2.50423, 2.63192, -18.5571, -0.222442, 4.4475, -0.611758, -43.8019, -6.09218, -12.6989, -85.3247, 14.9775, -4.5316, 12.0754, 4.67308e-310, 0, 0, 36.3638, -2.50423, 2.63192, -18.5571, -0.111221, 2.22375, -0.111221, 0, 0, 19.3013, 0, 130.25, 0, 0, 65.0837, -2.12585e-05, 0, 0, 0, 0, 0, 0, 0
0.0388091, -0.0486226, 0.669203, 0.0959288, -1.22501, 1.48607, -0.356988, 0.112167, 0.226611, 1.00567, 0.226595, 1.00569, -0.0116593, -0.0267918, 0.00257802, -0.187526, 0.187526, -7.01089e-12, 7.91913e-13, 0.562792, -0.180993, 0.242704, -0.181786, 0.243595, -1.9082, 36.3471, -2.50652, 2.62708, -18.5895, -0.216775, 4.44581, -0.607172, -44.0939, -5.96252, -12.7701, -85.0719, 14.8095, -4.33322, 12.0292, 4.67308e-310, 0, 0, 36.3471, -2.50652, 2.62708, -18.5895, -0.108388, 2.22291, -0.108388, 0, 0, 19.2518, 0, 130.139, 0, 0, 65.0376, -1.64448e-05, 0, 0, 0, 0, 0, 0, 0
0.0391896, -0.0486328, 0.669204, 0.0958572, -1.22494, 1.48607, -0.356988, 0.112382, 0.226542, 1.00576, 0.226526, 1.00578, -0.0123873, -0.0269421, 0.00259054, -0.188576, 0.188576, -7.0109e-12, 7.91898e-13, 0.566062, -0.183004, 0.243376, -0.183804, 0.244275, -1.91888, 36.3303, -2.50877, 2.62221, -18.6218, -0.211172, 4.4442, -0.602604, -44.3859, -5.83286, -12.8413, -84.8191, 14.6415, -4.13485, 11.9829, 4.67308e-310, 0, 0, 36.3303, -2.50877, 2.62221, -18.6218, -0.105586, 2.2221, -0.105586, 0, 0, 19.2023, 0, 130.028, 0, 0, 64.9912, -1.17489e-05, 0, 0, 0, 0, 0, 0, 0
0.0395701, -0.0486431, 0.669205, 0.0957853, -1.22487, 1.48607, -0.356988, 0.112598, 0.226472, 1.00586, 0.226455, 1.00588, -0.0131194, -0.0270896, 0.00260275, -0.189607, 0.189607, -7.0109e-12, 7.91895e-13, 0.569277, -0.185022, 0.244008, -0.185829, 0.244914, -1.92936, 36.3133, -2.51096, 2.61731, -18.654, -0.205633, 4.44267, -0.598054, -44.678, -5.7032, -12.9125, -84.5664, 14.4735, -3.93647, 11.9366, 4.67308e-310, 0, 0, 36.3133, -2.51096, 2.61731, -18.654, -0.102817, 2.22133, -0.102817, 0, 0, 19.1528, 0, 129.916, 0, 0, 64.9443, -7.16997e-06, 0, 0, 0, 0, 0, 0, 0
0.0399506, -0.0486534, 0.669206, 0.095713, -1.2248, 1.48607, -0.356988, 0.112815, 0.226401, 1.00595, 0.226384, 1.00597, -0.0138555, -0.0272343, 0.00261466, -0.190619, 0.190619, -7.0109e-12, 7.91897e-13, 0.572437, -0.187047, 0.2446, -0.18786, 0.245513, -1.93966, 36.2963, -2.51311, 2.61238, -18.6862, -0.200159, 4.44121, -0.593521, -44.97, -5.57354, -12.9837, -84.3136, 14.3055, -3.73809, 11.8903, 4.67308e-310, 0, 0, 36.2963, -2.51311, 2.61238, -18.6862, -0.100079, 2.2206, -0.100079, 0, 0, 19.1033, 0, 129.804, 0, 0, 64.8969, -2.7075e-06, 0, 0, 0, 0, 0, 0, 0
0.0403311, -0.0486638, 0.669207, 0.0956402, -1.22472, 1.48607, -0.356988, 0.113033, 0.22633, 1.00604, 0.226313, 1.00606, -0.0145954, -0.0273761, 0.00262627, -0.19161, 0.19161, -7.0109e-12, 7.91903e-13, 0.575542, -0.189078, 0.245153, -0.189899, 0.246073, -1.94977, 36.2791, -2.5152, 2.60743, -18.7182, -0.194748, 4.43982, -0.589006, -45.262, -5.44389, -13.0549, -84.0609, 14.1375, -3.53971, 11.8441, 4.67308e-310, 0, 0, 36.2791, -2.5152, 2.60743, -18.7182, -0.0973738, 2.21991, -0.0973738, 0, 0, 19.0537, 0, 129.692, 0, 0, 64.8492, 1.6392e-06, 0, 0, 0, 0, 0, 0, 0
0.0407116, -0.0486743, 0.669208, 0.0955672, -1.22465, 1.48607, -0.356988, 0.113253, 0.226257, 1.00614, 0.22624, 1.00616, -0.0153392, -0.0275152, 0.00263758, -0.192582, 0.192582, -7.0109e-12, 7.91904e-13, 0.578591, -0.191117, 0.245666, -0.191944, 0.246593, -1.95969, 36.2618, -2.51725, 2.60244, -18.7501, -0.1894, 4.43851, -0.584508, -45.554, -5.31423, -13.1261, -83.8081, 13.9695, -3.34134, 11.7978, 4.67308e-310, 0, 0, 36.2618, -2.51725, 2.60244, -18.7501, -0.0947002, 2.21926, -0.0947002, 0, 0, 19.0041, 0, 129.579, 0, 0, 64.801, 5.87075e-06, 0, 0, 0, 0, 0, 0, 0
0.041092, -0.0486848, 0.669209, 0.0954937, -1.22458, 1.48607, -0.356988, 0.113473, 0.226184, 1.00623, 0.226166, 1.00625, -0.0160866, -0.0276514, 0.00264859, -0.193534, 0.193534, -7.0109e-12, 7.91894e-13, 0.581587, -0.193163, 0.24614, -0.193997, 0.247074, -1.96943, 36.2445, -2.51925, 2.59744, -18.782, -0.184117, 4.43728, -0.580028, -45.8461, -5.18457, -13.1972, -83.5554, 13.8015, -3.14296, 11.7515, 4.67308e-310, 0, 0, 36.2445, -2.51925, 2.59744, -18.782, -0.0920586, 2.21864, -0.0920586, 0, 0, 18.9545, 0, 129.466, 0, 0, 64.7524, 9.98776e-06, 0, 0, 0, 0, 0, 0, 0
0.0414725, -0.0486953, 0.66921, 0.0954199, -1.2245, 1.48607, -0.356988, 0.113695, 0.22611, 1.00632, 0.226092, 1.00634, -0.0168378, -0.0277849, 0.00265931, -0.194467, 0.194467, -7.01089e-12, 7.91881e-13, 0.584528, -0.195216, 0.246575, -0.196056, 0.247517, -1.97899, 36.227, -2.52119, 2.5924, -18.8137, -0.178898, 4.43612, -0.575566, -46.1381, -5.05491, -13.2684, -83.3026, 13.6335, -2.94458, 11.7052, 4.67308e-310, 0, 0, 36.227, -2.52119, 2.5924, -18.8137, -0.089449, 2.21806, -0.089449, 0, 0, 18.9048, 0, 129.352, 0, 0, 64.7034, 1.39908e-05, 0, 0, 0, 0, 0, 0, 0
0.041853, -0.0487059, 0.669211, 0.0953457, -1.22443, 1.48607, -0.356988, 0.113918, 0.226036, 1.00642, 0.226017, 1.00644, -0.0175926, -0.0279156, 0.00266973, -0.195381, 0.195381, -7.01089e-12, 7.91862e-13, 0.587414, -0.197276, 0.246972, -0.198123, 0.247921, -1.98837, 36.2093, -2.52309, 2.58734, -18.8454, -0.173743, 4.43504, -0.571121, -46.4301, -4.92526, -13.3396, -83.0498, 13.4655, -2.7462, 11.6589, 4.67308e-310, 0, 0, 36.2093, -2.52309, 2.58734, -18.8454, -0.0868713, 2.21752, -0.0868713, 0, 0, 18.8551, 0, 129.239, 0, 0, 64.6539, 1.78805e-05, 0, 0, 0, 0, 0, 0, 0
0.0422335, -0.0487165, 0.669212, 0.0952712, -1.22436, 1.48607, -0.356988, 0.114142, 0.22596, 1.00651, 0.225942, 1.00653, -0.0183509, -0.0280436, 0.00267986, -0.196275, 0.196275, -7.01089e-12, 7.91848e-13, 0.590247, -0.199343, 0.247331, -0.200197, 0.248287, -1.99756, 36.1916, -2.52494, 2.58225, -18.8769, -0.168651, 4.43403, -0.566694, -46.7222, -4.7956, -13.4108, -82.7971, 13.2975, -2.54782, 11.6127, 4.67308e-310, 0, 0, 36.1916, -2.52494, 2.58225, -18.8769, -0.0843256, 2.21702, -0.0843256, 0, 0, 18.8054, 0, 129.124, 0, 0, 64.6041, 2.16574e-05, 0, 0, 0, 0, 0, 0, 0
0.042614, -0.0487272, 0.669213, 0.0951964, -1.22428, 1.48607, -0.356988, 0.114367, 0.225884, 1.00661, 0.225865, 1.00663, -0.0191126, -0.0281687, 0.00268969, -0.197149, 0.197149, -7.01088e-12, 7.9184e-13, 0.593026, -0.201418, 0.247653, -0.202278, 0.248616, -2.00658, 36.1738, -2.52674, 2.57714, -18.9084, -0.163624, 4.4331, -0.562284, -47.0142, -4.66594, -13.482, -82.5443, 13.1295, -2.34945, 11.5664, 4.67308e-310, 0, 0, 36.1738, -2.52674, 2.57714, -18.9084, -0.0818118, 2.21655, -0.0818118, 0, 0, 18.7556, 0, 129.009, 0, 0, 64.5537, 2.53221e-05, 0, 0, 0, 0, 0, 0, 0
0.0429944, -0.048738, 0.669214, 0.0951212, -1.22421, 1.48607, -0.356988, 0.114594, 0.225807, 1.0067, 0.225788, 1.00672, -0.0198778, -0.0282912, 0.00269924, -0.198005, 0.198005, -7.01088e-12, 7.91839e-13, 0.595751, -0.2035, 0.247938, -0.204367, 0.248908, -2.01542, 36.1558, -2.52849, 2.57199, -18.9397, -0.15866, 4.43224, -0.557892, -47.3062, -4.53628, -13.5532, -82.2916, 12.9615, -2.15107, 11.5201, 4.67308e-310, 0, 0, 36.1558, -2.52849, 2.57199, -18.9397, -0.07933, 2.21612, -0.07933, 0, 0, 18.7058, 0, 128.894, 0, 0, 64.503, 2.8875e-05, 0, 0, 0, 0, 0, 0, 0
0.0433749, -0.0487488, 0.669215, 0.0950457, -1.22413, 1.48607, -0.356988, 0.114821, 0.225729, 1.00679, 0.225709, 1.00682, -0.0206463, -0.0284109, 0.00270849, -0.198841, 0.198841, -7.01087e-12, 7.91842e-13, 0.598423, -0.20559, 0.248185, -0.206463, 0.249163, -2.02407, 36.1378, -2.53019, 2.56682, -18.971, -0.15376, 4.43146, -0.553518, -47.5982, -4.40662, -13.6244, -82.0388, 12.7935, -1.95269, 11.4738, 4.67308e-310, 0, 0, 36.1378, -2.53019, 2.56682, -18.971, -0.0768802, 2.21573, -0.0768802, 0, 0, 18.656, 0, 128.779, 0, 0, 64.4518, 3.23168e-05, 0, 0, 0, 0, 0, 0, 0
0.0437554, -0.0487596, 0.669216, 0.0949699, -1.22405, 1.48607, -0.356988, 0.115049, 0.22565, 1.00689, 0.22563, 1.00691, -0.021418, -0.0285278, 0.00271746, -0.199658, 0.199658, -7.01087e-12, 7.91852e-13, 0.601042, -0.207687, 0.248397, -0.208567, 0.249381, -2.03255, 36.1196, -2.53185, 2.56162, -19.0021, -0.148925, 4.43076, -0.549161, -47.8903, -4.27697, -13.6956, -81.786, 12.6255, -1.75431, 11.4276, 4.67308e-310, 0, 0, 36.1196, -2.53185, 2.56162, -19.0021, -0.0744623, 2.21538, -0.0744623, 0, 0, 18.6061, 0, 128.663, 0, 0, 64.4002, 3.56479e-05, 0, 0, 0, 0, 0, 0, 0
0.0441359, -0.0487705, 0.669217, 0.0948938, -1.22398, 1.48607, -0.356988, 0.115278, 0.225571, 1.00698, 0.225551, 1.00701, -0.0221929, -0.0286421, 0.00272614, -0.200456, 0.200456, -7.01087e-12, 7.91864e-13, 0.603608, -0.209792, 0.248572, -0.210678, 0.249564, -2.04086, 36.1013, -2.53345, 2.5564, -19.0332, -0.144153, 4.43013, -0.544822, -48.1823, -4.14731, -13.7668, -81.5333, 12.4576, -1.55593, 11.3813, 4.67308e-310, 0, 0, 36.1013, -2.53345, 2.5564, -19.0332, -0.0720764, 2.21506, -0.0720764, 0, 0, 18.5562, 0, 128.547, 0, 0, 64.3482, 3.88688e-05, 0, 0, 0, 0, 0, 0, 0
0.0445164, -0.0487814, 0.669218, 0.0948173, -1.2239, 1.48607, -0.356988, 0.115508, 0.225491, 1.00708, 0.22547, 1.0071, -0.022971, -0.0287536, 0.00273454, -0.201235, 0.201235, -7.01088e-12, 7.9188e-13, 0.606122, -0.211904, 0.248712, -0.212798, 0.24971, -2.04899, 36.083, -2.535, 2.55115, -19.0642, -0.139445, 4.42957, -0.5405, -48.4743, -4.01765, -13.8379, -81.2805, 12.2896, -1.35756, 11.335, 0, 0, 0, 36.083, -2.535, 2.55115, -19.0642, -0.0697225, 2.21479, -0.0697225, 0, 0, 18.5063, 0, 128.43, 0, 0, 64.2958, 4.19801e-05, 0, 0, 0, 0, 0, 0, 0
0.0448969, -0.0487924, 0.669219, 0.0947406, -1.22382, 1.48607, -0.356988, 0.115739, 0.22541, 1.00717, 0.225389, 1.0072, -0.0237521, -0.0288624, 0.00274265, -0.201995, 0.201995, -7.01088e-12, 7.91897e-13, 0.608582, -0.214024, 0.248816, -0.214924, 0.249822, -2.05694, 36.0645, -2.53651, 2.54587, -19.0951, -0.134801, 4.4291, -0.536196, -48.7664, -3.88799, -13.9091, -81.0278, 12.1216, -1.15918, 11.2887, 0, 0, 0, 36.0645, -2.53651, 2.54587, -19.0951, -0.0674005, 2.21455, -0.0674005, 0, 0, 18.4563, 0, 128.313, 0, 0, 64.2429, 4.49821e-05, 0, 0, 0, 0, 0, 0, 0
0.0452773, -0.0488034, 0.66922, 0.0946636, -1.22375, 1.48607, -0.356988, 0.115971, 0.225328, 1.00727, 0.225307, 1.00729, -0.0245362, -0.0289685, 0.00275048, -0.202736, 0.202736, -7.01089e-12, 7.9191e-13, 0.610991, -0.216153, 0.248886, -0.217059, 0.249898, -2.06472, 36.0459, -2.53796, 2.54056, -19.1258, -0.130221, 4.42869, -0.53191, -49.0584, -3.75833, -13.9803, -80.775, 11.9536, -0.960801, 11.2425, 0, 0, 0, 36.0459, -2.53796, 2.54056, -19.1258, -0.0651104, 2.21435, -0.0651104, 0, 0, 18.4062, 0, 128.195, 0, 0, 64.1896, 4.78755e-05, 0, 0, 0, 0, 0, 0, 0
0.0456578, -0.0488144, 0.669221, 0.0945864, -1.22367, 1.48607, -0.356988, 0.116204, 0.225245, 1.00736, 0.225224, 1.00739, -0.0253233, -0.0290719, 0.00275803, -0.203458, 0.203458, -7.0109e-12, 7.91917e-13, 0.613348, -0.218289, 0.248921, -0.219202, 0.24994, -2.07233, 36.0271, -2.53937, 2.53523, -19.1565, -0.125705, 4.42836, -0.527641, -49.3504, -3.62868, -14.0515, -80.5222, 11.7856, -0.762424, 11.1962, 0, 0, 0, 36.0271, -2.53937, 2.53523, -19.1565, -0.0628524, 2.21418, -0.0628524, 0, 0, 18.3561, 0, 128.077, 0, 0, 64.1359, 5.06605e-05, 0, 0, 0, 0, 0, 0, 0
0.0460383, -0.0488255, 0.669222, 0.0945088, -1.22359, 1.48607, -0.356988, 0.116438, 0.225162, 1.00746, 0.22514, 1.00748, -0.0261132, -0.0291726, 0.0027653, -0.204162, 0.204162, -7.01091e-12, 7.91912e-13, 0.615652, -0.220433, 0.248922, -0.221352, 0.249947, -2.07977, 36.0083, -2.54072, 2.52987, -19.1871, -0.121252, 4.42811, -0.52339, -49.6424, -3.49902, -14.1227, -80.2695, 11.6176, -0.564046, 11.1499, 0, 0, 0, 36.0083, -2.54072, 2.52987, -19.1871, -0.0606262, 2.21406, -0.0606262, 0, 0, 18.306, 0, 127.959, 0, 0, 64.0817, 5.33377e-05, 0, 0, 0, 0, 0, 0, 0
0.0464188, -0.0488366, 0.669223, 0.094431, -1.22351, 1.48607, -0.356988, 0.116673, 0.225078, 1.00755, 0.225055, 1.00758, -0.0269059, -0.0292706, 0.0027723, -0.204846, 0.204846, -7.01092e-12, 7.91915e-13, 0.617905, -0.222585, 0.248889, -0.223511, 0.249921, -2.08704, 35.9894, -2.54203, 2.52448, -19.2176, -0.116864, 4.42794, -0.519156, -49.9345, -3.36936, -14.1939, -80.0167, 11.4496, -0.365668, 11.1036, 0, 0, 0, 35.9894, -2.54203, 2.52448, -19.2176, -0.0584321, 2.21397, -0.0584321, 0, 0, 18.2558, 0, 127.84, 0, 0, 64.0271, 5.59075e-05, 0, 0, 0, 0, 0, 0, 0
0.0467993, -0.0488477, 0.669224, 0.0943529, -1.22344, 1.48607, -0.356988, 0.116908, 0.224992, 1.00765, 0.22497, 1.00767, -0.0277013, -0.0293659, 0.00277901, -0.205512, 0.205512, -7.01093e-12, 7.91918e-13, 0.620107, -0.224746, 0.248822, -0.225678, 0.249861, -2.09413, 35.9703, -2.54329, 2.51907, -19.248, -0.11254, 4.42783, -0.51494, -50.2265, -3.2397, -14.2651, -79.764, 11.2816, -0.16729, 11.0573, 0, 0, 0, 35.9703, -2.54329, 2.51907, -19.248, -0.0562699, 2.21392, -0.0562699, 0, 0, 18.2056, 0, 127.72, 0, 0, 63.9721, 5.83703e-05, 0, 0, 0, 0, 0, 0, 0
0.0471797, -0.0488589, 0.669225, 0.0942746, -1.22336, 1.48607, -0.356988, 0.117145, 0.224907, 1.00774, 0.224883, 1.00777, -0.0284994, -0.0294586, 0.00278546, -0.206159, 0.206159, -7.01094e-12, 7.91921e-13, 0.622257, -0.226915, 0.248723, -0.227853, 0.249769, -2.10106, 35.9511, -2.54449, 2.51363, -19.2783, -0.108279, 4.42781, -0.510742, -50.5185, -3.11004, -14.3363, -79.5112, 11.1136, 0.0310875, 11.0111, 0, 0, 0, 35.9511, -2.54449, 2.51363, -19.2783, -0.0541396, 2.2139, -0.0541396, 0, 0, 18.1553, 0, 127.601, 0, 0, 63.9166, 6.07266e-05, 0, 0, 0, 0, 0, 0, 0
0.0475602, -0.0488702, 0.669226, 0.0941961, -1.22328, 1.48607, -0.356988, 0.117382, 0.22482, 1.00784, 0.224796, 1.00786, -0.0293001, -0.0295486, 0.00279163, -0.206787, 0.206787, -7.01094e-12, 7.91924e-13, 0.624356, -0.229092, 0.24859, -0.230037, 0.249643, -2.10782, 35.9319, -2.54565, 2.50816, -19.3085, -0.104083, 4.42786, -0.506561, -50.8106, -2.98039, -14.4075, -79.2585, 10.9456, 0.229465, 10.9648, 0, 0, 0, 35.9319, -2.54565, 2.50816, -19.3085, -0.0520414, 2.21393, -0.0520414, 0, 0, 18.105, 0, 127.48, 0, 0, 63.8607, 6.29766e-05, 0, 0, 0, 0, 0, 0, 0
0.0479407, -0.0488814, 0.669227, 0.0941173, -1.2232, 1.48607, -0.356988, 0.11762, 0.224732, 1.00793, 0.224708, 1.00796, -0.0301034, -0.029636, 0.00279752, -0.207397, 0.207397, -7.01094e-12, 7.91928e-13, 0.626405, -0.231278, 0.248426, -0.232229, 0.249485, -2.11442, 35.9125, -2.54676, 2.50267, -19.3386, -0.0999501, 4.42798, -0.502398, -51.1026, -2.85073, -14.4786, -79.0057, 10.7776, 0.427843, 10.9185, 0, 0, 0, 35.9125, -2.54676, 2.50267, -19.3386, -0.049975, 2.21399, -0.049975, 0, 0, 18.0546, 0, 127.36, 0, 0, 63.8044, 6.51208e-05, 0, 0, 0, 0, 0, 0, 0
0.0483212, -0.0488927, 0.669228, 0.0940382, -1.22312, 1.48607, -0.356988, 0.117858, 0.224644, 1.00803, 0.22462, 1.00805, -0.0309091, -0.0297207, 0.00280315, -0.207989, 0.207989, -7.01094e-12, 7.91933e-13, 0.628402, -0.233472, 0.248229, -0.23443, 0.249295, -2.12085, 35.893, -2.54782, 2.49714, -19.3686, -0.0958814, 4.42818, -0.498253, -51.3946, -2.72107, -14.5498, -78.7529, 10.6096, 0.626221, 10.8722, 0, 0, 0, 35.893, -2.54782, 2.49714, -19.3686, -0.0479407, 2.21409, -0.0479407, 0, 0, 18.0042, 0, 127.239, 0, 0, 63.7477, 6.71595e-05, 0, 0, 0, 0, 0, 0, 0
0.0487017, -0.048904, 0.669229, 0.093959, -1.22304, 1.48607, -0.356988, 0.118098, 0.224555, 1.00812, 0.22453, 1.00815, -0.0317173, -0.0298028, 0.00280851, -0.208561, 0.208561, -7.01094e-12, 7.9194e-13, 0.630349, -0.235675, 0.248001, -0.236639, 0.249074, -2.12711, 35.8734, -2.54883, 2.49159, -19.3986, -0.0918765, 4.42846, -0.494125, -51.6866, -2.59141, -14.621, -78.5002, 10.4416, 0.824599, 10.826, 0, 0, 0, 35.8734, -2.54883, 2.49159, -19.3986, -0.0459383, 2.21423, -0.0459383, 0, 0, 17.9537, 0, 127.117, 0, 0, 63.6905, 6.90932e-05, 0, 0, 0, 0, 0, 0, 0
0.0490822, -0.0489154, 0.669231, 0.0938795, -1.22296, 1.48607, -0.356988, 0.118338, 0.224464, 1.00821, 0.22444, 1.00824, -0.0325277, -0.0298822, 0.0028136, -0.209116, 0.209116, -7.01094e-12, 7.91949e-13, 0.632246, -0.237886, 0.247742, -0.238857, 0.248821, -2.13321, 35.8536, -2.54979, 2.48602, -19.4284, -0.0879357, 4.42881, -0.490015, -51.9787, -2.46176, -14.6922, -78.2474, 10.2736, 1.02298, 10.7797, 0, 0, 0, 35.8536, -2.54979, 2.48602, -19.4284, -0.0439678, 2.21441, -0.0439678, 0, 0, 17.9032, 0, 126.995, 0, 0, 63.6329, 7.09221e-05, 0, 0, 0, 0, 0, 0, 0
0.0494626, -0.0489268, 0.669232, 0.0937999, -1.22288, 1.48607, -0.356988, 0.118579, 0.224374, 1.00831, 0.224348, 1.00834, -0.0333405, -0.029959, 0.00281842, -0.209652, 0.209652, -7.01094e-12, 7.91964e-13, 0.634093, -0.240107, 0.247452, -0.241083, 0.248537, -2.13915, 35.8338, -2.55071, 2.48041, -19.4581, -0.0840587, 4.42924, -0.485922, -52.2707, -2.3321, -14.7634, -77.9947, 10.1056, 1.22135, 10.7334, 0, 0, 0, 35.8338, -2.55071, 2.48041, -19.4581, -0.0420293, 2.21462, -0.0420293, 0, 0, 17.8526, 0, 126.873, 0, 0, 63.5749, 7.26466e-05, 0, 0, 0, 0, 0, 0, 0
0.0498431, -0.0489382, 0.669233, 0.09372, -1.2228, 1.48607, -0.356988, 0.118821, 0.224282, 1.0084, 0.224256, 1.00843, -0.0341555, -0.0300332, 0.00282298, -0.210169, 0.210169, -7.01093e-12, 7.9198e-13, 0.63589, -0.242336, 0.247131, -0.243319, 0.248223, -2.14493, 35.8139, -2.55157, 2.47478, -19.4877, -0.0802457, 4.42974, -0.481847, -52.5627, -2.20244, -14.8346, -77.7419, 9.93763, 1.41973, 10.6871, 0, 0, 0, 35.8139, -2.55157, 2.47478, -19.4877, -0.0401228, 2.21487, -0.0401228, 0, 0, 17.8019, 0, 126.75, 0, 0, 63.5164, 7.4267e-05, 0, 0, 0, 0, 0, 0, 0
0.0502236, -0.0489496, 0.669234, 0.0936399, -1.22272, 1.48607, -0.356988, 0.119063, 0.224189, 1.0085, 0.224163, 1.00853, -0.0349727, -0.0301048, 0.00282728, -0.210668, 0.210668, -7.01093e-12, 7.91996e-13, 0.637638, -0.244574, 0.24678, -0.245563, 0.247878, -2.15054, 35.7938, -2.55238, 2.46912, -19.5173, -0.0764965, 4.43032, -0.477789, -52.8548, -2.07278, -14.9058, -77.4891, 9.76964, 1.61811, 10.6408, 0, 0, 0, 35.7938, -2.55238, 2.46912, -19.5173, -0.0382483, 2.21516, -0.0382483, 0, 0, 17.7512, 0, 126.627, 0, 0, 63.4575, 7.57837e-05, 0, 0, 0, 0, 0, 0, 0
0.0506041, -0.0489611, 0.669235, 0.0935597, -1.22264, 1.48607, -0.356988, 0.119306, 0.224096, 1.00859, 0.224069, 1.00862, -0.035792, -0.0301737, 0.00283131, -0.211149, 0.211149, -7.01092e-12, 7.92014e-13, 0.639335, -0.246822, 0.246399, -0.247817, 0.247504, -2.156, 35.7736, -2.55315, 2.46344, -19.5467, -0.0728113, 4.43097, -0.47375, -53.1468, -1.94312, -14.977, -77.2364, 9.60164, 1.81649, 10.5946, 4.67308e-310, 0, 0, 35.7736, -2.55315, 2.46344, -19.5467, -0.0364057, 2.21549, -0.0364057, 0, 0, 17.7005, 0, 126.503, 0, 0, 63.3982, 7.71968e-05, 0, 0, 0, 0, 0, 0, 0
0.0509846, -0.0489726, 0.669236, 0.0934793, -1.22256, 1.48607, -0.356988, 0.119549, 0.224001, 1.00868, 0.223974, 1.00871, -0.0366133, -0.0302401, 0.00283509, -0.211612, 0.211612, -7.01091e-12, 7.92032e-13, 0.640984, -0.249078, 0.245989, -0.250079, 0.2471, -2.16129, 35.7534, -2.55386, 2.45773, -19.576, -0.06919, 4.4317, -0.469727, -53.4388, -1.81347, -15.0482, -76.9836, 9.43365, 2.01487, 10.5483, 4.67308e-310, 0, 0, 35.7534, -2.55386, 2.45773, -19.576, -0.034595, 2.21585, -0.034595, 0, 0, 17.6496, 0, 126.379, 0, 0, 63.3385, 7.85068e-05, 0, 0, 0, 0, 0, 0, 0
0.051365, -0.0489841, 0.669237, 0.0933987, -1.22248, 1.48607, -0.356988, 0.119794, 0.223906, 1.00878, 0.223879, 1.00881, -0.0374367, -0.0303039, 0.0028386, -0.212057, 0.212057, -7.0109e-12, 7.92052e-13, 0.642583, -0.251344, 0.24555, -0.252351, 0.246667, -2.16643, 35.733, -2.55452, 2.45199, -19.6053, -0.0656326, 4.4325, -0.465723, -53.7308, -1.68381, -15.1193, -76.7309, 9.26565, 2.21324, 10.502, 4.67308e-310, 0, 0, 35.733, -2.55452, 2.45199, -19.6053, -0.0328163, 2.21625, -0.0328163, 0, 0, 17.5988, 0, 126.254, 0, 0, 63.2783, 7.97139e-05, 0, 0, 0, 0, 0, 0, 0
0.0517455, -0.0489957, 0.669238, 0.0933179, -1.2224, 1.48607, -0.356988, 0.120038, 0.22381, 1.00887, 0.223782, 1.0089, -0.0382619, -0.030365, 0.00284185, -0.212483, 0.212483, -7.01089e-12, 7.92071e-13, 0.644133, -0.253619, 0.245082, -0.254633, 0.246206, -2.17141, 35.7125, -2.55514, 2.44622, -19.6344, -0.0621392, 4.43338, -0.461736, -54.0229, -1.55415, -15.1905, -76.4781, 9.09766, 2.41162, 10.4557, 4.67308e-310, 0, 0, 35.7125, -2.55514, 2.44622, -19.6344, -0.0310696, 2.21669, -0.0310696, 0, 0, 17.5478, 0, 126.129, 0, 0, 63.2177, 8.08184e-05, 0, 0, 0, 0, 0, 0, 0
0.052126, -0.0490072, 0.669239, 0.093237, -1.22232, 1.48607, -0.356988, 0.120284, 0.223713, 1.00896, 0.223685, 1.009, -0.039089, -0.0304236, 0.00284485, -0.212892, 0.212892, -7.01088e-12, 7.92091e-13, 0.645635, -0.255903, 0.244586, -0.256923, 0.245716, -2.17624, 35.6919, -2.55571, 2.44043, -19.6635, -0.0587097, 4.43434, -0.457766, -54.3149, -1.42449, -15.2617, -76.2254, 8.92966, 2.61, 10.4095, 4.67308e-310, 0, 0, 35.6919, -2.55571, 2.44043, -19.6635, -0.0293548, 2.21717, -0.0293548, 0, 0, 17.4968, 0, 126.004, 0, 0, 63.1566, 8.18205e-05, 0, 0, 0, 0, 0, 0, 0
0.0525065, -0.0490188, 0.66924, 0.0931559, -1.22224, 1.48607, -0.356988, 0.12053, 0.223615, 1.00906, 0.223587, 1.00909, -0.0399179, -0.0304796, 0.0028476, -0.213282, 0.213282, -7.01088e-12, 7.92112e-13, 0.647088, -0.258197, 0.244062, -0.259223, 0.245198, -2.1809, 35.6711, -2.55622, 2.43461, -19.6924, -0.055344, 4.43537, -0.453814, -54.6069, -1.29483, -15.3329, -75.9726, 8.76167, 2.80838, 10.3632, 4.67308e-310, 0, 0, 35.6711, -2.55622, 2.43461, -19.6924, -0.027672, 2.21769, -0.027672, 0, 0, 17.4457, 0, 125.878, 0, 0, 63.0952, 8.27205e-05, 0, 0, 0, 0, 0, 0, 0
0.052887, -0.0490304, 0.669241, 0.0930747, -1.22216, 1.48607, -0.356988, 0.120776, 0.223517, 1.00915, 0.223488, 1.00918, -0.0407486, -0.030533, 0.00285009, -0.213654, 0.213654, -7.01087e-12, 7.92131e-13, 0.648492, -0.260501, 0.243511, -0.261533, 0.244653, -2.18542, 35.6503, -2.55669, 2.42876, -19.7213, -0.0520424, 4.43648, -0.44988, -54.899, -1.16518, -15.4041, -75.7198, 8.59367, 3.00675, 10.3169, 4.67308e-310, 0, 0, 35.6503, -2.55669, 2.42876, -19.7213, -0.0260212, 2.21824, -0.0260212, 0, 0, 17.3946, 0, 125.751, 0, 0, 63.0333, 8.35186e-05, 0, 0, 0, 0, 0, 0, 0
0.0532675, -0.049042, 0.669242, 0.0929933, -1.22208, 1.48607, -0.356988, 0.121023, 0.223417, 1.00924, 0.223388, 1.00927, -0.0415809, -0.0305839, 0.00285233, -0.214008, 0.214008, -7.01086e-12, 7.92149e-13, 0.649849, -0.262814, 0.242932, -0.263852, 0.24408, -2.18978, 35.6294, -2.55711, 2.42289, -19.75, -0.0488046, 4.43766, -0.445964, -55.191, -1.03552, -15.4753, -75.4671, 8.42568, 3.20513, 10.2706, 4.67308e-310, 0, 0, 35.6294, -2.55711, 2.42289, -19.75, -0.0244023, 2.21883, -0.0244023, 0, 0, 17.3434, 0, 125.624, 0, 0, 62.9709, 8.4215e-05, 0, 0, 0, 0, 0, 0, 0
0.0536479, -0.0490537, 0.669243, 0.0929118, -1.222, 1.48607, -0.356988, 0.121271, 0.223317, 1.00933, 0.223287, 1.00937, -0.0424149, -0.0306322, 0.00285431, -0.214345, 0.214345, -7.01085e-12, 7.92165e-13, 0.651157, -0.265137, 0.242326, -0.266181, 0.243481, -2.19398, 35.6083, -2.55748, 2.41699, -19.7787, -0.0456307, 4.43892, -0.442065, -55.483, -0.905861, -15.5465, -75.2143, 8.25768, 3.40351, 10.2243, 4.67308e-310, 0, 0, 35.6083, -2.55748, 2.41699, -19.7787, -0.0228154, 2.21946, -0.0228154, 0, 0, 17.2922, 0, 125.497, 0, 0, 62.9082, 8.481e-05, 0, 0, 0, 0, 0, 0, 0
0.0540284, -0.0490653, 0.669245, 0.0928302, -1.22191, 1.48607, -0.356988, 0.121519, 0.223215, 1.00943, 0.223185, 1.00946, -0.0432504, -0.030678, 0.00285605, -0.214663, 0.214663, -7.01084e-12, 7.92179e-13, 0.652418, -0.26747, 0.241694, -0.26852, 0.242855, -2.19804, 35.5871, -2.5578, 2.41106, -19.8073, -0.0425208, 4.44025, -0.438183, -55.7751, -0.776203, -15.6177, -74.9616, 8.08969, 3.60189, 10.1781, 4.67308e-310, 0, 0, 35.5871, -2.5578, 2.41106, -19.8073, -0.0212604, 2.22012, -0.0212604, 0, 0, 17.2408, 0, 125.369, 0, 0, 62.845, 8.53038e-05, 0, 0, 0, 0, 0, 0, 0
0.0544089, -0.049077, 0.669246, 0.0927485, -1.22183, 1.48607, -0.356988, 0.121767, 0.223113, 1.00952, 0.223083, 1.00955, -0.0440875, -0.0307212, 0.00285754, -0.214964, 0.214964, -7.01084e-12, 7.92189e-13, 0.65363, -0.269813, 0.241036, -0.270869, 0.242202, -2.20194, 35.5659, -2.55807, 2.4051, -19.8358, -0.0394748, 4.44166, -0.43432, -56.0671, -0.646545, -15.6889, -74.7088, 7.9217, 3.80027, 10.1318, 4.67308e-310, 0, 0, 35.5659, -2.55807, 2.4051, -19.8358, -0.0197374, 2.22083, -0.0197374, 0, 0, 17.1894, 0, 125.24, 0, 0, 62.7813, 8.56965e-05, 0, 0, 0, 0, 0, 0, 0
0.0547894, -0.0490887, 0.669247, 0.0926666, -1.22175, 1.48607, -0.356988, 0.122016, 0.22301, 1.00961, 0.222979, 1.00964, -0.044926, -0.0307618, 0.00285878, -0.215247, 0.215247, -7.01084e-12, 7.92199e-13, 0.654796, -0.272167, 0.240352, -0.273229, 0.241525, -2.2057, 35.5445, -2.55829, 2.39912, -19.8641, -0.0364927, 4.44314, -0.430473, -56.3591, -0.516887, -15.76, -74.456, 7.7537, 3.99864, 10.0855, 4.67308e-310, 0, 0, 35.5445, -2.55829, 2.39912, -19.8641, -0.0182463, 2.22157, -0.0182463, 0, 0, 17.138, 0, 125.112, 0, 0, 62.7173, 8.59884e-05, 0, 0, 0, 0, 0, 0, 0
0.0551699, -0.0491004, 0.669248, 0.0925847, -1.22167, 1.48607, -0.356988, 0.122265, 0.222906, 1.0097, 0.222875, 1.00974, -0.0457659, -0.0307999, 0.00285978, -0.215512, 0.215512, -7.01083e-12, 7.92209e-13, 0.655914, -0.27453, 0.239643, -0.275598, 0.240821, -2.2093, 35.523, -2.55846, 2.39311, -19.8924, -0.0335745, 4.4447, -0.426645, -56.6511, -0.387229, -15.8312, -74.2033, 7.58571, 4.19702, 10.0392, 4.67308e-310, 0, 0, 35.523, -2.55846, 2.39311, -19.8924, -0.0167872, 2.22235, -0.0167872, 0, 0, 17.0864, 0, 124.982, 0, 0, 62.6528, 8.61797e-05, 0, 0, 0, 0, 0, 0, 0
0.0555503, -0.0491122, 0.669249, 0.0925026, -1.22159, 1.48607, -0.356988, 0.122515, 0.222801, 1.00979, 0.22277, 1.00983, -0.0466072, -0.0308355, 0.00286053, -0.215759, 0.215759, -7.01083e-12, 7.92216e-13, 0.656984, -0.276903, 0.238908, -0.277977, 0.240093, -2.21276, 35.5014, -2.55859, 2.38707, -19.9206, -0.0307202, 4.44633, -0.422834, -56.9432, -0.257571, -15.9024, -73.9505, 7.41771, 4.3954, 9.99296, 4.67308e-310, 0, 0, 35.5014, -2.55859, 2.38707, -19.9206, -0.0153601, 2.22317, -0.0153601, 0, 0, 17.0348, 0, 124.852, 0, 0, 62.5879, 8.62704e-05, 0, 0, 0, 0, 0, 0, 0
0.0559308, -0.0491239, 0.66925, 0.0924205, -1.2215, 1.48607, -0.356988, 0.122765, 0.222695, 1.00988, 0.222663, 1.00992, -0.0474497, -0.0308686, 0.00286104, -0.215989, 0.215989, -7.01083e-12, 7.92221e-13, 0.658008, -0.279287, 0.23815, -0.280367, 0.23934, -2.21607, 35.4797, -2.55866, 2.38101, -19.9487, -0.0279299, 4.44804, -0.419041, -57.2352, -0.127913, -15.9736, -73.6978, 7.24972, 4.59378, 9.94668, 4.67308e-310, 0, 0, 35.4797, -2.55866, 2.38101, -19.9487, -0.0139649, 2.22402, -0.0139649, 0, 0, 16.9832, 0, 124.722, 0, 0, 62.5225, 8.62608e-05, 0, 0, 0, 0, 0, 0, 0
0.0563113, -0.0491357, 0.669251, 0.0923383, -1.22142, 1.48607, -0.356988, 0.123016, 0.222589, 1.00997, 0.222556, 1.01001, -0.0482935, -0.0308991, 0.00286131, -0.216201, 0.216201, -7.01083e-12, 7.92224e-13, 0.658985, -0.281682, 0.237366, -0.282767, 0.238562, -2.21923, 35.4578, -2.55868, 2.37492, -19.9767, -0.0252034, 4.44983, -0.415265, -57.5272, 0.00174453, -16.0448, -73.445, 7.08172, 4.79215, 9.90041, 4.67308e-310, 0, 0, 35.4578, -2.55868, 2.37492, -19.9767, -0.0126017, 2.22491, -0.0126017, 0, 0, 16.9314, 0, 124.591, 0, 0, 62.4567, 8.6151e-05, 0, 0, 0, 0, 0, 0, 0
0.0566918, -0.0491474, 0.669252, 0.092256, -1.22134, 1.48607, -0.356988, 0.123267, 0.222481, 1.01006, 0.222448, 1.0101, -0.0491385, -0.0309271, 0.00286134, -0.216395, 0.216395, -7.01083e-12, 7.92224e-13, 0.659915, -0.284087, 0.236559, -0.285178, 0.237761, -2.22225, 35.4359, -2.55866, 2.3688, -20.0046, -0.0225409, 4.45169, -0.411507, -57.8193, 0.131402, -16.116, -73.1922, 6.91373, 4.99053, 9.85413, 4.67308e-310, 0, 0, 35.4359, -2.55866, 2.3688, -20.0046, -0.0112705, 2.22585, -0.0112705, 0, 0, 16.8796, 0, 124.46, 0, 0, 62.3905, 8.59412e-05, 0, 0, 0, 0, 0, 0, 0
0.0570723, -0.0491592, 0.669253, 0.0921736, -1.22126, 1.48607, -0.356988, 0.123518, 0.222372, 1.01015, 0.222339, 1.01019, -0.0499846, -0.0309526, 0.00286112, -0.216572, 0.216572, -7.01084e-12, 7.92222e-13, 0.660799, -0.286502, 0.235728, -0.2876, 0.236936, -2.22512, 35.4138, -2.55858, 2.36265, -20.0324, -0.0199423, 4.45363, -0.407766, -58.1113, 0.26106, -16.1872, -72.9395, 6.74573, 5.18891, 9.80785, 4.67308e-310, 0, 0, 35.4138, -2.55858, 2.36265, -20.0324, -0.00997117, 2.22681, -0.00997117, 0, 0, 16.8277, 0, 124.328, 0, 0, 62.3239, 8.56314e-05, 0, 0, 0, 0, 0, 0, 0
0.0574528, -0.049171, 0.669254, 0.0920912, -1.22118, 1.48607, -0.356988, 0.12377, 0.222263, 1.01024, 0.222229, 1.01028, -0.0508317, -0.0309756, 0.00286067, -0.216731, 0.216731, -7.01084e-12, 7.92217e-13, 0.661637, -0.288929, 0.234874, -0.290032, 0.236088, -2.22785, 35.3917, -2.55846, 2.35648, -20.0601, -0.0174077, 4.45564, -0.404043, -58.4033, 0.390718, -16.2584, -72.6867, 6.57774, 5.38729, 9.76157, 4.67308e-310, 0, 0, 35.3917, -2.55846, 2.35648, -20.0601, -0.00870384, 2.22782, -0.00870384, 0, 0, 16.7758, 0, 124.196, 0, 0, 62.2568, 8.52219e-05, 0, 0, 0, 0, 0, 0, 0
0.0578332, -0.0491828, 0.669255, 0.0920087, -1.22109, 1.48607, -0.356988, 0.124021, 0.222153, 1.01033, 0.222118, 1.01037, -0.0516798, -0.0309961, 0.00285999, -0.216873, 0.216873, -7.01085e-12, 7.92209e-13, 0.662428, -0.291366, 0.233998, -0.292475, 0.235217, -2.23043, 35.3694, -2.55829, 2.35028, -20.0877, -0.0149369, 4.45773, -0.400338, -58.6953, 0.520376, -16.3296, -72.434, 6.40974, 5.58567, 9.7153, 4.67308e-310, 0, 0, 35.3694, -2.55829, 2.35028, -20.0877, -0.00746846, 2.22886, -0.00746846, 0, 0, 16.7237, 0, 124.063, 0, 0, 62.1893, 8.47127e-05, 0, 0, 0, 0, 0, 0, 0
0.0582137, -0.0491946, 0.669257, 0.0919261, -1.22101, 1.48607, -0.356988, 0.124274, 0.222041, 1.01042, 0.222007, 1.01046, -0.0525289, -0.0310141, 0.00285907, -0.216997, 0.216997, -7.01085e-12, 7.922e-13, 0.663174, -0.293814, 0.233098, -0.294929, 0.234323, -2.23287, 35.347, -2.55806, 2.34405, -20.1152, -0.0125301, 4.45989, -0.39665, -58.9874, 0.650034, -16.4007, -72.1812, 6.24175, 5.78404, 9.66902, 4.67308e-310, 0, 0, 35.347, -2.55806, 2.34405, -20.1152, -0.00626504, 2.22994, -0.00626504, 0, 0, 16.6716, 0, 123.93, 0, 0, 62.1214, 8.41038e-05, 0, 0, 0, 0, 0, 0, 0
0.0585942, -0.0492064, 0.669258, 0.0918436, -1.22093, 1.48607, -0.356988, 0.124526, 0.221929, 1.01051, 0.221894, 1.01055, -0.053379, -0.0310296, 0.00285791, -0.217104, 0.217104, -7.01086e-12, 7.92189e-13, 0.663873, -0.296273, 0.232177, -0.297394, 0.233407, -2.23517, 35.3245, -2.55779, 2.3378, -20.1426, -0.0101872, 4.46213, -0.39298, -59.2794, 0.779692, -16.4719, -71.9285, 6.07375, 5.98242, 9.62274, 4.67308e-310, 0, 0, 35.3245, -2.55779, 2.3378, -20.1426, -0.00509359, 2.23106, -0.00509359, 0, 0, 16.6194, 0, 123.796, 0, 0, 62.053, 8.33955e-05, 0, 0, 0, 0, 0, 0, 0
0.0589747, -0.0492182, 0.669259, 0.0917609, -1.22084, 1.48607, -0.356988, 0.124779, 0.221816, 1.0106, 0.22178, 1.01064, -0.0542298, -0.0310427, 0.00285652, -0.217194, 0.217194, -7.01086e-12, 7.92175e-13, 0.664527, -0.298744, 0.231234, -0.29987, 0.23247, -2.23733, 35.3019, -2.55747, 2.33152, -20.1699, -0.00790818, 4.46444, -0.389328, -59.5714, 0.90935, -16.5431, -71.6757, 5.90576, 6.1808, 9.57646, 4.67308e-310, 0, 0, 35.3019, -2.55747, 2.33152, -20.1699, -0.00395409, 2.23222, -0.00395409, 0, 0, 16.5672, 0, 123.662, 0, 0, 61.9842, 8.25878e-05, 0, 0, 0, 0, 0, 0, 0
0.0593552, -0.04923, 0.66926, 0.0916783, -1.22076, 1.48607, -0.356988, 0.125032, 0.221702, 1.01069, 0.221666, 1.01073, -0.0550815, -0.0310532, 0.00285491, -0.217266, 0.217266, -7.01087e-12, 7.9216e-13, 0.665136, -0.301226, 0.230269, -0.302358, 0.231511, -2.23936, 35.2792, -2.5571, 2.32521, -20.1972, -0.00569311, 4.46683, -0.385693, -59.8635, 1.03901, -16.6143, -71.4229, 5.73777, 6.37918, 9.53019, 4.67308e-310, 0, 0, 35.2792, -2.5571, 2.32521, -20.1972, -0.00284655, 2.23342, -0.00284655, 0, 0, 16.5149, 0, 123.527, 0, 0, 61.9149, 8.16808e-05, 0, 0, 0, 0, 0, 0, 0
0.0597356, -0.0492418, 0.669261, 0.0915956, -1.22068, 1.48607, -0.356988, 0.125285, 0.221587, 1.01077, 0.22155, 1.01081, -0.0559339, -0.0310613, 0.00285306, -0.21732, 0.21732, -7.01087e-12, 7.92143e-13, 0.665699, -0.303719, 0.229284, -0.304856, 0.230531, -2.24124, 35.2563, -2.55668, 2.31888, -20.2243, -0.00354195, 4.4693, -0.382076, -60.1555, 1.16867, -16.6855, -71.1702, 5.56977, 6.57755, 9.48391, 4.67308e-310, 0, 0, 35.2563, -2.55668, 2.31888, -20.2243, -0.00177098, 2.23465, -0.00177098, 0, 0, 16.4625, 0, 123.392, 0, 0, 61.8453, 8.06744e-05, 0, 0, 0, 0, 0, 0, 0
0.0601161, -0.0492536, 0.669262, 0.0915129, -1.2206, 1.48607, -0.356988, 0.125538, 0.22147, 1.01086, 0.221434, 1.0109, -0.056787, -0.0310668, 0.00285098, -0.217358, 0.217358, -7.01088e-12, 7.92124e-13, 0.666217, -0.306223, 0.228278, -0.307367, 0.22953, -2.24298, 35.2334, -2.55621, 2.31251, -20.2513, -0.00145471, 4.47184, -0.378476, -60.4475, 1.29832, -16.7567, -70.9174, 5.40178, 6.77593, 9.43763, 4.67308e-310, 0, 0, 35.2334, -2.55621, 2.31251, -20.2513, -0.000727357, 2.23592, -0.000727357, 0, 0, 16.41, 0, 123.256, 0, 0, 61.7752, 7.95689e-05, 0, 0, 0, 0, 0, 0, 0
0.0604966, -0.0492654, 0.669263, 0.0914302, -1.22051, 1.48607, -0.356988, 0.125792, 0.221353, 1.01095, 0.221316, 1.01099, -0.0576407, -0.03107, 0.00284867, -0.217378, 0.217378, -7.01088e-12, 7.92105e-13, 0.66669, -0.30874, 0.227251, -0.309888, 0.228509, -2.24459, 35.2103, -2.55569, 2.30612, -20.2782, 0.000568604, 4.47445, -0.374894, -60.7395, 1.42798, -16.8279, -70.6647, 5.23378, 6.97431, 9.39135, 4.67308e-310, 0, 0, 35.2103, -2.55569, 2.30612, -20.2782, 0.000284302, 2.23723, 0.000284302, 0, 0, 16.3574, 0, 123.12, 0, 0, 61.7046, 7.83642e-05, 0, 0, 0, 0, 0, 0, 0
0.0608771, -0.0492773, 0.669264, 0.0913475, -1.22043, 1.48607, -0.356988, 0.126046, 0.221236, 1.01103, 0.221198, 1.01107, -0.058495, -0.0310706, 0.00284614, -0.217381, 0.217381, -7.01088e-12, 7.92084e-13, 0.667118, -0.311267, 0.226205, -0.312422, 0.227468, -2.24606, 35.1872, -2.55513, 2.29971, -20.3051, 0.002528, 4.47714, -0.371329, -61.0316, 1.55764, -16.8991, -70.4119, 5.06579, 7.17269, 9.34508, 4.67308e-310, 0, 0, 35.1872, -2.55513, 2.29971, -20.3051, 0.001264, 2.23857, 0.001264, 0, 0, 16.3048, 0, 122.983, 0, 0, 61.6336, 7.70604e-05, 0, 0, 0, 0, 0, 0, 0
0.0612576, -0.0492891, 0.669265, 0.0912648, -1.22035, 1.48607, -0.356988, 0.1263, 0.221117, 1.01112, 0.221079, 1.01116, -0.0593498, -0.0310688, 0.00284339, -0.217367, 0.217367, -7.01088e-12, 7.92064e-13, 0.667502, -0.313807, 0.225139, -0.314967, 0.226408, -2.2474, 35.1639, -2.55451, 2.29327, -20.3318, 0.00442348, 4.47991, -0.367783, -61.3236, 1.6873, -16.9702, -70.1591, 4.89779, 7.37107, 9.2988, 4.67308e-310, 0, 0, 35.1639, -2.55451, 2.29327, -20.3318, 0.00221174, 2.23996, 0.00221174, 0, 0, 16.252, 0, 122.845, 0, 0, 61.5622, 7.56575e-05, 0, 0, 0, 0, 0, 0, 0
0.0616381, -0.0493009, 0.669266, 0.0911821, -1.22027, 1.48607, -0.356988, 0.126554, 0.220997, 1.0112, 0.220958, 1.01125, -0.0602051, -0.0310645, 0.00284041, -0.217335, 0.217335, -7.01087e-12, 7.92043e-13, 0.667841, -0.316359, 0.224054, -0.317524, 0.225328, -2.2486, 35.1405, -2.55384, 2.28679, -20.3585, 0.00625504, 4.48275, -0.364253, -61.6156, 1.81695, -17.0414, -69.9064, 4.7298, 7.56944, 9.25252, 4.67308e-310, 0, 0, 35.1405, -2.55384, 2.28679, -20.3585, 0.00312752, 2.24138, 0.00312752, 0, 0, 16.1992, 0, 122.708, 0, 0, 61.4904, 7.41555e-05, 0, 0, 0, 0, 0, 0, 0
0.0620185, -0.0493127, 0.669267, 0.0910994, -1.22018, 1.48607, -0.356988, 0.126808, 0.220876, 1.01129, 0.220837, 1.01133, -0.0610609, -0.0310578, 0.0028372, -0.217287, 0.217287, -7.01087e-12, 7.9202e-13, 0.668135, -0.318922, 0.22295, -0.320093, 0.224229, -2.24966, 35.117, -2.55313, 2.2803, -20.385, 0.00802269, 4.48567, -0.360742, -61.9077, 1.94661, -17.1126, -69.6536, 4.5618, 7.76782, 9.20624, 4.67308e-310, 0, 0, 35.117, -2.55313, 2.2803, -20.385, 0.00401134, 2.24284, 0.00401134, 0, 0, 16.1464, 0, 122.569, 0, 0, 61.4181, 7.25544e-05, 0, 0, 0, 0, 0, 0, 0
0.062399, -0.0493245, 0.669268, 0.0910168, -1.2201, 1.48607, -0.356988, 0.127062, 0.220754, 1.01137, 0.220715, 1.01142, -0.061917, -0.0310487, 0.00283378, -0.217221, 0.217221, -7.01086e-12, 7.91997e-13, 0.668386, -0.321498, 0.221827, -0.322675, 0.223112, -2.2506, 35.0934, -2.55236, 2.27377, -20.4115, 0.00972641, 4.48866, -0.357248, -62.1997, 2.07627, -17.1838, -69.4009, 4.39381, 7.9662, 9.15997, 4.67308e-310, 0, 0, 35.0934, -2.55236, 2.27377, -20.4115, 0.00486321, 2.24433, 0.00486321, 0, 0, 16.0934, 0, 122.43, 0, 0, 61.3454, 7.08543e-05, 0, 0, 0, 0, 0, 0, 0
0.0627795, -0.0493363, 0.66927, 0.0909341, -1.22002, 1.48607, -0.356988, 0.127316, 0.220631, 1.01146, 0.220591, 1.0115, -0.0627735, -0.0310371, 0.00283013, -0.217138, 0.217138, -7.01086e-12, 7.91973e-13, 0.668592, -0.324086, 0.220687, -0.325268, 0.221977, -2.2514, 35.0697, -2.55155, 2.26722, -20.4378, 0.0113662, 4.49173, -0.353771, -62.4917, 2.20593, -17.255, -69.1481, 4.22581, 8.16458, 9.11369, 4.67308e-310, 0, 0, 35.0697, -2.55155, 2.26722, -20.4378, 0.00568311, 2.24587, 0.00568311, 0, 0, 16.0403, 0, 122.291, 0, 0, 61.2723, 6.90551e-05, 0, 0, 0, 0, 0, 0, 0
0.06316, -0.0493482, 0.669271, 0.0908515, -1.21994, 1.48607, -0.356988, 0.127571, 0.220507, 1.01154, 0.220467, 1.01159, -0.0636303, -0.031023, 0.00282627, -0.217038, 0.217038, -7.01085e-12, 7.9195e-13, 0.668754, -0.326686, 0.219528, -0.327874, 0.220824, -2.25207, 35.0458, -2.55068, 2.26064, -20.4641, 0.0129421, 4.49488, -0.350313, -62.7837, 2.33559, -17.3262, -68.8954, 4.05782, 8.36295, 9.06741, 4.67308e-310, 0, 0, 35.0458, -2.55068, 2.26064, -20.4641, 0.00647105, 2.24744, 0.00647105, 0, 0, 15.9872, 0, 122.151, 0, 0, 61.1987, 6.71569e-05, 0, 0, 0, 0, 0, 0, 0
0.0635405, -0.04936, 0.669272, 0.090769, -1.21985, 1.48607, -0.356988, 0.127825, 0.220383, 1.01162, 0.220342, 1.01167, -0.0644872, -0.0310066, 0.00282219, -0.216922, 0.216922, -7.01084e-12, 7.91927e-13, 0.668873, -0.329298, 0.218353, -0.330492, 0.219653, -2.25261, 35.0219, -2.54977, 2.25404, -20.4903, 0.0144541, 4.4981, -0.346871, -63.0758, 2.46524, -17.3974, -68.6426, 3.88982, 8.56133, 9.02114, 4.67308e-310, 0, 0, 35.0219, -2.54977, 2.25404, -20.4903, 0.00722703, 2.24905, 0.00722703, 0, 0, 15.934, 0, 122.011, 0, 0, 61.1247, 6.51595e-05, 0, 0, 0, 0, 0, 0, 0
0.0639209, -0.0493717, 0.669273, 0.0906865, -1.21977, 1.48607, -0.356988, 0.12808, 0.220257, 1.01171, 0.220216, 1.01175, -0.0653444, -0.0309877, 0.00281789, -0.216788, 0.216788, -7.01083e-12, 7.91905e-13, 0.668948, -0.331923, 0.21716, -0.333122, 0.218465, -2.25302, 34.9978, -2.54881, 2.2474, -20.5163, 0.0159021, 4.50139, -0.343448, -63.3678, 2.5949, -17.4686, -68.3898, 3.72183, 8.75971, 8.97486, 4.67308e-310, 0, 0, 34.9978, -2.54881, 2.2474, -20.5163, 0.00795106, 2.2507, 0.00795106, 0, 0, 15.8807, 0, 121.87, 0, 0, 61.0503, 6.3063e-05, 0, 0, 0, 0, 0, 0, 0
0.0643014, -0.0493835, 0.669274, 0.090604, -1.21969, 1.48607, -0.356988, 0.128334, 0.22013, 1.01179, 0.220088, 1.01184, -0.0662017, -0.0309663, 0.00281338, -0.216637, 0.216637, -7.01081e-12, 7.91884e-13, 0.668979, -0.334561, 0.21595, -0.335766, 0.217261, -2.25331, 34.9737, -2.54779, 2.24074, -20.5423, 0.0172862, 4.50476, -0.340042, -63.6598, 2.72456, -17.5398, -68.1371, 3.55383, 8.95809, 8.92858, 4.67308e-310, 0, 0, 34.9737, -2.54779, 2.24074, -20.5423, 0.00864312, 2.25238, 0.00864312, 0, 0, 15.8273, 0, 121.728, 0, 0, 60.9755, 6.08674e-05, 0, 0, 0, 0, 0, 0, 0
0.0646819, -0.0493953, 0.669275, 0.0905216, -1.21961, 1.48607, -0.356988, 0.128589, 0.220002, 1.01187, 0.21996, 1.01192, -0.0670591, -0.0309426, 0.00280865, -0.216469, 0.216469, -7.0108e-12, 7.91864e-13, 0.668968, -0.337212, 0.214725, -0.338422, 0.21604, -2.25346, 34.9494, -2.54673, 2.23406, -20.5682, 0.0186065, 4.50821, -0.336654, -63.9519, 2.85422, -17.6109, -67.8843, 3.38584, 9.15647, 8.8823, 4.67308e-310, 0, 0, 34.9494, -2.54673, 2.23406, -20.5682, 0.00930323, 2.2541, 0.00930323, 0, 0, 15.7739, 0, 121.587, 0, 0, 60.9002, 5.85725e-05, 0, 0, 0, 0, 0, 0, 0
0.0650624, -0.0494071, 0.669276, 0.0904393, -1.21952, 1.48607, -0.356988, 0.128843, 0.219873, 1.01195, 0.219831, 1.012, -0.0679165, -0.0309164, 0.00280371, -0.216284, 0.216284, -7.01078e-12, 7.91847e-13, 0.668913, -0.339875, 0.213483, -0.34109, 0.214804, -2.25349, 34.925, -2.54562, 2.22734, -20.594, 0.0198627, 4.51173, -0.333283, -64.2439, 2.98388, -17.6821, -67.6316, 3.21785, 9.35484, 8.83603, 4.67308e-310, 0, 0, 34.925, -2.54562, 2.22734, -20.594, 0.00993137, 2.25587, 0.00993137, 0, 0, 15.7203, 0, 121.444, 0, 0, 60.8244, 5.61783e-05, 0, 0, 0, 0, 0, 0, 0
0.0654429, -0.0494188, 0.669277, 0.090357, -1.21944, 1.48607, -0.356988, 0.129098, 0.219744, 1.01203, 0.219701, 1.01208, -0.0687739, -0.0308878, 0.00279855, -0.216083, 0.216083, -7.01076e-12, 7.91831e-13, 0.668814, -0.342552, 0.212226, -0.343772, 0.213551, -2.25339, 34.9005, -2.54446, 2.2206, -20.6196, 0.0210551, 4.51533, -0.32993, -64.5359, 3.11353, -17.7533, -67.3788, 3.04985, 9.55322, 8.78975, 4.67308e-310, 0, 0, 34.9005, -2.54446, 2.2206, -20.6196, 0.0105276, 2.25766, 0.0105276, 0, 0, 15.6667, 0, 121.301, 0, 0, 60.7483, 5.36848e-05, 0, 0, 0, 0, 0, 0, 0
