flxalr/sts-optimization-reemc/input/436_104/pos.csv
time;base_link_tx;base_link_ty;base_link_tz;base_link_rz;base_link_ry;base_link_rx;leg_left_1_joint;leg_left_2_joint;leg_left_3_joint;leg_left_4_joint;leg_left_5_joint;leg_left_6_joint;leg_right_1_joint;leg_right_2_joint;leg_right_3_joint;leg_right_4_joint;leg_right_5_joint;leg_right_6_joint;torso_1_joint;torso_2_joint;arm_left_1_joint;arm_left_2_joint;arm_left_3_joint;arm_left_4_joint;arm_left_5_joint;arm_left_6_joint;arm_left_7_joint;arm_right_1_joint;arm_right_2_joint;arm_right_3_joint;arm_right_4_joint;arm_right_5_joint;arm_right_6_joint;arm_right_7_joint;head_1_joint;head_2_joint
0.0;-0.12739233203200495;-0.06769417447519568;0.6779866818161925;0.003295719941873641;0.13599029922687692;-0.011307609627655844;-0.0014965911258334158;-9.527892906483729e-06;-1.2290185462893537;1.4860635201989805;-0.35697382597901417;9.507952790004623e-06;-0.0015100123380749279;9.49798273176556e-06;-1.2290631338580915;1.4860623101813324;-0.3569861019608211;-9.517922848244341e-06;2.3010017027411123e-05;0.09994784396140452;0.22997745018331314;0.13010907821871787;2.8857629354561712e-05;0.9999607387749468;-5.4785514709910704e-05;2.2827297795796123e-05;3.195821691411457e-05;0.2300694902514228;0.1299403380938502;5.953765205779504e-05;1.0000843025663841;7.304735294654759e-05;-3.6523676473273796e-05;-2.739275735495535e-05;-0.005313147336269974;0.04063861139663505
0.02008676528930664;-0.1273891147081099;-0.06768063883307388;0.677988637677353;0.003439502595740502;0.1359801932340271;-0.011356314727806568;-0.0014965911258334158;-9.527892906483729e-06;-1.2290185462893537;1.4860635201989805;-0.35697382597901417;9.507952790004623e-06;-0.0015100123380749279;9.49798273176556e-06;-1.2290631338580915;1.4860623101813324;-0.3569861019608211;-9.517922848244341e-06;2.3010017027411123e-05;0.09994784396140452;0.22997745018331314;0.13009373820736625;2.8857629354561712e-05;0.9999607387749468;-5.4785514709910704e-05;2.739275735495535e-05;3.6523676473273796e-05;0.2300694902514228;0.1299403380938502;5.953765205779504e-05;1.0000843025663841;7.304735294654759e-05;-3.6523676473273796e-05;-2.739275735495535e-05;-0.005313147336269974;0.04063861139663505
0.040021657943725586;-0.12731816251406938;-0.06771079515822505;0.6779989542408188;0.003367217666249027;0.1360926771879595;-0.011295773302265938;-0.0014965911258334158;-9.527892906483729e-06;-1.2290185462893537;1.4860635201989805;-0.35697382597901417;9.507952790004623e-06;-0.0015100123380749279;9.49798273176556e-06;-1.2290631338580915;1.4860623101813324;-0.3569861019608211;-9.517922848244341e-06;2.3010017027411123e-05;0.09994784396140452;0.22997745018331314;0.13007839819601466;2.8857629354561712e-05;0.9999760787862984;-5.4785514709910704e-05;2.739275735495535e-05;3.6523676473273796e-05;0.2300694902514228;0.1299403380938502;5.953765205779504e-05;1.0000843025663841;7.304735294654759e-05;-3.6523676473273796e-05;-2.739275735495535e-05;-0.005313147336269974;0.04063861139663505
0.06000971794128418;-0.12736691379688708;-0.06766143888955015;0.6779947250501394;0.0034276826655743123;0.13601384562315846;-0.01138323166668408;-0.0014965911258334158;-9.527892906483729e-06;-1.2290185462893537;1.4860635201989805;-0.35697382597901417;9.507952790004623e-06;-0.0015100123380749279;9.49798273176556e-06;-1.2290631338580915;1.4860623101813324;-0.3569861019608211;-9.517922848244341e-06;2.3010017027411123e-05;0.09994784396140452;0.22997745018331314;0.1300477181733114;2.8857629354561712e-05;0.9999760787862984;-5.4785514709910704e-05;2.739275735495535e-05;3.6523676473273796e-05;0.2300694902514228;0.1299403380938502;5.953765205779504e-05;1.0000843025663841;6.391643382822915e-05;-3.195821691411457e-05;-2.2827297795796123e-05;-0.005313147336269974;0.04217450113839005
0.08008480072021484;-0.12738706470786357;-0.06765720781641617;0.6779913614598367;0.0033725210547977218;0.13598967137880982;-0.01137904573346916;-0.0014965911258334158;-9.527892906483729e-06;-1.2290185462893537;1.4860635201989805;-0.35697382597901417;9.507952790004623e-06;-0.0015100123380749279;9.49798273176556e-06;-1.2290631338580915;1.4860623101813324;-0.3569861019608211;-9.517922848244341e-06;2.3010017027411123e-05;0.09994784396140452;0.22997745018331314;0.13001703815060828;2.8857629354561712e-05;0.9999760787862984;-5.4785514709910704e-05;2.739275735495535e-05;3.6523676473273796e-05;0.2300694902514228;0.1299403380938502;5.953765205779504e-05;1.0000843025663841;6.391643382822915e-05;-3.6523676473273796e-05;-2.739275735495535e-05;-0.005313147336269974;0.04217450113839005
0.10001254081726074;-0.12747431399093936;-0.0676821383357762;0.6779724741177907;0.0034477852067526537;0.13585370168375763;-0.011356087496459666;-0.0014965911258334158;-9.527892906483729e-06;-1.2290185462893537;1.4860635201989805;-0.35697382597901417;9.507952790004623e-06;-0.0015100123380749279;9.49798273176556e-06;-1.2290631338580915;1.4860623101813324;-0.3569861019608211;-9.517922848244341e-06;2.3010017027411123e-05;0.09994784396140452;0.22997745018331314;0.1299403380938502;2.8857629354561712e-05;0.9999760787862984;-5.4785514709910704e-05;2.739275735495535e-05;3.6523676473273796e-05;0.2300694902514228;0.1299403380938502;5.953765205779504e-05;1.0000843025663841;7.304735294654759e-05;-3.6523676473273796e-05;-2.739275735495535e-05;-0.005313147336269974;0.04063861139663505
0.12032890319824219;-0.12742678709192712;-0.06768452668360372;0.6779811701054883;0.0035681224798231027;0.13591159298632835;-0.01137566250068179;-0.0014965911258334158;-9.527892906483729e-06;-1.2290185462893537;1.4860635201989805;-0.35697382597901417;9.507952790004623e-06;-0.0015100123380749279;9.49798273176556e-06;-1.2290631338580915;1.4860623101813324;-0.3569861019608211;-9.517922848244341e-06;2.3010017027411123e-05;0.09994784396140452;0.22997745018331314;0.12989431805979534;2.8857629354561712e-05;0.9999760787862984;-5.4785514709910704e-05;2.739275735495535e-05;3.6523676473273796e-05;0.2300694902514228;0.1299403380938502;5.953765205779504e-05;1.0000843025663841;7.304735294654759e-05;-3.6523676473273796e-05;-2.739275735495535e-05;-0.005313147336269974;0.04217450113839005
0.14005780220031738;-0.12736884369279172;-0.0677249465595847;0.6779880216555632;0.003543014147218018;0.13600023566320366;-0.011308687414464181;-0.0014965911258334158;-9.527892906483729e-06;-1.2290185462893537;1.4860635201989805;-0.35697382597901417;9.507952790004623e-06;-0.0015100123380749279;9.49798273176556e-06;-1.2290631338580915;1.4860623101813324;-0.3569861019608211;-9.517922848244341e-06;2.3010017027411123e-05;0.09994784396140452;0.22997745018331314;0.12989431805979534;2.8857629354561712e-05;0.9999760787862984;-5.4785514709910704e-05;2.739275735495535e-05;3.6523676473273796e-05;0.2300694902514228;0.1299403380938502;5.953765205779504e-05;1.0000843025663841;7.304735294654759e-05;-3.6523676473273796e-05;-2.739275735495535e-05;-0.005313147336269974;0.04217450113839005
0.16005158424377441;-0.12741234140327648;-0.06774513515152088;0.6779778316139835;0.0036660390264181748;0.1359238525880727;-0.011302071656066875;-0.0014965911258334158;-9.527892906483729e-06;-1.2290185462893537;1.4860635201989805;-0.35697382597901417;9.507952790004623e-06;-0.0015100123380749279;9.49798273176556e-06;-1.2290631338580915;1.4860623101813324;-0.3569861019608211;-9.517922848244341e-06;2.3010017027411123e-05;0.09994784396140452;0.22997745018331314;0.12989431805979534;2.8857629354561712e-05;0.9999760787862984;-5.4785514709910704e-05;2.739275735495535e-05;3.6523676473273796e-05;0.2300694902514228;0.1299403380938502;5.953765205779504e-05;1.0000689625550323;6.391643382822915e-05;-3.6523676473273796e-05;-2.739275735495535e-05;-0.005313147336269974;0.04063861139663505
0.1800997257232666;-0.12737849081239408;-0.06777488871078247;0.6779812186020787;0.003689734390374868;0.1359718196243574;-0.011261038214391984;-0.0014965911258334158;-9.527892906483729e-06;-1.2290185462893537;1.4860635201989805;-0.35697382597901417;9.507952790004623e-06;-0.0015100123380749279;9.49798273176556e-06;-1.2290631338580915;1.4860623101813324;-0.3569861019608211;-9.517922848244341e-06;2.3010017027411123e-05;0.09994784396140452;0.22997745018331314;0.12989431805979534;2.8857629354561712e-05;0.9999760787862984;-5.4785514709910704e-05;2.739275735495535e-05;3.6523676473273796e-05;0.2300694902514228;0.1299403380938502;5.953765205779504e-05;1.0000689625550323;5.4785514709910704e-05;-3.6523676473273796e-05;-2.739275735495535e-05;-0.0068490370780249785;0.04063861139663505
0.20001769065856934;-0.1273793891887779;-0.06782905377977855;0.6779756329779083;0.0037904091511689183;0.13596104819027105;-0.011197910588041598;-0.0014965911258334158;-9.527892906483729e-06;-1.2290185462893537;1.4860635201989805;-0.35697382597901417;9.507952790004623e-06;-0.0015100123380749279;9.49798273176556e-06;-1.2290631338580915;1.4860623101813324;-0.3569861019608211;-9.517922848244341e-06;2.3010017027411123e-05;0.09994784396140452;0.22997745018331314;0.12989431805979534;2.8857629354561712e-05;0.9999760787862984;-5.4785514709910704e-05;2.739275735495535e-05;3.6523676473273796e-05;0.2300694902514228;0.1299403380938502;5.953765205779504e-05;1.0000689625550323;7.304735294654759e-05;-3.6523676473273796e-05;-2.739275735495535e-05;-0.005313147336269974;0.04063861139663505
0.22011375427246094;-0.12743653890041653;-0.06781722534019578;0.6779660763923233;0.0036984442054840776;0.13588594791515604;-0.011198372080592132;-0.0014965911258334158;-9.527892906483729e-06;-1.2290185462893537;1.4860635201989805;-0.35697382597901417;9.507952790004623e-06;-0.0015100123380749279;9.49798273176556e-06;-1.2290631338580915;1.4860623101813324;-0.3569861019608211;-9.517922848244341e-06;2.3010017027411123e-05;0.09994784396140452;0.22997745018331314;0.12989431805979534;2.8857629354561712e-05;0.9999760787862984;-5.4785514709910704e-05;2.739275735495535e-05;3.6523676473273796e-05;0.2300694902514228;0.1299403380938502;5.953765205779504e-05;1.0000689625550323;7.304735294654759e-05;-3.6523676473273796e-05;-2.739275735495535e-05;-0.005313147336269974;0.04063861139663505
0.24007439613342285;-0.12735762879949827;-0.06783878113969287;0.6779787477484909;0.0037526463246701646;0.13599714245716057;-0.011175556711838792;-0.0014965911258334158;-9.527892906483729e-06;-1.2290185462893537;1.4860635201989805;-0.35697382597901417;9.507952790004623e-06;-0.0015100123380749279;9.49798273176556e-06;-1.2290631338580915;1.4860623101813324;-0.3569861019608211;-9.517922848244341e-06;2.3010017027411123e-05;0.09994784396140452;0.22997745018331314;0.12987897804844373;2.8857629354561712e-05;0.9999760787862984;-5.4785514709910704e-05;2.739275735495535e-05;3.6523676473273796e-05;0.2300694902514228;0.1299403380938502;5.953765205779504e-05;1.0000689625550323;6.391643382822915e-05;-3.6523676473273796e-05;-2.739275735495535e-05;-0.005313147336269974;0.04063861139663505
0.26017141342163086;-0.12724228662039233;-0.0677992521567344;0.6780043584971732;0.003837156602212338;0.13615806585998613;-0.011251762844645392;-0.0014965911258334158;-9.527892906483729e-06;-1.2290185462893537;1.4860635201989805;-0.35697382597901417;9.507952790004623e-06;-0.0015100123380749279;9.49798273176556e-06;-1.2290631338580915;1.4860623101813324;-0.3569861019608211;-9.517922848244341e-06;2.3010017027411123e-05;0.09994784396140452;0.22997745018331314;0.12987897804844373;2.8857629354561712e-05;0.9999760787862984;-5.4785514709910704e-05;2.739275735495535e-05;3.6523676473273796e-05;0.2300694902514228;0.1299403380938502;5.953765205779504e-05;1.000053622543681;6.391643382822915e-05;-3.6523676473273796e-05;-2.739275735495535e-05;-0.005313147336269974;0.04063861139663505
0.28008556365966797;-0.1271336237846377;-0.067780711887022;0.6780265961140731;0.0037278013423290178;0.1363292037635912;-0.011258169270201285;-0.0014965911258334158;-9.527892906483729e-06;-1.2290185462893537;1.4860635201989805;-0.35697382597901417;9.507952790004623e-06;-0.0015100123380749279;9.49798273176556e-06;-1.2290631338580915;1.4860623101813324;-0.3569861019608211;-9.517922848244341e-06;2.3010017027411123e-05;0.09994784396140452;0.22997745018331314;0.12987897804844373;2.8857629354561712e-05;0.9999760787862984;-5.4785514709910704e-05;2.739275735495535e-05;3.6523676473273796e-05;0.2300694902514228;0.1299403380938502;5.953765205779504e-05;1.000053622543681;7.304735294654759e-05;-3.6523676473273796e-05;-2.739275735495535e-05;-0.005313147336269974;0.04063861139663505
0.30013084411621094;-0.1271420086034573;-0.06773672278206871;0.6780294199174438;0.0037428508456698534;0.13631463965086968;-0.01132836410118454;-0.0014965911258334158;-9.527892906483729e-06;-1.2290185462893537;1.4860635201989805;-0.35697382597901417;9.507952790004623e-06;-0.0015100123380749279;9.49798273176556e-06;-1.2290631338580915;1.4860623101813324;-0.3569861019608211;-9.517922848244341e-06;2.3010017027411123e-05;0.09994784396140452;0.22997745018331314;0.12987897804844373;2.8857629354561712e-05;0.9999760787862984;-5.4785514709910704e-05;2.2827297795796123e-05;3.195821691411457e-05;0.2300694902514228;0.1299403380938502;5.953765205779504e-05;1.000053622543681;7.304735294654759e-05;-3.6523676473273796e-05;-2.739275735495535e-05;-0.005313147336269974;0.04217450113839005
0.3200418949127197;-0.1270703879668796;-0.06772000981539364;0.6780445155084667;0.0037734633945442535;0.1364169055498167;-0.011359448459197532;-0.0014965911258334158;-9.527892906483729e-06;-1.2290185462893537;1.4860635201989805;-0.35697382597901417;9.507952790004623e-06;-0.0015100123380749279;9.49798273176556e-06;-1.2290631338580915;1.4860623101813324;-0.3569861019608211;-9.517922848244341e-06;2.3010017027411123e-05;0.09994784396140452;0.22997745018331314;0.12987897804844373;2.8857629354561712e-05;0.9999760787862984;-5.4785514709910704e-05;2.739275735495535e-05;3.6523676473273796e-05;0.2300694902514228;0.1299403380938502;5.953765205779504e-05;1.0000229425209777;7.304735294654759e-05;-3.6523676473273796e-05;-2.739275735495535e-05;-0.005313147336269974;0.04217450113839005
0.3400442600250244;-0.12712689987359552;-0.06775688315517588;0.6780302385234647;0.003788961427110058;0.1363325316610915;-0.011306446968810873;-0.0014965911258334158;-9.527892906483729e-06;-1.2290185462893537;1.4860635201989805;-0.35697382597901417;9.507952790004623e-06;-0.0015100123380749279;9.49798273176556e-06;-1.2290631338580915;1.4860623101813324;-0.3569861019608211;-9.517922848244341e-06;2.3010017027411123e-05;0.09994784396140452;0.22997745018331314;0.12987897804844373;2.8857629354561712e-05;0.9999760787862984;-5.4785514709910704e-05;2.739275735495535e-05;3.6523676473273796e-05;0.2300694902514228;0.1299403380938502;5.953765205779504e-05;0.9998695424074614;7.304735294654759e-05;-3.6523676473273796e-05;-2.739275735495535e-05;-0.005313147336269974;0.04217450113839005
0.36002302169799805;-0.12709333776425394;-0.06782710107287536;0.6780295097520115;0.0038361221128506927;0.1363782809915533;-0.01120813344979326;-0.0014965911258334158;-9.527892906483729e-06;-1.2290185462893537;1.4860635201989805;-0.35697382597901417;9.507952790004623e-06;-0.0015100123380749279;9.49798273176556e-06;-1.2290631338580915;1.4860623101813324;-0.3569861019608211;-9.517922848244341e-06;2.3010017027411123e-05;0.09994784396140452;0.22997745018331314;0.12987897804844373;2.8857629354561712e-05;0.99999141879765;-5.4785514709910704e-05;2.739275735495535e-05;3.6523676473273796e-05;0.2300694902514228;0.1299403380938502;5.953765205779504e-05;0.9998695424074614;6.391643382822915e-05;-3.6523676473273796e-05;-2.739275735495535e-05;-0.0068490370780249785;0.04063861139663505
0.38002538681030273;-0.12707376816527038;-0.06783902412650793;0.6780319848564698;0.003866046970542362;0.13640427223602053;-0.011195622228704565;-0.0014965911258334158;-9.527892906483729e-06;-1.2290185462893537;1.4860635201989805;-0.35697382597901417;9.507952790004623e-06;-0.0015100123380749279;9.49798273176556e-06;-1.2290631338580915;1.4860623101813324;-0.3569861019608211;-9.517922848244341e-06;2.3010017027411123e-05;0.09994784396140452;0.22997745018331314;0.12987897804844373;2.8857629354561712e-05;0.99999141879765;-5.4785514709910704e-05;2.739275735495535e-05;3.6523676473273796e-05;0.2300694902514228;0.1299403380938502;5.953765205779504e-05;0.9998542023961098;7.304735294654759e-05;-3.6523676473273796e-05;-2.739275735495535e-05;-0.005313147336269974;0.04063861139663505
0.40001368522644043;-0.12712386891898111;-0.06785076088907592;0.6780214188625643;0.0038265965396075702;0.1363345751385985;-0.011170304563162075;-0.0014965911258334158;-9.527892906483729e-06;-1.2290185462893537;1.4860635201989805;-0.35697382597901417;9.507952790004623e-06;-0.0015100123380749279;9.49798273176556e-06;-1.2290631338580915;1.4860623101813324;-0.3569861019608211;-9.517922848244341e-06;2.3010017027411123e-05;0.09994784396140452;0.22997745018331314;0.12987897804844373;2.8857629354561712e-05;0.99999141879765;-5.4785514709910704e-05;2.739275735495535e-05;3.6523676473273796e-05;0.2300694902514228;0.1299403380938502;5.953765205779504e-05;0.9998388623847582;7.304735294654759e-05;-3.6523676473273796e-05;-2.739275735495535e-05;-0.005313147336269974;0.04063861139663505
0.41998934745788574;-0.12707551044920562;-0.0678359483821752;0.678031966053022;0.0037846026330084132;0.13640996052556392;-0.011184485343524722;-0.0014965911258334158;-9.527892906483729e-06;-1.2290185462893537;1.4860635201989805;-0.35697382597901417;9.507952790004623e-06;-0.0015100123380749279;9.49798273176556e-06;-1.2290631338580915;1.4860623101813324;-0.3569861019608211;-9.517922848244341e-06;2.3010017027411123e-05;0.09994784396140452;0.22997745018331314;0.12987897804844373;2.8857629354561712e-05;0.99999141879765;-5.4785514709910704e-05;2.739275735495535e-05;3.6523676473273796e-05;0.2300694902514228;0.1299403380938502;5.953765205779504e-05;0.9998388623847582;7.304735294654759e-05;-3.6523676473273796e-05;-2.739275735495535e-05;-0.005313147336269974;0.04217450113839005
0.4400599002838135;-0.12705594265914807;-0.06786693915266637;0.6780325318475546;0.003828199016628126;0.13643484122638433;-0.011145497640952039;-0.0014965911258334158;-9.527892906483729e-06;-1.2290185462893537;1.4860635201989805;-0.35697382597901417;9.507952790004623e-06;-0.0015100123380749279;9.49798273176556e-06;-1.2290631338580915;1.4860623101813324;-0.3569861019608211;-9.517922848244341e-06;2.3010017027411123e-05;0.09994784396140452;0.22997745018331314;0.12987897804844373;2.8857629354561712e-05;0.99999141879765;-5.4785514709910704e-05;2.739275735495535e-05;3.6523676473273796e-05;0.2300694902514228;0.1299403380938502;5.953765205779504e-05;0.9998235223734064;6.391643382822915e-05;-3.6523676473273796e-05;-2.739275735495535e-05;-0.005313147336269974;0.04217450113839005
0.46018075942993164;-0.12698453370808943;-0.06785973037359924;0.6780466307202797;0.0036842685067602497;0.13655473660516598;-0.011128110888492585;-0.0014965911258334158;-9.527892906483729e-06;-1.2290185462893537;1.4860635201989805;-0.35697382597901417;9.507952790004623e-06;-0.0015100123380749279;9.49798273176556e-06;-1.2290631338580915;1.4860623101813324;-0.3569861019608211;-9.517922848244341e-06;2.3010017027411123e-05;0.09994784396140452;0.22997745018331314;0.12987897804844373;2.8857629354561712e-05;0.99999141879765;-5.4785514709910704e-05;2.739275735495535e-05;3.6523676473273796e-05;0.2300694902514228;0.1299403380938502;5.953765205779504e-05;0.9998235223734064;6.391643382822915e-05;-3.6523676473273796e-05;-2.739275735495535e-05;-0.005313147336269974;0.04217450113839005
0.48038792610168457;-0.12686742776178747;-0.06789308697081663;0.6780652127585094;0.0036079968819289557;0.1367357473884053;-0.011061664943690574;-0.0014965911258334158;-9.527892906483729e-06;-1.2290185462893537;1.4860635201989805;-0.35697382597901417;9.507952790004623e-06;-0.0015100123380749279;9.49798273176556e-06;-1.2290631338580915;1.4860623101813324;-0.3569861019608211;-9.517922848244341e-06;2.3010017027411123e-05;0.09994784396140452;0.22997745018331314;0.12987897804844373;2.8857629354561712e-05;0.99999141879765;-5.4785514709910704e-05;2.739275735495535e-05;3.6523676473273796e-05;0.2300694902514228;0.1299403380938502;4.4197640706178376e-05;0.9998235223734064;7.304735294654759e-05;-3.6523676473273796e-05;-2.739275735495535e-05;-0.005313147336269974;0.04063861139663505
0.4999878406524658;-0.12689543293427097;-0.06800292397501712;0.6780489655399776;0.003713068927932443;0.13668539296516277;-0.010914392146371415;-0.0014965911258334158;-9.527892906483729e-06;-1.2290185462893537;1.4860635201989805;-0.35697382597901417;9.507952790004623e-06;-0.0015100123380749279;9.49798273176556e-06;-1.2290631338580915;1.4860623101813324;-0.3569861019608211;-9.517922848244341e-06;2.3010017027411123e-05;0.09994784396140452;0.22997745018331314;0.12987897804844373;2.8857629354561712e-05;0.99999141879765;-5.4785514709910704e-05;2.739275735495535e-05;3.6523676473273796e-05;0.2300694902514228;0.1299403380938502;4.4197640706178376e-05;0.9998081823620548;7.304735294654759e-05;-3.195821691411457e-05;-2.2827297795796123e-05;-0.005313147336269974;0.04063861139663505
0.5201170444488525;-0.12699539137083798;-0.06801522286139779;0.6780290172759893;0.0038087898017044966;0.13652836412015507;-0.010914778545253192;-0.0014965911258334158;-9.527892906483729e-06;-1.2290185462893537;1.4860635201989805;-0.35697382597901417;9.507952790004623e-06;-0.0015100123380749279;9.49798273176556e-06;-1.2290631338580915;1.4860623101813324;-0.3569861019608211;-9.517922848244341e-06;2.3010017027411123e-05;0.09994784396140452;0.22997745018331314;0.12987897804844373;2.8857629354561712e-05;0.99999141879765;-5.4785514709910704e-05;2.739275735495535e-05;3.6523676473273796e-05;0.2300694902514228;0.1299403380938502;4.4197640706178376e-05;0.9998081823620548;7.304735294654759e-05;-3.6523676473273796e-05;-2.739275735495535e-05;-0.005313147336269974;0.04063861139663505
0.5400302410125732;-0.12706196003670384;-0.06805746271220099;0.6780123069084882;0.0037151827803135144;0.13644039329449292;-0.010832406879991319;-0.0014965911258334158;-9.527892906483729e-06;-1.2290185462893537;1.4860635201989805;-0.35697382597901417;9.507952790004623e-06;-0.0015100123380749279;9.49798273176556e-06;-1.2290631338580915;1.4860623101813324;-0.3569861019608211;-9.517922848244341e-06;2.3010017027411123e-05;0.09994784396140452;0.22997745018331314;0.12987897804844373;2.8857629354561712e-05;0.99999141879765;-5.4785514709910704e-05;2.739275735495535e-05;3.6523676473273796e-05;0.2300694902514228;0.1299403380938502;4.4197640706178376e-05;0.9998081823620548;6.391643382822915e-05;-3.6523676473273796e-05;-2.739275735495535e-05;-0.005313147336269974;0.04063861139663505
0.560145378112793;-0.12696658215282913;-0.06810416420395807;0.6780254848256598;0.003660197573155928;0.13658741378705702;-0.010749810200911468;-0.0014965911258334158;-9.527892906483729e-06;-1.2290185462893537;1.4860635201989805;-0.35697382597901417;9.507952790004623e-06;-0.0015100123380749279;9.49798273176556e-06;-1.2290631338580915;1.4860623101813324;-0.3569861019608211;-9.517922848244341e-06;2.3010017027411123e-05;0.09994784396140452;0.22997745018331314;0.12987897804844373;2.8857629354561712e-05;0.99999141879765;-5.4785514709910704e-05;2.739275735495535e-05;3.6523676473273796e-05;0.2300694902514228;0.1299403380938502;4.4197640706178376e-05;0.9998081823620548;6.391643382822915e-05;-3.6523676473273796e-05;-2.739275735495535e-05;-0.005313147336269974;0.04217450113839005
0.5800416469573975;-0.12695842657693435;-0.068112861857467;0.6780261382935443;0.0036802994945153377;0.13659751769731363;-0.0107403810448174;-0.0014965911258334158;-9.527892906483729e-06;-1.2290185462893537;1.4860635201989805;-0.35697382597901417;9.507952790004623e-06;-0.0015100123380749279;9.49798273176556e-06;-1.2290631338580915;1.4860623101813324;-0.3569861019608211;-9.517922848244341e-06;2.3010017027411123e-05;0.09994784396140452;0.22997745018331314;0.12987897804844373;2.8857629354561712e-05;0.99999141879765;-5.4785514709910704e-05;2.739275735495535e-05;3.6523676473273796e-05;0.2300694902514228;0.1299403380938502;4.4197640706178376e-05;0.9998081823620548;7.304735294654759e-05;-3.6523676473273796e-05;-2.739275735495535e-05;-0.005313147336269974;0.04063861139663505
0.6001791954040527;-0.12689373839616241;-0.06800149548558931;0.6780494259315698;0.0037221747190097233;0.136686939527799;-0.01091833461253456;-0.0014965911258334158;-9.527892906483729e-06;-1.2290185462893537;1.4860635201989805;-0.35697382597901417;9.507952790004623e-06;-0.0015100123380749279;9.49798273176556e-06;-1.2290631338580915;1.4860623101813324;-0.3569861019608211;-9.517922848244341e-06;2.3010017027411123e-05;0.09994784396140452;0.22997745018331314;0.12987897804844373;2.8857629354561712e-05;0.99999141879765;-5.4785514709910704e-05;2.2827297795796123e-05;3.195821691411457e-05;0.2300694902514228;0.1299403380938502;4.4197640706178376e-05;0.9998081823620548;7.304735294654759e-05;-3.6523676473273796e-05;-2.739275735495535e-05;-0.005313147336269974;0.04217450113839005
0.6200451850891113;-0.12699774097414143;-0.06802239588174734;0.6780278576021295;0.0037249347758304165;0.13653358144223443;-0.010887524787544144;-0.0014965911258334158;-9.527892906483729e-06;-1.2290185462893537;1.4860635201989805;-0.35697382597901417;9.507952790004623e-06;-0.0015100123380749279;9.49798273176556e-06;-1.2290631338580915;1.4860623101813324;-0.3569861019608211;-9.517922848244341e-06;2.3010017027411123e-05;0.09994784396140452;0.22997745018331314;0.12987897804844373;2.8857629354561712e-05;0.99999141879765;-5.4785514709910704e-05;2.739275735495535e-05;3.6523676473273796e-05;0.2300694902514228;0.1299403380938502;4.4197640706178376e-05;0.9998081823620548;7.304735294654759e-05;-3.6523676473273796e-05;-2.739275735495535e-05;-0.005313147336269974;0.04063861139663505
0.6401767730712891;-0.1269731048226977;-0.06798694839968664;0.6780360268728678;0.003857983168268072;0.13655578135354457;-0.01096741958744935;-0.0014965911258334158;-9.527892906483729e-06;-1.2290185462893537;1.4860635201989805;-0.35697382597901417;9.507952790004623e-06;-0.0015100123380749279;9.49798273176556e-06;-1.2290631338580915;1.4860623101813324;-0.3569861019608211;-9.517922848244341e-06;2.3010017027411123e-05;0.09994784396140452;0.22997745018331314;0.12987897804844373;2.8857629354561712e-05;0.99999141879765;-5.4785514709910704e-05;2.739275735495535e-05;3.6523676473273796e-05;0.2300694902514228;0.1299403380938502;1.3517618002945042e-05;0.9998081823620548;6.391643382822915e-05;-3.6523676473273796e-05;-2.739275735495535e-05;-0.005313147336269974;0.04217450113839005
0.6600558757781982;-0.12709902076974974;-0.06804683026458498;0.6780064277341885;0.003830086071196994;0.13637381407243726;-0.010871226750347782;-0.0014965911258334158;-9.527892906483729e-06;-1.2290185462893537;1.4860635201989805;-0.35697382597901417;9.507952790004623e-06;-0.0015100123380749279;9.49798273176556e-06;-1.2290631338580915;1.4860623101813324;-0.3569861019608211;-9.517922848244341e-06;2.3010017027411123e-05;0.09994784396140452;0.22997745018331314;0.12987897804844373;2.8857629354561712e-05;0.99999141879765;-5.4785514709910704e-05;2.739275735495535e-05;3.6523676473273796e-05;0.22999279019466476;0.1299403380938502;-3.2502416051904966e-05;0.9998081823620548;5.4785514709910704e-05;-3.6523676473273796e-05;-2.739275735495535e-05;-0.005313147336269974;0.04063861139663505
0.6802544593811035;-0.12709565844285223;-0.06804725637164383;0.6780070152615174;0.0039714590729294785;0.1363643219471232;-0.010898070212211858;-0.0014965911258334158;-9.527892906483729e-06;-1.2290185462893537;1.4860635201989805;-0.35697382597901417;9.507952790004623e-06;-0.0015100123380749279;9.49798273176556e-06;-1.2290631338580915;1.4860623101813324;-0.3569861019608211;-9.517922848244341e-06;2.3010017027411123e-05;0.09994784396140452;0.22997745018331314;0.12987897804844373;2.8857629354561712e-05;0.99999141879765;-5.4785514709910704e-05;2.739275735495535e-05;3.6523676473273796e-05;0.22997745018331314;0.1299403380938502;-3.2502416051904966e-05;0.9998081823620548;7.304735294654759e-05;-3.6523676473273796e-05;-2.739275735495535e-05;-0.005313147336269974;0.04217450113839005
0.7000248432159424;-0.12712271350446722;-0.06808543104389526;0.6779981106385107;0.003907087704993327;0.13633156888973527;-0.010827368118726418;-0.0014965911258334158;-9.527892906483729e-06;-1.2290185462893537;1.4860635201989805;-0.35697382597901417;9.507952790004623e-06;-0.0015100123380749279;9.49798273176556e-06;-1.2290631338580915;1.4860623101813324;-0.3569861019608211;-9.517922848244341e-06;2.3010017027411123e-05;0.09994784396140452;0.22997745018331314;0.12987897804844373;2.8857629354561712e-05;0.99999141879765;-5.4785514709910704e-05;2.739275735495535e-05;3.6523676473273796e-05;0.22996211017196155;0.1299403380938502;-3.2502416051904966e-05;0.9998081823620548;7.304735294654759e-05;-3.6523676473273796e-05;-2.739275735495535e-05;-0.005313147336269974;0.04063861139663505
0.719994068145752;-0.1271309668060896;-0.06802254313110834;0.6780028754684507;0.0038579617404320673;0.1363234787190844;-0.010913953686321566;-0.0014965911258334158;-9.527892906483729e-06;-1.2290185462893537;1.4860635201989805;-0.35697382597901417;9.507952790004623e-06;-0.0015100123380749279;9.49798273176556e-06;-1.2290631338580915;1.4860623101813324;-0.3569861019608211;-9.517922848244341e-06;2.3010017027411123e-05;0.09994784396140452;0.22997745018331314;0.12987897804844373;2.8857629354561712e-05;0.99999141879765;-5.4785514709910704e-05;2.739275735495535e-05;3.6523676473273796e-05;0.22996211017196155;0.1299403380938502;-4.784242740352162e-05;0.9998081823620548;7.304735294654759e-05;-3.195821691411457e-05;-2.2827297795796123e-05;-0.005313147336269974;0.04217450113839005
0.74015212059021;-0.12714041726223632;-0.06800998645671136;0.6780023630335699;0.003760848908154493;0.13631927890905962;-0.010914291406850867;-0.0014965911258334158;-9.527892906483729e-06;-1.2290185462893537;1.4860635201989805;-0.35697382597901417;9.507952790004623e-06;-0.0015100123380749279;9.49798273176556e-06;-1.2290631338580915;1.4860623101813324;-0.3569861019608211;-9.517922848244341e-06;2.3010017027411123e-05;0.09994784396140452;0.22997745018331314;0.12987897804844373;2.8857629354561712e-05;0.99999141879765;-5.4785514709910704e-05;2.739275735495535e-05;3.6523676473273796e-05;0.22996211017196155;0.1299403380938502;-4.784242740352162e-05;0.9998081823620548;6.391643382822915e-05;-3.6523676473273796e-05;-2.739275735495535e-05;-0.005313147336269974;0.04063861139663505
0.7600533962249756;-0.1271231912363683;-0.06796075751683986;0.6780105293623258;0.003849547599275679;0.1363348810822373;-0.01100668452565965;-0.0014965911258334158;-9.527892906483729e-06;-1.2290185462893537;1.4860635201989805;-0.35697382597901417;9.507952790004623e-06;-0.0015100123380749279;9.49798273176556e-06;-1.2290631338580915;1.4860623101813324;-0.3569861019608211;-9.517922848244341e-06;2.3010017027411123e-05;0.09994784396140452;0.22997745018331314;0.12987897804844373;2.8857629354561712e-05;0.99999141879765;-5.4785514709910704e-05;2.739275735495535e-05;3.6523676473273796e-05;0.22996211017196155;0.1299403380938502;-4.784242740352162e-05;0.9998081823620548;7.304735294654759e-05;-3.6523676473273796e-05;-2.739275735495535e-05;-0.005313147336269974;0.04063861139663505
0.780076265335083;-0.1270478861820846;-0.06799208538417324;0.6780215034793052;0.0038466050954664753;0.1364467237499487;-0.010957797120910074;-0.0014965911258334158;-9.527892906483729e-06;-1.2290185462893537;1.4860635201989805;-0.35697382597901417;9.507952790004623e-06;-0.0015100123380749279;9.49798273176556e-06;-1.2290631338580915;1.4860623101813324;-0.3569861019608211;-9.517922848244341e-06;2.3010017027411123e-05;0.09994784396140452;0.22997745018331314;0.12987897804844373;2.8857629354561712e-05;0.99999141879765;-5.4785514709910704e-05;2.739275735495535e-05;3.6523676473273796e-05;0.22996211017196155;0.1299403380938502;-4.784242740352162e-05;0.9998081823620548;7.304735294654759e-05;-3.6523676473273796e-05;-2.739275735495535e-05;-0.005313147336269974;0.04063861139663505
0.8000569343566895;-0.127041258313138;-0.06797381207193974;0.6780245775760533;0.0040107333921588955;0.136439459470065;-0.011017610894744626;-0.0014965911258334158;-9.527892906483729e-06;-1.2290185462893537;1.4860635201989805;-0.35697382597901417;9.507952790004623e-06;-0.0015100123380749279;9.49798273176556e-06;-1.2290631338580915;1.4860623101813324;-0.3569861019608211;-9.517922848244341e-06;2.3010017027411123e-05;0.09994784396140452;0.22997745018331314;0.12987897804844373;2.8857629354561712e-05;0.99999141879765;-5.4785514709910704e-05;2.739275735495535e-05;3.6523676473273796e-05;0.22996211017196155;0.1299403380938502;-4.784242740352162e-05;0.9998081823620548;7.304735294654759e-05;-3.6523676473273796e-05;-2.739275735495535e-05;-0.005313147336269974;0.04217450113839005
0.8201637268066406;-0.12713824277411367;-0.06798450669597758;0.6780053261680009;0.0038622435645202574;0.13631173916023578;-0.010972953721102225;-0.0014965911258334158;-9.527892906483729e-06;-1.2290185462893537;1.4860635201989805;-0.35697382597901417;9.507952790004623e-06;-0.0015100123380749279;9.49798273176556e-06;-1.2290631338580915;1.4860623101813324;-0.3569861019608211;-9.517922848244341e-06;2.3010017027411123e-05;0.09994784396140452;0.22997745018331314;0.12987897804844373;2.8857629354561712e-05;0.99999141879765;-5.4785514709910704e-05;2.739275735495535e-05;3.6523676473273796e-05;0.22996211017196155;0.1299403380938502;-4.784242740352162e-05;0.9998081823620548;6.391643382822915e-05;-3.6523676473273796e-05;-2.739275735495535e-05;-0.005313147336269974;0.04063861139663505
0.8400347232818604;-0.12707918386924824;-0.06802099457459292;0.6780127384959456;0.0039822473467205875;0.13638712926291613;-0.01094020045406845;-0.0014965911258334158;-9.527892906483729e-06;-1.2290185462893537;1.4860635201989805;-0.35697382597901417;9.507952790004623e-06;-0.0015100123380749279;9.49798273176556e-06;-1.2290631338580915;1.4860623101813324;-0.3569861019608211;-9.517922848244341e-06;2.3010017027411123e-05;0.09994784396140452;0.22997745018331314;0.12987897804844373;2.8857629354561712e-05;0.99999141879765;-5.4785514709910704e-05;2.739275735495535e-05;3.6523676473273796e-05;0.22996211017196155;0.1299403380938502;-4.784242740352162e-05;0.9998081823620548;6.391643382822915e-05;-3.6523676473273796e-05;-2.739275735495535e-05;-0.005313147336269974;0.04063861139663505
0.860424280166626;-0.12711851180927117;-0.06804280511429438;0.678003177622448;0.003978513293140362;0.13632982625836015;-0.010906384109986893;-0.0014965911258334158;-9.527892906483729e-06;-1.2290185462893537;1.4860635201989805;-0.35697382597901417;9.507952790004623e-06;-0.0015100123380749279;9.49798273176556e-06;-1.2290631338580915;1.4860623101813324;-0.3569861019608211;-9.517922848244341e-06;2.3010017027411123e-05;0.09994784396140452;0.22997745018331314;0.12987897804844373;2.8857629354561712e-05;0.99999141879765;-5.4785514709910704e-05;2.739275735495535e-05;3.6523676473273796e-05;0.22996211017196155;0.1299403380938502;-4.784242740352162e-05;0.9998081823620548;7.304735294654759e-05;-3.6523676473273796e-05;-2.739275735495535e-05;-0.005313147336269974;0.04063861139663505
0.8800654411315918;-0.1271738338766882;-0.06793239552270951;0.6780038745126853;0.003910511427668942;0.13625353514346403;-0.01106219386457413;-0.0014965911258334158;-9.527892906483729e-06;-1.2290185462893537;1.4860635201989805;-0.35697382597901417;9.507952790004623e-06;-0.0015100123380749279;9.49798273176556e-06;-1.2290631338580915;1.4860623101813324;-0.3569861019608211;-9.517922848244341e-06;2.3010017027411123e-05;0.09994784396140452;0.22997745018331314;0.12987897804844373;2.8857629354561712e-05;0.99999141879765;-5.4785514709910704e-05;2.739275735495535e-05;3.6523676473273796e-05;0.22996211017196155;0.1299403380938502;-4.784242740352162e-05;0.9998081823620548;7.304735294654759e-05;-3.6523676473273796e-05;-2.739275735495535e-05;-0.005313147336269974;0.04063861139663505
0.9001643657684326;-0.12721520249998539;-0.06792994609385256;0.6779963590721829;0.00382000274572084;0.13620172084710877;-0.01104855320165641;-0.0014965911258334158;-9.527892906483729e-06;-1.2290185462893537;1.4860635201989805;-0.35697382597901417;9.507952790004623e-06;-0.0015100123380749279;9.49798273176556e-06;-1.2290631338580915;1.4860623101813324;-0.3569861019608211;-9.517922848244341e-06;2.3010017027411123e-05;0.09994784396140452;0.22997745018331314;0.12987897804844373;2.8857629354561712e-05;0.99999141879765;-5.4785514709910704e-05;2.2827297795796123e-05;3.195821691411457e-05;0.22996211017196155;0.1299403380938502;-4.784242740352162e-05;0.9998081823620548;7.304735294654759e-05;-3.6523676473273796e-05;-2.739275735495535e-05;-0.005313147336269974;0.04063861139663505
0.9199872016906738;-0.12716207666407764;-0.06797484409625405;0.6780018252682891;0.0038757205523777664;0.13627506295631645;-0.010990483973494052;-0.0014965911258334158;-9.527892906483729e-06;-1.2290185462893537;1.4860635201989805;-0.35697382597901417;9.507952790004623e-06;-0.0015100123380749279;9.49798273176556e-06;-1.2290631338580915;1.4860623101813324;-0.3569861019608211;-9.517922848244341e-06;2.3010017027411123e-05;0.09994784396140452;0.22997745018331314;0.12987897804844373;2.8857629354561712e-05;1.0000067588090016;-5.4785514709910704e-05;2.739275735495535e-05;3.6523676473273796e-05;0.22996211017196155;0.1299403380938502;-4.784242740352162e-05;0.9998081823620548;7.304735294654759e-05;-3.6523676473273796e-05;-2.739275735495535e-05;-0.005313147336269974;0.04063861139663505
0.9399929046630859;-0.12722812970498062;-0.0680435730067899;0.6779825391725105;0.003851387121893829;0.13618114997169023;-0.010881109693977415;-0.0014965911258334158;-9.527892906483729e-06;-1.2290185462893537;1.4860635201989805;-0.35697382597901417;9.507952790004623e-06;-0.0015100123380749279;9.49798273176556e-06;-1.2290631338580915;1.4860623101813324;-0.3569861019608211;-9.517922848244341e-06;2.3010017027411123e-05;0.09994784396140452;0.22997745018331314;0.12987897804844373;2.8857629354561712e-05;1.0000067588090016;-5.4785514709910704e-05;2.739275735495535e-05;3.6523676473273796e-05;0.22996211017196155;0.1299403380938502;-4.784242740352162e-05;0.9998081823620548;6.391643382822915e-05;-3.6523676473273796e-05;-2.739275735495535e-05;-0.005313147336269974;0.04063861139663505
0.9601755142211914;-0.12730059906124508;-0.06807750958640973;0.6779655289214362;0.0038721575145119224;0.1360726372452868;-0.010833725999613965;-0.0014965911258334158;-9.527892906483729e-06;-1.2290185462893537;1.4860635201989805;-0.35697382597901417;9.507952790004623e-06;-0.0015100123380749279;9.49798273176556e-06;-1.2290631338580915;1.4860623101813324;-0.3569861019608211;-9.517922848244341e-06;2.3010017027411123e-05;0.09994784396140452;0.22997745018331314;0.12987897804844373;2.8857629354561712e-05;1.0000067588090016;-5.4785514709910704e-05;2.739275735495535e-05;3.6523676473273796e-05;0.22996211017196155;0.1299403380938502;-4.784242740352162e-05;0.9998235223734064;7.304735294654759e-05;-3.6523676473273796e-05;-2.739275735495535e-05;-0.005313147336269974;0.04063861139663505
0.9799747467041016;-0.1272861720890616;-0.06813440324927253;0.6779625223619237;0.0038551478234596405;0.13609651140097836;-0.010743384545207969;-0.0014965911258334158;-9.527892906483729e-06;-1.2290185462893537;1.4860635201989805;-0.35697382597901417;9.507952790004623e-06;-0.0015100123380749279;9.49798273176556e-06;-1.2290631338580915;1.4860623101813324;-0.3569861019608211;-9.517922848244341e-06;2.3010017027411123e-05;0.09994784396140452;0.22997745018331314;0.12987897804844373;2.8857629354561712e-05;1.0000067588090016;-5.4785514709910704e-05;2.739275735495535e-05;3.6523676473273796e-05;0.22996211017196155;0.1299403380938502;-4.784242740352162e-05;0.9998235223734064;7.304735294654759e-05;-3.6523676473273796e-05;-2.739275735495535e-05;-0.005313147336269974;0.04217450113839005
1.0001330375671387;-0.12735129358023636;-0.0681354863310621;0.6779501838368602;0.003849780551761449;0.1360010172751801;-0.010741066419228437;-0.0014965911258334158;-9.527892906483729e-06;-1.2290185462893537;1.4860635201989805;-0.35697382597901417;9.507952790004623e-06;-0.0015100123380749279;9.49798273176556e-06;-1.2290631338580915;1.4860623101813324;-0.3569861019608211;-9.517922848244341e-06;2.3010017027411123e-05;0.09994784396140452;0.22997745018331314;0.12987897804844373;2.8857629354561712e-05;1.0000067588090016;-5.4785514709910704e-05;2.739275735495535e-05;3.6523676473273796e-05;0.22996211017196155;0.1299556781052018;-4.784242740352162e-05;0.9998542023961098;7.304735294654759e-05;-3.6523676473273796e-05;-2.739275735495535e-05;-0.005313147336269974;0.04217450113839005
1.0202295780181885;-0.12741288729066633;-0.06824054988340378;0.6779280431892674;0.0038674445790531533;0.13590992316335976;-0.01058432269229368;-0.0014965911258334158;-9.527892906483729e-06;-1.2290185462893537;1.4860635201989805;-0.35697382597901417;9.507952790004623e-06;-0.0015100123380749279;9.49798273176556e-06;-1.2290631338580915;1.4860623101813324;-0.3569861019608211;-9.517922848244341e-06;2.3010017027411123e-05;0.09994784396140452;0.22997745018331314;0.12987897804844373;2.8857629354561712e-05;1.0000067588090016;-5.4785514709910704e-05;2.739275735495535e-05;3.6523676473273796e-05;0.22996211017196155;0.1299556781052018;-4.784242740352162e-05;0.9998695424074614;7.304735294654759e-05;-3.6523676473273796e-05;-2.739275735495535e-05;-0.005313147336269974;0.04217450113839005
1.0399839878082275;-0.1273935758048713;-0.06825347894287524;0.6779303708305194;0.0039131136571513275;0.13593391912603825;-0.010573360176214908;-0.0014965911258334158;-9.527892906483729e-06;-1.2290185462893537;1.4860635201989805;-0.35697382597901417;9.507952790004623e-06;-0.0015100123380749279;9.49798273176556e-06;-1.2290631338580915;1.4860623101813324;-0.3569861019608211;-9.517922848244341e-06;2.3010017027411123e-05;0.09994784396140452;0.22999279019466476;0.12989431805979534;2.8857629354561712e-05;1.0000067588090016;-5.4785514709910704e-05;2.739275735495535e-05;3.6523676473273796e-05;0.22996211017196155;0.1299556781052018;-4.784242740352162e-05;0.9998695424074614;6.391643382822915e-05;-3.6523676473273796e-05;-2.739275735495535e-05;-0.005313147336269974;0.04063861139663505
1.0599937438964844;-0.12739368041500293;-0.0683155822092884;0.6779240957926549;0.00395888168188385;0.1359299930347356;-0.010487385518947191;-0.0014965911258334158;-9.527892906483729e-06;-1.2290185462893537;1.4860635201989805;-0.35697382597901417;9.507952790004623e-06;-0.0015100123380749279;9.49798273176556e-06;-1.2290631338580915;1.4860623101813324;-0.3569861019608211;-9.517922848244341e-06;2.3010017027411123e-05;0.09994784396140452;0.22999279019466476;0.12989431805979534;2.8857629354561712e-05;1.0000067588090016;-5.4785514709910704e-05;2.739275735495535e-05;3.6523676473273796e-05;0.22996211017196155;0.1299556781052018;-4.784242740352162e-05;0.9998848824188128;7.304735294654759e-05;-3.6523676473273796e-05;-2.739275735495535e-05;-0.005313147336269974;0.04063861139663505
1.0799782276153564;-0.12737574957138667;-0.06835737287347678;0.6779232524655917;0.003954527649294688;0.13595751323105584;-0.010422564119445437;-0.0014965911258334158;-9.527892906483729e-06;-1.2290185462893537;1.4860635201989805;-0.35697382597901417;9.507952790004623e-06;-0.0015100123380749279;9.49798273176556e-06;-1.2290631338580915;1.4860623101813324;-0.3569861019608211;-9.517922848244341e-06;2.3010017027411123e-05;0.09994784396140452;0.22999279019466476;0.12990965807114696;2.8857629354561712e-05;1.0000067588090016;-5.4785514709910704e-05;2.739275735495535e-05;3.6523676473273796e-05;0.22996211017196155;0.1299556781052018;-4.784242740352162e-05;0.9998848824188128;7.304735294654759e-05;-3.6523676473273796e-05;-2.739275735495535e-05;-0.005313147336269974;0.04217450113839005
1.1002662181854248;-0.12741768970922485;-0.0683530350889701;0.6779158083286245;0.003960259164336185;0.13589499092719073;-0.010430564899700154;-0.0014965911258334158;-9.527892906483729e-06;-1.2290185462893537;1.4860635201989805;-0.35697382597901417;9.507952790004623e-06;-0.0015100123380749279;9.49798273176556e-06;-1.2290631338580915;1.4860623101813324;-0.3569861019608211;-9.517922848244341e-06;2.3010017027411123e-05;0.09994784396140452;0.22999279019466476;0.12992499808249858;2.8857629354561712e-05;1.0000067588090016;-5.4785514709910704e-05;2.739275735495535e-05;3.6523676473273796e-05;0.22996211017196155;0.1299556781052018;-4.784242740352162e-05;0.9999002224301644;7.304735294654759e-05;-3.6523676473273796e-05;-2.739275735495535e-05;-0.005313147336269974;0.04063861139663505
1.1200430393218994;-0.12748860541723095;-0.06831534749031178;0.6779062745133801;0.0039160337511355385;0.13579435745007226;-0.010479953044258885;-0.0014965911258334158;-9.527892906483729e-06;-1.2290185462893537;1.4860635201989805;-0.35697382597901417;9.507952790004623e-06;-0.0015100123380749279;9.49798273176556e-06;-1.2290631338580915;1.4860623101813324;-0.3569861019608211;-9.517922848244341e-06;2.3010017027411123e-05;0.09994784396140452;0.23000813020601635;0.1299403380938502;2.8857629354561712e-05;1.0000067588090016;-5.4785514709910704e-05;2.739275735495535e-05;3.6523676473273796e-05;0.22996211017196155;0.12997101811655346;-4.784242740352162e-05;0.9999002224301644;6.391643382822915e-05;-3.6523676473273796e-05;-2.739275735495535e-05;-0.005313147336269974;0.04063861139663505
1.140134334564209;-0.12737312291814795;-0.06837192655850166;0.6779222783293968;0.003918987658184632;0.1359652569859788;-0.01039337503616944;-0.0014965911258334158;-9.527892906483729e-06;-1.2290185462893537;1.4860635201989805;-0.35697382597901417;9.507952790004623e-06;-0.0015100123380749279;9.49798273176556e-06;-1.2290631338580915;1.4860623101813324;-0.3569861019608211;-9.517922848244341e-06;2.3010017027411123e-05;0.09994784396140452;0.23000813020601635;0.12997101811655346;2.8857629354561712e-05;1.0000067588090016;-5.4785514709910704e-05;2.739275735495535e-05;3.6523676473273796e-05;0.22996211017196155;0.12997101811655346;-4.784242740352162e-05;0.9999002224301644;6.391643382822915e-05;-3.6523676473273796e-05;-2.739275735495535e-05;-0.005313147336269974;0.04063861139663505
1.1602578163146973;-0.12733760413594442;-0.06834716264076938;0.6779314479875059;0.003966180481163187;0.1360124345486513;-0.010440209096625063;-0.0014965911258334158;-9.527892906483729e-06;-1.2290185462893537;1.4860635201989805;-0.35697382597901417;9.507952790004623e-06;-0.0015100123380749279;9.49798273176556e-06;-1.2290631338580915;1.4860623101813324;-0.3569861019608211;-9.517922848244341e-06;2.3010017027411123e-05;0.09994784396140452;0.230023470217368;0.12998635812790504;2.8857629354561712e-05;1.0000067588090016;-5.4785514709910704e-05;2.2827297795796123e-05;3.195821691411457e-05;0.22996211017196155;0.12998635812790504;-4.784242740352162e-05;0.999915562441516;7.304735294654759e-05;-3.195821691411457e-05;-2.2827297795796123e-05;-0.005313147336269974;0.04217450113839005
1.1800196170806885;-0.1273109067102967;-0.06841971310085376;0.6779291438862632;0.003982628849473511;0.13605120688083358;-0.010332383390674648;-0.0014965911258334158;-9.527892906483729e-06;-1.2290185462893537;1.4860635201989805;-0.35697382597901417;9.507952790004623e-06;-0.0015100123380749279;9.49798273176556e-06;-1.2290631338580915;1.4860623101813324;-0.3569861019608211;-9.517922848244341e-06;2.3010017027411123e-05;0.09994784396140452;0.230023470217368;0.13001703815060828;2.8857629354561712e-05;1.0000067588090016;-5.4785514709910704e-05;2.739275735495535e-05;3.6523676473273796e-05;0.22996211017196155;0.12998635812790504;-4.784242740352162e-05;0.9999309024528678;7.304735294654759e-05;-3.6523676473273796e-05;-2.739275735495535e-05;-0.005313147336269974;0.04063861139663505
1.200061559677124;-0.12721365397191978;-0.06842121166623913;0.677947248888731;0.003980791271531534;0.1361948787625009;-0.010329143374512394;-0.0014965911258334158;-9.527892906483729e-06;-1.2290185462893537;1.4860635201989805;-0.35697382597901417;9.507952790004623e-06;-0.0015100123380749279;9.49798273176556e-06;-1.2290631338580915;1.4860623101813324;-0.3569861019608211;-9.517922848244341e-06;2.3010017027411123e-05;0.09994784396140452;0.230023470217368;0.13009373820736625;2.8857629354561712e-05;1.0000067588090016;-5.4785514709910704e-05;2.2827297795796123e-05;3.195821691411457e-05;0.22996211017196155;0.13000169813925666;-4.784242740352162e-05;0.9999615824755709;7.304735294654759e-05;-3.6523676473273796e-05;-2.739275735495535e-05;-0.005313147336269974;0.04217450113839005
1.2200560569763184;-0.12718012765074643;-0.06837959243003633;0.6779577381433186;0.004096461931069348;0.13623182762419486;-0.010415071632702104;-0.0014965911258334158;-9.527892906483729e-06;-1.2290185462893537;1.4860635201989805;-0.35697382597901417;9.507952790004623e-06;-0.0015100123380749279;9.49798273176556e-06;-1.2290631338580915;1.4860623101813324;-0.3569861019608211;-9.517922848244341e-06;2.3010017027411123e-05;0.09994784396140452;0.230023470217368;0.13010907821871787;2.8857629354561712e-05;1.0000067588090016;-5.4785514709910704e-05;2.739275735495535e-05;3.6523676473273796e-05;0.22996211017196155;0.1300323781619599;-4.784242740352162e-05;0.9999769224869226;6.391643382822915e-05;-3.6523676473273796e-05;-2.739275735495535e-05;-0.005313147336269974;0.04063861139663505
1.240171194076538;-0.1271858563814934;-0.06840094398328747;0.6779533868770229;0.004129673361956959;0.13623940832684112;-0.01038900355860853;-0.0014965911258334158;-9.527892906483729e-06;-1.2290427875382628;1.4860635201989805;-0.35697382597901417;9.507952790004623e-06;-0.0015100123380749279;9.49798273176556e-06;-1.2290631338580915;1.4860623101813324;-0.3569861019608211;-9.517922848244341e-06;2.3010017027411123e-05;0.09994784396140452;0.230023470217368;0.13012441823006948;2.8857629354561712e-05;1.0000067588090016;-5.4785514709910704e-05;2.739275735495535e-05;3.6523676473273796e-05;0.22996211017196155;0.1300477181733114;-4.784242740352162e-05;1.0000076025096258;5.4785514709910704e-05;-3.6523676473273796e-05;-2.739275735495535e-05;-0.005313147336269974;0.04217450113839005
1.260061502456665;-0.12708701463955296;-0.06840970116124258;0.6779710388182969;0.004181959251277913;0.13637996311701145;-0.01038517443406639;-0.0014965911258334158;-9.527892906483729e-06;-1.2290427875382628;1.4860635201989805;-0.35697382597901417;9.507952790004623e-06;-0.0015100123380749279;9.49798273176556e-06;-1.2290631338580915;1.4860623101813324;-0.3569861019608211;-9.517922848244341e-06;2.3010017027411123e-05;0.09994784396140452;0.230023470217368;0.13012441823006948;2.8857629354561712e-05;1.0000067588090016;-5.4785514709910704e-05;2.739275735495535e-05;3.6523676473273796e-05;0.22996211017196155;0.13006305818466302;-4.784242740352162e-05;1.000053622543681;7.304735294654759e-05;-3.6523676473273796e-05;-2.739275735495535e-05;-0.005313147336269974;0.04063861139663505
1.2799944877624512;-0.1270679749670058;-0.06841733725373925;0.6779738370174896;0.004343566259436527;0.13639155214508267;-0.010404836982759257;-0.0014965911258334158;-9.527892906483729e-06;-1.2290427875382628;1.4860635201989805;-0.35697382597901417;9.507952790004623e-06;-0.0015100123380749279;9.49798273176556e-06;-1.2290631338580915;1.4860623101813324;-0.3569861019608211;-9.517922848244341e-06;2.3010017027411123e-05;0.09994784396140452;0.230023470217368;0.13012441823006948;2.8857629354561712e-05;1.0000067588090016;-5.4785514709910704e-05;2.739275735495535e-05;3.6523676473273796e-05;0.22996211017196155;0.13007839819601466;-4.784242740352162e-05;1.0000689625550323;7.304735294654759e-05;-3.6523676473273796e-05;-2.739275735495535e-05;-0.005313147336269974;0.04217450113839005
1.3000400066375732;-0.127091969412384;-0.0684536923957678;0.6779656696969193;0.004337052124404778;0.1363573517417597;-0.010348170149132925;-0.0014965911258334158;-9.527892906483729e-06;-1.2290427875382628;1.4860635201989805;-0.35697382597901417;9.507952790004623e-06;-0.0015100123380749279;9.49798273176556e-06;-1.2290631338580915;1.4860623101813324;-0.3569861019608211;-9.517922848244341e-06;2.3010017027411123e-05;0.09994784396140452;0.230023470217368;0.13012441823006948;2.8857629354561712e-05;1.0000067588090016;-5.4785514709910704e-05;2.739275735495535e-05;3.6523676473273796e-05;0.22996211017196155;0.13007839819601466;-4.784242740352162e-05;1.0000689625550323;6.391643382822915e-05;-3.6523676473273796e-05;-2.739275735495535e-05;-0.005313147336269974;0.04063861139663505
1.3201351165771484;-0.1269740184006975;-0.06846991941545767;0.6779816405100073;0.00428895949079821;0.13661303677638295;-0.010313457330329328;-0.0014965911258334158;-9.527892906483729e-06;-1.2291397525338994;1.4860635201989805;-0.35697382597901417;9.507952790004623e-06;-0.0015100123380749279;9.49798273176556e-06;-1.2290631338580915;1.4860623101813324;-0.3569861019608211;-9.517922848244341e-06;2.3010017027411123e-05;0.09994784396140452;0.230023470217368;0.13012441823006948;2.8857629354561712e-05;1.0000067588090016;-5.4785514709910704e-05;2.739275735495535e-05;3.6523676473273796e-05;0.22996211017196155;0.13007839819601466;-4.784242740352162e-05;1.0000689625550323;6.391643382822915e-05;-3.6523676473273796e-05;-2.739275735495535e-05;-0.005313147336269974;0.04063861139663505
1.3402092456817627;-0.12711662044936584;-0.06853313456006747;0.6779429150367056;0.004281959976623816;0.13649997688610974;-0.010216691812900622;-0.0014965911258334158;-9.527892906483729e-06;-1.229260958778445;1.4860635201989805;-0.35697382597901417;9.507952790004623e-06;-0.0015100123380749279;9.49798273176556e-06;-1.2290631338580915;1.4860623101813324;-0.3569861019608211;-9.517922848244341e-06;2.3010017027411123e-05;0.09994784396140452;0.230023470217368;0.13012441823006948;2.8857629354561712e-05;1.0000067588090016;-5.4785514709910704e-05;2.739275735495535e-05;3.6523676473273796e-05;0.22996211017196155;0.13007839819601466;-4.784242740352162e-05;1.0000689625550323;7.304735294654759e-05;-3.6523676473273796e-05;-2.739275735495535e-05;-0.005313147336269974;0.04063861139663505
1.3601396083831787;-0.12722633825500676;-0.06851955295991896;0.6779225828755062;0.00436946434441739;0.13634805394839394;-0.010255276256403186;-0.0014965911258334158;-9.527892906483729e-06;-1.2292852000273542;1.4860635201989805;-0.35697382597901417;9.507952790004623e-06;-0.0015100123380749279;9.49798273176556e-06;-1.2290631338580915;1.4860623101813324;-0.3569861019608211;-9.517922848244341e-06;2.3010017027411123e-05;0.09994784396140452;0.230023470217368;0.13012441823006948;2.8857629354561712e-05;1.0000220988203532;-5.4785514709910704e-05;2.739275735495535e-05;3.6523676473273796e-05;0.22996211017196155;0.13007839819601466;-4.784242740352162e-05;1.0000689625550323;7.304735294654759e-05;-3.6523676473273796e-05;-2.739275735495535e-05;-0.005313147336269974;0.04063861139663505
1.380136251449585;-0.12719293999191225;-0.06854753501305227;0.677926021123286;0.004401626157305408;0.13639441367199423;-0.010218553814630358;-0.0014965911258334158;-9.527892906483729e-06;-1.2292852000273542;1.4860635201989805;-0.35697382597901417;9.507952790004623e-06;-0.0015100123380749279;9.49798273176556e-06;-1.2290631338580915;1.4860623101813324;-0.3569861019608211;-9.517922848244341e-06;2.3010017027411123e-05;0.09994784396140452;0.230023470217368;0.13012441823006948;2.8857629354561712e-05;1.0000220988203532;-5.4785514709910704e-05;2.739275735495535e-05;3.6523676473273796e-05;0.22996211017196155;0.13007839819601466;-4.784242740352162e-05;1.0000689625550323;7.304735294654759e-05;-3.195821691411457e-05;-2.2827297795796123e-05;-0.005313147336269974;0.04217450113839005
1.4000327587127686;-0.1272127874049182;-0.06859547489450772;0.6779174479247971;0.004433937971307127;0.1363624948039305;-0.010151715428938637;-0.0014965911258334158;-9.527892906483729e-06;-1.2292852000273542;1.4860635201989805;-0.35697382597901417;9.507952790004623e-06;-0.0015100123380749279;9.49798273176556e-06;-1.2290631338580915;1.4860623101813324;-0.3569861019608211;-9.517922848244341e-06;2.3010017027411123e-05;0.09994784396140452;0.230023470217368;0.13012441823006948;2.8857629354561712e-05;1.0000220988203532;-5.4785514709910704e-05;2.739275735495535e-05;3.6523676473273796e-05;0.22996211017196155;0.13007839819601466;-4.784242740352162e-05;1.0000689625550323;7.304735294654759e-05;-3.6523676473273796e-05;-2.739275735495535e-05;-0.005313147336269974;0.04217450113839005
1.420149326324463;-0.12726626832090915;-0.06863305713389185;0.6779036060328403;0.004338527109282725;0.136293972426696;-0.010076036240326193;-0.0014965911258334158;-9.527892906483729e-06;-1.2292852000273542;1.4860635201989805;-0.35697382597901417;9.507952790004623e-06;-0.0015100123380749279;9.49798273176556e-06;-1.2290631338580915;1.4860623101813324;-0.3569861019608211;-9.517922848244341e-06;2.3010017027411123e-05;0.09994784396140452;0.230023470217368;0.13012441823006948;2.8857629354561712e-05;1.0000220988203532;-5.4785514709910704e-05;2.739275735495535e-05;3.6523676473273796e-05;0.22996211017196155;0.13007839819601466;-4.784242740352162e-05;1.0000689625550323;6.391643382822915e-05;-3.6523676473273796e-05;-2.739275735495535e-05;-0.005313147336269974;0.04217450113839005
1.4400339126586914;-0.12731554543703077;-0.06860202491437928;0.6778974942599508;0.004391162800551127;0.13621540624366815;-0.010134057834911121;-0.0014965911258334158;-9.527892906483729e-06;-1.2292852000273542;1.4860635201989805;-0.35697382597901417;9.507952790004623e-06;-0.0015100123380749279;9.49798273176556e-06;-1.2290631338580915;1.4860623101813324;-0.3569861019608211;-9.517922848244341e-06;2.3010017027411123e-05;0.09994784396140452;0.230023470217368;0.13012441823006948;2.8857629354561712e-05;1.0000220988203532;-5.4785514709910704e-05;2.739275735495535e-05;3.6523676473273796e-05;0.22996211017196155;0.13007839819601466;-4.784242740352162e-05;1.0000689625550323;7.304735294654759e-05;-3.6523676473273796e-05;-2.739275735495535e-05;-0.005313147336269974;0.04063861139663505
1.4600090980529785;-0.12734404086614057;-0.06865756014998581;0.6778865195195548;0.004291207450034921;0.13618447416009433;-0.010029870893748455;-0.0014965911258334158;-9.527892906483729e-06;-1.2292852000273542;1.4860635201989805;-0.35697382597901417;9.507952790004623e-06;-0.0015100123380749279;9.49798273176556e-06;-1.2290631338580915;1.4860623101813324;-0.3569861019608211;-9.517922848244341e-06;2.3010017027411123e-05;0.09994784396140452;0.230023470217368;0.13012441823006948;2.8857629354561712e-05;1.0000220988203532;-5.4785514709910704e-05;2.739275735495535e-05;3.6523676473273796e-05;0.22996211017196155;0.13007839819601466;-4.784242740352162e-05;1.0000689625550323;7.304735294654759e-05;-3.6523676473273796e-05;-2.739275735495535e-05;-0.005313147336269974;0.04063861139663505
1.4800043106079102;-0.1272745634430605;-0.06864645369400127;0.6779006922491064;0.004250707052656321;0.13629098475228565;-0.010038493653433149;-0.0014965911258334158;-9.527892906483729e-06;-1.2292852000273542;1.4860635201989805;-0.35697382597901417;9.507952790004623e-06;-0.0015100123380749279;9.49798273176556e-06;-1.2290631338580915;1.4860623101813324;-0.3569861019608211;-9.517922848244341e-06;2.3010017027411123e-05;0.09994784396140452;0.230023470217368;0.13012441823006948;2.8857629354561712e-05;1.0000220988203532;-5.4785514709910704e-05;2.739275735495535e-05;3.6523676473273796e-05;0.22996211017196155;0.13007839819601466;-4.784242740352162e-05;1.0000843025663841;7.304735294654759e-05;-3.6523676473273796e-05;-2.739275735495535e-05;-0.005313147336269974;0.04063861139663505
1.500032901763916;-0.12730217421894946;-0.06866948307783645;0.6778931753522476;0.00419233195981766;0.13625661106085807;-0.009992091627909839;-0.0014965911258334158;-9.527892906483729e-06;-1.2292852000273542;1.4860635201989805;-0.35697382597901417;9.507952790004623e-06;-0.0015100123380749279;9.49798273176556e-06;-1.2290631338580915;1.4860623101813324;-0.3569861019608211;-9.517922848244341e-06;2.3010017027411123e-05;0.09994784396140452;0.230023470217368;0.13012441823006948;2.8857629354561712e-05;1.0000220988203532;-5.4785514709910704e-05;2.2827297795796123e-05;3.195821691411457e-05;0.22996211017196155;0.13007839819601466;-4.784242740352162e-05;1.0000843025663841;6.391643382822915e-05;-3.6523676473273796e-05;-2.739275735495535e-05;-0.005313147336269974;0.04063861139663505
1.5201482772827148;-0.1271847804870731;-0.06869092132510139;0.6779130383730394;0.004062233146837281;0.13644353510042867;-0.009933227348009081;-0.0014965911258334158;-9.527892906483729e-06;-1.2292852000273542;1.4860635201989805;-0.35697382597901417;9.507952790004623e-06;-0.0015100123380749279;9.49798273176556e-06;-1.2290631338580915;1.4860623101813324;-0.3569861019608211;-9.517922848244341e-06;2.3010017027411123e-05;0.09994784396140452;0.230023470217368;0.13012441823006948;2.8857629354561712e-05;1.0000220988203532;-5.4785514709910704e-05;2.739275735495535e-05;3.6523676473273796e-05;0.22996211017196155;0.13007839819601466;-4.784242740352162e-05;1.0000843025663841;6.391643382822915e-05;-3.6523676473273796e-05;-2.739275735495535e-05;-0.005313147336269974;0.04063861139663505
1.5400214195251465;-0.12724515983584087;-0.06872830248283658;0.6778979188582754;0.003969317343610562;0.1363646185215743;-0.009858359128855148;-0.0014965911258334158;-9.527892906483729e-06;-1.2292852000273542;1.4860635201989805;-0.35697382597901417;9.507952790004623e-06;-0.0015100123380749279;9.49798273176556e-06;-1.2290631338580915;1.4860623101813324;-0.3569861019608211;-9.517922848244341e-06;2.3010017027411123e-05;0.09994784396140452;0.230023470217368;0.13012441823006948;2.8857629354561712e-05;1.0000220988203532;-5.4785514709910704e-05;2.739275735495535e-05;3.6523676473273796e-05;0.22996211017196155;0.13007839819601466;-4.784242740352162e-05;1.0000843025663841;7.304735294654759e-05;-3.6523676473273796e-05;-2.739275735495535e-05;-0.005313147336269974;0.04217450113839005
1.5600357055664062;-0.1272343448171321;-0.06884249923912203;0.6778883613499119;0.003920061827826595;0.13638739175239434;-0.00967415338909098;-0.0014965911258334158;-9.527892906483729e-06;-1.2292852000273542;1.4860635201989805;-0.35697382597901417;9.507952790004623e-06;-0.0015100123380749279;9.49798273176556e-06;-1.2290631338580915;1.4860623101813324;-0.3569861019608211;-9.517922848244341e-06;2.3010017027411123e-05;0.09994784396140452;0.230023470217368;0.13012441823006948;2.8857629354561712e-05;1.0000220988203532;-5.4785514709910704e-05;2.739275735495535e-05;3.6523676473273796e-05;0.22996211017196155;0.13007839819601466;-4.784242740352162e-05;1.0000843025663841;7.304735294654759e-05;-3.6523676473273796e-05;-2.739275735495535e-05;-0.005313147336269974;0.04063861139663505
1.5801239013671875;-0.12729524552846683;-0.06878954232828505;0.677882303935067;0.0038122123898150905;0.13630789944123584;-0.009734432142353347;-0.0014965911258334158;-9.527892906483729e-06;-1.2292852000273542;1.4860635201989805;-0.35697382597901417;9.507952790004623e-06;-0.0015100123380749279;9.49798273176556e-06;-1.2290631338580915;1.4860623101813324;-0.3569861019608211;-9.517922848244341e-06;2.3010017027411123e-05;0.09994784396140452;0.230023470217368;0.13012441823006948;2.8857629354561712e-05;1.0000220988203532;-5.4785514709910704e-05;2.739275735495535e-05;3.6523676473273796e-05;0.22996211017196155;0.13007839819601466;-4.784242740352162e-05;1.0000843025663841;7.304735294654759e-05;-3.6523676473273796e-05;-2.739275735495535e-05;-0.005313147336269974;0.04063861139663505
1.6000185012817383;-0.12731496985999394;-0.06884653239989039;0.6778739375441585;0.0037468712886977984;0.1362673068114147;-0.009634650583654397;-0.0014965911258334158;-9.527892906483729e-06;-1.229260958778445;1.4860635201989805;-0.35697382597901417;9.507952790004623e-06;-0.0015100123380749279;9.49798273176556e-06;-1.2290631338580915;1.4860623101813324;-0.3569861019608211;-9.517922848244341e-06;2.3010017027411123e-05;0.09994784396140452;0.230023470217368;0.13012441823006948;2.8857629354561712e-05;1.0000220988203532;-5.4785514709910704e-05;2.739275735495535e-05;3.6523676473273796e-05;0.22996211017196155;0.13007839819601466;-4.784242740352162e-05;1.0000843025663841;6.391643382822915e-05;-3.195821691411457e-05;-2.2827297795796123e-05;-0.005313147336269974;0.04217450113839005
1.6200616359710693;-0.12723372662625873;-0.06889425688081634;0.6778854659797247;0.0038988066848139368;0.13635302819651335;-0.009590799847229426;-0.0014965911258334158;-9.527892906483729e-06;-1.2292367175295358;1.4860635201989805;-0.35697382597901417;9.507952790004623e-06;-0.0015100123380749279;9.49798273176556e-06;-1.2290631338580915;1.4860623101813324;-0.3569861019608211;-9.517922848244341e-06;2.3010017027411123e-05;0.09994784396140452;0.230023470217368;0.13012441823006948;2.8857629354561712e-05;1.0000220988203532;-5.4785514709910704e-05;2.739275735495535e-05;3.6523676473273796e-05;0.22996211017196155;0.13007839819601466;-4.784242740352162e-05;1.0000843025663841;6.391643382822915e-05;-3.6523676473273796e-05;-2.739275735495535e-05;-0.005313147336269974;0.04063861139663505
1.6400558948516846;-0.12716545781017968;-0.06904200426321722;0.6778899831020129;0.00393440094509272;0.13633750829638527;-0.009371216435533122;-0.0014965911258334158;-9.527892906483729e-06;-1.2290912700360812;1.4860635201989805;-0.35697382597901417;9.507952790004623e-06;-0.0015100123380749279;9.49798273176556e-06;-1.2290631338580915;1.4860623101813324;-0.3569861019608211;-9.517922848244341e-06;2.3010017027411123e-05;0.09994784396140452;0.230023470217368;0.13012441823006948;2.8857629354561712e-05;1.0000220988203532;-5.4785514709910704e-05;2.739275735495535e-05;3.6523676473273796e-05;0.22996211017196155;0.13007839819601466;-4.784242740352162e-05;1.0000843025663841;7.304735294654759e-05;-3.6523676473273796e-05;-2.739275735495535e-05;-0.005313147336269974;0.04063861139663505
1.660062551498413;-0.12713288997323924;-0.06909015961828986;0.677894554019675;0.0038819178417943516;0.13633434097043914;-0.00928705977319043;-0.0014965911258334158;-9.527892906483729e-06;-1.2290185462893537;1.4860635201989805;-0.35697382597901417;9.507952790004623e-06;-0.0015100123380749279;9.49798273176556e-06;-1.2290631338580915;1.4860623101813324;-0.3569861019608211;-9.517922848244341e-06;2.3010017027411123e-05;0.09994784396140452;0.230023470217368;0.13012441823006948;2.8857629354561712e-05;1.0000220988203532;-5.4785514709910704e-05;2.739275735495535e-05;3.6523676473273796e-05;0.22996211017196155;0.13007839819601466;-4.784242740352162e-05;1.0000843025663841;7.304735294654759e-05;-3.6523676473273796e-05;-2.739275735495535e-05;-0.005313147336269974;0.04063861139663505
1.6800360679626465;-0.12712566140790754;-0.06908630659713924;0.6778963023139535;0.0038145193974052473;0.13635194636752734;-0.0092797831767346;-0.0014965911258334158;-9.527892906483729e-06;-1.2290185462893537;1.4860635201989805;-0.35697382597901417;9.507952790004623e-06;-0.0015100123380749279;9.49798273176556e-06;-1.2290631338580915;1.4860623101813324;-0.3569861019608211;-9.517922848244341e-06;2.3010017027411123e-05;0.09994784396140452;0.230023470217368;0.13012441823006948;2.8857629354561712e-05;1.0000220988203532;-5.4785514709910704e-05;2.739275735495535e-05;3.6523676473273796e-05;0.22996211017196155;0.13007839819601466;-4.784242740352162e-05;1.0000843025663841;7.304735294654759e-05;-3.6523676473273796e-05;-2.739275735495535e-05;-0.005313147336269974;0.04063861139663505
1.7000758647918701;-0.12708609852794964;-0.06906976915463978;0.6779054054869542;0.003957826899305394;0.13639517497507653;-0.009332721646370072;-0.0014965911258334158;-9.527892906483729e-06;-1.2290185462893537;1.4860635201989805;-0.35697382597901417;9.507952790004623e-06;-0.0015100123380749279;9.49798273176556e-06;-1.2290631338580915;1.4860623101813324;-0.3569861019608211;-9.517922848244341e-06;2.3010017027411123e-05;0.09994784396140452;0.230023470217368;0.13012441823006948;2.8857629354561712e-05;1.0000220988203532;-5.4785514709910704e-05;2.739275735495535e-05;3.6523676473273796e-05;0.22996211017196155;0.13007839819601466;-4.784242740352162e-05;1.0000843025663841;6.391643382822915e-05;-3.6523676473273796e-05;-2.739275735495535e-05;-0.005313147336269974;0.04063861139663505
1.7201273441314697;-0.1271757682536834;-0.06915062582743882;0.6778803457508721;0.0039716008349135745;0.1362626873882393;-0.009212368427111069;-0.0014965911258334158;-9.527892906483729e-06;-1.2290185462893537;1.4860635201989805;-0.35697382597901417;9.507952790004623e-06;-0.0015100123380749279;9.49798273176556e-06;-1.2290631338580915;1.4860623101813324;-0.3569861019608211;-9.517922848244341e-06;2.3010017027411123e-05;0.09994784396140452;0.230023470217368;0.13012441823006948;2.8857629354561712e-05;1.0000220988203532;-5.4785514709910704e-05;2.739275735495535e-05;3.6523676473273796e-05;0.22996211017196155;0.13007839819601466;-4.784242740352162e-05;1.0000843025663841;5.4785514709910704e-05;-3.6523676473273796e-05;-2.739275735495535e-05;-0.005313147336269974;0.04063861139663505
1.7400214672088623;-0.1271402574029745;-0.06916194478426578;0.6778858521755166;0.004026509915896634;0.1363095384960233;-0.009205546284551717;-0.0014965911258334158;-9.527892906483729e-06;-1.2290185462893537;1.4860635201989805;-0.35697382597901417;9.507952790004623e-06;-0.0015100123380749279;9.49798273176556e-06;-1.2290631338580915;1.4860623101813324;-0.3569861019608211;-9.517922848244341e-06;2.3010017027411123e-05;0.09994784396140452;0.230023470217368;0.13012441823006948;2.8857629354561712e-05;1.0000220988203532;-5.4785514709910704e-05;2.739275735495535e-05;3.6523676473273796e-05;0.22996211017196155;0.13007839819601466;-4.784242740352162e-05;1.0000843025663841;7.304735294654759e-05;-3.6523676473273796e-05;-2.739275735495535e-05;-0.005313147336269974;0.04217450113839005
1.7600164413452148;-0.12719491393742718;-0.0691185708021438;0.6778800227748877;0.004099186141839269;0.1362207027659257;-0.009286333689187989;-0.0014965911258334158;-9.527892906483729e-06;-1.2290185462893537;1.4860635201989805;-0.35697382597901417;9.507952790004623e-06;-0.0015100123380749279;9.49798273176556e-06;-1.2290631338580915;1.4860623101813324;-0.3569861019608211;-9.517922848244341e-06;2.3010017027411123e-05;0.09994784396140452;0.230023470217368;0.13012441823006948;2.8857629354561712e-05;1.0000220988203532;-5.4785514709910704e-05;2.739275735495535e-05;3.6523676473273796e-05;0.22996211017196155;0.13007839819601466;-4.784242740352162e-05;1.0000843025663841;7.304735294654759e-05;-3.6523676473273796e-05;-2.739275735495535e-05;-0.005313147336269974;0.04217450113839005
1.780043125152588;-0.12728028291636004;-0.06911089615217696;0.677864781392526;0.004092442672717521;0.13609534551091415;-0.00929728345569236;-0.0014965911258334158;-9.527892906483729e-06;-1.2290185462893537;1.4860635201989805;-0.35697382597901417;9.507952790004623e-06;-0.0015100123380749279;9.49798273176556e-06;-1.2290631338580915;1.4860623101813324;-0.3569861019608211;-9.517922848244341e-06;2.3010017027411123e-05;0.09994784396140452;0.230023470217368;0.13012441823006948;2.8857629354561712e-05;1.0000220988203532;-5.4785514709910704e-05;2.739275735495535e-05;3.6523676473273796e-05;0.22996211017196155;0.13007839819601466;-4.784242740352162e-05;1.0000843025663841;7.304735294654759e-05;-3.6523676473273796e-05;-2.739275735495535e-05;-0.005313147336269974;0.04063861139663505
1.8001306056976318;-0.12726299592012996;-0.06905724218348204;0.677873495137557;0.004114097745030658;0.1361177999738297;-0.009383399009611966;-0.0014965911258334158;-9.527892906483729e-06;-1.2290185462893537;1.4860635201989805;-0.35697382597901417;9.507952790004623e-06;-0.0015100123380749279;9.49798273176556e-06;-1.2290631338580915;1.4860623101813324;-0.3569861019608211;-9.517922848244341e-06;2.3010017027411123e-05;0.09994784396140452;0.230023470217368;0.13012441823006948;2.8857629354561712e-05;1.0000220988203532;-5.4785514709910704e-05;2.2827297795796123e-05;3.195821691411457e-05;0.22996211017196155;0.13007839819601466;-4.784242740352162e-05;1.0000843025663841;6.391643382822915e-05;-3.6523676473273796e-05;-2.739275735495535e-05;-0.005313147336269974;0.04063861139663505
1.82015061378479;-0.12726950071182;-0.0690244779006833;0.677875610918157;0.004189518013119026;0.1360998933158513;-0.009448218109767337;-0.0014965911258334158;-9.527892906483729e-06;-1.2290185462893537;1.4860635201989805;-0.35697382597901417;9.507952790004623e-06;-0.0015100123380749279;9.49798273176556e-06;-1.2290631338580915;1.4860623101813324;-0.3569861019608211;-9.517922848244341e-06;2.3010017027411123e-05;0.09994784396140452;0.230023470217368;0.13012441823006948;2.8857629354561712e-05;1.0000220988203532;-5.4785514709910704e-05;2.739275735495535e-05;3.6523676473273796e-05;0.22996211017196155;0.13007839819601466;-4.784242740352162e-05;1.0000843025663841;7.304735294654759e-05;-3.6523676473273796e-05;-2.739275735495535e-05;-0.005313147336269974;0.04063861139663505
1.840134620666504;-0.12726587729882766;-0.0689707998138201;0.6778817547972243;0.004151134725396482;0.13610842405866136;-0.009522750220353348;-0.0014965911258334158;-9.527892906483729e-06;-1.2290185462893537;1.4860635201989805;-0.35697382597901417;9.507952790004623e-06;-0.0015100123380749279;9.49798273176556e-06;-1.2290631338580915;1.4860623101813324;-0.3569861019608211;-9.517922848244341e-06;2.3010017027411123e-05;0.09994784396140452;0.230023470217368;0.13012441823006948;2.8857629354561712e-05;1.0000220988203532;-5.4785514709910704e-05;2.739275735495535e-05;3.6523676473273796e-05;0.22996211017196155;0.13007839819601466;-4.784242740352162e-05;1.0000843025663841;7.304735294654759e-05;-3.6523676473273796e-05;-2.739275735495535e-05;-0.005313147336269974;0.04217450113839005
1.860041856765747;-0.1272620482910504;-0.06894464384982062;0.6778851343610878;0.004158980174554834;0.13611287269803637;-0.009564230027028626;-0.0014965911258334158;-9.527892906483729e-06;-1.2290185462893537;1.4860635201989805;-0.35697382597901417;9.507952790004623e-06;-0.0015100123380749279;9.49798273176556e-06;-1.2290631338580915;1.4860623101813324;-0.3569861019608211;-9.517922848244341e-06;2.3010017027411123e-05;0.09994784396140452;0.230023470217368;0.13012441823006948;2.8857629354561712e-05;1.0000220988203532;-5.4785514709910704e-05;2.739275735495535e-05;3.6523676473273796e-05;0.22996211017196155;0.13007839819601466;-4.784242740352162e-05;1.0000843025663841;7.304735294654759e-05;-3.6523676473273796e-05;-2.739275735495535e-05;-0.005313147336269974;0.04063861139663505
1.8801305294036865;-0.12733576094963234;-0.06892886191516544;0.6778728968007355;0.003988852672966314;0.13602151673396884;-0.009555636911514372;-0.0014965911258334158;-9.527892906483729e-06;-1.2290185462893537;1.4860635201989805;-0.35697382597901417;9.507952790004623e-06;-0.0015100123380749279;9.49798273176556e-06;-1.2290631338580915;1.4860623101813324;-0.3569861019608211;-9.517922848244341e-06;2.3010017027411123e-05;0.09994784396140452;0.230023470217368;0.13012441823006948;2.8857629354561712e-05;1.0000220988203532;-5.4785514709910704e-05;2.739275735495535e-05;3.6523676473273796e-05;0.22996211017196155;0.13007839819601466;-4.784242740352162e-05;1.0000843025663841;6.391643382822915e-05;-3.6523676473273796e-05;-2.739275735495535e-05;-0.005313147336269974;0.04217450113839005
1.9001538753509521;-0.1273254673192328;-0.0689711234912843;0.6778705316908615;0.004009813865798397;0.13603516540526606;-0.009495072458544316;-0.0014965911258334158;-9.527892906483729e-06;-1.2290185462893537;1.4860635201989805;-0.35697382597901417;9.507952790004623e-06;-0.0015100123380749279;9.49798273176556e-06;-1.2290631338580915;1.4860623101813324;-0.3569861019608211;-9.517922848244341e-06;2.3010017027411123e-05;0.09994784396140452;0.230023470217368;0.13012441823006948;2.8857629354561712e-05;1.0000220988203532;-5.4785514709910704e-05;2.739275735495535e-05;3.6523676473273796e-05;0.22996211017196155;0.13007839819601466;-4.784242740352162e-05;1.0000843025663841;6.391643382822915e-05;-3.6523676473273796e-05;-2.739275735495535e-05;-0.005313147336269974;0.04063861139663505
1.9200632572174072;-0.12726399571280647;-0.06895101723228816;0.6778841205223839;0.003958408775136695;0.13613087779218397;-0.009515404784568934;-0.0014965911258334158;-9.527892906483729e-06;-1.2290185462893537;1.4860635201989805;-0.35697382597901417;9.507952790004623e-06;-0.0015100123380749279;9.49798273176556e-06;-1.2290631338580915;1.4860623101813324;-0.3569861019608211;-9.517922848244341e-06;2.3010017027411123e-05;0.09994784396140452;0.230023470217368;0.13012441823006948;2.8857629354561712e-05;1.0000220988203532;-5.4785514709910704e-05;2.739275735495535e-05;3.6523676473273796e-05;0.22996211017196155;0.13007839819601466;-4.784242740352162e-05;1.0000843025663841;7.304735294654759e-05;-3.6523676473273796e-05;-2.739275735495535e-05;-0.005313147336269974;0.04063861139663505
1.9401459693908691;-0.12718621050163204;-0.0689384017345147;0.6779000021117328;0.004004444477445416;0.13624066835600865;-0.00954318261390923;-0.0014965911258334158;-9.527892906483729e-06;-1.2290185462893537;1.4860635201989805;-0.35697382597901417;9.507952790004623e-06;-0.0015100123380749279;9.49798273176556e-06;-1.2290631338580915;1.4860623101813324;-0.3569861019608211;-9.517922848244341e-06;2.3010017027411123e-05;0.09994784396140452;0.230023470217368;0.13012441823006948;2.8857629354561712e-05;1.0000220988203532;-5.4785514709910704e-05;2.739275735495535e-05;3.6523676473273796e-05;0.22996211017196155;0.13007839819601466;-4.784242740352162e-05;1.0000843025663841;7.304735294654759e-05;-3.6523676473273796e-05;-2.739275735495535e-05;-0.005313147336269974;0.04063861139663505
1.9600389003753662;-0.12722299271553325;-0.06891303202030932;0.6778956795708566;0.003961621924689088;0.13619046046617542;-0.009573836511482378;-0.0014965911258334158;-9.527892906483729e-06;-1.2290185462893537;1.4860635201989805;-0.35697382597901417;9.507952790004623e-06;-0.0015100123380749279;9.49798273176556e-06;-1.2290631338580915;1.4860623101813324;-0.3569861019608211;-9.517922848244341e-06;2.3010017027411123e-05;0.09994784396140452;0.230023470217368;0.13012441823006948;2.8857629354561712e-05;1.0000220988203532;-5.4785514709910704e-05;2.739275735495535e-05;3.6523676473273796e-05;0.22996211017196155;0.13007839819601466;-4.784242740352162e-05;1.0000843025663841;7.304735294654759e-05;-3.6523676473273796e-05;-2.739275735495535e-05;-0.005313147336269974;0.04217450113839005
1.9799740314483643;-0.12718490761449303;-0.0689605033244353;0.6778979985918941;0.004026203659278313;0.13624066780305158;-0.009513634969704015;-0.0014965911258334158;-9.527892906483729e-06;-1.2290185462893537;1.4860635201989805;-0.35697382597901417;9.507952790004623e-06;-0.0015100123380749279;9.49798273176556e-06;-1.2290631338580915;1.4860623101813324;-0.3569861019608211;-9.517922848244341e-06;2.3010017027411123e-05;0.09994784396140452;0.230023470217368;0.13012441823006948;2.8857629354561712e-05;1.0000220988203532;-5.4785514709910704e-05;2.739275735495535e-05;3.6523676473273796e-05;0.22996211017196155;0.13007839819601466;-4.784242740352162e-05;1.0000843025663841;7.304735294654759e-05;-3.6523676473273796e-05;-2.739275735495535e-05;-0.005313147336269974;0.04063861139663505
2.000112295150757;-0.1271170330697155;-0.06895804675254635;0.6779109793550986;0.004033336551914855;0.136340020628287;-0.00951836054000031;-0.0014965911258334158;-9.527892906483729e-06;-1.2290185462893537;1.4860635201989805;-0.35697382597901417;9.507952790004623e-06;-0.0015100123380749279;9.49798273176556e-06;-1.2290631338580915;1.4860623101813324;-0.3569861019608211;-9.517922848244341e-06;1.5340011351609728e-05;0.09994017395572874;0.230023470217368;0.13012441823006948;2.8857629354561712e-05;1.0000220988203532;-5.4785514709910704e-05;2.739275735495535e-05;3.6523676473273796e-05;0.22996211017196155;0.13007839819601466;-4.784242740352162e-05;1.0000843025663841;6.391643382822915e-05;-3.6523676473273796e-05;-2.739275735495535e-05;-0.005313147336269974;0.04217450113839005
2.0200352668762207;-0.12710605716196174;-0.06901874477296163;0.6779068603733608;0.004059565782619339;0.13635440413628896;-0.009430632524636428;-0.0014965911258334158;-9.527892906483729e-06;-1.2290185462893537;1.4860635201989805;-0.35697382597901417;9.507952790004623e-06;-0.0015100123380749279;9.49798273176556e-06;-1.2290631338580915;1.4860623101813324;-0.3569861019608211;-9.517922848244341e-06;1.5340011351609728e-05;0.09994017395572874;0.230023470217368;0.13012441823006948;2.8857629354561712e-05;1.0000220988203532;-5.4785514709910704e-05;2.739275735495535e-05;3.6523676473273796e-05;0.22996211017196155;0.13007839819601466;-4.784242740352162e-05;1.0000843025663841;7.304735294654759e-05;-3.6523676473273796e-05;-2.739275735495535e-05;-0.005313147336269974;0.04063861139663505
2.0401270389556885;-0.12704078634349292;-0.06907350724939602;0.6779135176702532;0.0039009475371420154;0.13646798193469287;-0.009315666889051092;-0.0014965911258334158;-9.527892906483729e-06;-1.2290185462893537;1.4860635201989805;-0.35697382597901417;9.507952790004623e-06;-0.0015100123380749279;9.49798273176556e-06;-1.2290631338580915;1.4860623101813324;-0.3569861019608211;-9.517922848244341e-06;1.5340011351609728e-05;0.09994017395572874;0.230023470217368;0.13012441823006948;2.8857629354561712e-05;1.0000220988203532;-5.4785514709910704e-05;2.739275735495535e-05;3.6523676473273796e-05;0.22996211017196155;0.13007839819601466;-4.784242740352162e-05;1.0000843025663841;7.304735294654759e-05;-3.195821691411457e-05;-2.2827297795796123e-05;-0.005313147336269974;0.04063861139663505
2.0599982738494873;-0.12701537027095294;-0.06908986162236887;0.6779166135849577;0.0038013309264953855;0.13651607257272108;-0.009271141263381197;-0.0014965911258334158;-9.527892906483729e-06;-1.2290185462893537;1.4860635201989805;-0.35697382597901417;9.507952790004623e-06;-0.0015100123380749279;9.49798273176556e-06;-1.2290631338580915;1.4860623101813324;-0.3569861019608211;-9.517922848244341e-06;1.5340011351609728e-05;0.09994017395572874;0.230023470217368;0.13012441823006948;2.8857629354561712e-05;1.0000220988203532;-5.4785514709910704e-05;2.739275735495535e-05;3.6523676473273796e-05;0.22996211017196155;0.13007839819601466;-4.784242740352162e-05;1.0000843025663841;7.304735294654759e-05;-3.6523676473273796e-05;-2.739275735495535e-05;-0.005313147336269974;0.04063861139663505
2.080024242401123;-0.1269805295455342;-0.06906531301989914;0.6779256418607879;0.0037828823205061394;0.13656900516766704;-0.00930487032322072;-0.0014965911258334158;-9.527892906483729e-06;-1.2290185462893537;1.4860635201989805;-0.35697382597901417;9.507952790004623e-06;-0.0015100123380749279;9.49798273176556e-06;-1.2290631338580915;1.4860623101813324;-0.3569861019608211;-9.517922848244341e-06;1.5340011351609728e-05;0.09994017395572874;0.230023470217368;0.13012441823006948;2.8857629354561712e-05;1.0000220988203532;-5.4785514709910704e-05;2.739275735495535e-05;3.6523676473273796e-05;0.22996211017196155;0.13007839819601466;-4.784242740352162e-05;1.0000843025663841;6.391643382822915e-05;-3.6523676473273796e-05;-2.739275735495535e-05;-0.005313147336269974;0.04063861139663505
2.1000099182128906;-0.1269508527453502;-0.06905509830867355;0.677932240436587;0.003855843760139783;0.13660504973417006;-0.009334496375959192;-0.0014965911258334158;-9.527892906483729e-06;-1.2290185462893537;1.4860635201989805;-0.35697382597901417;9.507952790004623e-06;-0.0015100123380749279;9.49798273176556e-06;-1.2290631338580915;1.4860623101813324;-0.3569861019608211;-9.517922848244341e-06;1.5340011351609728e-05;0.09994017395572874;0.230023470217368;0.13010907821871787;2.8857629354561712e-05;1.0000220988203532;-5.4785514709910704e-05;2.2827297795796123e-05;3.195821691411457e-05;0.22996211017196155;0.13007839819601466;-4.784242740352162e-05;1.0000843025663841;6.391643382822915e-05;-3.6523676473273796e-05;-2.739275735495535e-05;-0.005313147336269974;0.04217450113839005
2.1201250553131104;-0.12692989238658836;-0.06909284416189576;0.6779323192936826;0.003878156081141492;0.13663423184376275;-0.009281021115604788;-0.0014965911258334158;-9.527892906483729e-06;-1.2290185462893537;1.4860635201989805;-0.35697382597901417;9.507952790004623e-06;-0.0015100123380749279;9.49798273176556e-06;-1.2290631338580915;1.4860623101813324;-0.3569861019608211;-9.517922848244341e-06;1.5340011351609728e-05;0.09994017395572874;0.230023470217368;0.13009373820736625;2.8857629354561712e-05;1.0000220988203532;-5.4785514709910704e-05;2.739275735495535e-05;3.6523676473273796e-05;0.22996211017196155;0.13007839819601466;-4.784242740352162e-05;1.0000843025663841;7.304735294654759e-05;-3.6523676473273796e-05;-2.739275735495535e-05;-0.005313147336269974;0.04063861139663505
2.1399776935577393;-0.1268171534692572;-0.06903987073061249;0.6779588144378812;0.003974398021464569;0.13678973388906424;-0.00938000893462222;-0.0014965911258334158;-9.527892906483729e-06;-1.2290185462893537;1.4860635201989805;-0.35697382597901417;9.507952790004623e-06;-0.0015100123380749279;9.49798273176556e-06;-1.2290631338580915;1.4860623101813324;-0.3569861019608211;-9.517922848244341e-06;1.5340011351609728e-05;0.09994017395572874;0.230023470217368;0.13009373820736625;2.8857629354561712e-05;1.0000220988203532;-5.4785514709910704e-05;2.739275735495535e-05;3.6523676473273796e-05;0.22996211017196155;0.13007839819601466;-4.784242740352162e-05;1.0000843025663841;7.304735294654759e-05;-3.6523676473273796e-05;-2.739275735495535e-05;-0.005313147336269974;0.04063861139663505
2.160038471221924;-0.12681738434093723;-0.06906673494957936;0.6779560349985019;0.00398291045490364;0.13678891828287576;-0.009340605803234536;-0.0014965911258334158;-9.527892906483729e-06;-1.2290185462893537;1.4860635201989805;-0.35697382597901417;9.507952790004623e-06;-0.0015100123380749279;9.49798273176556e-06;-1.2290631338580915;1.4860623101813324;-0.3569861019608211;-9.517922848244341e-06;1.5340011351609728e-05;0.09994017395572874;0.230023470217368;0.13006305818466302;2.8857629354561712e-05;1.0000220988203532;-5.4785514709910704e-05;2.739275735495535e-05;3.6523676473273796e-05;0.22996211017196155;0.13007839819601466;-4.784242740352162e-05;1.0000843025663841;7.304735294654759e-05;-3.6523676473273796e-05;-2.739275735495535e-05;-0.005313147336269974;0.04063861139663505
2.18000864982605;-0.12694001811910097;-0.06909357027197559;0.6779303493616112;0.003898379610058576;0.1366172054521432;-0.009283903258135367;-0.0014965911258334158;-9.527892906483729e-06;-1.2290185462893537;1.4860635201989805;-0.35697382597901417;9.507952790004623e-06;-0.0015100123380749279;9.49798273176556e-06;-1.2290631338580915;1.4860623101813324;-0.3569861019608211;-9.517922848244341e-06;1.5340011351609728e-05;0.09994017395572874;0.230023470217368;0.13006305818466302;2.8857629354561712e-05;1.0000220988203532;-5.4785514709910704e-05;2.739275735495535e-05;3.6523676473273796e-05;0.22996211017196155;0.13007839819601466;-4.784242740352162e-05;1.0000843025663841;6.391643382822915e-05;-3.6523676473273796e-05;-2.739275735495535e-05;-0.005313147336269974;0.04063861139663505
2.200115442276001;-0.12692734985290097;-0.0691464085254533;0.6779273340749086;0.0040017711935082636;0.136625956363254;-0.009223171656071465;-0.0014965911258334158;-9.527892906483729e-06;-1.2290185462893537;1.4860635201989805;-0.35697382597901417;9.507952790004623e-06;-0.0015100123380749279;9.49798273176556e-06;-1.2290631338580915;1.4860623101813324;-0.3569861019608211;-9.517922848244341e-06;1.5340011351609728e-05;0.09994017395572874;0.230023470217368;0.1300477181733114;2.8857629354561712e-05;1.0000220988203532;-5.4785514709910704e-05;2.739275735495535e-05;3.6523676473273796e-05;0.22996211017196155;0.13007839819601466;-4.784242740352162e-05;1.0000843025663841;6.391643382822915e-05;-3.6523676473273796e-05;-2.739275735495535e-05;-0.005313147336269974;0.04063861139663505
2.2200028896331787;-0.12690602152925942;-0.06909340469903258;0.6779367310931552;0.004022818856132735;0.13665442916591328;-0.009308141849488772;-0.0014965911258334158;-9.527892906483729e-06;-1.2290185462893537;1.4860635201989805;-0.35697382597901417;9.507952790004623e-06;-0.0015100123380749279;9.49798273176556e-06;-1.2290631338580915;1.4860623101813324;-0.3569861019608211;-9.517922848244341e-06;7.670005675808333e-06;0.09994784396140452;0.230023470217368;0.13001703815060828;2.8857629354561712e-05;1.0000220988203532;-5.4785514709910704e-05;2.739275735495535e-05;3.6523676473273796e-05;0.22996211017196155;0.13007839819601466;-4.784242740352162e-05;1.0000843025663841;7.304735294654759e-05;-3.6523676473273796e-05;-2.739275735495535e-05;-0.005313147336269974;0.04063861139663505
2.2401487827301025;-0.1268522322783897;-0.06913630761221597;0.6779424240850404;0.004105873696270903;0.1367257956456458;-0.00925837787787603;-0.0014965911258334158;-9.527892906483729e-06;-1.2290185462893537;1.4860635201989805;-0.35697382597901417;9.507952790004623e-06;-0.0015100123380749279;9.49798273176556e-06;-1.2290631338580915;1.4860623101813324;-0.3569861019608211;-9.517922848244341e-06;7.670005675808333e-06;0.09994784396140452;0.230023470217368;0.1299556781052018;2.8857629354561712e-05;1.0000220988203532;-5.4785514709910704e-05;2.739275735495535e-05;3.6523676473273796e-05;0.22996211017196155;0.13007839819601466;-4.784242740352162e-05;1.0000843025663841;7.304735294654759e-05;-3.6523676473273796e-05;-2.739275735495535e-05;-0.005313147336269974;0.04063861139663505
2.26004695892334;-0.126835053064147;-0.06916078765942743;0.6779431414234566;0.004163422164275291;0.13674552455706676;-0.009232036468121483;-0.0014965911258334158;-9.527892906483729e-06;-1.2290185462893537;1.4860635201989805;-0.35697382597901417;9.507952790004623e-06;-0.0015100123380749279;9.49798273176556e-06;-1.2290631338580915;1.4860623101813324;-0.3569861019608211;-9.517922848244341e-06;7.670005675808333e-06;0.09994784396140452;0.230023470217368;0.12989431805979534;2.8857629354561712e-05;1.0000220988203532;-5.4785514709910704e-05;2.739275735495535e-05;3.6523676473273796e-05;0.22996211017196155;0.13007839819601466;-4.784242740352162e-05;1.0000843025663841;7.304735294654759e-05;-3.195821691411457e-05;-2.2827297795796123e-05;-0.005313147336269974;0.04063861139663505
2.280381202697754;-0.12680593281685493;-0.06919019065625807;0.677945588641124;0.004110226625428082;0.13679445089120681;-0.00917657936335343;-0.0014965911258334158;-9.527892906483729e-06;-1.2290185462893537;1.4860635201989805;-0.35697382597901417;9.507952790004623e-06;-0.0015100123380749279;9.49798273176556e-06;-1.2290631338580915;1.4860623101813324;-0.3569861019608211;-9.517922848244341e-06;7.670005675808333e-06;0.09994784396140452;0.230023470217368;0.12989431805979534;2.8857629354561712e-05;1.0000220988203532;-5.4785514709910704e-05;2.739275735495535e-05;3.6523676473273796e-05;0.22996211017196155;0.13007839819601466;-4.784242740352162e-05;1.0000843025663841;6.391643382822915e-05;-3.6523676473273796e-05;-2.739275735495535e-05;-0.005313147336269974;0.04063861139663505
2.30013108253479;-0.12687414615212067;-0.069184787586267;0.6779333775846825;0.004132657282560371;0.13669141399617102;-0.009189625174681457;-0.0014965911258334158;-9.527892906483729e-06;-1.2290185462893537;1.4860635201989805;-0.35697382597901417;9.507952790004623e-06;-0.0015100123380749279;9.49798273176556e-06;-1.2290631338580915;1.4860623101813324;-0.3569861019608211;-9.517922848244341e-06;7.670005675808333e-06;0.09994784396140452;0.230023470217368;0.12989431805979534;2.8857629354561712e-05;1.0000220988203532;-5.4785514709910704e-05;2.739275735495535e-05;3.6523676473273796e-05;0.22996211017196155;0.13007839819601466;-4.784242740352162e-05;1.0000843025663841;5.4785514709910704e-05;-3.6523676473273796e-05;-2.739275735495535e-05;-0.005313147336269974;0.04217450113839005
2.3201215267181396;-0.12686057307687187;-0.06930501246273682;0.6779236376500748;0.004195246341212336;0.13670672395722783;-0.009017951766592544;-0.0014965911258334158;-9.527892906483729e-06;-1.2290185462893537;1.4860635201989805;-0.35697382597901417;9.507952790004623e-06;-0.0015100123380749279;9.49798273176556e-06;-1.2290631338580915;1.4860623101813324;-0.3569861019608211;-9.517922848244341e-06;7.670005675808333e-06;0.09994784396140452;0.230023470217368;0.12989431805979534;2.8857629354561712e-05;1.0000220988203532;-5.4785514709910704e-05;2.739275735495535e-05;3.6523676473273796e-05;0.22996211017196155;0.13007839819601466;-4.784242740352162e-05;1.0000843025663841;7.304735294654759e-05;-3.6523676473273796e-05;-2.739275735495535e-05;-0.005313147336269974;0.04217450113839005
2.3399763107299805;-0.12687117060979083;-0.06929200409028842;0.67792298417727;0.0042228778070602085;0.13668801977577447;-0.00904327211704298;-0.0014965911258334158;-9.527892906483729e-06;-1.2290185462893537;1.4860635201989805;-0.35697382597901417;9.507952790004623e-06;-0.0015100123380749279;9.49798273176556e-06;-1.2290631338580915;1.4860623101813324;-0.3569861019608211;-9.517922848244341e-06;7.670005675808333e-06;0.09994784396140452;0.230023470217368;0.12989431805979534;2.8857629354561712e-05;1.0000220988203532;-5.4785514709910704e-05;2.739275735495535e-05;3.6523676473273796e-05;0.22996211017196155;0.13007839819601466;-4.784242740352162e-05;1.0000843025663841;7.304735294654759e-05;-3.6523676473273796e-05;-2.739275735495535e-05;-0.005313147336269974;0.04217450113839005
2.360161304473877;-0.1268422848762565;-0.06929202151209701;0.6779283876344905;0.004168651500858582;0.13673627682983805;-0.009032522311789252;-0.0014965911258334158;-9.527892906483729e-06;-1.2290185462893537;1.4860635201989805;-0.35697382597901417;9.507952790004623e-06;-0.0015100123380749279;9.49798273176556e-06;-1.2290631338580915;1.4860623101813324;-0.3569861019608211;-9.517922848244341e-06;7.670005675808333e-06;0.09994784396140452;0.230023470217368;0.12989431805979534;2.8857629354561712e-05;1.0000220988203532;-5.4785514709910704e-05;2.739275735495535e-05;3.6523676473273796e-05;0.22996211017196155;0.13007839819601466;-4.784242740352162e-05;1.0000843025663841;6.391643382822915e-05;-3.6523676473273796e-05;-2.739275735495535e-05;-0.005313147336269974;0.04217450113839005
2.38022518157959;-0.12685120721598625;-0.06926128104104544;0.6779298595097892;0.00421813513710705;0.13671750505995608;-0.009089178701844045;-0.0014965911258334158;-9.527892906483729e-06;-1.2290185462893537;1.4860635201989805;-0.35697382597901417;9.507952790004623e-06;-0.0015100123380749279;9.49798273176556e-06;-1.2290631338580915;1.4860623101813324;-0.3569861019608211;-9.517922848244341e-06;7.670005675808333e-06;0.09994784396140452;0.230023470217368;0.12989431805979534;2.8857629354561712e-05;1.0000220988203532;-5.4785514709910704e-05;2.739275735495535e-05;3.6523676473273796e-05;0.22996211017196155;0.13007839819601466;-4.784242740352162e-05;1.0000843025663841;6.391643382822915e-05;-3.6523676473273796e-05;-2.739275735495535e-05;-0.005313147336269974;0.04063861139663505
2.4001383781433105;-0.12693416791646742;-0.06918904796345585;0.6779217070546029;0.004033479684323944;0.13661324847479595;-0.009164209154076902;-0.0014965911258334158;-9.527892906483729e-06;-1.2290185462893537;1.4860635201989805;-0.35697382597901417;9.507952790004623e-06;-0.0015100123380749279;9.49798273176556e-06;-1.2290631338580915;1.4860623101813324;-0.3569861019608211;-9.517922848244341e-06;7.670005675808333e-06;0.09994784396140452;0.230023470217368;0.12989431805979534;2.8857629354561712e-05;1.0000220988203532;-5.4785514709910704e-05;2.2827297795796123e-05;3.195821691411457e-05;0.22996211017196155;0.13007839819601466;-4.784242740352162e-05;1.0000843025663841;7.304735294654759e-05;-3.6523676473273796e-05;-2.739275735495535e-05;-0.005313147336269974;0.04217450113839005
2.4200029373168945;-0.12690282068498207;-0.06923936653226048;0.6779224383828645;0.0041250696469119896;0.13665072280346305;-0.009104913613222562;-0.0014965911258334158;-9.527892906483729e-06;-1.2290185462893537;1.4860635201989805;-0.35697382597901417;9.507952790004623e-06;-0.0015100123380749279;9.49798273176556e-06;-1.2290631338580915;1.4860623101813324;-0.3569861019608211;-9.517922848244341e-06;7.670005675808333e-06;0.09994784396140452;0.230023470217368;0.12989431805979534;2.8857629354561712e-05;1.0000220988203532;-5.4785514709910704e-05;2.739275735495535e-05;3.6523676473273796e-05;0.22996211017196155;0.13007839819601466;-4.784242740352162e-05;1.0000843025663841;7.304735294654759e-05;-3.6523676473273796e-05;-2.739275735495535e-05;-0.005313147336269974;0.04217450113839005
2.440133810043335;-0.12689692121528126;-0.06922952471733858;0.6779245478163894;0.004104725607375461;0.13666139414282;-0.009115964020238567;-0.0014965911258334158;-9.527892906483729e-06;-1.2290185462893537;1.4860635201989805;-0.35697382597901417;9.507952790004623e-06;-0.0015100123380749279;9.49798273176556e-06;-1.2290631338580915;1.4860623101813324;-0.3569861019608211;-9.517922848244341e-06;7.670005675808333e-06;0.09994784396140452;0.230023470217368;0.12989431805979534;2.8857629354561712e-05;1.0000220988203532;-5.4785514709910704e-05;2.739275735495535e-05;3.6523676473273796e-05;0.22996211017196155;0.13006305818466302;-4.784242740352162e-05;1.0000843025663841;7.304735294654759e-05;-3.6523676473273796e-05;-2.739275735495535e-05;-0.005313147336269974;0.04063861139663505
2.4600183963775635;-0.12681184564766285;-0.06920618896473206;0.6779428496938169;0.004167728457803231;0.13677998984784692;-0.009163334979664603;-0.0014965911258334158;-9.527892906483729e-06;-1.2290185462893537;1.4860635201989805;-0.35697382597901417;9.507952790004623e-06;-0.0015100123380749279;9.49798273176556e-06;-1.2290631338580915;1.4860623101813324;-0.3569861019608211;-9.517922848244341e-06;7.670005675808333e-06;0.09994784396140452;0.230023470217368;0.12989431805979534;2.8857629354561712e-05;1.0000220988203532;-5.4785514709910704e-05;2.739275735495535e-05;3.6523676473273796e-05;0.22996211017196155;0.13006305818466302;-4.784242740352162e-05;1.0000843025663841;7.304735294654759e-05;-3.6523676473273796e-05;-2.739275735495535e-05;-0.005313147336269974;0.04063861139663505
2.480006456375122;-0.1267761711341256;-0.06918746720052109;0.6779514326657256;0.004271398659372428;0.1368215576114626;-0.009211855297682718;-0.0014965911258334158;-9.527892906483729e-06;-1.2290185462893537;1.4860635201989805;-0.35697382597901417;9.507952790004623e-06;-0.0015100123380749279;9.49798273176556e-06;-1.2290631338580915;1.4860623101813324;-0.3569861019608211;-9.517922848244341e-06;7.670005675808333e-06;0.09994784396140452;0.230023470217368;0.12989431805979534;2.8857629354561712e-05;1.0000220988203532;-5.4785514709910704e-05;2.739275735495535e-05;3.6523676473273796e-05;0.22996211017196155;0.1300477181733114;-4.784242740352162e-05;1.0000843025663841;6.391643382822915e-05;-3.195821691411457e-05;-2.2827297795796123e-05;-0.005313147336269974;0.04063861139663505
2.500157594680786;-0.12677152054981375;-0.06918885060423417;0.6779521611206172;0.004337142147981663;0.13682160536175764;-0.009222478583226919;-0.0014965911258334158;-9.527892906483729e-06;-1.2290185462893537;1.4860635201989805;-0.35697382597901417;9.507952790004623e-06;-0.0015100123380749279;9.49798273176556e-06;-1.2290631338580915;1.4860623101813324;-0.3569861019608211;-9.517922848244341e-06;0.0;0.09995551396708034;0.230023470217368;0.12989431805979534;2.8857629354561712e-05;1.0000220988203532;-5.4785514709910704e-05;2.739275735495535e-05;3.6523676473273796e-05;0.22996211017196155;0.13000169813925666;-4.784242740352162e-05;1.0000843025663841;7.304735294654759e-05;-3.6523676473273796e-05;-2.739275735495535e-05;-0.005313147336269974;0.04063861139663505
2.5200140476226807;-0.12671357423592558;-0.06921824927412434;0.6779599931488168;0.004377711357108741;0.13690329685555083;-0.009185037833863189;-0.0014965911258334158;-9.527892906483729e-06;-1.2290185462893537;1.4860635201989805;-0.35697382597901417;9.507952790004623e-06;-0.0015100123380749279;9.49798273176556e-06;-1.2290631338580915;1.4860623101813324;-0.3569861019608211;-9.517922848244341e-06;0.0;0.09995551396708034;0.230023470217368;0.12989431805979534;2.8857629354561712e-05;1.0000220988203532;-5.4785514709910704e-05;2.739275735495535e-05;3.6523676473273796e-05;0.22996211017196155;0.1299403380938502;-4.784242740352162e-05;1.0000843025663841;7.304735294654759e-05;-3.6523676473273796e-05;-2.739275735495535e-05;-0.005313147336269974;0.04063861139663505
