flxalr/sts-optimization-reemc/input/436_104/trq.csv
time;base_link_tx;base_link_ty;base_link_tz;base_link_rz;base_link_ry;base_link_rx;leg_left_1_joint;leg_left_2_joint;leg_left_3_joint;leg_left_4_joint;leg_left_5_joint;leg_left_6_joint;leg_right_1_joint;leg_right_2_joint;leg_right_3_joint;leg_right_4_joint;leg_right_5_joint;leg_right_6_joint;torso_1_joint;torso_2_joint;arm_left_1_joint;arm_left_2_joint;arm_left_3_joint;arm_left_4_joint;arm_left_5_joint;arm_left_6_joint;arm_left_7_joint;arm_right_1_joint;arm_right_2_joint;arm_right_3_joint;arm_right_4_joint;arm_right_5_joint;arm_right_6_joint;arm_right_7_joint;head_1_joint;head_2_joint
0.0;0.5420352321545998;26.8738345791949;577.3279037666379;4.425549434159441;-22.77245106419069;37.15961147697213;4.008495474915375;9.210009121991554;-12.366276221875406;10.526485391460685;2.1745209274081336;2.085537766086874;1.4169541861913628;3.637906740570495;20.714438790999697;-4.640885548935388;14.180164309624013;-0.09299710418614549;-0.22103665553992283;-29.077325550343595;5.931108307323465;3.6282563803405825;0.8374040375912778;5.359845517114567;-0.018701661015350403;0.12246185974892919;0.05935720028058845;5.988707447690884;4.017942493980854;0.9839861149299172;5.349389635688011;-0.019674785957757047;0.15008450020583214;0.0600553403242342;-0.004182261528792617;-0.527250464966802
0.02008676528930664;0.3246504368069836;27.271454410442225;577.921775250843;4.5008379686762545;-22.71428614693187;37.3905362612938;4.026394457087092;9.252940048781674;-12.28579213859879;10.631306715416397;2.1998684249117044;2.0959075142165986;1.495536577428544;3.780221885793962;20.644912863233355;-4.605565539435636;14.164412812849955;-0.07359535835877219;-0.22271275023926973;-29.075866166543157;5.931400631180423;3.626922943538425;0.8368874967129856;5.36000151073423;-0.01871281278529438;0.12236441129526203;0.0593464821493866;5.989099186081539;4.018950939271216;0.9843831199699161;5.349379510701853;-0.01967058758250414;0.15016298093105315;0.060064255819897196;-0.004260917991686009;-0.5272080856623345
0.040021657943725586;0.4438679301194739;27.060155521354858;578.126841431339;4.429453280726058;-22.851091631147554;37.24019718309928;4.029067653714556;9.257537469386616;-12.38595269593635;10.557182396301751;2.1771567373149296;2.096654997019637;1.4248185171167629;3.67114798720956;20.62688693827761;-4.582171356546873;14.143873218797495;-0.09875821123933724;-0.22178727443647483;-29.079023953010285;5.93021668406179;3.627592368631932;0.8371276821122545;5.3596309500779205;-0.01872468036077629;0.12240681128560867;0.059334843408013496;5.987441572542635;4.018180623622856;0.9840876601589826;5.348888208938657;-0.0196621230114881;0.1501037481833323;0.060064568161572116;-0.004214103990231704;-0.5272933114449007
0.06000971794128418;0.6717729065465381;26.952588844140838;578.1363727126285;4.418487568614482;-22.969311553190884;37.192218016173406;4.004291606542702;9.20234288602378;-12.445883151729763;10.514502422730583;2.1642525971894706;2.084092370377302;1.4311624913582912;3.681187053872473;20.58420082483112;-4.612581862855089;14.134860886131149;-0.09637270824519881;-0.22479926872226808;-29.074003807871826;5.932029591229235;3.625046473533173;0.8361627362486163;5.360249471997289;-0.01874017748701099;0.1222251139268298;0.0593144638120395;5.989478272215277;4.019942101761475;0.9847843167842305;5.349212243553254;-0.01966181457188862;0.1502527107589011;0.06008209846050089;-0.004387415281374948;-0.5289148955843339
0.08008480072021484;0.6031938869437194;27.038167835246156;578.3335345800364;4.434235001218002;-22.90929388199332;37.23767820088264;4.026481414171655;9.25465727239306;-12.39291108309121;10.553440957027908;2.176229034312255;2.096393829907202;1.4280046044007042;3.675355440700132;20.56213402780609;-4.58342702523684;14.137364703827686;-0.09838033363482362;-0.22566462762220202;-29.06888067849608;5.933382796853146;3.6242429712733273;0.8358380123177911;5.360598669369411;-0.018761806160729026;0.12216028664504254;0.05929375455581473;5.990531922604645;4.020077080935345;0.9848731575124053;5.349357677927664;-0.01964807302351066;0.15027333530404022;0.0600937230515424;-0.004422539815767745;-0.528779592581737
0.10001254081726074;0.5532866832714376;26.938027717948703;577.9339784548582;4.425170882416984;-22.759336952204833;37.21624079105406;4.0039114186741385;9.20236872905726;-12.403273593976508;10.546915279529376;2.17457024819524;2.084204934411606;1.4436050944549352;3.6893578515986998;20.69632657591;-4.573148395810238;14.160765513979579;-0.08697457648248043;-0.2264525941263706;-29.05708426688512;5.936689316102276;3.622928419511441;0.8353151450952989;5.36151788605154;-0.018787495647986187;0.1220512631287769;0.059272170877686464;5.993260261869226;4.019733601556106;0.984819034778961;5.35001838296334;-0.019636184214187072;0.15027470525232015;0.06011053282678644;-0.004408424032936805;-0.5266995797760398
0.12032890319824219;0.5901095996982342;27.045148857912206;577.7429243244646;4.428241389156377;-22.738143553909502;37.27830257716175;4.002635043145585;9.199601283778813;-12.375321017111904;10.521972654907024;2.173125169935703;2.083652206740467;1.461309378312028;3.7521903543295285;20.696831435534907;-4.5685962580843125;14.168976210472708;-0.07062734284185328;-0.2282743468446155;-29.058581269141882;5.93656862934211;3.6216957601626394;0.8347798222964079;5.36149582943244;-0.018813575989527605;0.12192864647503243;0.059241222144167334;5.992639878883634;4.020313203350629;0.9851000827906841;5.3496892276779695;-0.01962182962541892;0.15035203142670855;0.06012483598476787;-0.004475329461467012;-0.5285052726068055
0.14005780220031738;0.6943675025282605;27.04654013468008;578.2434282721739;4.433025977074513;-22.880021077463;37.24436072428405;4.003935226703367;9.200820868952185;-12.39513733823461;10.55181103307697;2.175715047096556;2.083626152971786;1.454488711325083;3.734298327606269;20.58277651428388;-4.587644127931024;14.146439160146281;-0.08206469470519184;-0.22767820750941298;-29.060675947050854;5.935953255810356;3.6229856763937445;0.8351919393345699;5.361202693095449;-0.018840175037010645;0.12198463057333517;0.05921869902932285;5.991134220153343;4.019300218294737;0.9847723222384279;5.349265676302739;-0.019606463103936406;0.15031397331351118;0.060131597178941405;-0.0043985425230159145;-0.5285705908712055
0.16005158424377441;0.6061639826056524;27.157347205282555;578.1449240541162;4.449742555588452;-22.775931213260193;37.32260536011853;4.0242778198704245;9.248560193621724;-12.401387013581953;10.548584103742623;2.174742538285326;2.094986864169728;1.4699371747229613;3.740977268540798;20.669643715183117;-4.543774400329577;14.17024715971124;-0.07954064803698446;-0.22861999105257286;-29.054098880026906;5.937783809473646;3.6230389458194616;0.8351550153934575;5.3617053117567774;-0.018866150455997724;0.12195661970469775;0.059198595575758885;5.992250804099865;4.019213680846923;0.9848092790669296;5.349485689230165;-0.019592797016763072;0.15036322945445552;0.0601476087223098;-0.004370102783177182;-0.5266335866250847
0.1800997257232666;0.6103790029204319;27.06237374522049;578.1448598035272;4.426420604847783;-22.79515108445215;37.262145501426716;4.025000402015127;9.249109264504582;-12.398590573568619;10.550118568894794;2.17511174735683;2.094955643200814;1.4388602605467824;3.700568947244249;20.653052341910843;-4.559174923236921;14.158714821658316;-0.08034470097757848;-0.22878805799054425;-29.05613680222887;5.937398676458192;3.623854022535874;0.8353973734650425;5.361552787720584;-0.018887944683266093;0.12198223000474305;0.059179562689789245;5.991145913335366;4.018634375523542;0.9846462867081962;5.349193442073473;-0.019577888738299853;0.1503659252452218;0.06015737098568942;-0.004721638246533304;-0.5266607263088333
0.20001769065856934;0.7124770016438191;26.87103162342802;577.8512682255464;4.4121846095774675;-22.805511484510916;37.169088015372864;4.003064673512305;9.196445463236316;-12.413502529251105;10.561683595268107;2.17544418969565;2.08243848709089;1.420667226475915;3.655757279967074;20.681116027375616;-4.621018303342536;14.173620182707825;-0.08946886543138985;-0.22790931618209037;-29.05664022366365;5.937739408133726;3.6249446415525237;0.8357630490464535;5.361621848157785;-0.01890764514916707;0.12203804718294549;0.05916578085416785;5.990754481395285;4.017678063265214;0.9843378234062219;5.349159422677462;-0.019560971087266156;0.1503082622110859;0.060167968641687455;-0.004240766411044454;-0.5266954548108216
0.22011375427246094;0.6861295216265049;26.857103660657696;577.745092027058;4.41927320736694;-22.7838464149836;37.15841283883191;4.004250271682842;9.199919238032738;-12.404302775100923;10.545981286949837;2.1740935206651937;2.0832884729104206;1.4267507241949287;3.6470949356119196;20.69276020118256;-4.613072135236798;14.176099390478727;-0.09299195738934306;-0.22859369267272137;-29.05592479361091;5.938541363784755;3.624716356518596;0.835668636237102;5.361958517776274;-0.0189209080682744;0.12202174729159633;0.05915444779879403;5.991355902441002;4.017929695178398;0.9844664162279013;5.34935204866336;-0.019547157600530905;0.15034037295940275;0.060183974377386575;-0.004262682754931548;-0.5266756652084876
0.24007439613342285;0.5397621478012535;26.943168364658383;577.7385359497733;4.4136823573379225;-22.75438732237798;37.23843046311342;4.0260100785950526;9.249770494800996;-12.397027741263795;10.55063028433015;2.175125402104219;2.0949004064978403;1.4190761983978517;3.6611401599664037;20.72106290002068;-4.595554639168364;14.174354186258924;-0.08069326966008078;-0.22889665839482157;-29.065850944361017;5.935869927992908;3.624678048913766;0.8356240670123184;5.3613548978077255;-0.018932115284064716;0.1220145438984706;0.05913644335288182;5.988401132357104;4.018154193705265;0.9845515171221341;5.348579009424606;-0.019525621391547544;0.1503639572169937;0.06019806794716506;-0.004270220361120319;-0.5269594449689003
0.26017141342163086;0.46814757703903886;27.02267603114757;577.9349944480883;4.425354920073478;-22.823880350916212;37.2943187776864;4.001441139772623;9.193380488141187;-12.386655340899667;10.556849589627568;2.176482996862229;2.081829133030198;1.4659291766866076;3.7632663232671955;20.66311650869819;-4.594563419243217;14.160755444437577;-0.06358939877668929;-0.23150638093708842;-29.07962545816508;5.931731930855895;3.6230675304589357;0.8349932953565984;5.360498504359524;-0.0189381308669124;0.12190247006958813;0.059113403556524134;5.984502404025839;4.020354601457163;0.9853455802726336;5.347377092845836;-0.01950352504299732;0.15050428040089925;0.060216742318799386;-0.004408683975233722;-0.5273625263210845
0.28008556365966797;0.4048247425829601;26.99101909759348;577.9249976487847;4.420885690184372;-22.843387065428146;37.28274918342739;4.024526700929456;9.246912940115358;-12.373309607803456;10.564980327920637;2.1785646606807982;2.094254956144823;1.4370320778002634;3.6949815340413226;20.659363718298753;-4.593414823553717;14.174208993906527;-0.08837049813660176;-0.23206031944761008;-29.094271470479292;5.927460565244461;3.62274131878219;0.8348674319363059;5.359517886990453;-0.01893939969401482;0.12189414608107121;0.059099768913249924;5.980411418236212;4.0212678765988565;0.9856435689909004;5.346287208777198;-0.019483974997250436;0.15053012799385904;0.06022738307386251;-0.004460235260268232;-0.5277968019663317
0.30013084411621094;0.2287188834763132;26.968047065995336;578.2155897707516;4.426992811796733;-22.844252662759416;37.284568427528754;4.022045271126087;9.242935719987166;-12.332299638033069;10.617647680259257;2.1913117920035083;2.0936045418024567;1.439228765983981;3.699396402136073;20.606552223272516;-4.594728770266848;14.146493696885729;-0.08740142486151481;-0.2340279603202991;-29.10180585053514;5.926187498000871;3.621141484722221;0.8342917124700169;5.35945078616811;-0.018931771107482107;0.12180002852766292;0.05909318018464064;5.979682512528404;4.023018995949978;0.9862810404363656;5.346094205429708;-0.019472285102661663;0.1506350755137123;0.06024353426082378;-0.004606888156836719;-0.5297997153015575
0.3200418949127197;0.29031695800646773;26.76242361120524;577.9142715740256;4.396470336260958;-22.88913744543912;37.182098180812986;3.999754650250275;9.190939908709364;-12.366719740050423;10.568866272276377;2.179340187815955;2.0814116174267574;1.4220455180716352;3.664168683554294;20.637884365803213;-4.612519746181853;14.161295612775863;-0.08782665799757282;-0.2345949392007419;-29.11187339264876;5.923261792882498;3.6206100228459057;0.8340959367036372;5.358800849637602;-0.018927264538864542;0.12177532679879391;0.059092449829099315;5.977024726872508;4.023939220528581;0.9865564214586406;5.345334404734768;-0.01946615744927628;0.1506747480571536;0.06024490342743494;-0.004645759794327454;-0.5301238497650763
0.3400442600250244;0.2513774549136514;26.770572125822966;577.7134680871948;4.3998701172055075;-22.8518701434267;37.20148356514275;4.000834369290221;9.192408378910777;-12.37222381627762;10.565277546865959;2.1784203611587416;2.0816565363567245;1.4235607543161652;3.67287473935946;20.685291482179213;-4.620305941342325;14.172528275992885;-0.07782943162117904;-0.23261468814050001;-29.112162907195067;5.923784071103814;3.6217155444876834;0.8345467779624335;5.358968649709684;-0.018912363196056832;0.1218683574920315;0.05911293748023787;5.976950534338527;4.022904756976039;0.9859958294578423;5.345085800985911;-0.019469016295807356;0.15057433974437112;0.06023304889087321;-0.00454757206281421;-0.5301919318105026
0.36002302169799805;0.31491241575683304;26.792317149926212;577.7144173489949;4.42110247673256;-22.94585450635678;37.17250354925419;4.002958808729261;9.194304051291699;-12.369743874801546;10.566357898247725;2.1786430794966987;2.0817312774915884;1.4296354076642102;3.658452337845722;20.61474222839427;-4.675197067361723;14.14885859235923;-0.08782016569861469;-0.22919498021789866;-29.11698606984814;5.922409662911918;3.624035282524981;0.8354526389341536;5.358531930464897;-0.01888929960891253;0.12203930743342407;0.05914132885777806;5.975475538752157;4.020773520899915;0.9851470394761147;5.345051685739292;-0.019479887465981387;0.15041685091859347;0.060211426771390984;-0.004738973677631159;-0.5285758119219748
0.38002538681030273;0.16513781048873533;27.114705998983148;578.013847081114;4.457433216542916;-22.939779895079106;37.300290412826;4.025638823148439;9.246166310186577;-12.28835916089522;10.580267336364052;2.1891291548651486;2.093841835501903;1.460812363060971;3.7499925676570847;20.526992862282803;-4.630132414347219;14.13248009971079;-0.0730691254244039;-0.22687938468185218;-29.122152450324357;5.921066004163808;3.6249698216591817;0.8358415577434043;5.3581256125286165;-0.018856153980275236;0.12211646501150182;0.05917343949035959;5.974605519154322;4.019982477570492;0.984775929592203;5.34505891489963;-0.01950026872614828;0.1503288580863002;0.06018604741606447;-0.004219645096234884;-0.5287760687241432
0.40001368522644043;0.2337675510210655;26.94289316810164;577.9171980349612;4.4303150769673785;-22.98261596571021;37.199085054342035;4.004682498426367;9.196300839761744;-12.371875011566265;10.564738339279875;2.178209561702044;2.0820151834848084;1.4381523105241216;3.6971931731545267;20.584803002234235;-4.653258766224975;14.14212839353644;-0.08606605087561844;-0.2240410054538781;-29.122983932888673;5.921282052962677;3.6261753899477567;0.8363641602791981;5.358128568308057;-0.018816810881573998;0.12222627618871428;0.0592168965562262;5.975401033462799;4.0187161726850515;0.9842203871544178;5.34559090770285;-0.019528624211807094;0.15021240491855584;0.060156268465229666;-0.004087520902357943;-0.5288315785347967
0.41998934745788574;0.09101622853957103;26.87161168857682;578.1128713536921;4.4125111435215665;-22.957392363674067;37.120863111671945;4.005467064505937;9.197204116225038;-12.36595434558782;10.568197983329584;2.179080744607365;2.082117977059461;1.4162188047946542;3.6529393935458785;20.602173949123856;-4.5957368593110735;14.153018923221298;-0.08938142136784669;-0.22174538648747397;-29.13263513829171;5.918891070210822;3.626975544229097;0.8367237231742303;5.357416506896035;-0.018768711637236986;0.12230323675803235;0.05926000431825071;5.973945864529801;4.018148663274184;0.9839113876338879;5.345506250715117;-0.01956224766014132;0.15013574164781027;0.060118597977181235;-0.004007418200682088;-0.5308920352324964
0.4400599002838135;-0.0356144636434621;27.01447126472039;577.7109557187059;4.464723237657063;-22.851482930509434;37.20274848460886;4.028026968167104;9.247774916147382;-12.256334160199403;10.647812845015276;2.203204753415083;2.093816071006392;1.4284052720139342;3.65539035613941;20.604849413688832;-4.6816396458775;14.146540410811854;-0.0884275817960401;-0.2179019491664698;-29.1384974009724;5.9173988895111576;3.6288552543208437;0.837497690197651;5.356881987153124;-0.01871748397278091;0.1224572438177432;0.059312865491844655;5.973076294540084;4.016431530888431;0.9831592052744993;5.34564564694223;-0.01959918271143457;0.14998960180613297;0.06007498194499867;-0.0038251091749390382;-0.5310973638168469
0.46018075942993164;0.12523230652710993;27.254603966407444;577.7173102878652;4.468976688560355;-23.003857273722275;37.31851317454496;4.031310147161449;9.25341522515256;-12.354456145158686;10.57488468928192;2.1808082269893765;2.09480231148668;1.4555348772347987;3.748236165529578;20.598512549394925;-4.683235940866302;14.15242121899157;-0.06777083026650285;-0.2141324949638419;-29.14861542813301;5.914266922231282;3.630624547253464;0.838226336677734;5.355873830718358;-0.0186585202195658;0.12260128285091963;0.059368190596956014;5.970827667449107;4.01500731629789;0.982509196619808;5.345434249195715;-0.01964208531412258;0.14984868677395805;0.06002307532007858;-0.0036472023026723303;-0.5314152763676911
0.48038792610168457;-0.09824595716034246;27.099718517659085;577.809625996434;4.4453922773393275;-22.916103988385878;37.168718211917025;4.012477226064206;9.205793036726362;-12.300493679174439;10.634279095500995;2.195463526029722;2.0830733824778473;1.4272828194518277;3.687271562418064;20.62562258680502;-4.664575664487169;14.15756181804576;-0.08232955901465347;-0.20926264675772335;-29.158638639679626;5.910526013781666;3.633423396600227;0.839315256395225;5.354591611322598;-0.01860235490777453;0.12280199971547365;0.059423090712945215;5.96756900593364;4.0125539615774475;0.9815173116248928;5.344970659793707;-0.01968330217295161;0.1496415044802039;0.059965823822472834;-0.003375943471647249;-0.5299623762635467
0.4999878406524658;0.09297629993079148;27.16358617302648;577.8243415645212;4.454843780800755;-23.050542393930527;37.14681002084352;4.015430246058609;9.208371338453759;-12.359472461952338;10.59158505636449;2.1825638127350917;2.0832156923320846;1.427248903630415;3.686409157418267;20.577745927727044;-4.698789283946985;14.147527194130696;-0.08045930927315835;-0.20325747903822258;-29.157765113288995;5.911361728365868;3.637289054113554;0.8408047250327969;5.354494629855894;-0.018562040904905347;0.12307155146028764;0.05947937732310288;5.968112059120933;4.008617266785571;0.9799810880188333;5.345584091324102;-0.019723006133895896;0.14936370390217965;0.05991889083355327;-0.003055519179855806;-0.5299512790413532
0.5201170444488525;-0.004237286997859968;27.112214914624094;577.8281554285845;4.440429621964043;-22.966260914684398;37.069551024798656;4.014552920375743;9.206153930956484;-12.370878917276851;10.584863497747222;2.180771649799145;2.0828250561616053;1.4085944691504464;3.631641396872978;20.643101851727288;-4.653184573740058;14.15501273919802;-0.10020193409630888;-0.20123239479784363;-29.150287012529727;5.913962302767051;3.6381719307695803;0.8411784588696793;5.35507357660841;-0.018526509588812308;0.12313229873958528;0.05952397855144356;5.971105282258669;4.007339336636382;0.979492391966442;5.346670765283263;-0.019754076500099173;0.14927963714520423;0.05988841666399195;-0.00294010514790428;-0.5297462422764314
0.5400302410125732;-0.11177597905152226;27.23752958763626;578.3266348323978;4.460847653455226;-22.922423849117216;37.109305438711374;4.017078863577826;9.210139377930986;-12.347451070760155;10.647284958826297;2.1937763249629874;2.083457894908532;1.4247850038732122;3.6778420568615156;20.62698111410387;-4.593819645574257;14.17052440113182;-0.08249789495966235;-0.1975947029578276;-29.14544323315453;5.915715606248376;3.6403272975704724;0.8420273670148;5.35533395797304;-0.018499987692633897;0.12328869261962254;0.05956271509776604;5.972838963881801;4.004925472194693;0.9785608172031413;5.347435710728656;-0.01978116740706464;0.14911603072792057;0.0598587395634786;-0.002757943736659628;-0.52961437482542
0.560145378112793;0.04349848702264403;27.156460419424477;577.3282131803865;4.4429876335217;-22.89632821451334;37.06709088003355;4.021223549492533;9.216886399546457;-12.353337385090098;10.573450128123197;2.1806776524147864;2.0845728599884943;1.399323857909987;3.6228728414406315;20.714492398670373;-4.684840794313871;14.178877818847626;-0.0953681893783944;-0.19471374294529306;-29.15313562733718;5.913611084321574;3.6423232192339032;0.8427725301359987;5.354544615207911;-0.018484133585554972;0.12342232489577862;0.059580030755750746;5.970558632586339;4.003153076467658;0.9778514024262793;5.346963696878129;-0.01979283587597975;0.1489771975473157;0.059834579518307826;-0.002636147977933538;-0.5315920073119671
0.5800416469573975;0.3400069340585983;27.254114290565795;577.7361144379353;4.47807432873691;-23.177440428898294;37.078267665778924;4.043608873535926;9.269022733808647;-12.32741261842436;10.547324979042006;2.1790506495352893;2.096818079131604;1.399526628248232;3.630658601726026;20.436458338362904;-4.762789407931347;14.108502621014155;-0.08533075917142934;-0.19478063205413923;-29.150472135497566;5.913752851113046;3.642281626784745;0.8427507010163156;5.354564006280276;-0.01848644099029567;0.12341610436932691;0.05957802688728889;5.970637599001414;4.0031060113002255;0.977836952641406;5.3469484216403185;-0.019789447468121515;0.14896369061047984;0.05983719639586316;-0.002631107284545315;-0.5297716257225525
0.6001791954040527;0.06145300794367792;27.225711761144147;577.7310133005777;4.465230636922104;-22.98381382371229;37.088094574226986;4.038575103400219;9.26133686101848;-12.267438495864738;10.590980731959341;2.191983444517136;2.0955855762638897;1.4039220201328726;3.625040383467676;20.53161237100614;-4.692287170911525;14.129239969856506;-0.10264524902303872;-0.2003594108239436;-29.15372659959931;5.912404334373447;3.638428489690353;0.8412693317993274;5.354428801769387;-0.01849501511061076;0.12313051764498903;0.05954611566050612;5.96994883474266;4.006964391279451;0.9793048610412065;5.346334473490389;-0.019776335541859168;0.14923754069512693;0.059862446558788;-0.002948746262439285;-0.5316266149263901
0.6200451850891113;-0.012847745474312333;27.091588453570246;578.026757070958;4.4298147705792426;-22.923070022454823;36.9942697824187;4.016745144648982;9.211266934854041;-12.278162546189083;10.584136971482003;2.190348298997378;2.0839028644399957;1.390417538552967;3.612133695947593;20.55849014509974;-4.607394664552913;14.139111125814392;-0.11276945954412809;-0.20158117877314033;-29.1410833401143;5.915926969780579;3.637836925683191;0.8410315840743232;5.3554399949174565;-0.018532183382577047;0.12309070738585982;0.05952229029892943;5.972965577631823;4.007059063744295;0.9794084544944608;5.346988960422796;-0.01975150471348964;0.14926320980901917;0.05989423683265721;-0.003009196375632351;-0.5295254118522511
0.6401767730712891;0.038535056503175014;27.16150647486601;577.8292921111473;4.452214093727941;-22.890317434669193;37.10896126489108;4.034638887513171;9.255494845518712;-12.278067846286785;10.58517308917108;2.1904010400972;2.094697722588861;1.4110748408271034;3.6361236543544946;20.590560439590927;-4.62647569336899;14.146792554226902;-0.0987130399182425;-0.20579803112017372;-29.139029403244194;5.916505525421836;3.635291546736795;0.8400224627665956;5.355736119990843;-0.018567005056995274;0.12289401962067757;0.05948014127592385;5.973467662888137;4.00923568336065;0.9803634287972826;5.346703346104171;-0.019723025047510744;0.1494601338251966;0.05993178054841846;-0.0032540131578486457;-0.5312272021310465
0.6600558757781982;0.29691041779461713;27.02687050383498;577.5364110042037;4.449736110668146;-22.913122769863982;37.11185709548172;4.035931825146493;9.258300531021156;-12.369993163147658;10.564858391302794;2.178365637373168;2.0952537693286035;1.4001532491341078;3.5976775128705913;20.666038662665837;-4.6740646852253285;14.176707100693214;-0.09292195868126507;-0.2056850206046327;-29.12266055994444;5.9209376948213555;3.6356905421933465;0.8401591147244653;5.35691833460909;-0.01860863460268382;0.12292335615964582;0.05945376667301011;5.9758483277788335;4.00797054825166;0.9800739146607146;5.347181425838403;-0.01969078954477821;0.14942338103036043;0.059964888517933225;-0.00325214695552529;-0.5290504708747223
0.6802544593811035;0.24708108836939324;27.09214902537;577.3402474316483;4.467368865919854;-22.828517568869863;37.182062231110294;4.011705276613639;9.203174715064488;-12.293155166303482;10.575823684838372;2.188061177754454;2.0825416070482334;1.4506055118963148;3.7117779343182513;20.656524383500496;-4.6818265467309415;14.167221233151885;-0.06460188759399865;-0.20866061896680863;-29.119073157215638;5.922106624129014;3.633967445926233;0.8394771090058071;5.357338086283714;-0.01864726086494068;0.12279770265494999;0.05941292360692273;5.976583768418734;4.009514581143541;0.9807194963535779;5.347043158346667;-0.0196567983189739;0.1495309182203323;0.06000368575934375;-0.0034473824219817964;-0.5307124271847141
0.7000248432159424;0.3626790728532896;27.037841045431065;577.936137687401;4.452847034704516;-22.96383104790663;37.140248767018484;4.012998537625388;9.205893827281614;-12.374654490843046;10.561793106336811;2.177605882252446;2.083014368821861;1.4394255027296832;3.6790392071663494;20.591051518781434;-4.645720278840086;14.151825028825087;-0.08764746147410006;-0.20896597035600067;-29.111777506428588;5.923618665076786;3.6339345465787636;0.8394634767035828;5.3577663878892565;-0.01868529587420969;0.12281311188889375;0.05938047996246934;5.977417773398353;4.0093770952195875;0.9807085135026578;5.347081158050867;-0.019622639409300105;0.14952167617823067;0.06003729289655007;-0.0034886339696522236;-0.5287556838538812
0.719994068145752;0.29106075520227925;26.975855986094935;577.8274734568588;4.429458386566122;-22.877841346279872;37.176522666757755;4.010541633025624;9.20336819146127;-12.387216653886604;10.575602122953697;2.1786243746343574;2.0827730042572963;1.4292824710589587;3.6741621918282776;20.67267139550206;-4.631955882093319;14.162427918090868;-0.0972463245582021;-0.21302215060116492;-29.110268832579504;5.9240758081913585;3.6309755921796767;0.8383633603018419;5.358126981213657;-0.018718757012119135;0.12263342886164896;0.059338039997736;5.978333788318873;4.012146775965001;0.9818106933318714;5.346919689331066;-0.019595940102024728;0.14971661651581428;0.06008009681870534;-0.0037800959375394834;-0.5304622526711104
0.74015212059021;0.3035723102429184;26.807375037650775;578.0203302145717;4.423665087352041;-22.90070251315982;37.09366259980369;4.011035731828863;9.206269664692927;-12.329786807130493;10.591770472326193;2.17993479700161;2.0835514854366557;1.4034278903193318;3.6235937930563544;20.581576968453298;-4.631160555619108;14.15308788286613;-0.1024894580875644;-0.21506584460684275;-29.106184861508854;5.924499715861947;3.6295123767737607;0.8378299499555244;5.358403899803486;-0.018755914394424762;0.12256461231688334;0.05929798402436233;5.978807415967336;4.013567721895374;0.9823672943714621;5.346760876756377;-0.019555064095032784;0.1498083280413122;0.060120992213758;-0.003930080646175016;-0.5285770250468064
0.7600533962249756;0.1351635291216624;26.950381722861437;577.3199557792299;4.445796244958878;-22.67278209356904;37.278394254898934;4.029618200383171;9.252307224398102;-12.239776260450924;10.615490910283796;2.200278592709039;2.0947633226223052;1.4330949419127788;3.6890249928199843;20.706064870776725;-4.648853034607623;14.17023412219883;-0.08670935216590707;-0.21948762982388986;-29.10550384946614;5.924254665573334;3.626458406094221;0.8366809141868505;5.358617866223398;-0.01879191770428125;0.12237296061854833;0.059250847597621316;5.978931646294646;4.016653440160652;0.9835583291763899;5.346395885067649;-0.019518740344339924;0.1500097130573668;0.060166736366883876;-0.004208100392355524;-0.528534698194784
0.780076265335083;0.24892391884623777;26.900338272465092;577.3116261915146;4.45976061663945;-22.748366067600536;37.29010941141732;4.030392870855783;9.253429820837244;-12.232670085904529;10.619572172501128;2.201324363762365;2.0948432058682265;1.4423215408459675;3.6948946923085235;20.64741461277802;-4.691144474041578;14.16432354300214;-0.0774395309953565;-0.22033943558340016;-29.109329794104863;5.922765332169226;3.6261890997864197;0.8365643490109319;5.358282352422552;-0.018828886304773265;0.1223713578074602;0.05921038932821955;5.977098959274337;4.017184228689286;0.983770883502931;5.345680979591382;-0.019481372973868226;0.15003518041033537;0.06019874561666057;-0.00429732574193272;-0.5286107942813019
0.8000569343566895;0.4507316538040911;26.663456359208475;577.7189559086775;4.420814640793724;-22.915537770920047;37.183847320692976;4.0043078071531895;9.194568468815456;-12.36849738204756;10.566628462073286;2.1786148556931835;2.081374466812225;1.429015640966858;3.6578144412570275;20.63248722229071;-4.653858771001813;14.176488944390984;-0.08465885272084807;-0.22358256095235235;-29.10877528077132;5.923109481689705;3.6240067820586432;0.8357445352816103;5.358565678748604;-0.018860853963102525;0.12223705640226804;0.05917206109439147;5.977632087236625;4.0193553734343315;0.9846161861674567;5.345510976334479;-0.01945423544580885;0.15018520499231217;0.06023387173355875;-0.004525633263743058;-0.5303170149168022
0.8201637268066406;0.48261218030628683;26.61818443418731;577.5121527147392;4.405643927397172;-22.873203683772452;37.19696077489532;4.006497632931928;9.200311930217138;-12.375577133086626;10.561988214120525;2.1776999827603047;2.0826599354766864;1.4115722899006058;3.6467716893875797;20.667142242278963;-4.677310176009469;14.1691396076432;-0.08854940960735387;-0.22353761126850943;-29.098154981908095;5.925814591139948;3.6238320600994633;0.8357245935504568;5.359334859511639;-0.018887369401823104;0.12226440091263029;0.059153397053811514;5.980248851457838;4.019256370809893;0.9845932258826813;5.346105677297991;-0.019438666369108078;0.15017520580207883;0.060255246468554284;-0.004555096840993275;-0.5282229459791088
0.8400347232818604;0.5106396424401023;26.595155448740982;577.7154951092903;4.404524243944319;-22.904126507265183;37.16731768348505;4.005645328412773;9.197568115480687;-12.372283372191667;10.564068873251893;2.1780921270365408;2.0819519511637288;1.4107777836444928;3.6320101655543926;20.630112971633586;-4.65865494030641;14.168315545746534;-0.10547412483893306;-0.22344354923170137;-29.097946030464186;5.925251024266645;3.6238566527656384;0.8357492574018479;5.359132929915825;-0.018908143744474915;0.12229104266172623;0.059131942827778256;5.979647157164274;4.019363398395076;0.984616175615344;5.345776738068155;-0.019427760305330714;0.15016178379606707;0.06026368026648557;-0.004591754727138683;-0.5281672338014803
0.860424280166626;0.2561015978059942;26.666417678659336;577.5994357567265;4.42070026439267;-22.671094504064364;37.21979485596539;4.028319780081208;9.25056509939514;-12.242723934210787;10.613701136793663;2.1997869780083366;2.094390302761586;1.4105400730070432;3.637745579583176;20.680080913208734;-4.600856586420323;14.183313357765027;-0.09617015836772955;-0.22280952273409685;-29.090698363603337;5.9269968701229985;3.623910577920391;0.8358262377494018;5.359544330324878;-0.018924037403812537;0.12233808844899392;0.05912159944034777;5.981533727421043;4.019139739832421;0.9845095275890305;5.346169730560244;-0.019427451644915023;0.15010988075604179;0.060266871278984176;-0.004615419915414599;-0.5279102409111579
0.8800654411315918;0.5198336137160933;26.447181760313455;577.108541332554;4.407560553697586;-22.710421635497312;37.16032659344344;4.003454976269248;9.196838069106814;-12.300726559584207;10.572281416221298;2.187336183620573;2.0823153643689793;1.405873360492646;3.6040950578982334;20.720408779297543;-4.678474510150243;14.189478509648202;-0.09895031804501125;-0.22604721132325345;-29.081891433575535;5.928619710364298;3.6207672909052944;0.8347220199488722;5.360101729220397;-0.018925995976304615;0.12216657958549856;0.05911153711971897;5.984402210306495;4.02203471284027;0.9855589715474066;5.346618465951075;-0.019444174565998888;0.150281202896777;0.06026911507032401;-0.0048393764552221614;-0.527609459973679
0.9001643657684326;0.6582038979477005;26.442022971370676;577.5140644661392;4.3997207829115865;-22.799890497288587;37.15216115152016;4.004288307566738;9.198866083784056;-12.382947330704834;10.557980705136353;2.176823308875577;2.08273021183923;1.4012244807169758;3.595315071120596;20.702110609635643;-4.646134932876047;14.192906142801705;-0.10208240146128321;-0.22454949795995405;-29.073828509384107;5.930346229488896;3.6211074490485324;0.8349300966937315;5.360406316262684;-0.01891793548895241;0.1222334923320755;0.05912045833042536;5.986606267443414;4.021511968599646;0.9853097774611143;5.3471651351683755;-0.01946813001673555;0.150211118289731;0.06024947942265984;-0.004811067953169646;-0.5273302983689462
0.9199872016906738;0.7092463813006358;26.664673319203636;577.7210246019168;4.427674665393666;-22.836250448747627;37.255838508575664;4.027195258175545;9.250193169669537;-12.37908293885955;10.560556843545507;2.177428947799132;2.0945385415609805;1.4220853527258384;3.644544512721491;20.65479882767338;-4.637416319947796;14.182174526857064;-0.08927504703233884;-0.22146471286033695;-29.071430411703954;5.930270371156538;3.6228424892542765;0.8356366243692075;5.360117461240948;-0.018911565789431595;0.12238177867870903;0.05913793992069568;5.986632516010298;4.019870631781252;0.9846329534252509;5.347219232857746;-0.01949952041071533;0.15007098697352567;0.06021273827966792;-0.004669160319306491;-0.527211354148795
0.9399929046630859;0.5838786576825932;26.804249467239902;577.3183321605642;4.431979606897386;-22.642403502589893;37.29516024679388;4.030832934913674;9.256073580682784;-12.306237978607072;10.568620204830326;2.18667942555143;2.0955640842012047;1.4285087340196871;3.680341915254666;20.73773445622004;-4.624946432135015;14.18578500924376;-0.08795018614690395;-0.21666506911408687;-29.060843903559757;5.933148233623999;3.625717230756206;0.8367794306074365;5.360490887984808;-0.018895005337671085;0.12260507363807255;0.059172515178805354;5.989428530492646;4.016746751054309;0.9834235721092938;5.348192013984466;-0.019541645259377717;0.1498521323054069;0.06016826215426304;-0.004425647922131947;-0.5268736116865084
0.9601755142211914;0.8266740970422788;26.654788323559373;577.9327069189916;4.412295708831124;-22.82336271438261;37.130225676883484;4.0097318442512995;9.205399327183159;-12.393818304420432;10.550769074104213;2.1751846722367416;2.0835167021459156;1.405417216094438;3.6246613881064755;20.636665739212976;-4.610197811350117;14.170979216417994;-0.10066848504396278;-0.2131004620646859;-29.04948144282494;5.9361730228388705;3.6276995669990564;0.8375785162144372;5.360941332948791;-0.018872538115083326;0.12275524902978902;0.05920948756542151;5.99268939564233;4.014461808757879;0.98255476503738;5.349298202386363;-0.01959045795894583;0.1496854813827009;0.060121575967350536;-0.004227574884853045;-0.5265220583772614
0.9799747467041016;0.8959759960281612;26.912078386306984;577.6392227325521;4.453315894955743;-22.77878741657876;37.27674965501973;4.0560390549509036;9.310461735436187;-12.405135782803315;10.565330416192095;2.176414167794598;2.1078116908476985;1.4130561543434013;3.6194914753999283;20.6938983373675;-4.656636437342396;14.176525267926204;-0.1019071190159311;-0.20846478051771514;-29.046449052638042;5.937041850303663;3.630695264521921;0.8387304175547949;5.360715531179336;-0.01884839057242335;0.12296270359327804;0.05924614472632802;5.993446417305548;4.01146386210487;0.9813896100684686;5.349716356252679;-0.01963767588967244;0.1494749699854872;0.06006688474516059;-0.003983755839576486;-0.5281762980235889
1.0001330375671387;0.9566372717801173;26.970807371539596;577.3462377962971;4.458513880713822;-22.71172934931562;37.27537878014117;4.035094390946814;9.261001866266998;-12.399011299092754;10.547636215349877;2.174531648108565;2.096160993668487;1.4363374545263314;3.6712012877450486;20.74287076768588;-4.662658824138749;14.188281348785935;-0.09007460139193657;-0.20603686860368856;-29.036825950737967;5.93958107363764;3.632040044450438;0.8392666912217428;5.361081680972834;-0.018822142558179947;0.12305081286706505;0.059282806924489964;5.996359846308261;4.010111126453599;0.9809007630354011;5.3507405288112455;-0.019688672067586725;0.14939843045592613;0.06002212642160831;-0.0038180260073687397;-0.5278980784389
1.0202295780181885;0.8995796668584877;26.931198578679886;577.351938505795;4.456076524216794;-22.624349098104645;37.14829641575825;4.0177043203138005;9.216285884449524;-12.326644327376775;10.554925072819444;2.183569090692381;2.0851255652678473;1.4311274677128378;3.6604546480689457;20.7291857852303;-4.6264599181573125;14.193238677909331;-0.09153545216762164;-0.20021348741796585;-29.028560499924225;5.942262552601233;3.636124499502516;0.8408151035127686;5.361332263750011;-0.01880260127260875;0.12332275386696911;0.059324330304021795;5.998437500935686;4.005806043817838;0.979299192559039;5.351707113049856;-0.019728694359052994;0.14911870706504474;0.059973586094192836;-0.003471045526290885;-0.527665627912241
1.0399839878082275;0.9098499612882147;26.884471960704523;577.7537332441693;4.438051282973781;-22.67485549604909;37.083357055215544;4.017225186262429;9.214238993588788;-12.361267898421683;10.572198385085986;2.175400953383487;2.0845913700783636;1.4028459801992224;3.6229692005094645;20.700371182254646;-4.60281389298391;14.194306867744334;-0.09190055140824792;-0.19825001091053435;-29.02552596581837;5.942589535091793;3.6377824422328957;0.8414231774992469;5.361146522759542;-0.018782635731886273;0.12341221634197516;0.05935034139314367;5.998452867867527;4.0044632980202755;0.9787933768125252;5.351836070658714;-0.019762760672352032;0.14905525365504835;0.05993668104742698;-0.003294206574505884;-0.5258153289224866
1.0599937438964844;0.9259409599911503;27.03034632330614;577.5579484068987;4.469266927818524;-22.64490795274545;37.11627176106106;4.041597083616038;9.268053890264506;-12.272655690518832;10.594243673243641;2.195478052740863;2.096882352778839;1.4018100048597169;3.620903219692117;20.645681261808587;-4.642466574277634;14.182416110120283;-0.09122008015450579;-0.195053341526613;-29.02450223803725;5.943016704370995;3.6402552954869716;0.8423309580234865;5.36098149072958;-0.018768456875722872;0.12355816534341454;0.05937438137121299;5.998420551994943;4.001989200488355;0.9778879040524346;5.352096600552133;-0.019784786921799635;0.14889627685897358;0.05990624108422681;-0.0030775170759436716;-0.5257840985011758
1.0799782276153564;0.9114726990843387;27.05865421410789;577.75887559471;4.440690028623307;-22.684088866418236;37.1105674215146;4.043174862347001;9.269611597002163;-12.40452785611469;10.543135521013347;2.1734752901063366;2.096965523382923;1.3970932885645613;3.606132686411725;20.73994247528079;-4.576767338346945;14.19526164367638;-0.10198101409279751;-0.19284772517355664;-29.02808636866739;5.942567227445463;3.642322709727684;0.8430800101403286;5.360662923268167;-0.018758889406353917;0.12367760188230287;0.059390238558964685;5.997510563333665;4.000268719629345;0.9772473798683711;5.352003771286145;-0.019796927399007416;0.14879174652377453;0.05988569285020259;-0.0029437654510753846;-0.5276452752149086
1.1002662181854248;0.9082384213859438;26.973597802076466;577.1539368251111;4.455024209578141;-22.59200364402365;37.061288576166014;4.021599750681922;9.21949014964698;-12.32908530796384;10.552892280068697;2.183013356766935;2.0852469838863597;1.4096190352941516;3.608421917360907;20.766782246767043;-4.6429452036114816;14.202101673371743;-0.10196145058327317;-0.19301997860835857;-29.025504852182834;5.943119502305336;3.642591765963328;0.8431604367596851;5.360816770131505;-0.018754418988295836;0.12367664739497558;0.05939701554647792;5.997961895679067;4.000134584535472;0.9772367539139736;5.352223124545896;-0.01979937573473134;0.14880238594798004;0.05988476033829588;-0.0029014925802390993;-0.5258190809631066
1.1200430393218994;0.9507928510468542;27.06975353487318;577.3558329575479;4.460427886629226;-22.656974032478395;37.14577530197727;4.042138060278899;9.269177083967692;-12.414153717597156;10.537434022744169;2.1720387010100164;2.097171342278964;1.410030899872273;3.608043916179769;20.792010282639488;-4.621144219382673;14.21559504201137;-0.10311757850065345;-0.1948184228643566;-29.025117808693594;5.94405994111515;3.64176079053661;0.8428276091904103;5.3612316161374105;-0.018753712791955722;0.12360064882320346;0.05939710559797595;5.998624149925666;4.001313734398484;0.9777170583728638;5.352378603019858;-0.019792068183806535;0.14891448817197123;0.059898918838257514;-0.0029677065202105826;-0.5258110335515104
1.140134334564209;0.8905529314415741;26.9629415643171;577.3493469062269;4.474439547597909;-22.700111424942506;37.0356008576343;4.04469667032502;9.272355559580848;-12.269383232116034;10.59558334548786;2.195817563201127;2.0974960565717957;1.38357500448741;3.5511357357095785;20.634250404921303;-4.6919087516053075;14.187139796371724;-0.11560542839639863;-0.19391958619693983;-29.0393766209737;5.940211925258846;3.6436888897753072;0.8434684373731695;5.360191922308604;-0.01875996706027889;0.12369453422373036;0.05938858930801759;5.993862452137472;4.00033801922289;0.977366355538406;5.351186308731066;-0.01976358115464412;0.1488578771722211;0.0599096667265764;-0.002886905609786262;-0.5262246875711204
1.1602578163146973;0.7957751551015182;26.947779044969494;577.5429161947267;4.443271747196285;-22.763825100099346;37.06522969789451;4.04257564972859;9.268409610439043;-12.399749909803951;10.54589035724953;2.1739953336539934;2.0967452086502814;1.386396742922827;3.55724982412521;20.71718077851514;-4.63738785822113;14.189566065361808;-0.11372107298125392;-0.1970064258207275;-29.051880611236292;5.938043992663158;3.6425625068838863;0.8429598476312615;5.359897542885506;-0.0187632047481849;0.12356522002219847;0.05937091476703146;5.991076357287471;4.00213949532902;0.9781132180364219;5.350421671321274;-0.01973270118727896;0.14900920526021963;0.05994374838783685;-0.0030190552381556216;-0.5283494604890011
1.1800196170806885;0.6230655344657734;26.828035912831368;577.1326272248632;4.4334001197554755;-22.67848879247086;36.96334415685322;4.024006812470143;9.222758579376666;-12.29251762249257;10.532213664863715;2.182621707211523;2.085669237261854;1.382115385145702;3.55100691663273;20.711450680367594;-4.642141972429938;14.188059739474738;-0.11416678201174574;-0.1968625783600847;-29.061094491436457;5.936098783860751;3.644279896880487;0.8434975977569724;5.359525228189274;-0.018786341365386386;0.12363455586163313;0.059355499602162166;5.987817662598639;4.0010782273122425;0.9778033499804373;5.349730616283372;-0.01967722238505088;0.14896765206000812;0.059980246490102584;-0.00294535865921171;-0.5268809386264921
1.200061559677124;0.5143510633847193;26.794574165177657;577.5236968089596;4.429167685682726;-22.773481738786927;36.99504762167729;4.022582182583622;9.21959031604643;-12.343826194620057;10.581431253265126;2.177483837329259;2.0848963283048794;1.3807477237939954;3.5509257779724344;20.691931890708975;-4.657288502645092;14.182937995838738;-0.11391127206722763;-0.19982793004772456;-29.079298316413897;5.932143483661558;3.6447351389842004;0.8435302608424157;5.358737422983089;-0.018804836824027414;0.12359520617975694;0.059325094964353044;5.982944034959818;4.0025143251814725;0.9784495806784125;5.348443091596586;-0.01961762607054407;0.14910866206092596;0.06003124889481447;-0.0030678635552311585;-0.5291820034032606
1.2200560569763184;0.42426354531031407;27.061704546590306;577.3203391545078;4.4651531942504175;-22.763217023833604;37.22205875450693;4.062400173883164;9.315027535401567;-12.341869666744198;10.583825188828552;2.177795679685754;2.1077478754305394;1.4091436060588005;3.6072204476637824;20.722599925267414;-4.677204060342846;14.190074447378413;-0.10744284231514291;-0.20572684488579462;-29.088652487451583;5.929924566541409;3.642171658221604;0.8424184704968858;5.358642566443386;-0.018836490492737952;0.12334283058834752;0.05928389283776803;5.9799795222829975;4.005906881862293;0.9798539238581621;5.347481252183743;-0.0195525651944735;0.14941079082006545;0.06010043907615266;-0.0032834015678353612;-0.5277243813702408
1.240171194076538;-0.05150417515248584;26.72159810594632;577.2028179605472;4.412980300988709;-22.502352423819374;37.00987841613574;4.019259508942669;9.213568138528991;-12.25425640823359;10.604487862846383;2.1975480981240993;2.083878290175122;1.395963766820945;3.553265397854863;20.86140362548654;-4.556633148420666;14.216387727730153;-0.11977277782650768;-0.2091024887931919;-29.09970834283113;5.928734583948407;3.6415539615054935;0.8420388627937261;5.358707897525282;-0.018868899414678814;0.12322389261498427;0.05924796423995494;5.977490388998738;4.006983446673086;0.9804110333664079;5.34685980769366;-0.019481688570398573;0.14955405678784717;0.06016803262416468;-0.003414136908757614;-0.5298265224746433
1.260061502456665;0.9248365684853344;26.704905640001;576.0358511204078;4.497198643324397;-22.977220765319444;37.15144963817921;4.017785186372433;9.210042323036875;-12.392038311181016;10.571318081829666;2.1774356731731572;2.08301073156185;1.433702500154996;3.5641039867961695;20.720881615694516;-4.966408887201362;14.222314225231091;-0.1178607950733577;-0.21282659390391642;-29.112185467656143;5.925586648373167;3.6404950123934383;0.8414750889506993;5.358222543561762;-0.01889855173982878;0.12306587891645931;0.05920748130279523;5.973216135819548;4.0084717201012525;0.9811200084855313;5.345744703160993;-0.019412042968219155;0.14969431459512625;0.060230217320105056;-0.0035130355071499014;-0.5284489209874798
1.2799944877624512;0.3193806057948301;26.873355801623283;577.6150786466981;4.478745432183151;-22.950711800604964;37.1463239713738;4.0586895992972964;9.30693463549905;-12.33640533236926;10.587649334692934;2.1783808321526936;2.1060701176570653;1.422057783399093;3.556253674614719;20.596772679206985;-4.705463768897128;14.164851093386046;-0.12452680332722531;-0.21689821444485918;-29.120650086390192;5.9249199204594625;3.6390239761771257;0.8407801654449167;5.358436310514819;-0.018927089703033986;0.12288697875981267;0.059173247188949216;5.9714458363389635;4.010109266338567;0.981869700305318;5.345220280221974;-0.019350542884881167;0.14986721727652563;0.06029211321835689;-0.003674750802550709;-0.5304745401860955
1.3000400066375732;0.007036974676669416;26.55032547668658;577.2126580837459;4.426969591361924;-22.697031614026976;36.9600831901235;4.015898636609944;9.206537677174309;-12.285746546933632;10.624084895551267;2.189761606321854;2.082335682416451;1.3949410052535964;3.4828387192330568;20.77045698098727;-4.666085279690207;14.196160639247962;-0.15695167493094386;-0.21824446927960892;-29.121523848455126;5.925593576513429;3.6391418875116046;0.8407214298492227;5.358876096779118;-0.01894992119988744;0.1228395446508969;0.05915455976585675;5.970848287874882;4.00980363145839;0.9818493058679992;5.34512551951741;-0.019300443284347317;0.14989790538434988;0.06033871157173049;-0.003673946818891686;-0.5287723914803801
1.3201351165771484;0.6082389432411563;26.538829883575392;577.6414781871823;4.445120498940598;-23.20550846394925;36.90919851663736;4.018286548810385;9.208571638056549;-12.329862879905498;10.590762029881983;2.179388408017274;2.082643986648738;1.3779892194973884;3.4681304645126145;20.41179951758656;-4.836655570816539;14.130599220485344;-0.16763246208902366;-0.2192430501460843;-29.135098665628814;5.921908545005989;3.6394247216027984;0.8407131774464782;5.358016940673311;-0.018962511610389192;0.12280368090253138;0.05913443079038107;5.966261925031001;4.009915662803744;0.9819177608573297;5.3438735642593835;-0.019261946899996933;0.1499210601221433;0.060364433900712985;-0.003684275045685889;-0.5291710330587094
1.3402092456817627;0.5215673495538979;26.627966165853316;578.2432998615791;4.485782510713377;-23.228580290112887;36.908591004502156;4.042883199893257;9.262047284753162;-12.22856277429849;10.66935601829044;2.210970261233754;2.095200024516535;1.3816928916925657;3.4552301447527194;20.247549685301777;-4.83464889786856;14.07792514935007;-0.17030991456270442;-0.21835225297994512;-29.129183573549717;5.925011314383137;3.6406039917927697;0.8411134558495027;5.358944250341581;-0.018977611091652233;0.12286015106149147;0.0591339840339121;5.968332267217549;4.008338165242421;0.9813872989460484;5.3445980235119075;-0.019236091529114846;0.14982719430840616;0.06038908000476323;-0.0036162810259503277;-0.5290232552941406
1.3601396083831787;0.2884966887244431;26.528263480493543;577.5508771774986;4.4537667896126845;-22.876233187848257;36.9599372532972;4.017899029957525;9.205167041074045;-12.280257781293525;10.701499121810304;2.2115509902932575;2.082196323267227;1.3911095141718346;3.4697722503072272;20.606486283366564;-4.78388811579679;14.160538281069902;-0.16664204676628053;-0.22024057200402;-29.11970138954561;5.928694487052971;3.6394278100149533;0.8406640758060209;5.36017200339104;-0.018987117594736806;0.12276241346030736;0.05913142105691389;5.971745242455196;4.008989679394843;0.9816877564522736;5.345495923198809;-0.019224578604582605;0.14989638688392606;0.06041262470405254;-0.0036974546479357773;-0.5287722894322741
1.380136251449585;0.5139173185170822;26.631076610298493;578.3692803113676;4.44407201313352;-23.165510536181756;36.919479918189566;4.019415213050769;9.207715969157015;-12.414692751670753;10.558274080436686;2.174237072230774;2.0826485780032153;1.4168178291978164;3.5019917529028524;20.462064867745774;-4.677989997154375;14.11883223415965;-0.16602374123369795;-0.21951021843910626;-29.12027793541152;5.929170728904683;3.6400647991654824;0.8408867683959094;5.360259022285819;-0.018989138738029;0.12279747296102958;0.059133729734168645;5.97192679087143;4.008276422170088;0.9814149234370465;5.345577991343701;-0.01922668288903049;0.14984717600826614;0.06041336161709392;-0.0036787216215968923;-0.5305631348769544
1.4000327587127686;0.896244020667524;26.64921270625619;577.4870080225951;4.488609350669359;-23.226296701552933;36.97510852684498;4.0206956243543;9.209616542640429;-12.360961959637457;10.572167100524567;2.174871499217996;2.082952485007521;1.4211234253601628;3.5160678591459185;20.402480861302177;-4.888737192540088;14.115490819082643;-0.15451235220094467;-0.21712690457543535;-29.11508110799393;5.930887876201201;3.6414417652651845;0.8414362851241132;5.360596124321832;-0.01898215506629128;0.12290842323032486;0.059150912382014836;5.973538761917944;4.006678472637838;0.9807896384135528;5.346141092450694;-0.019233396604884045;0.14971677122569557;0.06040077482823192;-0.0035743354932232605;-0.5304387760325044
1.420149326324463;0.7477154062342954;26.656194119088514;577.4849873123067;4.462893195174434;-23.061611687801708;36.971607665035;4.023690271632684;9.21510503547307;-12.364815603552287;10.56939193509682;2.174375229021493;2.0839669389856357;1.4063735096128864;3.5150069448526593;20.52947325547322;-4.793466813689069;14.151837813674575;-0.1475759542952525;-0.2135525313648239;-29.107947334512218;5.933051927072258;3.6431833889511718;0.8421734032956038;5.360993269749499;-0.01896425886512732;0.12307189453397954;0.05918119949457089;5.975952286630568;4.004673084565813;0.9799717659809349;5.3469773954879125;-0.019259836632068296;0.14954949273340157;0.06037484204449216;-0.003435846043899218;-0.5302563251245612
1.4400339126586914;0.493936760909099;26.77376381634982;577.2820051558858;4.475711376278732;-22.82475967751308;37.03122599934594;4.0441956021629135;9.263790949272519;-12.226551639031307;10.628656345333821;2.2058418948483953;2.095630928376423;1.4014663450409732;3.524228908047027;20.5736036585284;-4.76587853004898;14.146824476971707;-0.14490987907313477;-0.21246178269710977;-29.09902303704421;5.934752761506318;3.6427176151268323;0.8421093953879659;5.3613936655664896;-0.018933922644955234;0.12309388924925493;0.059213341993583093;5.9788128928920115;4.004891709631195;0.9799681693151627;5.347801830078726;-0.019299142688164385;0.14950981810925582;0.0603453589650479;-0.003414240287160214;-0.528257267635123
1.4600090980529785;0.719284039866821;26.796532535843834;577.4912113840521;4.466168732852191;-22.962898685752542;37.042659345522;4.025874121274121;9.21858874766242;-12.371256343232625;10.565139864178953;2.1734171306305172;2.0846057075114337;1.4191768728797707;3.58073234701138;20.597269525341435;-4.742993072944278;14.16785129604904;-0.11699197622192574;-0.2065199940733582;-29.095253207452473;5.935652575679551;3.645548532229204;0.8433166612483229;5.361333235758008;-0.018894086635595053;0.12336660766726074;0.05926551878565332;5.9804170110994965;4.002000499353894;0.9787489407777797;5.348559150550309;-0.019346749789081248;0.14923881070050013;0.06029286795864524;-0.0031854628772949806;-0.5281515165775754
1.4800043106079102;0.8445664905759855;26.93074762757837;577.2985038709287;4.493345439065943;-22.997123651394688;37.11549040585081;4.070592623604943;9.321628583277883;-12.36297122671398;10.5706409356584;2.174767126289019;2.108679495730982;1.3973847006797346;3.5298429374754248;20.582149786727605;-4.7912088885261115;14.180110222579087;-0.12956036528477088;-0.2024619591717287;-29.099072815825963;5.93357601200971;3.646797406969875;0.8439324464892225;5.360536014363914;-0.018838375676577347;0.12353010742591292;0.05931845856326129;5.979893369128548;4.001025254449033;0.9782243896489031;5.348676781318257;-0.01940649663986555;0.1490900860766167;0.06023098712236512;-0.0030542604026011907;-0.5282504139888733
1.500032901763916;0.5547865336319404;26.769763959661226;577.1871274580644;4.4651576900333945;-22.786105706656244;36.98521029712502;4.029239636984641;9.223014918672503;-12.310342362085736;10.607957320053846;2.1863710066135544;2.085226127509758;1.3954771854081713;3.53273677255273;20.697594628827574;-4.732747000203603;14.194408512974482;-0.12167291368142154;-0.19642858898486362;-29.097372036965677;5.933655235719325;3.6492025884503976;0.845022413811172;5.360257192866995;-0.018769940144026206;0.12378609501704119;0.059389436347076933;5.981364534801254;3.998669861222376;0.9771681276582608;5.349459610708855;-0.019476021087290504;0.14885369133128537;0.060159891554095506;-0.0028274596882339603;-0.5281971827144059
1.5201482772827148;0.573246305422737;27.121519474862957;576.7878258967378;4.508524463765495;-22.75720895742392;37.14781976240299;4.055944051454592;9.28123281089212;-12.260354180645278;10.599625147608817;2.1968556586859687;2.098314230701892;1.4302763148076674;3.6139643158816317;20.705454008932506;-4.769553616625103;14.195775404193915;-0.11125874672454526;-0.18939642720456498;-29.106115921836775;5.929929250043332;3.652399368321129;0.8463840974028437;5.358818976969643;-0.018700300434247093;0.12409312110287103;0.05946338833930273;5.979088236326067;3.9960229862457086;0.9759600752366611;5.349236404982937;-0.01955258808802955;0.14857497627668045;0.060070206378963056;-0.002540015694556531;-0.5284326810189639
1.5400214195251465;0.8587715428056502;26.985509616472125;577.1974061206629;4.4751242861318286;-22.98994428750553;36.98983755393246;4.037471061654202;9.23523910163442;-12.397622883544711;10.544617426461963;2.173996268485972;2.0871332959076794;1.3924376497647564;3.55215505953639;20.637237358244757;-4.774137727565403;14.18827341313109;-0.1262804882662832;-0.1819659987691437;-29.10430736283697;5.930674332847081;3.655796225531409;0.8478466530215031;5.3585976727877505;-0.018626594115313415;0.12441292804762992;0.05954945978967593;5.981121163580178;3.9926195221286935;0.9745188875658893;5.3502893394954105;-0.019634501784617488;0.14825917634943028;0.05998380193028333;-0.0022395022141484264;-0.5301334220903416
1.5600357055664062;0.6540239223353304;27.05631289984491;577.4896718839151;4.446481740830972;-22.908340584214358;36.9537924096042;4.043193719052763;9.242544614527302;-12.408206825973672;10.55823903498472;2.1750488011857896;2.088055270417065;1.364779896108102;3.548398187444721;20.69593456253585;-4.692189738591118;14.193248566982446;-0.11819891313696763;-0.1720796350522283;-29.10312125977655;5.9301073077065345;3.661349712932571;0.8500804285778808;5.357824358275281;-0.018558166244866205;0.12486281294780467;0.05963514935307204;5.981109386880836;3.9872662731158734;0.9723524665811691;5.350888769507409;-0.01971176982942595;0.14782555400496614;0.059889179519132335;-0.001750314643536163;-0.528333773808709
1.5801239013671875;-0.18149404033545302;27.112498375463623;578.2561294820116;4.40264711518396;-22.505571783230273;36.83738097273296;4.066376010954249;9.29686490712232;-12.264526326553796;10.59527302975249;2.1960823041711652;2.1009138895507795;1.32721270856436;3.4872035090532645;20.812121411756692;-4.3810632684718485;14.197513460916111;-0.13378870558497544;-0.1685646838403466;-29.098869205063846;5.930630226343491;3.6623210418197103;0.850576602565104;5.3576589306407385;-0.018490210463594108;0.1249759346893242;0.05970494944785474;5.983160003281499;3.9862458755004013;0.971861717703221;5.35171749819747;-0.019791380206333822;0.14772183161290448;0.05981480903582538;-0.001584408188453846;-0.5282020676906412
1.6000185012817383;0.6495052723211483;27.398678857401414;576.9865825319243;4.49125225268928;-22.825816964241646;37.077824383592485;4.091501231159313;9.352715452642686;-12.353581922042892;10.572568390983719;2.1758731129095135;2.1135993883956825;1.351346391219519;3.548561170661391;20.722337794594445;-4.760461293618748;14.192221110446624;-0.1124596684490785;-0.16212555130721928;-29.098605656789992;5.930924973772872;3.666110052041499;0.8520761159448661;5.357235120030279;-0.018437719635160915;0.12525677173638;0.059770174187005004;5.983766767348553;3.9825081960665383;0.970388393482622;5.352310433170436;-0.019859952622204614;0.14746405708752214;0.05974162786937666;-0.0012529091029322165;-0.5299390693072409
1.6200616359710693;0.6995321696063801;27.1835069160362;577.9877117082949;4.477813528563466;-23.06261926950014;36.79306920929472;4.047938228791882;9.248178666895985;-12.34733456702878;10.575495055351015;2.1763973285467464;2.0887077111423777;1.3429239342737394;3.5083561422446357;20.477419156099078;-4.726352220708192;14.135805518578676;-0.11224549609780081;-0.15791172844202103;-29.10089937275372;5.929000401568758;3.668922398969457;0.8531325596635159;5.356252999263927;-0.01839440903741687;0.12542726004797744;0.05981631083510715;5.981950113976172;3.9799941384575055;0.9694178987234114;5.352097801142512;-0.019906661915558455;0.14730461229703018;0.059677861383091606;-0.0009533322653592228;-0.5282286709558682
1.6400558948516846;0.2057013932068834;27.36081625321829;576.9651078552885;4.472466731436624;-22.556564217709955;36.873076033362196;4.053024131554878;9.2561880660015;-12.249407213861232;10.601959493858498;2.197612480472599;2.0894710382032375;1.3605888304941098;3.5515760922852517;20.83907244836022;-4.634060195335084;14.21747156608868;-0.10050671135536368;-0.15028248083395257;-29.100337269720285;5.929230954586467;3.6745713825404485;0.8552429453411721;5.355685790836299;-0.018367187827099812;0.12579045915562395;0.05986401385291246;5.9811729280247246;3.9744293881925814;0.9673377197702723;5.352361454029662;-0.019943989596418632;0.1469399152697959;0.05961797386004535;-0.0004891888181840541;-0.5281918143941122
1.660062551498413;0.6699547443329212;27.31728521887701;577.5789196499434;4.432045739909082;-22.9617792901346;36.770641674697515;4.0556005284752645;9.260782749244886;-12.485298966835893;10.474500949879626;2.1522419426146797;2.090028736617996;1.3227455008077815;3.4910571976243117;20.724558702336786;-4.629782156565984;14.19879952605054;-0.11451574035040785;-0.14680103828485266;-29.099417651600163;5.9291922448154954;3.677321809375723;0.8562465703011412;5.355266940313404;-0.01835015637935583;0.12594567617418498;0.05988979503111146;5.980620663378166;3.971729151257221;0.9663510029825548;5.352415250546344;-0.019972196158435075;0.1467892423833429;0.059578947368596376;-0.0002403260988613513;-0.5281402626940576
1.6800360679626465;0.8730001705864421;27.64711230671953;577.480363641223;4.511745854224722;-23.08262079528813;36.97319280177956;4.078323452153031;9.313208694479433;-12.441743538714993;10.528595195028878;2.1655117293548183;2.1022417089314263;1.37413905681954;3.5883860970810684;20.587824471735463;-4.774755495628125;14.160691878208722;-0.092689627317765;-0.14646828995035424;-29.098242291207008;5.929051966196595;3.6780557763553725;0.8564661402974958;5.355002408826607;-0.018350977020230586;0.1259532854987936;0.05989035609622921;5.980083037875294;3.971023895408559;0.9661373363090988;5.352248391412628;-0.0199833025953007;0.1467827953876853;0.0595639293287165;-0.0001572375437834438;-0.5280784977191233
1.7000758647918701;0.633419896135667;27.565883269762885;576.37123804623;4.5136144033724666;-22.728010710431775;36.97372061539892;4.075918708079268;9.308414413037985;-12.240238305011989;10.607441482135709;2.1989017027995574;2.1013357754161723;1.3550317327795252;3.5679637540302007;20.723845448545447;-4.846057966520954;14.192500231902391;-0.08832517570133776;-0.1490251572272472;-29.096811916212353;5.928846761236701;3.6770964358112055;0.856010122300405;5.354870316967766;-0.018371914990611075;0.12582776451973868;0.059864814774339546;5.979416338249416;3.9719930113733617;0.9665870006737578;5.351835434255069;-0.019975930871621195;0.14691476199109224;0.05957314956344922;-0.00021637848905961456;-0.528007416462858
1.7201273441314697;0.3261824356180867;27.451434770743596;577.5583820570189;4.470115554099772;-22.657384944288964;36.8300806394396;4.055719217391858;9.259708216128796;-12.275751972213483;10.627484373219016;2.1990868937842936;2.089637457615429;1.3474034508534813;3.55314208724694;20.738144600282283;-4.62046412127015;14.201908501933948;-0.09083139670863687;-0.14844147948751332;-29.08600688389107;5.9324052947807715;3.6785384243762618;0.8564736649295674;5.3556603339808575;-0.01841459006597855;0.12588471374231133;0.05983843238723266;5.981523108296363;3.9701419029359037;0.9660099082736344;5.352342679950078;-0.01995176971335092;0.1468523328174769;0.05959479536555839;-0.00013508287506812638;-0.5276776755289186
1.7400214672088623;0.6823426318537855;27.424173101672785;577.3712684408217;4.4702276658818025;-22.83249429674222;36.84479773956283;4.054984997149611;9.258508990131865;-12.382083007299647;10.550230488229051;2.1754373303640433;2.0893884433917003;1.357545264109554;3.546034716887326;20.71325047042997;-4.681030314119578;14.196436506626323;-0.09967447183489736;-0.1514499028399225;-29.08415951327323;5.932990499258636;3.677535329049213;0.8559897261192211;5.355809537718649;-0.018467205952498754;0.12576667766792116;0.05978483790524115;5.9811276036556436;3.9710346277876036;0.9664453330652718;5.351866732922749;-0.019914252496553222;0.1469390529433113;0.05963121215488863;-0.0002679038109014067;-0.529358018563292
1.7600164413452148;0.7346661563039589;27.57049746527986;577.3706390720898;4.505504113019367;-22.80456777109255;36.99969223354525;4.051005654092211;9.253267481411749;-12.345347825020042;10.57575719484844;2.1764093604353767;2.088695225594962;1.4076471638912027;3.6585071899150816;20.682704808217853;-4.699863796842242;14.198013137393303;-0.07301903780691857;-0.15734258327931505;-29.073517157457204;5.9357897615617725;3.674239380328387;0.8546699725014733;5.356777320804569;-0.018531130932895226;0.12550669419307695;0.059717595257236765;5.9833702747699204;3.9738766776323504;0.967629654819074;5.351926714924213;-0.01986896150075288;0.14717701230304897;0.05969060494684809;-0.0005603317930849335;-0.5290398807898679
1.780043125152588;0.7021818191678424;27.294781965567815;577.1628327847188;4.478389314150013;-22.69072730301808;36.87188185539048;4.0501949862227296;9.253755963621952;-12.264961073674726;10.593053599859227;2.195412873916074;2.0890399159641198;1.3636824227481352;3.556290241680555;20.681050627631357;-4.707403879571563;14.182380442823407;-0.09718468439521045;-0.1619022244060398;-29.059251315271585;5.939384684203148;3.671766528348195;0.8536845537615083;5.357947633127302;-0.018603171902314072;0.12532546522883822;0.05964826120191224;5.9861743137911505;3.975796150091101;0.9684539811542673;5.35218116404291;-0.019815227220647123;0.14733305963060178;0.05975574541729889;-0.0007988403793997411;-0.526862234802688
1.8001306056976318;0.6421532580920069;27.20298289244473;577.5571827047972;4.44966767023598;-22.666655609539696;36.86088352390219;4.0468181057926085;9.249652888594095;-12.264354113717774;10.594027292611688;2.195643176872909;2.0884967254461477;1.3538460056179962;3.551732138497176;20.671487714882538;-4.626503486035594;14.18720321489502;-0.105713648643459;-0.168361775568045;-29.05415800598979;5.940179140028756;3.667837091339544;0.8521508185032024;5.35846703744237;-0.018668496251093895;0.12504602161327438;0.059567523331616926;5.986669607186114;3.979470140456115;0.9699002931719476;5.351652051236655;-0.019758220451099463;0.14759997599368066;0.05982492552915494;-0.0011706180579830689;-0.5266962592922186
1.82015061378479;1.0893031924700924;27.01585300757904;577.5700534402555;4.458913087257648;-22.938678366282197;36.852163545741654;4.042631704950516;9.243701875429068;-12.356544851794862;10.570487316824188;2.1750833169880694;2.087567428794561;1.3476082036985548;3.5099900915775155;20.53712604330017;-4.7695852165713095;14.15005297759181;-0.11529287441088863;-0.17411779324919907;-29.04822146422175;5.941454356247512;3.6642049753779777;0.8507520047868347;5.359137684998846;-0.018740533386018852;0.1248098336383441;0.05949231140434697;5.987709405408891;3.982797130189536;0.9712006710123502;5.351329651265792;-0.019700923202993006;0.1478112476946233;0.05989344936889455;-0.0015265755473916846;-0.5265108276171779
1.840134620666504;1.0093492326800657;26.918096636382856;578.060478777323;4.42584437216955;-22.916813069171837;36.85483164312182;4.0402164358067045;9.241259637803758;-12.412801781642234;10.555328433734488;2.1742219958804117;2.087304432504191;1.3464410113683996;3.5086608170309406;20.583773845266833;-4.648347496898692;14.167243608335466;-0.11635430077633438;-0.1793792863286009;-29.046303386817435;5.941966673796896;3.660577300117306;0.8493881559507823;5.359607252031906;-0.018795547154204978;0.12458878374212679;0.059426935835705436;5.988343598820166;3.986194958332261;0.9724883945480648;5.350938319619369;-0.019652424355461662;0.14801647464312379;0.05995327479400307;-0.00189728681421509;-0.5282015670366706
1.860041856765747;0.7639597166711258;26.9354600363581;577.3468572754239;4.429086510944082;-22.62372574100756;36.96492944081129;4.060718351513328;9.291651782532911;-12.266679236614223;10.594313496943556;2.1956797050120604;2.0994181960980165;1.3406386617016532;3.52546393434176;20.69854025284441;-4.652930219510175;14.18580450031895;-0.10453221367716187;-0.18295737411864837;-29.041676878030152;5.942339636267496;3.657852304218763;0.8483909920654696;5.359981115668629;-0.01883744605882494;0.12444323466422978;0.0593774750162655;5.988935875865793;3.988721045257908;0.9734203274018679;5.350666989715755;-0.01961384444123611;0.14814834152511497;0.060000259289236385;-0.0021530245353766474;-0.5263052654691871
1.8801305294036865;0.9816560439851436;26.958475027140004;577.3483364558754;4.44512102240735;-22.741397903505984;37.02314142217419;4.062173078117818;9.29684966534329;-12.325309141452397;10.552093900136457;2.1832322941081097;2.10068931543477;1.3629815298234043;3.551933275534569;20.657181559958474;-4.6829964410208405;14.176552301057137;-0.10832334330362726;-0.18440151159073576;-29.037654728522313;5.9440721382474635;3.6563222527851473;0.847885397315784;5.360663222504437;-0.018864999964852892;0.12439863234165494;0.059350382749670104;5.990926620539764;3.9899064949271428;0.9738308276486444;5.350972172476999;-0.019587808652199314;0.14818798854695367;0.06003457784836796;-0.0023498533222601646;-0.5279459190575843
1.9001538753509521;1.1831106921774044;26.80591175871321;577.3507713139021;4.445702914975208;-22.87024154552249;36.958870462766704;4.040996798804784;9.246840185430095;-12.325360182142482;10.551611171644605;2.183147979258611;2.088799896472861;1.3610672869841465;3.5493786063458312;20.55791890247541;-4.753146194435329;14.162276896445904;-0.1081473644572977;-0.1840778832058755;-29.036807522289525;5.943823740155382;3.6561856297757958;0.8478848558192257;5.360715583105655;-0.01888293232170682;0.12443946684300451;0.05933266461983358;5.9906915734922785;3.9899953240406463;0.9738142384812358;5.350813809883329;-0.01956419133137202;0.14814206649928413;0.06005605893949562;-0.002398548298853627;-0.5261612639633215
1.9200632572174072;1.0725850997985393;26.756790522280156;577.143059151473;4.43474562104593;-22.791710555805935;36.99403502642669;4.0408679285947;9.247240062148267;-12.318539277440994;10.55574976793412;2.1842258815998368;2.0889019533525084;1.361124105456055;3.557960327449037;20.634101434961543;-4.740676232058453;14.179080706976235;-0.09904062859011567;-0.18521427589166745;-29.043492129490797;5.941597995320644;3.6549707800906415;0.8474692574105889;5.360312216946543;-0.018887924132958672;0.12439649016424609;0.059317732604335885;5.9889336117906025;3.9913974488880433;0.9742762872193917;5.350205794847965;-0.01954671338664537;0.14817853890227473;0.060072390637837064;-0.0025296106151950553;-0.5263455415779297
1.9401459693908691;0.933604128913613;26.822536765149813;577.3367810691814;4.428392722287439;-22.781059318996945;37.06725737305073;4.061397279387585;9.295622217096408;-12.311581003592533;10.560445420700086;2.1852768526654756;2.1003478874693013;1.3544972781220403;3.5732893663709535;20.63662825247157;-4.696563271804774;14.17906714081824;-0.0868563465615111;-0.18622256671189735;-29.05225349902542;5.938855481195825;3.653898916611773;0.8470987969498386;5.359769851661112;-0.018885420246421467;0.12435463821516464;0.059309151569614055;5.986676858568098;3.992737181499934;0.974716921258362;5.3495218876856265;-0.019533267959985487;0.14822704262800177;0.06008405715697069;-0.002638703753659757;-0.5265908487897683
1.9600389003753662;1.0036164738237598;26.80160760974507;576.9369543960288;4.447276218278507;-22.78743161555213;37.10306462722219;4.039145902608494;9.244837928175441;-12.314251991994599;10.558562814736906;2.1848475046326428;2.088545345518132;1.3871625416818694;3.624230031123915;20.661170021442313;-4.7634410970986;14.185329678442574;-0.07605690323492205;-0.1867864507944785;-29.056414965043164;5.938569403488085;3.652966033872452;0.8468052118915631;5.359907715905557;-0.018873873901555017;0.12432623255960597;0.05931651837192931;5.986953550726976;3.9936421310262884;0.9750130640887982;5.34964503617053;-0.019529561968907837;0.1482573942829379;0.060091905984331014;-0.002737589362945255;-0.5284712411651268
1.9799740314483643;0.8404638376265545;26.79897171658812;577.3321768785579;4.430170649389455;-22.790293771589674;37.06827992587124;4.039956336702627;9.244841947631496;-12.311677385458996;10.55992107909273;2.185097229916227;2.0883386445810923;1.3760369170578786;3.623731668452677;20.64640710661315;-4.686499754604265;14.189086251726428;-0.07456416148692294;-0.18462837876030233;-29.062574286367195;5.936671769930041;3.6541493372502583;0.8472870343751733;5.359441184127129;-0.018854784643521;0.12443276350163235;0.05933504635226357;5.985166896888658;3.992691546828015;0.9745990610912592;5.349384004870865;-0.019529269423076867;0.14815969169398654;0.060083920872082135;-0.0026365840785438042;-0.5268933150787709
2.000112295150757;0.6979891148951758;26.708246276722775;576.9247174257498;4.427591208733287;-22.701608156809854;37.02268127459857;4.040037558574254;9.244138027648743;-12.250838245088541;10.603225337063623;2.198019818410608;2.0880789183806865;1.3539496561163493;3.5665527835600352;20.69327941780276;-4.7411737071753235;14.191949248041224;-0.0955998301633238;-0.18337629721875842;-29.075131688316375;5.933696176706832;3.654551629933465;0.8474781364345216;5.358717488535211;-0.01882187937591999;0.12448141651573796;0.059360767572836676;5.982747389148965;3.9926412729979486;0.9745075320419966;5.348937321160808;-0.019540113097312933;0.14813322875488188;0.06006781116590202;-0.002615002897413659;-0.5290086445805433
2.0200352668762207;0.6364304885002507;26.8301266613393;576.9257677769424;4.439050916064567;-22.726928655719036;37.06419559467174;4.042315662976811;9.24666181818531;-12.304119826059695;10.56401339309491;2.186024675045094;2.0883432984130286;1.3813361577196273;3.6018542410839096;20.734215551081952;-4.71370478802676;14.193213939442657;-0.094288669751193;-0.17931726178713475;-29.08090030000258;5.9321356065264315;3.6568441015469144;0.848400098015423;5.358249765917988;-0.018783734309214192;0.12466917647111499;0.05940287866261862;5.981387679046073;3.9905688843872342;0.9736555426183438;5.348978014398089;-0.01955630707302842;0.14794701073022654;0.060040697050483836;-0.002408705563009459;-0.5274189284863251
2.0401270389556885;0.6711486639296727;26.94599292455011;577.1260143439399;4.459792210432049;-22.84795086522969;37.09232448305251;4.069363410744413;9.306034612187679;-12.294750096458404;10.569117645905827;2.187492975770661;2.101677497685704;1.3709113114810112;3.591821967098997;20.637885102554375;-4.739036999879696;14.178564331103818;-0.08989734191477212;-0.17412738404494793;-29.093083345416503;5.928918027578631;3.6598840046669263;0.8496059013743156;5.3572502495730125;-0.018739170852161834;0.12491288861055852;0.05944958081583226;5.978389135620604;3.9879702462698594;0.9725718302142554;5.3486138456135;-0.019582204411297988;0.14772237149844536;0.06000289257151651;-0.0021711509277553146;-0.5277616822670026
2.0599982738494873;0.7140891006835979;26.76300987090837;577.123953504132;4.428938793192769;-22.935328391982033;36.94879102879587;4.072161929100864;9.310747997447931;-12.344183754019237;10.53218523501259;2.176206163696045;2.102492060091808;1.321543896841131;3.480682426634516;20.631314708907045;-4.745095534581786;14.176546458652377;-0.1169180546794789;-0.1710129998056358;-29.1018383747744;5.926724975522676;3.6614604711911802;0.8502580598195274;5.356639742608512;-0.01869970862400483;0.1250508985858211;0.05948832794903265;5.976637117382608;3.986668616863242;0.9720037379864253;5.348475426023784;-0.019595812532416795;0.14759334091315984;0.059976049732552036;-0.002035411616008365;-0.5280085510728078
2.080024242401123;0.4660851386382685;26.77373638707671;576.9142433817683;4.420072078758439;-22.806879112744227;36.96677682902873;4.071806479029549;9.309934318273893;-12.285909912285668;10.574004295521396;2.1887802681757345;2.102326113674027;1.3124818503769342;3.4846912083770922;20.69357601526254;-4.747962470814857;14.17498724600149;-0.11599375962752465;-0.1705456395355074;-29.11016345447173;5.9244805122687065;3.661406687830487;0.8502664630674726;5.356128769921806;-0.018670509809085932;0.1250587176865787;0.059510494255724834;5.974938525953569;3.986987893612096;0.9720742204945263;5.348184620501805;-0.019606250957431653;0.14760626534757748;0.05996378618809947;-0.0020190963614425787;-0.5282444713683351
2.1000099182128906;0.41016699797184586;26.786510768390233;577.1127988059475;4.431800123405941;-22.844673201904982;36.943265872178;4.048639740758047;9.255863059839982;-12.283998200665447;10.57501228489188;2.1889022769178674;2.089699745250467;1.3459605043605638;3.5299439181676666;20.663114539894867;-4.724724873182188;14.175488232912883;-0.11260179373938482;-0.17082565957017437;-29.11869671024717;5.922823974056488;3.6609606082865094;0.8500966762267519;5.35579670119911;-0.01864900936493122;0.12501834075691332;0.059520467662018975;5.973486132269753;3.987371551611262;0.9722075481498329;5.3479097019543715;-0.019606405700912176;0.147634031366418;0.05996175999272831;-0.0020387382688421543;-0.5302456811461475
2.1201250553131104;0.4650018473717523;26.897540592182594;577.3162933266715;4.453018774317;-22.945117397991126;36.982342695698776;4.071640331017828;9.307963322758674;-12.282126750979725;10.576199901521385;2.1891483168652544;2.1017547316717557;1.3440742363000588;3.5266134689424513;20.579026065239056;-4.740654577164113;14.164190180580352;-0.11273583275828919;-0.16956910069824882;-29.122372875757637;5.921775456482629;3.6619308289370607;0.8504332200291148;5.355525627124442;-0.018648986171227996;0.12507244599202438;0.05952622262141829;5.972013792331919;3.98633019850031;0.9718291018298236;5.347695228656844;-0.01959816773728109;0.14756421348624016;0.05996161430654871;-0.0019286409461766931;-0.5285980572791358
2.1399776935577393;0.44993355909547184;26.612415935109734;577.119790859326;4.418422590890783;-22.957594620968948;36.84795156544831;4.045969242109555;9.249468805123806;-12.307886336098152;10.59900638518992;2.1822236810067754;2.0882764684232007;1.309222019251336;3.441589918825172;20.617213043729564;-4.8005865397043515;14.165225169754372;-0.13204440150440122;-0.17222124411637146;-29.132128309807218;5.918595938598706;3.6605064636914992;0.8498348036192942;5.354791571905794;-0.018647049833536336;0.12493746206882445;0.059513714009894185;5.968993087195239;3.9881687526761818;0.9725367464581847;5.3467833090676775;-0.019590473183649544;0.1477124566520632;0.05996841725568182;-0.0020227943108536766;-0.5288708642226575
2.160038471221924;0.5324659522926609;27.128773145344432;577.3256338838685;4.499552348811054;-23.0566644182906;37.13809837812491;4.090568003366336;9.35258539569312;-12.307891300383996;10.599461286717101;2.1823027373300308;2.1123953304017515;1.3813463201631604;3.580316826822678;20.52788369941629;-4.822333215750595;14.145001230483775;-0.1070581439259474;-0.17163447030671525;-29.132858372799753;5.918780515016785;3.6609563801286518;0.8499591439582639;5.354813068767041;-0.018652196665955377;0.12493975363846861;0.059510769920983815;5.9686128409296275;3.987243258908522;0.9722315316123423;5.346782805905874;-0.019583240358490073;0.1476768802609613;0.05997118298872397;-0.0019481487754005418;-0.528888251471376
2.18000864982605;0.5571206806140783;26.948741549053313;576.9261882516014;4.464978209888466;-22.954237051739824;37.019665515896605;4.071607380123837;9.307512975978355;-12.283240490715464;10.575523333411397;2.1889408975296805;2.1016442512995073;1.349773182181905;3.5428709329921144;20.597435643930663;-4.8116338488196035;14.169104154418106;-0.10150628057861896;-0.17051729681629918;-29.124107159199447;5.922203136616147;3.6621785251812167;0.850394153402199;5.355666090505702;-0.018663101695573732;0.12500283094071732;0.05951422848838932;5.971348515162812;3.98570779670463;0.9717260744696408;5.347676704096354;-0.01958052322599905;0.14762048657656474;0.05997627973261589;-0.001849347705152971;-0.5286413062422245
2.200115442276001;0.4596505653957532;26.77086706078177;577.3269045219133;4.4227191638747945;-22.948745211437142;36.88989947900953;4.049431361717703;9.254318997146555;-12.3197299409891;10.591291750317838;2.1803755634121837;2.0890086075618117;1.3202236487044003;3.5040955251364023;20.615083495784095;-4.756350353290229;14.173022746626074;-0.10070185353367081;-0.16964452260937643;-29.123072973987753;5.922844854473772;3.66339142271006;0.8507777960101673;5.355715601332658;-0.018679359226911774;0.1250433602074016;0.05950465854146821;5.971078512402607;3.9842984551279397;0.9712655488114282;5.347688936117961;-0.019571212508926877;0.1475677611642387;0.059979477704866696;-0.0017411318494498125;-0.5286100780515924
2.2200028896331787;0.38701191338288865;26.7906288083335;576.9280372713772;4.42981207128262;-22.821117609798677;36.89921845574733;4.0478806428801315;9.251963107167812;-12.22839979093971;10.615269448113873;2.200904441191415;2.0886618466729376;1.3250139167135357;3.51238087172816;20.646519260184107;-4.775508341528254;14.1803113098227;-0.09906014805742852;-0.17236996790881534;-29.123281852675902;5.9226734537288594;3.661730318096988;0.850074187110347;5.355727960413625;-0.01869364044588672;0.12487846892644937;0.059483241494205884;5.970679917479444;3.985567928607065;0.9718147690397733;5.347461449712271;-0.01956405250726248;0.14769660516962446;0.05999019420245864;-0.0018105691774307087;-0.5286176349514219
2.2401487827301025;0.4026929492967355;27.12199371376756;576.9343229686997;4.479269369777718;-22.822384240571836;37.076709450892125;4.070156790663084;9.302178029790653;-12.22485310245914;10.617648851576956;2.2014045758048617;2.100272577186272;1.3788413954066845;3.6064602188673014;20.64623396631122;-4.772416742041857;14.187987613728168;-0.08363079371381046;-0.1719017208425592;-29.125063133077397;5.922327197842653;3.6621116185646043;0.8501281928800235;5.355529661062243;-0.01871232432526753;0.124852966022438;0.059465014984928524;5.969377725802158;3.9843744070583664;0.9714376891434542;5.34716267589392;-0.019553138321665282;0.14766322718852848;0.0599930073497242;-0.0017082149340196294;-0.5286745097553216
2.26004695892334;0.4251980305605798;27.151406763989076;576.9397213728357;4.465601682229662;-22.824795467253004;37.07233653457353;4.070405648414187;9.301728707020768;-12.278471746902406;10.578660183188482;2.1894515459747375;2.1000689430512844;1.38001370413703;3.6082531592734197;20.696587097096128;-4.735675572620775;14.199195807273231;-0.082313993134811;-0.17173268170916312;-29.12406662553414;5.922839557853959;3.6621214191328084;0.8500593469729394;5.355582376611441;-0.018729025270597867;0.12480897826135183;0.05944954113598297;5.969127889736827;3.983458908891413;0.9711625142658715;5.347140612794304;-0.01955222510404589;0.1476513253656017;0.059994805958038674;-0.0016265182018267745;-0.5286608511948941
2.280381202697754;0.558084545601492;27.077353182763886;576.9437369491006;4.4509904598178345;-22.9071769624625;37.02187761261035;4.050081110556463;9.25288001840968;-12.310581039213229;10.596841897510627;2.1817013867557815;2.0883277085183196;1.3662203931225338;3.604069712827901;20.661247895766746;-4.807400834378305;14.183715813725684;-0.08316468960221916;-0.170418088543633;-29.123589918143217;5.923063926574081;3.6638248525353108;0.8506368821658012;5.355441109405171;-0.01874711782831103;0.12489211754887931;0.059438902427155854;5.968556065716149;3.981965586577862;0.9706564358671403;5.347056479624006;-0.01954519641615251;0.1475929264212448;0.05999054899645907;-0.0015033389288252492;-0.5286725370140294
2.30013108253479;0.39546820304002317;27.103330045892857;576.7437849329509;4.460734028879234;-22.71861197858076;37.00602258276352;4.071903786895848;9.304108587194639;-12.228265105132323;10.615441326898793;2.2009241466079104;2.1004594958948357;1.3563284171615297;3.553584731913288;20.729402484716296;-4.757235630496599;14.199226581097376;-0.09538096057178357;-0.17079683192169132;-29.117558694008117;5.925698335222788;3.664077549949338;0.8506945001614884;5.356071504007843;-0.018764258645583898;0.12488287836126277;0.05943004293459939;5.970772806522508;3.98157622948886;0.9705824191283391;5.3476647759078615;-0.019546865765137075;0.1476207455198022;0.05999444270650355;-0.0014922576691879302;-0.5302978456135093
2.3201215267181396;0.6098931584421248;27.030927051987526;577.4558683960815;4.440304148333549;-22.93897213544156;36.91623257027378;4.054529169515203;9.265091149210106;-12.321103792968913;10.615120824220934;2.1913714420986903;2.0983669588955847;1.3412968617892886;3.5462945108938677;20.61134136432013;-4.755459371833599;14.18022759041562;-0.09483610175628478;-0.16686448696594458;-29.115112853928558;5.926855156640313;3.667666322682983;0.8519910173118823;5.3560572725196645;-0.018787165282651043;0.12510573779545334;0.059424857334083134;5.970602588691039;3.9780872288393203;0.969322864629077;5.347813500320393;-0.01953900337331426;0.14739117471431684;0.05998717469966023;-0.0012465790869449567;-0.5302770126539421
2.3399763107299805;0.5558235712947273;27.0429726561238;576.9579296020452;4.448180318920167;-22.820473148567842;36.93528349116255;4.051902315104129;9.2541545764544;-12.26607992431765;10.630101422304794;2.192183954074923;2.0882921146820865;1.3449724711501787;3.5529489126777003;20.665297726334742;-4.806093563583492;14.17764510345413;-0.09315618796341767;-0.1678201740578216;-29.111417292845907;5.92792860248778;3.667399749354585;0.8518567789984364;5.356308144309097;-0.018806056881393515;0.12506920546658232;0.05940814414953034;5.971425525812868;3.9783425272350934;0.9694651474107879;5.347948273814309;-0.01953410292729451;0.14743568977550803;0.05999522619675742;-0.0012685869723922565;-0.5302258878348123
2.360161304473877;0.8788156201995356;26.835972593530855;577.1682095332011;4.428825485777146;-23.04985609166411;36.783503705516765;4.052859355277038;9.256198010268772;-12.316530819913567;10.592912126236673;2.1808192979366323;2.088672720586464;1.297680748939612;3.4449723212807317;20.524576454142718;-4.863967857801649;14.15342380208824;-0.11904534167420841;-0.16815263100528988;-29.111121227649626;5.927846223645449;3.6675407094261683;0.8518807761958211;5.356230638703447;-0.01882801658617035;0.1250710831063349;0.0593870880147521;5.971009975294537;3.9783088378366758;0.9694753445762938;5.347732307343907;-0.019522993454525614;0.14745211226786575;0.06000497473689068;-0.0012793389847625836;-0.5302691606741489
2.38022518157959;0.49546455510471077;27.12047397621207;577.1546512434994;4.458554774014662;-22.777171629300973;36.98437636457494;4.072388377647865;9.303565093367284;-12.26412058996839;10.631833290161124;2.192609363063181;2.100080980933896;1.3538969206728746;3.5427895117191444;20.679689298268542;-4.753467691844712;14.180238897612043;-0.10392530694981789;-0.17045450896584874;-29.1063786538408;5.928575731790578;3.666123054010443;0.8513305841743933;5.356517978568249;-0.01885164710166757;0.12497062570119143;0.05936059177332972;5.971747067521822;3.979672129586144;0.9700196292464196;5.347723068828657;-0.01950855469514339;0.1475566071817546;0.06002583628685365;-0.001383266392463888;-0.5284243422010041
2.4001383781433105;0.7969745420391696;26.987601490010885;577.3591315509489;4.45805110092865;-22.968630252258315;36.894406720085286;4.050625567710935;9.255741949109023;-12.322793779656935;10.589528320165194;2.180113632460264;2.089100719957981;1.356487937300129;3.5209012753046585;20.571935578629915;-4.784107113989283;14.171273826259737;-0.11973095617823962;-0.17329140427972703;-29.1022055255933;5.930445370701607;3.6641692604006244;0.8506012509534095;5.357190755847091;-0.018868360580909148;0.12483950701313462;0.05933723979813002;5.9737900129282195;3.981396028075991;0.9707038992745975;5.348069301157697;-0.019494297343492104;0.14767572539444376;0.060050922882734496;-0.0015618318286939907;-0.5301025338957303
2.4200029373168945;0.6882060302324273;26.872625091132704;577.5554153758123;4.426829514912885;-22.9612212849514;36.8455094726944;4.050742899117863;9.254790250949386;-12.321578728425198;10.590163920865585;2.1801788105934556;2.0887374602375464;1.3300429696245382;3.50230413142535;20.564985634362046;-4.752438011044934;14.153939869622308;-0.09911546797883079;-0.1733876060877294;-29.104329850103547;5.930081373233298;3.664749872883412;0.8507696655608439;5.35710255347459;-0.0189002610022745;0.12486716749552221;0.059312502016839026;5.972690518234694;3.9809542215759373;0.9705807214080089;5.347717417985855;-0.019468399448423164;0.14766170954701033;0.060070815198303824;-0.0015563066046930833;-0.5301915355071197
2.440133810043335;0.8840154468987347;27.057250808136903;576.9581790494628;4.4673624585828415;-22.987601941464874;37.01837242496309;4.050477229894773;9.254834004527394;-12.320443620131318;10.590835572657893;2.180351456587686;2.0888015870032124;1.373919718771737;3.5981601135215504;20.58296792775946;-4.861530885108047;14.174587762634104;-0.08480016973658303;-0.17536889851430543;-29.105233287059846;5.92964013837744;3.6640110667543415;0.8504329129226046;5.357129948230337;-0.01892476937996255;0.12479043084263984;0.059284863183571644;5.971753369574038;3.9815622733183136;0.9708710221285193;5.347366989103145;-0.019440572674795605;0.14773349495864257;0.06009717814458291;-0.0016169701105623888;-0.5284769982259786
2.4600183963775635;0.5387820789504882;27.038480411374533;577.146200944022;4.454652494162914;-22.851268686224245;37.00402419292351;4.048453712611058;9.250844371983723;-12.258857069551176;10.634865386635894;2.1933759763992176;2.0879875630222426;1.3747199536055916;3.5940712912267507;20.628573674145215;-4.7885078400348;14.175963754631132;-0.09258778481736218;-0.17850318968533074;-29.114312352646568;5.927063266421275;3.6627462969087867;0.8498637503451658;5.3566256159307315;-0.01894695783280706;0.12465803505656171;0.05925152799155087;5.968720400208494;3.9832481677074942;0.971569734433167;5.346386456403288;-0.01941072311850111;0.14788940564066225;0.06012417479054492;-0.0017328067616061574;-0.5287332019703387
2.480006456375122;0.6936729870227509;27.236096441899114;576.9532114262137;4.492114218729308;-22.97231022750202;37.163758977790735;4.089755036290727;9.348319624419945;-12.310550580144497;10.597966088243691;2.1817482825515553;2.1111335105327407;1.391298783224491;3.6045647024369476;20.6040802759751;-4.848626077977343;14.170789575762031;-0.08953348087123164;-0.18159870966309738;-29.12087326463979;5.925579288643823;3.6615170121358407;0.8493084785058266;5.3564428631928855;-0.018965561980761464;0.12452283298998901;0.059224778247525485;5.966730941616972;3.9845325785041488;0.9721359513515645;5.345763025701331;-0.019388817733283;0.14804318674953315;0.06015009384979234;-0.001835086036819501;-0.5289083823223814
2.500157594680786;0.4314002153205543;26.936113049364693;577.1437484815887;4.426961130981832;-22.8866725752462;36.96881327810394;4.045038653405986;9.24401434833285;-12.311035068368003;10.597128936275428;2.181453003872666;2.086680514273842;1.3628752842672958;3.567951180559379;20.66745787906459;-4.762757136820289;14.1767173533362;-0.08925681051364495;-0.18320899646919672;-29.126539698578313;5.924587914972238;3.6612070644993997;0.8491111347535393;5.356328924210502;-0.01897489925232576;0.12445361307766373;0.059211930094913684;5.965156586038804;3.984333954179661;0.9721453035043135;5.345400428920008;-0.019364770847785887;0.1480705903664835;0.06016319137385731;-0.0018592594386818385;-0.5290494639756069
2.5200140476226807;0.47251738186070646;26.754404790199654;577.1461432900849;4.415740986871212;-22.96769861155039;36.84127025738292;4.045631177159919;9.24374583431233;-12.251798001875468;10.639311056671907;2.1940789119877304;2.0864282354595436;1.3115380905618204;3.478849360840472;20.55990493887853;-4.838687190185476;14.160212124219926;-0.10149061347641235;-0.1827413043470131;-29.13597403842057;5.922339925081975;3.662217560091772;0.849420589302255;5.355748530919278;-0.018970984582440877;0.12448043085444697;0.05921360654252036;5.962302336303132;3.9827528283081786;0.9715999513420476;5.344823710036923;-0.019357387306027887;0.14800263481815573;0.06015662629311557;-0.0017795407624276094;-0.5292898736835466
2.539991617202759;0.620437391020948;27.18493452748109;576.9501811559808;4.496206023766906;-23.074268767172306;37.1021799158087;4.067602696646584;9.294451723958458;-12.251645736420006;10.639640312970872;2.194072487120768;2.0983307064449606;1.3874297578052488;3.623951488042419;20.496208374397046;-4.924511797368905;14.154425403153581;-0.07529180434988604;-0.18232894298915772;-29.141692311830845;5.92125590954013;3.6628385091221465;0.8496234439573976;5.355500449364379;-0.018951827859059814;0.12449484108498275;0.05923159733624178;5.961071504330308;3.9822180097110946;0.971432268177271;5.344697869381094;-0.019369010098465006;0.14800349820143308;0.0601406802197085;-0.0017054223053992318;-0.5294265458268834
2.5600125789642334;0.26019311174106896;27.115350981907625;577.1360017123002;4.460339888023555;-22.91963377819816;37.00348086471412;4.072552304814568;9.301498018544802;-12.248847543193403;10.640459108988296;2.1943914069890744;2.0993425078015835;1.3579124751654714;3.566884363296378;20.61720335320406;-4.794997713792615;14.180492989648174;-0.08069760033642127;-0.17735844165471606;-29.149234509979692;5.919813871437447;3.6665830389045015;0.8510268204700777;5.354913884130704;-0.018924137282613544;0.12474319521301472;0.05926924241805693;5.958992378815725;3.9789264777123;0.9701882432920841;5.344576942955916;-0.019389351800254737;0.1478011143343862;0.06010390330301597;-0.001411696553658289;-0.5296162492307033
2.580146074295044;0.22227221594486402;26.850576722185657;576.7336670257487;4.427187262169379;-22.897847512484006;36.82489877769834;4.052698997542001;9.252177019213939;-12.243082514541417;10.643252256247697;2.1950656979737264;2.08738678983731;1.3134794226342255;3.4645509188150667;20.66555581435523;-4.848614802000924;14.18376786516943;-0.103921209963963;-0.17410405277869012;-29.16085352220874;5.91718122350242;3.6688145823993557;0.8518777221178429;5.354082792417217;-0.018888053249049075;0.12489557772226488;0.059305725801581666;5.956349999611051;3.9772280998828484;0.9695120683097236;5.344177182054718;-0.019416547035684066;0.14768452751815328;0.06006459141201766;-0.0012386891077850147;-0.5316785787112078
2.600010633468628;0.46061371249226113;26.97923576824975;576.9443037819285;4.452876402316921;-23.144697646082207;36.84556658146166;4.051718600595025;9.24986455218642;-12.299166417880894;10.602915599882383;2.182678746593276;2.0869581639977963;1.3337737729660175;3.491735304164454;20.516203977075847;-4.916714119617499;14.142674554165398;-0.11996671482352682;-0.17292823640092872;-29.162977516392438;5.916281475047899;3.66903454343117;0.8520196355260291;5.353868983112449;-0.018848245679401063;0.12493224524560988;0.05934265565929873;5.956381218966771;3.97723250585693;0.969466156702581;5.344381191565663;-0.019449846046118255;0.14766448254231804;0.06003261771634932;-0.0011641325983495132;-0.5299580790475804
2.620330810546875;0.31788326900682407;27.286328717507068;576.7344410175432;4.482867233463704;-23.03131632901099;37.008159993333244;4.078235263512056;9.30962916464732;-12.265838206474191;10.584482757684096;2.1907004658417115;2.100643655853377;1.3680055371932622;3.5768138500117947;20.590167105949668;-4.860278360025554;14.166897355142945;-0.10144225299645862;-0.16879883330598183;-29.16581669398272;5.91608477370468;3.671009074123359;0.8528724673991527;5.35372674283554;-0.01880628302414663;0.12512515709164362;0.05939071086118849;5.957660827191438;3.9753838325602966;0.9686867314757809;5.345064416534045;-0.019486327978676353;0.14749490449259586;0.059994003834689384;-0.0009979627094243706;-0.5299915205879034
2.6400110721588135;0.3685823447627641;26.99254971182414;576.9347178102522;4.458217629183471;-23.140008964326057;36.84256964642577;4.055853322218634;9.256560712879367;-12.297597467967314;10.603098621052684;2.182844825388803;2.08811009761576;1.3292280585737732;3.497018649805951;20.537461317995962;-4.896375604113257;14.16272847651212;-0.10443630511848712;-0.16632941626677003;-29.173293360811257;5.913734855428368;3.671706477360284;0.8532418597777567;5.353072834208199;-0.018765637306251866;0.1252340421196013;0.05942659719254038;5.956618134741425;3.97501376241435;0.9684140585923311;5.344897777883364;-0.019518021190199138;0.14740647219046263;0.059958605911905376;-0.0009339827930273719;-0.5301711144442852
2.660115957260132;0.12069393328425271;26.8746431228644;576.9191177504792;4.420256649942333;-23.017797033651455;36.801774460039915;4.054518601943859;9.255989164571162;-12.295145953050639;10.604785352107497;2.183306007898081;2.0882951976574535;1.2989263135122135;3.4571227929087405;20.636103966276167;-4.82785577765229;14.176621032436637;-0.10795407202456983;-0.16685895615021668;-29.178143602055997;5.911699600697884;3.669779026393662;0.8526617995312312;5.352695492805532;-0.01872052005320226;0.12518145471324518;0.05945736287310436;5.956367933036342;3.9771087165156382;0.9690568439883798;5.344807054218016;-0.019553852406580544;0.14748226215412427;0.05993183830259891;-0.00105392048887355;-0.5302924253298341
2.6801915168762207;-0.010291602428821989;27.159347543108645;576.7111072903609;4.474668717437592;-22.950906246388875;36.95749260986526;4.0781599921753715;9.309766981329595;-12.194595466948732;10.63395827312572;2.2052073040475113;2.100707755932869;1.3451521291852924;3.532784726874863;20.614643036566633;-4.8433998570205805;14.17103883954109;-0.10626385989417743;-0.16434409829829735;-29.18876264232756;5.907751385655278;3.670181763786287;0.8529452253265887;5.351601930206293;-0.018679137724405014;0.12529213503723644;0.05948851289565005;5.953578771434899;3.977139613510407;0.9688801371282892;5.344086011880447;-0.0195830792618934;0.14738626954334955;0.05989523453813492;-0.0010264840333945643;-0.5305802095678979
2.7000417709350586;0.0625794335517309;27.249892162972323;576.7089960826875;4.509269330307742;-23.01820190076392;37.04874737055093;4.07820097432551;9.309862070247913;-12.230795198748346;10.650126512171646;2.196833280291548;2.1007300606353034;1.3763853152279573;3.5811293495637906;20.599483365999834;-4.897098439290527;14.168037326104354;-0.09566974039960216;-0.16172709558885423;-29.19009896388808;5.906997203632293;3.670515007280768;0.8532261893877219;5.351382684331877;-0.01863737035404136;0.1254022942350632;0.059523807281830605;5.953943128535747;3.976814558404619;0.9685958917097528;5.344259129312845;-0.01961751491839049;0.14726834613758805;0.059864945717789025;-0.0009980653305792725;-0.5306140781960317
2.7201457023620605;0.24385805072566846;26.941658858887436;577.1140243233185;4.464649368766624;-23.221267424449827;36.832114651471926;4.054842967623217;9.255985092623561;-12.280173610628152;10.613653155112363;2.185467937632503;2.0882027846812647;1.3254065767709924;3.4852347984601213;20.47394772544095;-4.90081193366238;14.147104545152791;-0.11771322878975293;-0.16077243619731504;-29.195180209787573;5.904872951460948;3.6696644320274876;0.853042549070271;5.3508074128568;-0.018604702284533585;0.12542763730812478;0.05955100648586914;5.952823775701967;3.9778656428122043;0.9687192961013527;5.343524772409468;-0.01964380613239406;0.14723554466337535;0.05983125240075288;-0.001070046872624567;-0.532523867725381
2.7400259971618652;0.1705396892863611;27.030232237937863;576.7062854757717;4.4846276989746094;-23.08976196229039;36.90838560028037;4.076281550679755;9.308462449051417;-12.189417198924753;10.637397409800913;2.2061080310700043;2.100809505518257;1.3248588679142308;3.4844406952640545;20.50201818153851;-4.92575985991215;14.145724065361254;-0.12050846593896654;-0.16090890157033266;-29.19096798160753;5.904452386195391;3.6677569800891434;0.852479830629572;5.350715440052501;-0.018564005460383254;0.12537905408435898;0.05958159483617297;5.954283479465615;3.979620307901265;0.9692181248875652;5.34379259358543;-0.01968490083486199;0.1472717139920219;0.059801540679288785;-0.001161592280034279;-0.5306483483963199
2.7601449489593506;0.19048123894226343;27.240374835431;576.9069674882916;4.513066396941233;-23.07441050006166;37.014915339102124;4.07739787075267;9.311194327237988;-12.203789504693972;10.628603685336088;2.204012599894462;2.1014939333565095;1.3660856480810168;3.579557259443094;20.499262340546313;-4.8842909199759585;14.145698368490324;-0.09873006680098856;-0.15736866757820445;-29.179051832146495;5.908338303682772;3.6686065860863284;0.8529636530175433;5.351584071022019;-0.018527928621818603;0.1255191642386396;0.059630255984866855;5.959276699582539;3.978126111423843;0.9685570985234667;5.345340865749122;-0.019729489609302778;0.14711567779072726;0.05976675140198229;-0.0010845751697176054;-0.5320655342438527
2.7803103923797607;0.1514342274669005;27.06603698368314;576.5053925593363;4.485128775480771;-22.92689882621911;36.91948651434019;4.079968768399092;9.315304456477822;-12.208671215490309;10.625311077510432;2.2033154627037033;2.1021973133546843;1.3225145941109766;3.4902792105821283;20.633512780932136;-4.872282130344841;14.176587024117195;-0.10469794958667004;-0.15261977712867128;-29.171269011492704;5.910136847268104;3.670691957126937;0.8538648269168114;5.351737282010093;-0.018490481605230896;0.12571794247593493;0.05967916734404302;5.961723864588769;3.975700350909865;0.9675345920569085;5.346198216568327;-0.019773694256084905;0.146894996029136;0.05972093722975384;-0.0008939942963982319;-0.5318411652835794
