flxalr/sts-optimization-reemc/input/436_104/vel.csv
time;base_link_tx;base_link_ty;base_link_tz;base_link_rz;base_link_ry;base_link_rx;leg_left_1_joint;leg_left_2_joint;leg_left_3_joint;leg_left_4_joint;leg_left_5_joint;leg_left_6_joint;leg_right_1_joint;leg_right_2_joint;leg_right_3_joint;leg_right_4_joint;leg_right_5_joint;leg_right_6_joint;torso_1_joint;torso_2_joint;arm_left_1_joint;arm_left_2_joint;arm_left_3_joint;arm_left_4_joint;arm_left_5_joint;arm_left_6_joint;arm_left_7_joint;arm_right_1_joint;arm_right_2_joint;arm_right_3_joint;arm_right_4_joint;arm_right_5_joint;arm_right_6_joint;arm_right_7_joint;head_1_joint;head_2_joint
0.0;0.0007209843254369056;-0.00046528410778430714;8.871979048832255e-05;0.0014492829361995006;0.0009239143425082984;0.0004325027663066591;2.220446049250313e-16;2.220446049250313e-16;0.0007110079400826588;2.220446049250313e-16;2.220446049250313e-16;2.220446049250313e-16;2.220446049250313e-16;-1.8400245152247085e-05;2.220446049250313e-16;2.220446049250313e-16;2.220446049250313e-16;2.220446049250313e-16;-3.3038172867113484e-05;-3.7854913048055186e-05;-3.2528873900963745e-11;-0.0002471408817434978;4.608193214868282e-16;2.220446049250313e-16;2.220446049250313e-16;-4.4400987895779356e-05;-4.440098789600141e-05;0.0005663851912483732;-1.6225262242902396e-06;1.3436464390189809e-12;2.8494094107103108e-09;3.5695172840462845e-05;-1.6789016003008231e-06;-1.6788534444534064e-06;0.00020721829031273865;-0.005875072456281818
0.02008676528930664;0.0007221902050324869;-0.00046594534455952463;8.887981820908943e-05;0.0014475902742683007;0.000925876640434423;0.00043385027223189756;2.220446049250313e-16;2.220446049250313e-16;0.0005791204109969509;2.220446049250313e-16;2.220446049250313e-16;2.220446049250313e-16;2.220446049250313e-16;-1.4987114678037451e-05;2.220446049250313e-16;2.220446049250313e-16;2.220446049250313e-16;2.220446049250313e-16;-2.6909798288844346e-05;-3.08330632708475e-05;-2.6494971097796854e-11;-0.000351007760489737;3.753402174717807e-16;2.220446049250313e-16;2.220446049250313e-16;2.700656841723791e-06;2.700656841501746e-06;0.0004613242781792452;-1.3215577504733015e-06;1.0944084223712035e-12;2.320861773832365e-09;2.9073941373387226e-05;-7.058279573082939e-06;1.7504826264752773e-06;0.0001687805925740401;-0.004785283234844393
0.040021657943725586;0.0007267374021823732;-0.0004681101705526622;8.951608489160281e-05;0.0014431521757462768;0.0009330729116305531;0.0004380501544254901;2.220446049250313e-16;2.220446049250313e-16;0.0004716971942595852;2.220446049250313e-16;2.220446049250313e-16;2.220446049250313e-16;2.220446049250313e-16;-1.2207098574728238e-05;2.220446049250313e-16;2.220446049250313e-16;2.220446049250313e-16;2.220446049250313e-16;-2.1918198892503025e-05;-2.511372274075073e-05;-2.1580319552724888e-11;-0.00043898977081842177;3.057169530071245e-16;0.00013216264906684586;2.220446049250313e-16;2.199701876709882e-06;2.199701876487837e-06;0.0003757515078537338;-1.0764170474964446e-06;8.914025000739852e-13;1.890356420172548e-09;2.3680906960757473e-05;-5.749012826523384e-06;1.425779039780529e-06;0.00013747284753025922;-0.005877617205203701
0.06000971794128418;0.0007377101440925478;-0.0004726067664605202;9.112461629492745e-05;0.001435129374029385;0.000950151737354385;0.0004465485651552815;2.220446049250313e-16;2.220446049250313e-16;0.00038420031283189614;2.220446049250313e-16;2.220446049250313e-16;2.220446049250313e-16;2.220446049250313e-16;-9.942758083482237e-06;2.220446049250313e-16;2.220446049250313e-16;2.220446049250313e-16;2.220446049250313e-16;-1.7852509986686786e-05;-2.0455284133108595e-05;-1.757730515269162e-11;-0.0006418945068304568;2.4900836895525907e-16;0.0001076473036815026;2.220446049250313e-16;1.7916709267375217e-06;1.7916709265154773e-06;0.00030605195159379026;-8.767484127924009e-07;7.260529075758863e-13;1.539707118958166e-09;-6.494074414732948e-05;4.171129408243216e-05;4.755520689998586e-05;0.00011197249351869316;0.010820254992192312
0.08008480072021484;0.0007581371331932895;-0.0004795326991136944;9.426414196703924e-05;0.0014212682436316208;0.0009818118733220305;0.0004599505000384418;2.220446049250313e-16;2.220446049250313e-16;0.00031293355605353454;2.220446049250313e-16;2.220446049250313e-16;2.220446049250313e-16;2.220446049250313e-16;-8.098438601234304e-06;2.220446049250313e-16;2.220446049250313e-16;2.220446049250313e-16;2.220446049250313e-16;-1.4540980962343802e-05;-1.666095677194278e-05;-1.4316824905024527e-11;-0.0007901094878465928;2.220446049250313e-16;8.767940164423184e-05;2.220446049250313e-16;2.88425318541043e-06;2.8842531851883856e-06;0.0002492812273978396;-7.141170618969902e-07;5.913746310512315e-13;1.2541010715609194e-09;-5.289464198765077e-05;-4.861013342606656e-06;-1.0110982825405847e-07;0.001634825404517608;0.010356788426452886
0.10001254081726074;0.0007887089238468939;-0.0004874361633035814;9.920919418882468e-05;0.0013985553047587964;0.0010293557078520047;0.00047662904048870604;2.220446049250313e-16;2.220446049250313e-16;0.0002548863372403292;2.220446049250313e-16;2.220446049250313e-16;2.220446049250313e-16;2.220446049250313e-16;-6.596228855946596e-06;2.220446049250313e-16;2.220446049250313e-16;2.220446049250313e-16;2.220446049250313e-16;-1.1843719874960035e-05;-1.3570453421727216e-05;-1.1661143365298133e-11;-0.00135084186849376;2.220446049250313e-16;7.141542063548709e-05;2.220446049250313e-16;2.3492422461197976e-06;2.349242245897753e-06;0.00020304111772321152;-5.816528101467352e-07;4.816783330826721e-13;1.021473160918066e-09;3.794254508597379e-05;-3.9593257488865125e-06;-8.2354587049357e-08;0.0013315755096383695;-0.005193444139192185
0.12032890319824219;0.0008286278489670453;-0.0004951715708402004;0.00010592383286109831;0.001362155127981943;0.001092080641501388;0.0004957728329692877;2.220446049250313e-16;2.220446049250313e-16;0.00020760651472185584;2.220446049250313e-16;2.220446049250313e-16;2.220446049250313e-16;2.220446049250313e-16;-5.372669629598851e-06;2.220446049250313e-16;2.220446049250313e-16;2.220446049250313e-16;2.220446049250313e-16;-9.646783861404166e-06;-1.1053219127330699e-05;-9.498074153181359e-12;-0.0014964939103758199;2.220446049250313e-16;5.8168306453983205e-05;2.220446049250313e-16;1.913472492249207e-06;1.9134724920271624e-06;0.0001653782593925415;-4.7375984919457904e-07;3.923300127854181e-13;8.319962737750202e-10;3.090444011343244e-05;-3.2248955682539937e-06;-6.707832586787079e-08;0.0010845765749473869;0.009294970926420594
0.14005780220031738;0.0008727567627783436;-0.0005012146188389402;0.00011359584422645402;0.0013128446848099213;0.001162304103151087;0.0005148729085193964;2.220446049250313e-16;2.220446049250313e-16;0.00016909680378166854;2.220446049250313e-16;2.220446049250313e-16;2.220446049250313e-16;2.220446049250313e-16;-4.376072992493448e-06;2.220446049250313e-16;2.220446049250313e-16;2.220446049250313e-16;2.220446049250313e-16;-7.857365747512828e-06;-9.0029160618304e-06;-7.736240760729673e-12;-0.0012189036430880454;2.220446049250313e-16;4.737844915868464e-05;2.220446049250313e-16;1.558535304160649e-06;1.5585353039386047e-06;0.00013470162588934622;-3.858803581680421e-07;3.1955524747630294e-13;6.776661649664649e-10;2.517185962514143e-05;-2.626697595940179e-06;-5.463571565891745e-08;0.0008833943988982399;0.009382017282296918
0.16005158424377441;0.0009211251178678728;-0.0005051260447046234;0.0001222744839705311;0.0012484559480390835;0.0012402818629587578;0.000533680983734101;2.220446049250313e-16;2.220446049250313e-16;0.00013773040353519264;2.220446049250313e-16;2.220446049250313e-16;2.220446049250313e-16;2.220446049250313e-16;-3.5643388028421166e-06;2.220446049250313e-16;2.220446049250313e-16;2.220446049250313e-16;2.220446049250313e-16;-6.399873509885117e-06;-7.332931400586246e-06;-6.301216451119072e-12;-0.000992804635442982;2.220446049250313e-16;3.8590042955055875e-05;2.220446049250313e-16;2.911176147508368e-06;2.911176147286324e-06;0.00010971531617203428;-3.1430196348010873e-07;2.6027974628974536e-13;-0.0001301396404444954;-6.583937976806203e-05;-2.13946160875325e-06;-4.450113187741087e-08;0.0007195302591176093;-0.006329363350340413
0.1800997257232666;0.0009711670352537235;-0.0005068869788110982;0.00013148039632394665;0.001169854347965607;0.0013221371727244532;0.0005519846988117071;2.220446049250313e-16;2.220446049250313e-16;0.00011218227449443648;2.220446049250313e-16;2.220446049250313e-16;2.220446049250313e-16;2.220446049250313e-16;-2.9031762320324212e-06;2.220446049250313e-16;2.220446049250313e-16;2.220446049250313e-16;2.220446049250313e-16;-5.2127369730108635e-06;-5.9727184565987486e-06;-5.132380182039302e-12;-0.0008086455805972803;2.220446049250313e-16;3.143183117466148e-05;2.220446049250313e-16;2.3711711670170812e-06;2.3711711667950358e-06;8.936381074284798e-05;-2.5600091364182026e-07;2.119994801014119e-13;-0.00010599955051479427;-0.00014446729380374502;-5.407261881279997e-06;-3.7009034793616462e-06;-0.014694033018954097;-0.005155306007373205
0.20001769065856934;0.0010193758592683655;-0.000507151550468585;0.0001404905314262555;0.0010802680071941863;0.0014023745183616935;0.0005701339475273862;2.220446049250313e-16;2.220446049250313e-16;9.13731637149341e-05;2.220446049250313e-16;2.220446049250313e-16;2.220446049250313e-16;2.220446049250313e-16;-2.3646551858418567e-06;2.220446049250313e-16;2.220446049250313e-16;2.220446049250313e-16;2.220446049250313e-16;-4.245806844123429e-06;-4.8648165123900334e-06;-4.180355735647149e-12;-0.0006586468794313633;2.220446049250313e-16;2.560142294070661e-05;2.220446049250313e-16;1.9313337353758e-06;1.9313337351537552e-06;7.27873823738668e-05;-2.085143441669728e-07;1.7267490153935054e-13;-8.633729639149064e-05;4.177327471216761e-05;-4.404248597689315e-06;-3.014409014586805e-06;0.0016769601158134072;-0.00419902896366802
0.22011375427246094;0.001063288450595436;-0.0005078603242445775;0.00014864902378317413;0.0009822865873594414;0.0014771208966208047;0.0005905746815575969;2.220446049250313e-16;2.220446049250313e-16;7.442401292808702e-05;2.220446049250313e-16;2.220446049250313e-16;2.220446049250313e-16;2.220446049250313e-16;-1.9260264279631037e-06;2.220446049250313e-16;2.220446049250313e-16;2.220446049250313e-16;2.220446049250313e-16;-3.4582362108313087e-06;-3.9624234544448855e-06;-3.4049258739079493e-12;-0.0005364719998398417;2.220446049250313e-16;2.085251899409891e-05;2.220446049250313e-16;1.5730833983200285e-06;1.573083398097984e-06;5.928577786465435e-05;-1.6983623653865038e-07;1.4064478652193562e-13;-7.032226751897157e-05;3.4024593336027464e-05;-3.5872880093716814e-06;-2.4552549824372935e-06;0.0013658944953307435;-0.003420135334838625
0.24007439613342285;0.0010970953369826802;-0.0005113532172663644;0.00015463220010708558;0.0008806974176761947;0.0015373489630388026;0.000615915478082572;2.220446049250313e-16;2.220446049250313e-16;6.0618823680007665e-05;2.220446049250313e-16;2.220446049250313e-16;2.220446049250313e-16;2.220446049250313e-16;-1.5687605632411218e-06;2.220446049250313e-16;2.220446049250313e-16;2.220446049250313e-16;2.220446049250313e-16;-2.816755007698418e-06;-3.227418668791948e-06;-2.7733334050847364e-12;-0.0005713950219899058;2.220446049250313e-16;1.698450704893727e-05;2.220446049250313e-16;1.8636474064164292e-06;1.8636474061943848e-06;4.82886366068726e-05;-1.3833267613720903e-07;1.1455605765203228e-13;-5.727792640837433e-05;-6.438047523204457e-05;-3.5042296508762285e-06;-2.582181675231751e-06;0.0011125296032874863;-0.0027857216060719024
0.26017141342163086;0.0011156598381446448;-0.0005198486614674282;0.00015725462458409024;0.0007759064439730842;0.0015754665564200283;0.0006494375318683391;2.220446049250313e-16;2.220446049250313e-16;4.937441075501424e-05;2.220446049250313e-16;2.220446049250313e-16;2.220446049250313e-16;2.220446049250313e-16;-1.277765283513414e-06;2.220446049250313e-16;2.220446049250313e-16;2.220446049250313e-16;2.220446049250313e-16;-2.294264558489159e-06;-2.6287526770977212e-06;-2.258897391775299e-12;-0.00046540481662966563;2.220446049250313e-16;1.383398714452846e-05;2.220446049250313e-16;1.5179524603430657e-06;1.5179524601210214e-06;3.933139632027652e-05;-1.1267282929298263e-07;9.33066249329406e-14;-0.0001773293597534941;-5.243829945447049e-05;-2.854216952074005e-06;-2.103203113111731e-06;0.0009061623151876779;-0.0022689876589056025
0.28008556365966797;0.0011161955752560326;-0.000534571624446516;0.00015587231037505635;0.000673376599713468;0.001586818970515244;0.0006919315155537651;2.220446049250313e-16;2.220446049250313e-16;4.0215766150026315e-05;2.220446049250313e-16;2.220446049250313e-16;2.220446049250313e-16;2.220446049250313e-16;-1.0407478094546974e-06;2.220446049250313e-16;2.220446049250313e-16;2.220446049250313e-16;2.220446049250313e-16;-1.86869282204291e-06;-2.1411354852003254e-06;-1.8398860437096787e-12;-0.0003790751319249665;2.220446049250313e-16;1.1267868991638083e-05;2.220446049250313e-16;1.236381766172898e-06;1.2363817659508535e-06;3.203566812409222e-05;-9.17727236643174e-08;7.599882917428594e-14;-0.00014443587182771941;5.189781351703875e-05;-2.3247775463202274e-06;-1.7130720806489612e-06;0.0007380748692348335;-0.0018481046293514808
0.30013084411621094;0.0010997740334520148;-0.0005555544004888019;0.00015068435402727665;0.0005742155358545097;0.0015728638657508734;0.0007432368707716808;2.220446049250313e-16;2.220446049250313e-16;3.2755992877734864e-05;2.220446049250313e-16;2.220446049250313e-16;2.220446049250313e-16;2.220446049250313e-16;-8.476955954746599e-07;2.220446049250313e-16;2.220446049250313e-16;2.220446049250313e-16;2.220446049250313e-16;-1.5220619828840876e-06;-1.7439682347924469e-06;-1.4985986818893068e-12;-0.00030875906417245964;2.220446049250313e-16;9.177749717870414e-06;2.220446049250313e-16;-4.3434107150690384e-05;-4.343410715091244e-05;2.609325190999888e-05;-7.474945700410941e-08;6.190152135513822e-14;-0.00011764392032787637;4.227109347096253e-05;-1.893545841337489e-06;-1.3953079163890828e-06;0.0006011665939597045;0.013445382439918165
0.3200418949127197;0.0010686920483089482;-0.0005806974425555224;0.000142333158063575;0.000480045703039159;0.0015367845889869185;0.0007998417723200895;2.220446049250313e-16;2.220446049250313e-16;2.667996092387053e-05;2.220446049250313e-16;2.220446049250313e-16;2.220446049250313e-16;2.220446049250313e-16;-6.90453360611582e-07;2.220446049250313e-16;2.220446049250313e-16;2.220446049250313e-16;2.220446049250313e-16;-1.2397289979464823e-06;-1.4204730270399152e-06;-1.2206179926406015e-12;-0.0002514861875126194;2.220446049250313e-16;7.475334506141188e-06;2.220446049250313e-16;4.314223279858274e-06;4.314223279636229e-06;2.125311676351852e-05;-6.088389991395338e-08;5.041917602826855e-14;-0.00039854717157357443;3.443006982643317e-05;-1.5423049224308928e-06;-1.1364870185733852e-06;0.0004896539480713914;0.010951348030953592
0.3400442600250244;0.001025124577490738;-0.0006067907172937089;0.00013154891466009874;0.0003905492243446932;0.0014817606576428028;0.0008569155537661504;2.220446049250313e-16;2.220446049250313e-16;2.1730994922248317e-05;2.220446049250313e-16;2.220446049250313e-16;2.220446049250313e-16;2.220446049250313e-16;-5.623785775516374e-07;2.220446049250313e-16;2.220446049250313e-16;2.220446049250313e-16;2.220446049250313e-16;-1.009767017133647e-06;-1.1569841584804301e-06;-9.94200983868224e-13;-0.0002048370715177004;2.220446049250313e-16;6.088706676092659e-06;2.220446049250313e-16;3.513961825360656e-06;3.5139618251386115e-06;1.7310796435865607e-05;-4.959031700428948e-08;4.1066733994874894e-14;-0.0017026764740592788;2.8043507061566223e-05;-3.8690052661282086e-06;-3.538464047074369e-06;0.0003988262010413237;0.01037386715957166
0.36002302169799805;0.0009711863417655556;-0.0006301610385163194;0.00011909700461586138;0.0003075580457132936;0.00141065969879807;0.0009085005892237637;2.220446049250313e-16;2.220446049250313e-16;1.7700031182889512e-05;2.220446049250313e-16;2.220446049250313e-16;2.220446049250313e-16;2.220446049250313e-16;-4.5806086628191843e-07;2.220446049250313e-16;2.220446049250313e-16;2.220446049250313e-16;2.220446049250313e-16;-8.224615464992123e-07;-9.423708282333006e-07;-8.097829151168173e-13;-0.00016684107498286398;2.220446049250313e-16;0.00015905310268470588;2.220446049250313e-16;2.862143869038256e-06;2.8621438688162115e-06;1.4099751889490258e-05;-4.039162313947505e-08;3.3449111505913066e-14;-0.0013868406298492453;-5.927350671374778e-05;-3.151328970544338e-06;-2.8821010817423667e-06;-0.01510350634266546;-0.005362805127664198
0.38002538681030273;0.000907419641046416;-0.0006489651554357791;0.00010526505119304811;0.00023310275757524533;0.001324034923509004;0.0009513882253661966;2.220446049250313e-16;2.220446049250313e-16;1.4416786023658398e-05;2.220446049250313e-16;2.220446049250313e-16;2.220446049250313e-16;2.220446049250313e-16;-3.730934384670367e-07;2.220446049250313e-16;2.220446049250313e-16;2.220446049250313e-16;2.220446049250313e-16;-6.699000700082741e-07;-7.675669294136997e-07;-6.595732455058672e-13;-0.0001358930983302613;2.220446049250313e-16;0.0001295497462185847;2.220446049250313e-16;6.204973078952352e-06;6.204973078730307e-06;1.1484336037439125e-05;-3.2899229494747034e-08;2.7244510378513103e-14;-0.0012570013516335005;3.7152172113750064e-05;-2.566777142314429e-06;-2.3474893442109187e-06;0.0019280372205423449;-0.004368038294014536
0.40001368522644043;0.0008348904508538505;-0.0006623954721898127;9.033524976225152e-05;0.000170833172068728;0.0012230639646806031;0.0009836403198889923;2.220446049250313e-16;2.220446049250313e-16;1.1742562321182413e-05;2.220446049250313e-16;2.220446049250313e-16;2.220446049250313e-16;2.220446049250313e-16;-3.0388693746539173e-07;2.220446049250313e-16;2.220446049250313e-16;2.220446049250313e-16;2.220446049250313e-16;-5.456377938971768e-07;-6.251880613007672e-07;-5.372265307973131e-13;-0.00011068577792186236;2.220446049250313e-16;0.00010551907798095106;2.220446049250313e-16;5.053989353909028e-06;5.0539893536869836e-06;9.3540634795944e-06;-2.6796628043655802e-08;2.2190823981488787e-14;-0.0011547858832519427;3.026067638772512e-05;-6.495379296573678e-06;-6.316768014469629e-06;0.001570398366364368;-0.003557794490714177
0.41998934745788574;0.0007532446553417082;-0.000669650835988529;7.43228494499872e-05;0.00012384731663263806;0.0011068859140745864;0.001003427898254986;2.220446049250313e-16;2.220446049250313e-16;9.564390401617579e-06;2.220446049250313e-16;2.220446049250313e-16;2.220446049250313e-16;2.220446049250313e-16;-2.475178098589207e-07;2.220446049250313e-16;2.220446049250313e-16;2.220446049250313e-16;2.220446049250313e-16;-4.444253933654621e-07;-5.092195833548579e-07;-4.375743670002289e-13;-9.015425790346889e-05;2.220446049250313e-16;8.594594850972201e-05;2.220446049250313e-16;4.116505916212959e-06;4.116505915990913e-06;7.618943167026384e-06;-2.1826021020482917e-08;1.8074564825572492e-14;-0.0009405803193204774;2.4647510047029527e-05;-5.290527033179863e-06;-5.145047027585604e-06;0.0012790992843935672;0.012869103367764959
0.4400599002838135;0.0006609186112493908;-0.0006693243401370384;5.707706848365512e-05;9.337728042521335e-05;0.0009730333011253172;0.001008352672877315;2.220446049250313e-16;2.220446049250313e-16;7.79025575955753e-06;2.220446049250313e-16;2.220446049250313e-16;2.220446049250313e-16;2.220446049250313e-16;-2.016048031164025e-07;2.220446049250313e-16;2.220446049250313e-16;2.220446049250313e-16;2.220446049250313e-16;-3.619872605548774e-07;-4.1476253326492773e-07;-3.564070567614802e-13;-7.343120652648729e-05;2.220446049250313e-16;7.000351222334675e-05;2.220446049250313e-16;3.3529197969380245e-06;3.35291979671598e-06;6.205676827937782e-06;-1.7777430533814714e-08;1.4721846016458953e-14;-0.0008959026196261147;-6.784257336516308e-05;-4.309167334318955e-06;-4.190672960512396e-06;0.0010418343615090878;0.012049098338689385
0.46018075942993164;0.0005576899876605687;-0.0006597095592847878;3.8728298158480726e-05;8.100239395677578e-05;0.0008209829210400618;0.0009954987969094022;2.220446049250313e-16;2.220446049250313e-16;6.3452120052581046e-06;2.220446049250313e-16;2.220446049250313e-16;2.220446049250313e-16;2.220446049250313e-16;-1.6420837216832925e-07;2.220446049250313e-16;2.220446049250313e-16;2.220446049250313e-16;2.220446049250313e-16;-2.948408861423261e-07;-3.3782667561011636e-07;-2.9029577527633035e-13;-5.981017666086467e-05;2.220446049250313e-16;5.701829822786731e-05;2.220446049250313e-16;4.773635972309488e-06;4.7736359720874426e-06;5.054562561835496e-06;-1.4479828278732916e-08;1.1991035591943421e-14;-0.0007297182830768429;-5.5258200022008835e-05;-6.64100053072149e-06;-6.544486122666211e-06;0.0008485805989139112;0.00981406590372712
0.48038792610168457;0.00044425000837468434;-0.0006389929793892277;1.9588722361704723e-05;8.611801054213984e-05;0.0006517785856917787;0.0009622168993117545;2.220446049250313e-16;2.220446049250313e-16;5.168214835857759e-06;2.220446049250313e-16;2.220446049250313e-16;2.220446049250313e-16;2.220446049250313e-16;-1.3374874543343024e-07;2.220446049250313e-16;2.220446049250313e-16;2.220446049250313e-16;2.220446049250313e-16;-2.401497445184629e-07;-2.751619387011624e-07;-2.364477233111665e-13;-4.87157627038784e-05;2.220446049250313e-16;4.644176027096184e-05;2.220446049250313e-16;3.888156334691498e-06;3.888156334469453e-06;4.1169727976310235e-06;-1.1793910631954704e-08;-0.00013588058002823985;-0.0005943601023053576;4.300017393870264e-05;-5.40913643852597e-06;-5.3305248499498965e-06;0.0006911742014441238;-0.005456046929969104
0.4999878406524658;0.0003289647711711124;-0.0006066859684508694;1.2732129452866849e-06;0.00010288258558292596;0.0004783855343679236;0.0009089435204076491;2.220446049250313e-16;2.220446049250313e-16;4.209543285148867e-06;2.220446049250313e-16;2.220446049250313e-16;2.220446049250313e-16;2.220446049250313e-16;-1.0893918908518787e-07;2.220446049250313e-16;2.220446049250313e-16;2.220446049250313e-16;2.220446049250313e-16;-1.9560346784619124e-07;-2.2412111883421358e-07;-1.9258814843521574e-13;-3.9679293195825844e-05;2.220446049250313e-16;3.782710400170011e-05;2.220446049250313e-16;3.16692763560391e-06;3.166927635381865e-06;3.3533000747504536e-06;-9.606213921668552e-09;-0.00011067558168662651;-0.0006409145140055961;3.502391042416041e-05;4.2262024765490795e-05;4.232605439570844e-05;0.002274904894256645;-0.006155923512094793
0.5201170444488525;0.00021092679489822955;-0.0005616519352428602;-1.6272069201612772e-05;0.0001274557700404516;0.00029977304104996825;0.0008346841329655584;2.220446049250313e-16;2.220446049250313e-16;3.4286993153992838e-06;2.220446049250313e-16;2.220446049250313e-16;2.220446049250313e-16;2.220446049250313e-16;-8.873165037981727e-08;2.220446049250313e-16;2.220446049250313e-16;2.220446049250313e-16;2.220446049250313e-16;-1.5932024708239677e-07;-1.8254805204745966e-07;-1.5686425057641087e-13;-3.231903230358261e-05;2.220446049250313e-16;3.081041262878474e-05;2.220446049250313e-16;2.579482352517701e-06;2.579482352295656e-06;2.731283869009711e-06;-7.824321278036046e-09;-9.014595300614283e-05;-0.0005220288773732706;2.8527193939918805e-05;-4.425667608442256e-06;-4.373515074444798e-06;0.0018529242545276266;-0.005014038175123159
0.5400302410125732;9.734564855733607e-05;-0.0005078479411770364;-3.2095113784817455e-05;0.0001583356437372791;0.000126837219394784;0.0007458187384463006;2.220446049250313e-16;2.220446049250313e-16;2.7926970217634368e-06;2.220446049250313e-16;2.220446049250313e-16;2.220446049250313e-16;2.220446049250313e-16;-7.227248380717603e-08;2.220446049250313e-16;2.220446049250313e-16;2.220446049250313e-16;2.220446049250313e-16;-1.2976733700015641e-07;-1.4868652931798112e-07;-1.2776691249605277e-13;-2.632405380521993e-05;2.220446049250313e-16;2.5095273651224093e-05;2.220446049250313e-16;2.2832512272503842e-06;2.283251227028339e-06;2.224647781832591e-06;-6.372958582968346e-09;-7.342444213570962e-05;-0.00042519578330101233;-6.724956522698499e-05;-3.6047339274987685e-06;-3.5622553626045027e-06;0.0015092183860893422;-0.004083965431376408
0.560145378112793;-1.476278862728816e-05;-0.00044742730534597157;-4.697002552495751e-05;0.00019531277182139627;-4.479034494227796e-05;0.0006456622140840132;2.220446049250313e-16;2.220446049250313e-16;2.274669178582705e-06;2.220446049250313e-16;2.220446049250313e-16;2.220446049250313e-16;2.220446049250313e-16;-5.8866389763968655e-08;2.220446049250313e-16;2.220446049250313e-16;2.220446049250313e-16;2.220446049250313e-16;-1.0569630703248363e-07;-1.2110610742030385e-07;-1.0406694877123803e-13;-2.144110634968791e-05;2.220446049250313e-16;2.0440257234382345e-05;2.220446049250313e-16;1.859722394936201e-06;1.8597223947141566e-06;1.8119895223512814e-06;-5.1908145968188615e-09;-5.980466702229883e-05;-0.0003463246229723202;-5.477519118716193e-05;-3.439029297792746e-06;-3.404430241195336e-06;0.001229267808084682;0.011538595050728562
0.5800416469573975;-0.00012315271681595681;-0.00038620947339085683;-6.106213067320222e-05;0.00023373659941242447;-0.00021118476679856795;0.0005440248691786085;2.220446049250313e-16;2.220446049250313e-16;1.8527322626379786e-06;2.220446049250313e-16;2.220446049250313e-16;2.220446049250313e-16;2.220446049250313e-16;-4.7947042377688477e-08;2.220446049250313e-16;2.220446049250313e-16;2.220446049250313e-16;2.220446049250313e-16;-8.609030267987684e-08;-9.864168140700883e-08;-8.47631801926032e-14;-1.7463915128735484e-05;2.220446049250313e-16;1.664871726901213e-05;2.220446049250313e-16;1.5147555139610982e-06;1.5147555137390538e-06;1.4758767908896332e-06;-4.2279509317001914e-09;-4.871127506883127e-05;-0.0002820835699398483;4.755711756073888e-05;-2.8011108569853023e-06;-2.7729297091426084e-06;0.0010012463126087738;-0.0047813691580843535
0.6001791954040527;-0.00022833600576324903;-0.0003281852253575655;-7.486755711262384e-05;0.00026967961562078465;-0.0003726536355909518;0.00044776626122949414;2.220446049250313e-16;2.220446049250313e-16;1.509062007495275e-06;2.220446049250313e-16;2.220446049250313e-16;2.220446049250313e-16;2.220446049250313e-16;-3.905316568564213e-08;2.220446049250313e-16;2.220446049250313e-16;2.220446049250313e-16;2.220446049250313e-16;-7.012108959715143e-08;-8.034426601651747e-08;-6.904014003675148e-14;-1.4224468021824603e-05;2.220446049250313e-16;1.3560484270093307e-05;2.220446049250313e-16;-4.280234068005721e-05;-4.2802340680279256e-05;1.202110870409549e-06;-3.443692458563129e-09;-3.967563798903225e-05;-0.00022975883073831846;3.8735569485206565e-05;-2.281522299957385e-06;-2.2585685789073358e-06;0.0008155213794092999;0.010319230364360379
0.6200451850891113;-0.00032418622897837176;-0.00027778305731340406;-8.768707478835059e-05;0.00029856801320335175;-0.0005195485794817744;0.0003645784213910919;2.220446049250313e-16;2.220446049250313e-16;1.229140436742448e-06;2.220446049250313e-16;2.220446049250313e-16;2.220446049250313e-16;2.220446049250313e-16;-3.180904753324103e-08;2.220446049250313e-16;2.220446049250313e-16;2.220446049250313e-16;2.220446049250313e-16;-5.711406573368981e-08;-6.544090682211608e-08;-5.623362556080931e-14;-1.1585918106701272e-05;2.220446049250313e-16;1.1045099191017684e-05;2.220446049250313e-16;5.5566009112261916e-06;5.556600911004147e-06;9.791268171415172e-07;-2.804909030577534e-09;-3.2316055114804193e-05;-0.0001871400036290525;3.1550363443010016e-05;-1.8583141728296641e-06;-1.8396182235736423e-06;0.000664247260537496;-0.005072672356887361
0.6401767730712891;-0.00041035520090572733;-0.00023459489098190446;-9.941509679246293e-05;0.0003181037161430814;-0.0006511327308229276;0.0002942869745415987;2.220446049250313e-16;2.220446049250313e-16;1.0011425678544536e-06;2.220446049250313e-16;2.220446049250313e-16;2.220446049250313e-16;2.220446049250313e-16;-2.59086680223719e-08;2.220446049250313e-16;2.220446049250313e-16;2.220446049250313e-16;2.220446049250313e-16;-4.6519763503001175e-08;-5.330202761228116e-08;-4.5802639479438927e-14;-9.43680270989635e-06;2.220446049250313e-16;8.996302322953847e-06;2.220446049250313e-16;4.525886170970021e-06;4.525886170747976e-06;7.97504912104373e-07;-2.2846159360868422e-09;-0.0003032376483822642;-0.0001524267025808859;-5.112115790593913e-05;-1.5136085082333412e-06;-1.4983805407146288e-06;0.0005410335452531687;0.010672412764795315
0.6600558757781982;-0.0004830449270354233;-0.00020017088774669278;-0.00010950094482631486;0.00032719400637636536;-0.0007615675863578965;0.00023949556269292415;2.220446049250313e-16;2.220446049250313e-16;8.154368786585012e-07;2.220446049250313e-16;2.220446049250313e-16;2.220446049250313e-16;2.220446049250313e-16;-2.110277203339705e-08;2.220446049250313e-16;2.220446049250313e-16;2.220446049250313e-16;2.220446049250313e-16;-3.789063812171634e-08;-4.3414834627875575e-08;-3.730653612249975e-14;-7.686334787227511e-06;2.220446049250313e-16;7.327544468935423e-06;2.220446049250313e-16;3.686362573064245e-06;3.6863625728422004e-06;-0.0007506441054483293;-1.8608339587923336e-09;-0.0006702922684023908;-0.00012415250191902266;-0.00013145623444085774;-1.2328435900092329e-06;-1.2204403152904447e-06;0.0004406752040683637;-0.004944464983912328
0.6802544593811035;-0.0005443809318794138;-0.000174310391709279;-0.00011832465518205995;0.0003273152443610899;-0.0008541234391054117;0.00019959845037890235;2.220446049250313e-16;2.220446049250313e-16;6.641784341478408e-07;2.220446049250313e-16;2.220446049250313e-16;2.220446049250313e-16;2.220446049250313e-16;-1.7188339713527102e-08;2.220446049250313e-16;2.220446049250313e-16;2.220446049250313e-16;2.220446049250313e-16;-3.086216156662621e-08;-3.536165414712107e-08;-3.0386406837626804e-14;-6.260567723789227e-06;2.220446049250313e-16;5.968330767100832e-06;2.220446049250313e-16;3.7441020474801764e-06;3.7441020472581322e-06;-0.0007588240807910857;-1.5156608896485981e-09;-0.0005459572419404246;-0.00010112298876618095;4.666559123665062e-05;-1.0041588093349577e-06;-9.940562645560376e-07;0.00035893270793370754;0.010732828692648268
0.7000248432159424;-0.0005942855754683805;-0.00015962693228104938;-0.00012614142722498618;0.0003216948868921703;-0.0009288337834941522;0.00017796189731072935;2.220446049250313e-16;2.220446049250313e-16;5.409774857286297e-07;2.220446049250313e-16;2.220446049250313e-16;2.220446049250313e-16;2.220446049250313e-16;-1.4000010123791031e-08;2.220446049250313e-16;2.220446049250313e-16;2.220446049250313e-16;2.220446049250313e-16;-2.5137423484526835e-08;-2.8802288313168533e-08;-2.4749918284289766e-14;-5.099271539574597e-06;2.220446049250313e-16;4.861242711870922e-06;2.220446049250313e-16;3.0495945183309936e-06;3.0495945181089494e-06;-0.0007528552700961546;-1.2345152674993429e-09;-0.0004446855857932378;-8.236530636873415e-05;3.800941572219715e-05;-8.178936261958812e-07;-8.096650403325462e-07;0.0002923529339414293;-0.004748328444487908
0.719994068145752;-0.0006366942973243688;-0.00015785952403626183;-0.0001338669508535339;0.0003147554291447839;-0.0009918799913102043;0.00017635973024560022;2.220446049250313e-16;2.220446049250313e-16;4.406295432352546e-07;2.220446049250313e-16;2.220446049250313e-16;2.220446049250313e-16;2.220446049250313e-16;-1.1403095745891064e-08;2.220446049250313e-16;2.220446049250313e-16;2.220446049250313e-16;2.220446049250313e-16;-2.0474588537043887e-08;-2.345964384537772e-08;-2.015896312954329e-14;-4.153388539430632e-06;2.220446049250313e-16;3.959512571585815e-06;2.220446049250313e-16;2.483913795166927e-06;2.483913794944883e-06;-0.000613205322838756;-1.0055204010986367e-09;-0.0005202519000885293;-6.708705682049875e-05;3.0958906664577845e-05;4.6373111736476535e-05;4.6379813971090885e-05;0.0002381232919011313;0.010170857885069351
0.74015212059021;-0.0006737880038549081;-0.0001711799221585174;-0.00014213538144119695;0.0003084777618718539;-0.0010465221377473756;0.00019771224317889494;2.220446049250313e-16;2.220446049250313e-16;3.5889551689976e-07;2.220446049250313e-16;2.220446049250313e-16;2.220446049250313e-16;2.220446049250313e-16;-9.287892754376682e-09;2.220446049250313e-16;2.220446049250313e-16;2.220446049250313e-16;2.220446049250313e-16;-1.6676680329600602e-08;-1.9108026534834185e-08;-1.6419601462532562e-14;-3.38296092404462e-06;2.220446049250313e-16;3.225047736510218e-06;2.220446049250313e-16;2.0231633106452757e-06;2.023163310423231e-06;-0.0004994595679854344;-8.190026511973462e-10;-0.00042374842419648257;-5.4642827074401347e-05;-6.362474177084588e-05;-1.233126596200885e-06;-1.227667584218532e-06;0.00019395290952404576;-0.006745833415593419
0.7600533962249756;-0.0007070107583338417;-0.00019937071956435408;-0.0001512036835338699;0.00030186122943260193;-0.0010946430030570914;0.0002418737256414125;2.220446049250313e-16;2.220446049250313e-16;2.9232264161183504e-07;2.220446049250313e-16;2.220446049250313e-16;2.220446049250313e-16;2.220446049250313e-16;-7.565046697769523e-09;2.220446049250313e-16;2.220446049250313e-16;2.220446049250313e-16;2.220446049250313e-16;-1.3583260357711745e-08;-1.5563607037788284e-08;-1.3373868013741907e-14;-2.7554428161401177e-06;2.220446049250313e-16;2.6268215379359253e-06;2.220446049250313e-16;6.421754489437392e-06;6.421754489215348e-06;-0.0004068129397464362;-6.670827781668082e-10;-0.00034514573993568617;-4.450692416976911e-05;3.8352469932672855e-05;-1.004389319646847e-06;-9.999429202683953e-07;0.00015797585701301975;-0.0071349932694370595
0.780076265335083;-0.0007386037706805696;-0.00024160494387806964;-0.00016141786127208467;0.00029321628625821907;-0.0011392439212276966;0.000307895990054535;2.220446049250313e-16;2.220446049250313e-16;2.380986186093497e-07;2.220446049250313e-16;2.220446049250313e-16;2.220446049250313e-16;2.220446049250313e-16;-6.161777816875136e-09;2.220446049250313e-16;2.220446049250313e-16;2.220446049250313e-16;2.220446049250313e-16;-1.106365045673345e-08;-1.2676655204822542e-08;-1.0893099083867867e-14;-2.2443253952637264e-06;2.220446049250313e-16;2.1395625602834227e-06;2.220446049250313e-16;5.230559167632907e-06;5.230559167410864e-06;-0.0003313516820043456;-5.433430920842288e-10;-0.000281123362338491;-3.6251167904553e-05;3.123832646309911e-05;-1.7455455271857204e-06;-1.7419239071019752e-06;0.0001286723228862109;-0.008125759793557109
0.8000569343566895;-0.0007674751848178319;-0.00029590455806660166;-0.00017238454975967833;0.00028250249145991266;-0.0011785682456872493;0.0003927705823964546;2.220446049250313e-16;2.220446049250313e-16;1.939328129736816e-07;2.220446049250313e-16;2.220446049250313e-16;2.220446049250313e-16;2.220446049250313e-16;-5.0188065429561515e-09;2.220446049250313e-16;2.220446049250313e-16;2.220446049250313e-16;2.220446049250313e-16;-9.011412444824748e-09;-1.0325214893422988e-08;-8.872497285679651e-15;-1.8280170614760245e-06;2.220446049250313e-16;1.742687077616849e-06;2.220446049250313e-16;4.260323133052394e-06;4.260323132830349e-06;-0.000269888015940552;-4.4255634439692973e-10;-0.00022897673564571552;-2.9526802828057812e-05;2.544381214373461e-05;-1.4217577415523138e-06;-1.4188079093589781e-06;0.00010480441119283679;0.008548076022422108
0.8201637268066406;-0.00079079168685782;-0.0003611321444137965;-0.00018347085737733686;0.00027250738272058473;-0.0012085295237514607;0.0004942333928810379;2.220446049250313e-16;2.220446049250313e-16;1.579594882471447e-07;2.220446049250313e-16;2.220446049250313e-16;2.220446049250313e-16;2.220446049250313e-16;-4.087849296778679e-09;2.220446049250313e-16;2.220446049250313e-16;2.220446049250313e-16;2.220446049250313e-16;-7.339851757637536e-09;-8.409952063286105e-09;-7.22670449229411e-15;-1.4889313216788563e-06;2.220446049250313e-16;1.4194295165131584e-06;2.220446049250313e-16;3.4700598189113496e-06;3.470059818689305e-06;-0.00021982547578367915;-3.6046490848845184e-10;-0.00018650298228803304;-2.4049765445970764e-05;-6.793065166188737e-05;-1.158030566480244e-06;-1.155627909722321e-06;8.536384794413551e-05;-0.007949946646595239
0.8400347232818604;-0.0008063499516531063;-0.0004340090434001764;-0.00019394299801784898;0.0002663201591346709;-0.0012260896341878941;0.0006066863186755304;2.220446049250313e-16;2.220446049250313e-16;1.2865899042410088e-07;2.220446049250313e-16;2.220446049250313e-16;2.220446049250313e-16;2.220446049250313e-16;-3.329578801284338e-09;2.220446049250313e-16;2.220446049250313e-16;2.220446049250313e-16;2.220446049250313e-16;-5.978355130669257e-09;-6.849958517746925e-09;-5.886195975876628e-15;-1.2127438673281887e-06;2.220446049250313e-16;1.1561342126344455e-06;2.220446049250313e-16;2.462172228320486e-06;2.4621722280984417e-06;-0.00017904922393503027;-2.93600920869522e-10;-0.00015190784471724218;-1.9588684266777225e-05;-5.5329940345180125e-05;-3.4187569065666176e-06;-3.4167999276206845e-06;6.952938767454801e-05;-0.006475281230818361
0.860424280166626;-0.0008127894075812736;-0.0005160408442920356;-0.00020372092753878792;0.0002660359105548306;-0.0012290358763676194;0.0007320289856227538;2.220446049250313e-16;2.220446049250313e-16;1.0479355181912033e-07;2.220446049250313e-16;2.220446049250313e-16;2.220446049250313e-16;2.220446049250313e-16;-2.711962743513601e-09;2.220446049250313e-16;2.220446049250313e-16;2.220446049250313e-16;2.220446049250313e-16;-4.869407618649675e-09;-5.579334024945606e-09;-4.794343411076362e-15;-9.877874595879804e-07;2.220446049250313e-16;9.416785420295849e-07;2.220446049250313e-16;2.0054546685640566e-06;2.0054546683420124e-06;-0.00014583671195273168;-2.39139785053981e-10;-0.00012372988894622319;-1.595510576456671e-05;4.011258777591257e-05;-2.7845988676291754e-06;-2.7830048960465943e-06;5.663212081959231e-05;-0.0063464904467119025
0.8800654411315918;-0.0008072027321258869;-0.0006014397582970076;-0.00021166903545056707;0.0002756861882399334;-0.0012137054869535138;0.0008606508729324588;2.220446049250313e-16;2.220446049250313e-16;8.535500291637235e-08;2.220446049250313e-16;2.220446049250313e-16;2.220446049250313e-16;2.220446049250313e-16;-2.2089106043589744e-09;2.220446049250313e-16;2.220446049250313e-16;2.220446049250313e-16;2.220446049250313e-16;-3.966162939187776e-09;-4.544402434155853e-09;-3.905022672968015e-15;-8.045590595060323e-07;2.220446049250313e-16;7.670030579739842e-07;2.220446049250313e-16;1.6334553616576966e-06;1.633455361435652e-06;-0.00011878491336494964;-1.9478084955012408e-10;-0.00010077876785850473;-1.2995533364650614e-05;3.2671953447154385e-05;-2.268073181426886e-06;-2.266774881610551e-06;4.612721635831306e-05;-0.0070665203990940345
0.9001643657684326;-0.0007879611933263208;-0.0006925295209203226;-0.0002177530742753397;0.00029830533446485366;-0.0011773442647588612;0.000995519416807844;2.220446049250313e-16;2.220446049250313e-16;6.952218334415349e-08;2.220446049250313e-16;2.220446049250313e-16;2.220446049250313e-16;2.220446049250313e-16;-1.7991714929416616e-09;2.220446049250313e-16;2.220446049250313e-16;2.220446049250313e-16;2.220446049250313e-16;-3.2304645024868133e-09;-3.7014441851351538e-09;-3.1806653735241534e-15;-6.553183824617853e-07;2.220446049250313e-16;6.247287844889223e-07;2.220446049250313e-16;-4.289597593409997e-05;-4.289597593432202e-05;-9.675105434145998e-05;-1.586502193388857e-10;-8.208493628805118e-05;-1.0584943147591453e-05;2.661151028241628e-05;-1.8473597817295819e-06;-1.846302308414804e-06;3.7570906018948215e-05;-0.005755725030814582
0.9199872016906738;-0.0007553469530067943;-0.000780682971248461;-0.00022115550274452475;0.0003325149167586515;-0.0011204139163478028;0.001123718865289789;2.220446049250313e-16;2.220446049250313e-16;5.6626252847458913e-08;2.220446049250313e-16;2.220446049250313e-16;2.220446049250313e-16;2.220446049250313e-16;-1.465436425822814e-09;2.220446049250313e-16;2.220446049250313e-16;2.220446049250313e-16;2.220446049250313e-16;-2.63123352767865e-09;-3.0148494228187396e-09;-2.590671825894007e-15;-5.337609182550145e-07;2.220446049250313e-16;0.00015030446641071222;2.220446049250313e-16;5.2009531678827285e-06;5.200953167660685e-06;-7.880433845520878e-05;-1.2922159521539327e-10;-6.685869363746947e-05;-8.621502349607907e-06;2.167524144696732e-05;-1.50468608821738e-06;-1.503824769593285e-06;3.060173777059594e-05;-0.0066277261097238424
0.9399929046630859;-0.0007076037298431388;-0.0008627777282756148;-0.00022126193953139753;0.000377357365243523;-0.0010397905422578164;0.0012406733060419865;2.220446049250313e-16;2.220446049250313e-16;4.6122436858335564e-08;2.220446049250313e-16;2.220446049250313e-16;2.220446049250313e-16;2.220446049250313e-16;-1.1936071278103431e-09;2.220446049250313e-16;2.220446049250313e-16;2.220446049250313e-16;2.220446049250313e-16;-2.143156153503808e-09;-2.455613697694756e-09;-2.11011839388958e-15;-4.347516039244483e-07;2.220446049250313e-16;0.00012242392729444018;2.220446049250313e-16;4.2362088612183745e-06;4.236208860996331e-06;-6.418662619888288e-05;-1.0525179693790788e-10;-5.4456823834554105e-05;-7.022267548145326e-06;-5.7860174993318825e-05;-1.2255762231411074e-06;-1.2248746737385404e-06;2.492530667501145e-05;-0.005398324339658253
0.9601755142211914;-0.0006428940826171924;-0.0009350282612802875;-0.00021736427598830998;0.0004317741654536434;-0.0009324171317170086;0.0013408143233913615;2.220446049250313e-16;2.220446049250313e-16;3.756701308634468e-08;2.220446049250313e-16;2.220446049250313e-16;2.220446049250313e-16;2.220446049250313e-16;-9.722004656460733e-10;2.220446049250313e-16;2.220446049250313e-16;2.220446049250313e-16;2.220446049250313e-16;-1.7456140817548104e-09;-2.0001127043579883e-09;-1.7187046200630241e-15;-3.5410789859398756e-07;2.220446049250313e-16;9.971505393086711e-05;2.220446049250313e-16;3.4504185937883425e-06;3.450418593566298e-06;-5.228040820540384e-05;-8.572824642965681e-11;-4.435542336839328e-05;0.00014327203599397544;5.136914834834891e-05;-9.982394935998264e-07;-9.976680772267521e-07;2.0301818069963548e-05;-0.005923995685108086
0.9799747467041016;-0.0005639983578074435;-0.0009934439183089518;-0.00020956471259185383;0.0004924669474918395;-0.0008024124035935622;0.0014186706328255295;2.220446049250313e-16;2.220446049250313e-16;3.0598566952659526e-08;2.220446049250313e-16;2.220446049250313e-16;2.220446049250313e-16;2.220446049250313e-16;-7.918633555216367e-10;2.220446049250313e-16;2.220446049250313e-16;2.220446049250313e-16;2.220446049250313e-16;-1.4218135796773035e-09;-1.6291042984039836e-09;-1.3998956549452086e-15;-2.884230965791691e-07;2.220446049250313e-16;8.121853464577831e-05;2.220446049250313e-16;7.252288681953882e-06;7.252288681731837e-06;-4.258271923585271e-05;-6.982619251849564e-11;-3.6127769554952384e-05;0.00011669596876731797;4.184049238690736e-05;-8.130723065338934e-07;-8.126068843266719e-07;1.6535957704348246e-05;0.01093768169019893
1.0001330375671387;-0.0004693983767011202;-0.001039096631892608;-0.00019773772130918233;0.0005597227522284177;-0.0006466728972661944;0.0014758308410178496;2.220446049250313e-16;2.220446049250313e-16;2.4922724023984634e-08;2.220446049250313e-16;2.220446049250313e-16;2.220446049250313e-16;2.220446049250313e-16;-6.44977652218345e-10;2.220446049250313e-16;2.220446049250313e-16;2.220446049250313e-16;2.220446049250313e-16;-1.1580760469820365e-09;-1.3269156329519094e-09;-1.1402237603007155e-15;-2.3492241480808678e-07;2.220446049250313e-16;6.615300408482795e-05;2.220446049250313e-16;5.907034458276293e-06;5.907034458054247e-06;-3.468389095959725e-05;0.000131197674409431;-2.9426294101068425e-05;0.00037595072488893566;3.407934255221346e-05;-4.778242636206582e-07;-4.774451743239876e-07;1.3468640899927295e-05;0.010522210107460864
1.0202295780181885;-0.0003627172935532226;-0.0010699613065826641;-0.00018234207189809538;0.0006294632232186545;-0.000470437702818885;0.0015099742549221317;2.220446049250313e-16;2.220446049250313e-16;2.0299714484560627e-08;2.220446049250313e-16;2.220446049250313e-16;2.220446049250313e-16;2.220446049250313e-16;-5.253383288421683e-10;2.220446049250313e-16;2.220446049250313e-16;2.220446049250313e-16;2.220446049250313e-16;-9.432601782421625e-10;-1.0807810762620359e-09;-9.287193791634346e-16;-1.9134577512627922e-07;2.220446049250313e-16;5.388203528336789e-05;2.220446049250313e-16;4.811316485251997e-06;4.811316485029952e-06;-2.8250245960910444e-05;0.00010686132579194658;-2.3967900459658358e-05;0.0004409926527298845;2.7757837504668805e-05;-3.891908491206737e-07;-3.8888207851922727e-07;1.0970292191996403e-05;0.008570405896340044
1.0399839878082275;-0.0002498149914636921;-0.0010865436305470759;-0.00016450399925952154;0.0006977113304168847;-0.0002823430162795471;0.0015226147751295313;2.220446049250313e-16;2.220446049250313e-16;1.653424432089016e-08;2.220446049250313e-16;2.220446049250313e-16;2.220446049250313e-16;2.220446049250313e-16;-4.2789135220650126e-10;2.220446049250313e-16;2.220446049250313e-16;2.220446049250313e-16;2.220446049250313e-16;-7.68291310554355e-10;-8.803029414971547e-10;0.00015879373321633092;0.0001426097282302779;2.220446049250313e-16;4.3887254501023664e-05;2.220446049250313e-16;3.918847347986377e-06;3.9188473477643324e-06;-2.301000189919881e-05;8.703921774082669e-05;-1.95220047237696e-05;0.00035919127185257037;-5.888937857668753e-05;-3.169983790515958e-07;-3.167468834669014e-07;8.935371554707269e-06;-0.008918274262971902
1.0599937438964844;-0.0001319766171535218;-0.0010914499486042268;-0.00014477401866555672;0.0007643050667673648;-8.343733870414418e-05;0.0015177569398919346;2.220446049250313e-16;2.220446049250313e-16;1.3467245338392038e-08;2.220446049250313e-16;2.220446049250313e-16;2.220446049250313e-16;2.220446049250313e-16;-3.485201806931465e-10;2.220446049250313e-16;2.220446049250313e-16;2.220446049250313e-16;2.220446049250313e-16;-6.257780742672131e-10;-7.170122477428167e-10;0.0001293384881655341;0.00011615651495436277;2.220446049250313e-16;3.57464430864244e-05;2.220446049250313e-16;8.345087448404233e-06;8.345087448182187e-06;-1.8741790359409297e-05;7.089398684501421e-05;-1.5900794860039855e-05;0.0004267334508488477;3.189692769480932e-05;-5.411358951630203e-06;-5.411154106904621e-06;7.2779159773812886e-06;-0.007263990126404756
1.0799782276153564;-1.4837290886872661e-05;-0.0010870379901837567;-0.00012441459645150992;0.0008273109170273865;0.00011765377030179901;0.0014993477198012633;2.220446049250313e-16;2.220446049250313e-16;1.0969155498403674e-08;2.220446049250313e-16;2.220446049250313e-16;2.220446049250313e-16;2.220446049250313e-16;-2.838718654256972e-10;2.220446049250313e-16;2.220446049250313e-16;2.220446049250313e-16;2.220446049250313e-16;-5.09700152603609e-10;-5.840109571130723e-10;0.00010534700697637852;0.00023668742474485826;2.220446049250313e-16;2.9115701309161963e-05;2.220446049250313e-16;6.797125883542394e-06;6.797125883320349e-06;-1.5265305383928615e-05;5.7743595372681846e-05;-1.2951296793470336e-05;0.0003475770628004542;2.598024696322028e-05;-4.407585687096247e-06;-4.407418839786982e-06;5.927908050551917e-06;0.008317083643590384
1.1002662181854248;9.982486088605135e-05;-0.0010769742993114123;-0.00010414875038578817;0.0008869248891441565;0.0003186776178846414;0.0014729397864270525;2.220446049250313e-16;2.220446049250313e-16;8.934445710671656e-09;2.220446049250313e-16;2.220446049250313e-16;2.220446049250313e-16;2.220446049250313e-16;-2.3121540858838917e-10;2.220446049250313e-16;2.220446049250313e-16;2.220446049250313e-16;2.220446049250313e-16;-4.1515395992159317e-10;-4.756805746370793e-10;8.58057956010539e-05;0.0003422777629850204;2.220446049250313e-16;2.371492068944559e-05;2.220446049250313e-16;7.0503675820793244e-06;7.0503675818572815e-06;-1.2433686643368508e-05;4.703251932852043e-05;-1.0548912183886543e-05;0.0004296638412646147;2.1161073528086434e-05;-3.590006089550437e-06;-3.5898701913742447e-06;4.828318156599852e-06;-0.007899742470796521
1.1200430393218994;0.0002034854501945752;-0.0010653877773740507;-8.58722383391783e-05;0.0009394683553804895;0.0005054736403542837;0.0014455130883428695;2.220446049250313e-16;2.220446049250313e-16;7.277161871627753e-09;2.220446049250313e-16;2.220446049250313e-16;2.220446049250313e-16;2.220446049250313e-16;-1.8832639539154664e-10;2.220446049250313e-16;2.220446049250313e-16;2.220446049250313e-16;2.220446049250313e-16;-3.3814549506838716e-10;-3.874448010454925e-10;0.00020899090959633246;0.0004352213715909485;2.220446049250313e-16;1.931595111980774e-05;2.220446049250313e-16;5.742568460421591e-06;5.742568460199548e-06;-1.0127315481565171e-05;0.00017740983373937724;-8.592154904476738e-06;0.00034996388410903653;-6.503096876124903e-05;-3.189774912328265e-06;-3.1896642224143924e-06;3.932695315539057e-06;-0.008169767684296808
1.140134334564209;0.0002941444068576891;-0.0010538721874070224;-7.01786963612326e-05;0.0009843448716983665;0.0006761271171984569;0.001419604325924438;2.220446049250313e-16;2.220446049250313e-16;5.927293826702501e-09;2.220446049250313e-16;2.220446049250313e-16;2.220446049250313e-16;2.220446049250313e-16;-1.5339302608638589e-10;2.220446049250313e-16;2.220446049250313e-16;2.220446049250313e-16;2.220446049250313e-16;-2.754216191425454e-10;-3.155762119815601e-10;0.00017022440205939775;0.0006497844298202187;2.220446049250313e-16;1.57329629117779e-05;2.220446049250313e-16;8.578189757891671e-06;8.578189757669628e-06;-8.248761755456588e-06;0.0001445014183921836;-6.998363870664454e-06;0.00028504777088108577;-5.2968130499592074e-05;-2.598091602184574e-06;-2.5980014445579128e-06;3.2032049138522837e-06;-0.006654326839907777
1.1602578163146973;0.0003644566030157631;-0.0010441692010942278;-5.8538166313152785e-05;0.0010162653378285342;0.0008189393629831495;0.0013988650471350196;2.220446049250313e-16;2.220446049250313e-16;4.827817867435603e-09;2.220446049250313e-16;2.220446049250313e-16;2.220446049250313e-16;2.220446049250313e-16;-1.2493957845377431e-10;2.220446049250313e-16;2.220446049250313e-16;2.220446049250313e-16;2.220446049250313e-16;-2.2433263017672287e-10;-2.5703879701030555e-10;0.00028795999614179683;0.0006759185844606416;2.220446049250313e-16;1.2814596622661294e-05;2.220446049250313e-16;-3.666314845034953e-05;-3.666314845057157e-05;-6.718668004580361e-06;0.0002526571013857557;-5.700211112430388e-06;0.00036713298390266956;3.687985853562006e-05;4.1533975773807034e-05;4.153404920775742e-05;2.609030422363396e-06;0.008040438692435906
1.1800196170806885;0.00041070361172828625;-0.0010377495677555144;-5.1680024328192455e-05;0.0010308127008286255;0.000926931035871774;0.0013863859014032673;2.220446049250313e-16;2.220446049250313e-16;3.932287826887971e-09;2.220446049250313e-16;2.220446049250313e-16;2.220446049250313e-16;2.220446049250313e-16;-1.0176406752296449e-10;2.220446049250313e-16;2.220446049250313e-16;2.220446049250313e-16;2.220446049250313e-16;-1.8272032935787927e-10;-2.0935970665737518e-10;0.00023454521660746933;0.0008376803518690758;2.220446049250313e-16;1.0437569040386516e-05;2.220446049250313e-16;1.0020061809879144e-05;1.00200618096571e-05;-5.4723970814057315e-06;0.0002057907881855816;-4.642857577394001e-06;0.00043303764652921216;3.0038875276378377e-05;-6.052742512231641e-06;-6.0526826998200775e-06;2.125071585455126e-06;-0.006906442797708078
1.200061559677124;0.0004325686428665893;-0.0010358615098494625;-4.9784842867092313e-05;0.001024813733817007;0.0009998834538094198;0.0013846903001532662;2.220446049250313e-16;2.220446049250313e-16;3.202873011799169e-09;2.220446049250313e-16;2.220446049250313e-16;2.220446049250313e-16;2.220446049250313e-16;-8.28874690228766e-11;2.220446049250313e-16;2.220446049250313e-16;2.220446049250313e-16;2.220446049250313e-16;-1.488268502640512e-10;-1.7052478957059866e-10;0.00019103854483438752;0.0013822058667364414;2.220446049250313e-16;8.501465218201319e-06;2.220446049250313e-16;-3.913343433351393e-05;-3.9133434333735975e-05;-4.457301625286727e-06;0.00031252736859398227;-3.7816365146472725e-06;0.0006375715538787262;2.4466851655580662e-05;-4.929996605853373e-06;-4.929947888270326e-06;1.7308840880506084e-06;0.008315120451230023
1.2200560569763184;0.0004294460866042445;-0.0010407251412717906;-5.3045717908112546e-05;0.0009937670899965302;0.0010349580004217812;0.001398050418356439;2.220446049250313e-16;2.220446049250313e-16;2.6087600860667465e-09;2.220446049250313e-16;2.220446049250313e-16;2.220446049250313e-16;2.220446049250313e-16;-6.751236156581436e-11;2.220446049250313e-16;2.220446049250313e-16;2.220446049250313e-16;2.220446049250313e-16;-1.212203997078838e-10;-1.388935068851874e-10;0.00015560208875851382;0.0012742930349454757;2.220446049250313e-16;6.9244965543825865e-06;2.220446049250313e-16;7.266161392867567e-06;7.266161392645523e-06;-3.6305000319311967e-06;0.0005345461656095864;-3.0801665764084194e-06;0.0006677837331584111;-6.845080292516033e-05;-4.015513047946357e-06;-4.015473367170482e-06;0.0016411860912225046;-0.008526753634440765
1.240171194076538;0.00040363268466570045;-0.001052923318641034;-6.09814549620711e-05;0.00093443974689512;0.0010340308911499774;0.0014280054068337368;2.220446049250313e-16;2.220446049250313e-16;-0.0002162131812773181;2.220446049250313e-16;2.220446049250313e-16;2.220446049250313e-16;2.220446049250313e-16;-5.498924044761556e-11;2.220446049250313e-16;2.220446049250313e-16;2.220446049250313e-16;2.220446049250313e-16;-9.873477318956949e-11;-1.1312962944240311e-10;0.0001267388738068642;0.0011844178097324025;2.220446049250313e-16;5.640045721648081e-06;2.220446049250313e-16;5.9183338680199326e-06;5.918333867797887e-06;-2.957064966633158e-06;0.0005765332910258122;-2.5088149275257598e-06;0.0008218784976002383;-0.00014403606907706376;-3.270660474508857e-06;-3.270628154268901e-06;0.0013367563287137998;0.0071864925984901655
1.260061502456665;0.0003583684774788418;-0.0010714688292964528;-7.273093840895905e-05;0.0008474305064869037;0.000999215415277625;0.0014729564307130272;2.220446049250313e-16;2.220446049250313e-16;-0.00017610698748275852;2.220446049250313e-16;2.220446049250313e-16;2.220446049250313e-16;2.220446049250313e-16;-4.478908002733567e-11;2.220446049250313e-16;2.220446049250313e-16;2.220446049250313e-16;2.220446049250313e-16;-8.042008985523678e-11;-9.214479024102134e-11;0.00010322960483365218;0.0009647157086383525;2.220446049250313e-16;4.5938524905681215e-06;2.220446049250313e-16;4.820519925109504e-06;4.820519924887458e-06;-2.4085478969787487e-06;0.0006226793721368963;-2.043445438563028e-06;0.00106682889096805;4.002710053256961e-05;-2.663973398115429e-06;-2.6639470730779838e-06;0.0010887963844644444;-0.007469171274770024
1.2799944877624512;0.00029746553031534395;-0.0010955601790297166;-8.73964522774824e-05;0.0007322676299900551;0.0009344381124986679;0.0015317986617668534;2.220446049250313e-16;2.220446049250313e-16;-0.00014344024197337859;2.220446049250313e-16;2.220446049250313e-16;2.220446049250313e-16;2.220446049250313e-16;-3.6480985614015057e-11;2.220446049250313e-16;2.220446049250313e-16;2.220446049250313e-16;2.220446049250313e-16;-6.550266581265194e-11;-7.505250755625087e-11;8.408115832203991e-05;0.0007857669741591171;2.220446049250313e-16;3.7417215651458e-06;2.220446049250313e-16;1.0005016260959713e-05;1.0005016260737668e-05;-1.9617773155135467e-06;0.0006505032416912741;-1.6643990812435769e-06;0.0010199342291090537;3.260232355315627e-05;-2.169822982598755e-06;-2.169801540691224e-06;0.0008868314601236924;0.009034446297862885
1.3000400066375732;0.00022677133330988456;-0.0011238540304680052;-0.00010358906864721217;0.0005921189946699382;0.0008453190294892424;0.0016019064920074217;2.220446049250313e-16;2.220446049250313e-16;-0.00011683297358882918;2.220446049250313e-16;2.220446049250313e-16;2.220446049250313e-16;2.220446049250313e-16;-2.971399078877535e-11;2.220446049250313e-16;2.220446049250313e-16;2.220446049250313e-16;2.220446049250313e-16;-5.3352330696066317e-11;-6.113073648273856e-11;6.8484628960541e-05;0.0006400121114961893;2.220446049250313e-16;3.047655600571036e-06;2.220446049250313e-16;8.149148275923911e-06;8.149148275701865e-06;-1.5978798845940054e-06;0.0005298389560028031;-1.3556634541671514e-06;0.0008307428041982559;-6.429663088361642e-05;-1.767334380720327e-06;-1.7673169161526315e-06;0.0007223297669673731;-0.006185136836366805
1.3201351165771484;0.00015232996836999138;-0.0011548158262555514;-0.00011983175687568712;0.000433553671930473;0.0007368789762542708;0.0016797026839363827;2.220446049250313e-16;2.220446049250313e-16;-0.0010288908160609774;2.220446049250313e-16;2.220446049250313e-16;2.220446049250313e-16;2.220446049250313e-16;-2.420223120989995e-11;2.220446049250313e-16;2.220446049250313e-16;2.220446049250313e-16;2.220446049250313e-16;-4.345580680401285e-11;-4.979136693229354e-11;5.5781158317291636e-05;0.0005212938648893428;2.220446049250313e-16;2.4823345345126117e-06;2.220446049250313e-16;6.637532202937341e-06;6.6375322027152966e-06;-1.3014831527510955e-06;0.00043155714115775806;-1.1041963563157327e-06;0.0006766452061620058;-5.237000770864859e-05;-1.4395048989365852e-06;-1.4394906739370438e-06;0.0005883421097559688;-0.005037832610325988
1.3402092456817627;8.202417690037022e-05;-0.001186995831257937;-0.00013438545109252867;0.00026195214180329765;0.0006182344791273633;0.0017619794223872288;2.220446049250313e-16;2.220446049250313e-16;-0.00191795568628945;2.220446049250313e-16;2.220446049250313e-16;2.220446049250313e-16;2.220446049250313e-16;-1.9712868584408567e-11;2.220446049250313e-16;2.220446049250313e-16;2.220446049250313e-16;2.220446049250313e-16;-3.539502624066098e-11;-4.0555379562396403e-11;4.543410208167351e-05;0.00042459711103902517;2.220446049250313e-16;2.0218769929513625e-06;2.220446049250313e-16;5.406311463889325e-06;5.4063114636672815e-06;-1.0600661621854721e-06;0.00035150598870512613;-8.993748334463913e-07;0.000551131749451492;5.251403774374786e-05;-2.446203572220584e-06;-2.4461919858695513e-06;0.00047920832553442256;-0.004103346147564331
1.3601396083831787;2.3170703125887907e-05;-0.0012195008567155914;-0.00014587198662941632;8.190459036932021e-05;0.0005011418280438813;0.00184651985023146;2.220446049250313e-16;2.220446049250313e-16;-0.0017896549932978824;2.220446049250313e-16;2.220446049250313e-16;2.220446049250313e-16;2.220446049250313e-16;-1.6056254667429428e-11;2.220446049250313e-16;2.220446049250313e-16;2.220446049250313e-16;2.220446049250313e-16;-2.8829470091932365e-11;-3.303261012469413e-11;3.7006360108661075e-05;0.00034583700067322996;2.220446049250313e-16;0.0001328804584294421;2.220446049250313e-16;5.127884893055731e-06;5.127884892833687e-06;-8.634305145135805e-07;0.00028630382471275464;-7.325464229347945e-07;0.0004489002545016743;4.277301195501852e-05;-1.9924480983459917e-06;-1.9924386611906613e-06;0.00039031817619982167;-0.0038754476398750954
1.380136251449585;-2.3009000606544406e-05;-0.0012520303720816798;-0.00015417788077536082;-0.0001036468722929736;0.0003895849224538622;0.001932291517787047;2.220446049250313e-16;2.220446049250313e-16;-0.0014576851773848327;2.220446049250313e-16;2.220446049250313e-16;2.220446049250313e-16;2.220446049250313e-16;-1.3077919778212936e-11;2.220446049250313e-16;2.220446049250313e-16;2.220446049250313e-16;2.220446049250313e-16;-2.348178357406698e-11;-2.6905267400376644e-11;3.0141911598255122e-05;0.00028168639852959985;2.220446049250313e-16;0.00010823196389364574;2.220446049250313e-16;4.176694294695069e-06;4.176694294473024e-06;-7.032695505120267e-07;0.000233196254627443;-5.966636398955335e-07;0.0003656320629182043;3.4838885568687284e-05;4.375039276274809e-05;4.375040044937008e-05;0.00031791659400335595;0.012107673585334796
1.4000327587127686;-5.5796043435466506e-05;-0.0012830077428480115;-0.00015921080960256304;-0.00028612870282108033;0.00028717848113313216;0.0020152080237390135;2.220446049250313e-16;2.220446049250313e-16;-0.0011872936875123048;2.220446049250313e-16;2.220446049250313e-16;2.220446049250313e-16;2.220446049250313e-16;-1.065204739635305e-11;2.220446049250313e-16;2.220446049250313e-16;2.220446049250313e-16;2.220446049250313e-16;-1.912605948222489e-11;-2.191450845552802e-11;2.4550775383726278e-05;0.0002294353321423499;2.220446049250313e-16;8.815561104114875e-05;2.220446049250313e-16;3.401943607389069e-06;3.4019436071670238e-06;-5.728174443267364e-07;0.00018993980687064373;-4.859862638426612e-07;0.0002978096004472706;2.837649003873059e-05;-4.300915772934498e-06;-4.30090951213284e-06;0.0002589450527944459;0.009861775808215095
1.420149326324463;-7.493678386972322e-05;-0.0013121067532576294;-0.00016097070401810328;-0.00045992594127677313;0.00019508431325822718;0.0020936740622945673;2.220446049250313e-16;2.220446049250313e-16;-0.0009670581290643187;2.220446049250313e-16;2.220446049250313e-16;2.220446049250313e-16;2.220446049250313e-16;-8.676159179625787e-12;2.220446049250313e-16;2.220446049250313e-16;2.220446049250313e-16;2.220446049250313e-16;-1.5578294986143934e-11;-1.7849504102705423e-11;1.99967599923912e-05;0.00018687651200076987;2.220446049250313e-16;7.180329616558467e-05;2.220446049250313e-16;2.770904330386536e-06;2.7709043301644915e-06;-4.665633885131538e-07;0.00015470715981993219;-3.958388493139965e-07;0.00024256778087430463;-6.1329537556214e-05;-3.5031227777787294e-06;-3.5031176783166475e-06;0.0002109123639076561;0.008834695465781188
1.4400339126586914;-8.075840347798548e-05;-0.0013385493051039454;-0.00015968460932716283;-0.000613804868378359;0.0001158445947415433;0.0021642963048862534;2.220446049250313e-16;2.220446049250313e-16;-0.0007876748902361943;2.220446049250313e-16;2.220446049250313e-16;2.220446049250313e-16;2.220446049250313e-16;-7.0667858778000755e-12;2.220446049250313e-16;2.220446049250313e-16;2.220446049250313e-16;2.220446049250313e-16;-1.2688618630557895e-11;-1.4538532651054205e-11;1.628748599355258e-05;0.00015221208700282702;2.220446049250313e-16;5.8484233497469736e-05;2.220446049250313e-16;5.737291986904744e-06;5.737291986682699e-06;-3.8001879596514185e-07;0.00012600994859308365;-3.2241321675905826e-07;0.00019757297357075158;4.3836207877587436e-05;-3.911727872446743e-06;-3.911723718903005e-06;0.0001717894386050603;-0.008108041541013682
1.4600090980529785;-7.622197964976048e-05;-0.001361755164937125;-0.0001558981213184146;-0.0007435239791546423;4.5472216879934545e-05;0.0022253391324966077;2.220446049250313e-16;2.220446049250313e-16;-0.000641566121065444;2.220446049250313e-16;2.220446049250313e-16;2.220446049250313e-16;2.220446049250313e-16;-5.755941264879896e-12;2.220446049250313e-16;2.220446049250313e-16;2.220446049250313e-16;2.220446049250313e-16;-1.0334959178455843e-11;-1.1841725710112715e-11;1.3266259138536031e-05;0.00012397769618934637;2.220446049250313e-16;4.763577371014845e-05;2.220446049250313e-16;4.673060181429425e-06;4.6730601812073796e-06;-3.095276844310828e-07;0.00010263589069124532;-2.626075801328577e-07;0.00016092442180446192;3.5704865292594184e-05;-3.186126800407073e-06;-3.18612341731974e-06;0.00013992357142781286;-0.0066040505104152745
1.4800043106079102;-6.545822794991285e-05;-0.0013800106596324239;-0.00015035000431727746;-0.0008419521513581527;-2.0540511307479324e-05;0.0022727594287669816;2.220446049250313e-16;2.220446049250313e-16;-0.0005225596153960606;2.220446049250313e-16;2.220446049250313e-16;2.220446049250313e-16;2.220446049250313e-16;-4.68825013487758e-12;2.220446049250313e-16;2.220446049250313e-16;2.220446049250313e-16;2.220446049250313e-16;-8.41788884434715e-12;-9.645159601672496e-12;1.0805450982457214e-05;0.0001009806084068238;2.220446049250313e-16;3.879963541050159e-05;2.220446049250313e-16;3.806236724420994e-06;3.806236724198949e-06;-2.521122335171445e-07;8.359757444233614e-05;-2.138955153155884e-07;0.00028032809485476195;2.9081835936226037e-05;-2.595120192224064e-06;-2.595117436678285e-06;0.00011396862345027497;-0.0053790404160489295
1.500032901763916;-5.1778603496611515e-05;-0.001391498648006229;-0.00014359135164800397;-0.0009047362264405784;-8.560719673559339e-05;0.0023029043713640924;2.220446049250313e-16;2.220446049250313e-16;-0.0004256280727376876;2.220446049250313e-16;2.220446049250313e-16;2.220446049250313e-16;2.220446049250313e-16;-3.818609036421132e-12;2.220446049250313e-16;2.220446049250313e-16;2.220446049250313e-16;2.220446049250313e-16;-6.856423075526031e-12;-7.856042777809758e-12;8.801107359280036e-06;8.224933667616051e-05;2.220446049250313e-16;3.1602545539574845e-05;2.220446049250313e-16;-4.323683462209392e-05;-4.323683462231596e-05;-2.0534698990117366e-07;6.809074686812302e-05;-1.742192340715174e-07;0.0002283289853097964;-6.142648188116532e-05;-2.3705800583844057e-06;-2.3705778139751468e-06;9.282815610414552e-05;-0.005739358931982311
1.5201482772827148;-3.760278072364139e-05;-0.0013934999844333958;-0.0001359066414671898;-0.0009287033114735729;-0.0001518490878020326;0.002310979137179358;2.220446049250313e-16;2.220446049250313e-16;-0.000346676725420301;2.220446049250313e-16;2.220446049250313e-16;2.220446049250313e-16;2.220446049250313e-16;-3.110280926471489e-12;2.220446049250313e-16;2.220446049250313e-16;2.220446049250313e-16;2.220446049250313e-16;-5.5845994476601726e-12;-6.398795942793408e-12;7.168556951054585e-06;6.699259878108695e-05;2.220446049250313e-16;2.574047085789333e-05;2.220446049250313e-16;3.20294929240568e-06;3.202949292183635e-06;-1.6725640669319285e-07;5.5460338891254124e-05;-1.4190265502146386e-07;0.0001859753855909873;-5.00322534077209e-05;-1.930852273679463e-06;-1.9308504455940946e-06;7.560911332280215e-05;-0.005363933104639561
1.5400214195251465;-2.38033682465381e-05;-0.001383237369028691;-0.00012738493426492332;-0.0009139375061806712;-0.00021703998818401306;0.0022927398910780735;2.220446049250313e-16;2.220446049250313e-16;-0.00028237035958436906;2.220446049250313e-16;2.220446049250313e-16;2.220446049250313e-16;2.220446049250313e-16;-2.5333432538668174e-12;2.220446049250313e-16;2.220446049250313e-16;2.220446049250313e-16;2.220446049250313e-16;-4.548691153865758e-12;-5.211859287879871e-12;5.838834440114903e-06;5.45658904109377e-05;2.220446049250313e-16;2.0965774391696977e-05;2.220446049250313e-16;2.608822217118097e-06;2.6088222168960516e-06;-1.3623138860414734e-07;4.5172792654044534e-05;-1.1558059940657615e-07;0.0001514781139100191;4.928410539317039e-05;-1.5726912447386326e-06;-1.5726897557516746e-06;6.158409535838061e-05;0.009138967118522402
1.5600357055664062;-9.58894581664682e-06;-0.0013577754091583089;-0.00011761812233618644;-0.0008641700953580657;-0.00027901800316781266;0.002244431025275597;2.220446049250313e-16;2.220446049250313e-16;-0.00022999242269621602;2.220446049250313e-16;2.220446049250313e-16;2.220446049250313e-16;2.220446049250313e-16;-2.06342391366986e-12;2.220446049250313e-16;2.220446049250313e-16;2.220446049250313e-16;2.220446049250313e-16;-3.704937374143371e-12;-4.245091964098703e-12;4.755767144188838e-06;4.444425877652381e-05;2.220446049250313e-16;1.7076754278127137e-05;2.220446049250313e-16;2.12490200100214e-06;2.124902000780096e-06;-1.1096131746425678e-07;3.679352194667336e-05;-9.414112059540256e-08;0.00012337987051792246;4.014221186839599e-05;-4.195627694618918e-06;-4.195626481829734e-06;5.016063056999699e-05;-0.0063292119027475
1.5801239013671875;4.553848457958019e-06;-0.0013160421360357633;-0.00010675946061408654;-0.0007848542085598668;-0.00033502903666049466;0.0021654663501836915;2.220446049250313e-16;2.220446049250313e-16;-0.00018733026573870967;2.220446049250313e-16;2.220446049250313e-16;2.220446049250313e-16;2.220446049250313e-16;-1.6806716740835607e-12;2.220446049250313e-16;2.220446049250313e-16;2.220446049250313e-16;2.220446049250313e-16;-3.017694647098363e-12;-3.45765393658317e-12;3.873602062486458e-06;3.620012655009599e-05;2.220446049250313e-16;1.3909123089248785e-05;2.220446049250313e-16;2.6549548006749243e-06;2.654954800452879e-06;-9.03786865828713e-08;2.996855358507761e-05;-7.66785311069591e-08;0.00010049367566103857;3.2696082455632694e-05;-3.4173649799401987e-06;-3.4173639921158287e-06;4.0856147103203604e-05;-0.00515518265236223
1.6000185012817383;1.7026462228559836e-05;-0.0012579712931142324;-9.531394425262973e-05;-0.0006854716896443132;-0.00038282676557878815;0.00205757370086039;2.220446049250313e-16;2.220446049250313e-16;2.78955997364878e-05;2.220446049250313e-16;2.220446049250313e-16;2.220446049250313e-16;2.220446049250313e-16;-1.3689175827390229e-12;2.220446049250313e-16;2.220446049250313e-16;2.220446049250313e-16;2.220446049250313e-16;-2.45793115065316e-12;-2.8162807416840942e-12;3.155073089908111e-06;2.9485229325844115e-05;2.220446049250313e-16;1.1329067688212441e-05;2.220446049250313e-16;2.162477278637824e-06;2.1624772784157792e-06;-7.361400508853979e-08;2.440957419850561e-05;-6.245514282743759e-08;8.185272691138876e-05;-6.736840821482491e-05;4.42163207280341e-05;4.421632153262323e-05;3.327758716647873e-05;0.009604661472896686
1.6200616359710693;2.5008349963879926e-05;-0.0011808768050091609;-8.364514951424748e-05;-0.0005754888075993142;-0.0004238075747667619;0.0019184720064883845;2.220446049250313e-16;2.220446049250313e-16;0.00026303820877723346;2.220446049250313e-16;2.220446049250313e-16;2.220446049250313e-16;2.220446049250313e-16;-1.1149919268758263e-12;2.220446049250313e-16;2.220446049250313e-16;2.220446049250313e-16;2.220446049250313e-16;-2.002000284276691e-12;-2.2938782658563303e-12;2.569826750936968e-06;2.4015903568583317e-05;2.220446049250313e-16;9.227596438722082e-06;2.220446049250313e-16;1.761351258954092e-06;1.7613512587320476e-06;-5.995906723214745e-08;1.988175074452156e-05;-5.087010417759059e-08;6.666955764886934e-05;-5.487198954352623e-05;-3.0004596618056664e-06;-3.000459006462797e-06;2.7104802732016712e-05;-0.007403077860195756
1.6400558948516846;2.6571483762998004e-05;-0.001084726755679156;-7.228337430228156e-05;-0.0004646912966530826;-0.0004568637173159751;0.0017500011196127294;2.220446049250313e-16;2.220446049250313e-16;0.0015894805824041218;2.220446049250313e-16;2.220446049250313e-16;2.220446049250313e-16;2.220446049250313e-16;-9.081678931399033e-13;2.220446049250313e-16;2.220446049250313e-16;2.220446049250313e-16;2.220446049250313e-16;-1.630641744045141e-12;-1.8683781842791416e-12;2.093139950055353e-06;1.9561103556008408e-05;2.220446049250313e-16;7.515934971816876e-06;2.220446049250313e-16;1.43463160888407e-06;1.4346316086620252e-06;-4.88370350047543e-08;1.619381024235496e-05;-4.1434017790798636e-08;5.4302771389739366e-05;4.30426241898464e-05;-2.443893147413601e-06;-2.443892613632738e-06;2.207703123024468e-05;-0.006029853186366068
1.660062551498413;2.285964293442898e-05;-0.0009715629460987839;-6.122655918346354e-05;-0.00035737507015260817;-0.00047974084366524225;0.0015561260747681944;2.220446049250313e-16;2.220446049250313e-16;0.0019265848435296843;2.220446049250313e-16;2.220446049250313e-16;2.220446049250313e-16;2.220446049250313e-16;-7.397084250117833e-13;2.220446049250313e-16;2.220446049250313e-16;2.220446049250313e-16;2.220446049250313e-16;-1.3281678920356676e-12;-1.5218057084590128e-12;1.7048755714447732e-06;1.5932641103266072e-05;2.220446049250313e-16;6.121776009138419e-06;2.220446049250313e-16;5.006517324966664e-06;5.006517324744618e-06;-3.977807024284114e-08;1.3189959653712124e-05;-3.374826645321667e-08;4.422994668926389e-05;3.5058486419031066e-05;-3.656430562654195e-06;-3.656430127886346e-06;1.7981879918479472e-05;-0.004911353106877577
1.6800360679626465;1.697896984190377e-05;-0.0008469608906814686;-5.029610082520205e-05;-0.0002583604902051542;-0.0004900435786527388;0.001346333830705718;2.220446049250313e-16;2.220446049250313e-16;0.0015692153962101995;2.220446049250313e-16;2.220446049250313e-16;2.220446049250313e-16;2.220446049250313e-16;-6.024971353497537e-13;2.220446049250313e-16;2.220446049250313e-16;2.220446049250313e-16;2.220446049250313e-16;-1.0818010491123763e-12;-1.2395202608255436e-12;1.3886318084140891e-06;1.2977235757617108e-05;2.220446049250313e-16;4.9862248205432976e-06;2.220446049250313e-16;4.0778396519392216e-06;4.077839651717177e-06;-3.2399486825733126e-08;1.074330457519636e-05;-2.7488173952810306e-08;3.602556801557224e-05;2.8555356303840917e-05;-2.9781855459728577e-06;-2.978185191851727e-06;1.464635358035102e-05;-0.00583407885190395
1.7000758647918701;1.2775841022068992e-05;-0.0007157044864345827;-3.905907889721345e-05;-0.0001738817072286892;-0.0004847521343172924;0.001129182498773474;2.220446049250313e-16;2.220446049250313e-16;0.001278135747809434;2.220446049250313e-16;2.220446049250313e-16;2.220446049250313e-16;2.220446049250313e-16;-4.907376823494701e-13;2.220446049250313e-16;2.220446049250313e-16;2.220446049250313e-16;2.220446049250313e-16;-8.811337157585875e-13;-1.0095969994440354e-12;1.1310492869020777e-06;1.0570039632302616e-05;2.220446049250313e-16;4.061311280237643e-06;2.220446049250313e-16;3.3214258830229136e-06;3.3214258828008694e-06;-2.6389584516352287e-08;8.750488722151027e-06;-2.23892894856512e-08;2.9343050308483684e-05;-5.4983729468173026e-05;-2.4257507408545543e-06;-2.4257504524206797e-06;1.192954653090578e-05;-0.006571756331034705
1.7201273441314697;1.5072350568034912e-05;-0.0005824725707647172;-2.690962861199426e-05;-0.00010924648707233437;-0.0004591498290293939;0.0009128942977368738;2.220446049250313e-16;2.220446049250313e-16;0.0010410495549392077;2.220446049250313e-16;2.220446049250313e-16;2.220446049250313e-16;2.220446049250313e-16;-3.997089093841581e-13;2.220446049250313e-16;2.220446049250313e-16;2.220446049250313e-16;2.220446049250313e-16;-7.176889185710927e-13;-8.223230660284132e-13;9.212467132397852e-07;8.609363343258184e-06;2.220446049250313e-16;3.307963420949062e-06;2.220446049250313e-16;2.7053221406545257e-06;2.705322140432481e-06;-2.1494481523472163e-08;7.127327754746524e-06;-1.823621621912219e-08;2.3900097870324385e-05;-0.0001361490214177697;-4.097858337057837e-06;-4.097858102126643e-06;9.716690209088574e-06;-0.00699236376641453
1.7400214672088623;2.7525540479036802e-05;-0.0004534082391393908;-1.3615169112100003e-05;-6.64910529522072e-05;-0.00041046283015864414;0.0007072850783495354;2.220446049250313e-16;2.220446049250313e-16;0.0008479413690577028;2.220446049250313e-16;2.220446049250313e-16;2.220446049250313e-16;2.220446049250313e-16;-3.2556540487408034e-13;2.220446049250313e-16;2.220446049250313e-16;2.220446049250313e-16;2.220446049250313e-16;-5.845621097318961e-13;-6.697872767993052e-13;7.503612057257626e-07;7.0123802516046846e-06;2.220446049250313e-16;2.6943568811343917e-06;2.220446049250313e-16;4.647422275590432e-06;4.647422275368388e-06;-1.7507389541377595e-08;5.80525300203951e-06;-1.4853512086826393e-08;1.9466779090990892e-05;4.4430883919414835e-05;-3.3377312271482144e-06;-3.3377310357952893e-06;7.91430490461645e-06;0.008190277979312485
1.7600164413452148;5.2945031114305484e-05;-0.0003332337363090181;9.724912023679245e-07;-4.524294423842578e-05;-0.00033625998411375326;0.0005195217413155162;2.220446049250313e-16;2.220446049250313e-16;0.0006906535447310554;2.220446049250313e-16;2.220446049250313e-16;2.220446049250313e-16;2.220446049250313e-16;-2.651750570537189e-13;2.220446049250313e-16;2.220446049250313e-16;2.220446049250313e-16;2.220446049250313e-16;-4.761294918898151e-13;-5.455459231235139e-13;6.111738918211696e-07;5.711627542308586e-06;2.220446049250313e-16;2.1945705194144693e-06;2.220446049250313e-16;3.7853544898782217e-06;3.7853544896561776e-06;-1.4259878202636684e-08;4.728414852992443e-06;-1.2098278429170635e-08;1.5855813236981398e-05;3.6189232645387874e-05;-2.718602945332389e-06;-2.718602789474236e-06;6.4462508092157505e-06;0.006671032603387388
1.780043125152588;9.366064110449685e-05;-0.00022787904297080796;1.6800097224810805e-05;-4.347843446744667e-05;-0.00023515919939956706;0.00035829296114896333;2.220446049250313e-16;2.220446049250313e-16;0.0005625416287680991;2.220446049250313e-16;2.220446049250313e-16;2.220446049250313e-16;2.220446049250313e-16;-2.1598674131436056e-13;2.220446049250313e-16;2.220446049250313e-16;2.220446049250313e-16;2.220446049250313e-16;-3.8781044695357857e-13;-4.443505640461215e-13;4.978049547251663e-07;4.652156330882482e-06;2.220446049250313e-16;1.7874914041288312e-06;2.220446049250313e-16;3.083194890491967e-06;3.0831948902699226e-06;-1.1614759920286344e-08;3.851323450355175e-06;-9.854123394799662e-09;1.2914658980354075e-05;2.9476356172372456e-05;-4.264072956906518e-06;-4.2640728299590784e-06;5.250511573173784e-06;-0.008261093476814503
1.8001306056976318;0.00014930358619298176;-0.0001414653270424527;3.346247328876898e-05;-5.765005178117698e-05;-0.00010944011406501794;0.00022920792701566935;2.220446049250313e-16;2.220446049250313e-16;0.0004581936725167964;2.220446049250313e-16;2.220446049250313e-16;2.220446049250313e-16;2.220446049250313e-16;-1.7592255071767983e-13;2.220446049250313e-16;2.220446049250313e-16;2.220446049250313e-16;2.220446049250313e-16;-3.158740328589832e-13;-3.619263116065912e-13;4.0546524690461494e-07;3.7892104074808486e-06;2.220446049250313e-16;1.4559229204842085e-06;2.220446049250313e-16;-4.258353409923538e-05;-4.2583534099457426e-05;-9.460294547322728e-09;3.1369270210858545e-06;-8.02624509333554e-09;1.051907045611702e-05;-6.387709574824497e-05;-3.4731140738563384e-06;-3.473113970456855e-06;4.27657449204738e-06;-0.00672871226869964
1.82015061378479;0.00021755490929610676;-7.728175029576013e-05;5.027594242733112e-05;-8.366652174096889e-05;3.562919753010724e-05;0.00013648626114263682;2.220446049250313e-16;2.220446049250313e-16;0.00037320160997538377;2.220446049250313e-16;2.220446049250313e-16;2.220446049250313e-16;2.220446049250313e-16;-1.4329001707549218e-13;2.220446049250313e-16;2.220446049250313e-16;2.220446049250313e-16;2.220446049250313e-16;-2.572813739763471e-13;-2.947912428430161e-13;3.302539777616019e-07;3.0863355594581973e-06;2.220446049250313e-16;1.1858583182526404e-06;2.220446049250313e-16;5.19887035986768e-06;5.198870359645635e-06;-7.705469035635279e-09;2.55504666446831e-06;-6.53742679255363e-09;8.567848630697662e-06;4.879179164227784e-05;-2.828873120118948e-06;-2.828873035899423e-06;3.4832966523631653e-06;-0.007481084968861273
1.840134620666504;0.00029656478136135856;-3.597284495885656e-05;6.687759211809733e-05;-0.00011552645872060614;0.00019585607041432726;7.9934563962527e-05;2.220446049250313e-16;2.220446049250313e-16;0.00030397504383501234;2.220446049250313e-16;2.220446049250313e-16;2.220446049250313e-16;2.220446049250313e-16;-1.167106144705951e-13;2.220446049250313e-16;2.220446049250313e-16;2.220446049250313e-16;2.220446049250313e-16;-2.095572871123221e-13;-2.401093097409043e-13;2.689939289741857e-07;2.513839602775948e-06;2.220446049250313e-16;9.658890118312648e-07;2.220446049250313e-16;4.234512401072568e-06;4.2345124008505235e-06;-6.276152688706407e-09;2.081101477251091e-06;-5.3247749814523855e-09;6.978566258757187e-06;3.974121924133306e-05;-2.304134836793884e-06;-2.304134768196554e-06;2.8371668939538737e-06;0.009091581323769648
1.860041856765747;0.00038400687830772147;-1.6577721993636193e-05;8.297295146918627e-05;-0.00014641276686912038;0.00036633322139727106;5.674365792483066e-05;2.220446049250313e-16;2.220446049250313e-16;0.0002475895730476415;2.220446049250313e-16;2.220446049250313e-16;2.220446049250313e-16;2.220446049250313e-16;-9.506152492764012e-14;2.220446049250313e-16;2.220446049250313e-16;2.220446049250313e-16;2.220446049250313e-16;-1.7068572008603076e-13;-1.9557053346715244e-13;2.1909723636153026e-07;2.0475380679585258e-06;2.220446049250313e-16;7.867226369428889e-07;2.220446049250313e-16;3.4490368163967063e-06;3.449036816174662e-06;-5.111965590905672e-09;1.695070160105246e-06;-4.337062502236599e-09;5.6840858337968455e-06;3.236947145468604e-05;-1.8767322254113479e-06;-1.8767321695383941e-06;2.310890167418517e-06;-0.00812129659541288
1.8801305294036865;0.00047889052537533524;-1.652422804583469e-05;9.863811732548917e-05;-0.00017043099298896404;0.0005449404556578274;6.18279473038016e-05;2.220446049250313e-16;2.220446049250313e-16;0.00020166325468213558;2.220446049250313e-16;2.220446049250313e-16;2.220446049250313e-16;2.220446049250313e-16;-7.742820618809367e-14;2.220446049250313e-16;2.220446049250313e-16;2.220446049250313e-16;2.220446049250313e-16;-1.3902458579582252e-13;-1.592934218248298e-13;1.784560683741936e-07;1.6677325534651439e-06;2.220446049250313e-16;6.407905048064637e-07;2.220446049250313e-16;4.944953322259362e-06;4.9449533220373185e-06;-4.163727923577612e-09;1.3806452395942233e-06;-3.532564514712349e-09;4.629723437163992e-06;-6.377805222400379e-05;-3.6643014059774977e-06;-3.664301360468628e-06;1.8822344844259285e-06;0.00854792019100033
1.9001538753509521;0.0005762357296582868;-3.265976654665141e-05;0.00011330560464151073;-0.0001840834516321562;0.0007231359503374157;8.965970180237605e-05;2.220446049250313e-16;2.220446049250313e-16;0.00016425598133394112;2.220446049250313e-16;2.220446049250313e-16;2.220446049250313e-16;2.220446049250313e-16;-6.306575786649097e-14;2.220446049250313e-16;2.220446049250313e-16;2.220446049250313e-16;2.220446049250313e-16;-1.1323639403435868e-13;-1.2974548766021025e-13;1.4535358304120796e-07;1.3583785881258185e-06;2.220446049250313e-16;5.219278711055196e-07;2.220446049250313e-16;4.027695386959108e-06;4.027695386737063e-06;-3.3913824170534862e-09;1.1245441766822422e-06;-2.877295875761425e-09;3.7709386753415533e-06;-5.194762214927749e-05;-2.9845963970524586e-06;-2.9845963599851995e-06;1.533091751530446e-06;-0.008323445000200144
1.9200632572174072;0.0006703038114566934;-6.193540889900574e-05;0.00012622103483822544;-0.00018715491295143405;0.0008921739799739015;0.00013550327738353905;2.220446049250313e-16;2.220446049250313e-16;0.00013378752339637833;2.220446049250313e-16;2.220446049250313e-16;2.220446049250313e-16;2.220446049250313e-16;-5.136745394324354e-14;2.220446049250313e-16;2.220446049250313e-16;2.220446049250313e-16;2.220446049250313e-16;-9.223175066844783e-14;-1.0567851060853907e-13;1.183914018469579e-07;1.106407849894655e-06;2.220446049250313e-16;4.2511351306464e-07;2.220446049250313e-16;3.280583065794955e-06;3.2805830655729105e-06;-2.7623021748301704e-09;9.159482603087904e-07;-2.343575473906904e-09;3.071453119432415e-06;5.06298980823493e-05;-2.430972419126709e-06;-2.430972388935195e-06;1.2487128134449951e-06;-0.0067794979741942684
1.9401459693908691;0.0007578697714964302;-0.00010241551331452567;0.00013695515190417424;-0.00017977981014789354;0.0010476348237398144;0.0001964066687961388;2.220446049250313e-16;2.220446049250313e-16;0.00010897077397837137;2.220446049250313e-16;2.220446049250313e-16;2.220446049250313e-16;2.220446049250313e-16;-4.183911228335901e-14;2.220446049250313e-16;2.220446049250313e-16;2.220446049250313e-16;2.220446049250313e-16;-7.512333736789244e-14;-8.607580738134637e-14;9.643053675060872e-08;9.011761087882576e-07;2.220446049250313e-16;3.462576133506059e-07;2.220446049250313e-16;2.6720554107547454e-06;2.672055410532701e-06;-2.2499123857877658e-09;7.460455826981364e-07;-1.908856870843884e-09;2.501717762359698e-06;4.123836842493651e-05;-4.747867735575943e-06;-4.747867710984765e-06;1.0170843910060323e-06;-0.005521943471843569
1.9600389003753662;0.0008350737165339536;-0.00015028976040993485;0.0001451979592572593;-0.00016219850361777978;0.0011833527967411088;0.00026657141251325;2.220446049250313e-16;2.220446049250313e-16;8.875737647272081e-05;2.220446049250313e-16;2.220446049250313e-16;2.220446049250313e-16;2.220446049250313e-16;-3.4078218449247675e-14;2.220446049250313e-16;2.220446049250313e-16;2.220446049250313e-16;2.220446049250313e-16;-6.118842780700693e-14;-7.010928308590275e-14;7.854327487422548e-08;7.340135729587156e-07;2.220446049250313e-16;2.8202899018415177e-07;2.220446049250313e-16;3.552895657641698e-06;3.5528956574196533e-06;-1.8325677001765463e-09;6.076587898925238e-07;-1.5547758516577862e-09;2.0376647531779882e-06;3.358890882191343e-05;-3.867167944799952e-06;-3.867167924770283e-06;8.284215932518569e-07;0.00936431301777152
1.9799740314483643;0.0009008376396337325;-0.00020211774086638655;0.00015107329438865115;-0.0001342096561851233;0.0012980754340989292;0.0003406933024790222;2.220446049250313e-16;2.220446049250313e-16;7.229343787063405e-05;2.220446049250313e-16;2.220446049250313e-16;2.220446049250313e-16;2.220446049250313e-16;-2.7756921915777526e-14;2.220446049250313e-16;2.220446049250313e-16;2.220446049250313e-16;2.220446049250313e-16;-4.983835687648092e-14;-5.710444925648706e-14;6.39739882805246e-08;5.978586427597047e-07;2.220446049250313e-16;2.297143751861803e-07;2.220446049250313e-16;2.8938557187676164e-06;2.893855718545571e-06;-1.4926378453419227e-09;4.949418822348973e-07;-1.2663746485243394e-09;1.6596906768681783e-06;2.735837616612862e-05;-3.149832460839215e-06;-3.1498324445249265e-06;6.747545653385953e-07;-0.008186997361967865
2.000112295150757;0.0009527220455628567;-0.0002547399999029946;0.00015442973121755822;-9.471683477309411e-05;0.001388307447963266;0.0004137153213870811;2.220446049250313e-16;2.220446049250313e-16;5.8883456979618106e-05;2.220446049250313e-16;2.220446049250313e-16;2.220446049250313e-16;2.220446049250313e-16;-2.260818638116277e-14;2.220446049250313e-16;2.220446049250313e-16;2.220446049250313e-16;2.220446049250313e-16;-7.462924452271762e-05;-7.46292445286359e-05;5.210721329191403e-08;4.869596011442969e-07;2.220446049250313e-16;1.8710379430398872e-07;2.220446049250313e-16;2.3570635695550587e-06;2.357063569333014e-06;-1.2157628540175292e-09;4.0313325646708773e-07;-1.0314700660646277e-09;1.3518284293758614e-06;-5.5446027775471055e-05;-3.8068269381247567e-06;-3.8068269248366652e-06;5.49591810684319e-07;0.0068239277730744105
2.0200352668762207;0.0009883296772116997;-0.0003042023879390346;0.00015523001326892902;-4.2375458585947374e-05;0.0014501611209018007;0.0004793183344345879;2.220446049250313e-16;2.220446049250313e-16;4.796094373150506e-05;2.220446049250313e-16;2.220446049250313e-16;2.220446049250313e-16;2.220446049250313e-16;-1.8414509108621956e-14;2.220446049250313e-16;2.220446049250313e-16;2.220446049250313e-16;2.220446049250313e-16;-6.078598609653176e-05;-6.078598610135225e-05;4.2441650896347045e-08;3.9663163862953684e-07;2.220446049250313e-16;1.5239720985931318e-07;2.220446049250313e-16;1.919843009070499e-06;1.9198430088484542e-06;-9.90246443115115e-10;3.2835455697529577e-07;-8.401388154975519e-10;1.1010727046543226e-06;4.377350154984931e-05;-3.100684333770976e-06;-3.100684322947744e-06;4.476459647511946e-07;-0.008133199382415888
2.0401270389556885;0.0010078624274531768;-0.0003495174662159344;0.0001535830229274472;2.673131601374907e-05;0.0014840197434437476;0.0005352313523664252;2.220446049250313e-16;2.220446049250313e-16;3.9064488425209176e-05;2.220446049250313e-16;2.220446049250313e-16;2.220446049250313e-16;2.220446049250313e-16;-1.499873275965451e-14;2.220446049250313e-16;2.220446049250313e-16;2.220446049250313e-16;2.220446049250313e-16;-4.951056558803822e-05;-4.951056559196453e-05;3.4568989915392764e-08;3.230589486114992e-07;2.220446049250313e-16;1.2412847991297213e-07;2.220446049250313e-16;5.9003517224685366e-06;5.900351722246491e-06;-8.065619169575305e-10;2.674468388723595e-07;-6.842983160903527e-10;8.968305996453497e-07;3.565379059673694e-05;4.217551513673118e-05;4.217551514554677e-05;3.646104360771276e-07;-0.006624541729473878
2.0599982738494873;0.0010111961195108307;-0.0003899376394079426;0.00014954126622809854;0.00011153525803502326;0.0014898216908111903;0.0005805187679160095;2.220446049250313e-16;2.220446049250313e-16;3.1818269975385525e-05;2.220446049250313e-16;2.220446049250313e-16;2.220446049250313e-16;2.220446049250313e-16;-1.221656157481834e-14;2.220446049250313e-16;2.220446049250313e-16;2.220446049250313e-16;2.220446049250313e-16;-4.0326665112492046e-05;-4.032666511569005e-05;2.815665834227437e-08;2.631335327624949e-07;2.220446049250313e-16;1.0110342269211526e-07;2.220446049250313e-16;4.805873355169481e-06;4.8058733549474366e-06;-6.569497223738894e-10;2.178371218042797e-07;-5.573652553200678e-10;7.30474128602385e-07;2.9040235277233453e-05;-5.768937746837158e-06;-5.7689377396568035e-06;2.9697747900004586e-07;-0.005395730642042282
2.080024242401123;0.0009996716060674596;-0.0004274994830396314;0.00014312390376846202;0.00020874117498006229;0.0014703446556475898;0.0006189418397731503;2.220446049250313e-16;2.220446049250313e-16;2.5916179759138856e-05;2.220446049250313e-16;2.220446049250313e-16;2.220446049250313e-16;2.220446049250313e-16;-9.95046575619938e-15;2.220446049250313e-16;2.220446049250313e-16;2.220446049250313e-16;2.220446049250313e-16;-3.284632077578172e-05;-3.2846320778386516e-05;2.293377419889711e-08;2.143239070196318e-07;2.220446049250313e-16;8.23493696791197e-08;2.220446049250313e-16;3.914413884514605e-06;3.91441388429256e-06;-5.350896548092977e-10;1.7742969719159703e-07;-4.5397748399104085e-10;5.949757432099463e-07;-5.738543107479568e-05;-4.698835850659781e-06;-4.698835844811339e-06;2.4189001275478105e-07;-0.004394856331259951
2.1000099182128906;0.0009748599937116538;-0.00046258409300627986;0.00013457837265444555;0.0003102954488404399;0.0014289010449132216;0.0006526587590912604;2.220446049250313e-16;2.220446049250313e-16;2.110889038994209e-05;2.220446049250313e-16;2.220446049250313e-16;2.220446049250313e-16;2.220446049250313e-16;-8.10471654883537e-15;2.220446049250313e-16;2.220446049250313e-16;2.220446049250313e-16;2.220446049250313e-16;-2.675353356137906e-05;-2.675353356350068e-05;1.867970242109044e-08;-0.00014517153527329092;2.220446049250313e-16;6.707407628720348e-08;2.220446049250313e-16;-4.360966804816665e-05;-4.360966804838869e-05;-4.358338681525155e-10;1.445175972981632e-07;-3.697674980699776e-10;4.846114614428963e-07;-4.67407922693653e-05;-7.367634502762655e-06;-7.3676344979990615e-06;1.9702092720134886e-07;0.012163912182126677
2.1201250553131104;0.0009385610864830371;-0.0004952209721713844;0.00012422377189367774;0.00041071247241880496;0.0013689812919353479;0.0006827918025635651;2.220446049250313e-16;2.220446049250313e-16;1.7193323153172766e-05;2.220446049250313e-16;2.220446049250313e-16;2.220446049250313e-16;2.220446049250313e-16;-6.601342283504838e-15;2.220446049250313e-16;2.220446049250313e-16;2.220446049250313e-16;2.220446049250313e-16;-2.1790920295328e-05;-2.179092029705607e-05;1.5214734370118288e-08;-0.00026644494055909904;2.220446049250313e-16;5.4632254348904025e-08;2.220446049250313e-16;3.5342483743278665e-06;3.534248374105822e-06;-3.549894095718997e-10;1.1771048623433704e-07;-3.0117793822485967e-10;3.94719064166873e-07;4.559963945344649e-05;-6.000984350215822e-06;-6.000984346335846e-06;1.6047477658629365e-07;-0.003698685842409853
2.1399776935577393;0.0008938721330475274;-0.0005247293418162572;0.0001127011045146551;0.0005034393870902964;0.0012959876137752114;0.000709592828557117;2.220446049250313e-16;2.220446049250313e-16;1.4004069166528921e-05;2.220446049250313e-16;2.220446049250313e-16;2.220446049250313e-16;2.220446049250313e-16;-5.376834548303961e-15;2.220446049250313e-16;2.220446049250313e-16;2.220446049250313e-16;2.220446049250313e-16;-1.7748840773796498e-05;-1.7748840775204026e-05;1.2392496236551158e-08;-0.0002170210693662646;2.220446049250313e-16;4.4498312618772007e-08;2.220446049250313e-16;2.8786673899629797e-06;2.8786673897409355e-06;-2.8914109278012213e-10;9.587592672840645e-08;-2.4531131304626207e-10;3.215011447580691e-07;3.7141191332578743e-05;-4.8878392594029745e-06;-4.887839256242711e-06;1.3070770849688986e-07;-0.0030126027354293408
2.160038471221924;0.0008440109217204171;-0.000551051371640715;0.00010060338234221929;0.0005880309809123047;0.001214973051988295;0.000733078939678002;2.220446049250313e-16;2.220446049250313e-16;1.1406401861570093e-05;2.220446049250313e-16;2.220446049250313e-16;2.220446049250313e-16;2.220446049250313e-16;-4.379465344809503e-15;2.220446049250313e-16;2.220446049250313e-16;2.220446049250313e-16;2.220446049250313e-16;-1.445654174051208e-05;-1.445654174165852e-05;1.0093765637772394e-08;-0.0004603133886029492;2.220446049250313e-16;3.6244153742443664e-08;2.220446049250313e-16;2.3446925808166282e-06;2.344692580594583e-06;-2.355072272012393e-10;7.809154154482911e-08;-1.9980759767188697e-10;2.61864691787602e-07;3.0251732472831207e-05;-4.6501948949717665e-06;-4.650194892397712e-06;1.0646224549389485e-07;-0.002453783756774293
2.18000864982605;0.0007953881377135267;-0.0005720769036853909;8.933708509050015e-05;0.0006621782602113653;0.0011357635275579554;0.0007505122506985836;2.220446049250313e-16;2.220446049250313e-16;9.290585606260477e-06;2.220446049250313e-16;2.220446049250313e-16;2.220446049250313e-16;2.220446049250313e-16;-3.567101895005743e-15;2.220446049250313e-16;2.220446049250313e-16;2.220446049250313e-16;2.220446049250313e-16;-1.1774943601032969e-05;-1.177494360196675e-05;8.22143519800085e-09;-0.0003749281319757808;2.220446049250313e-16;2.9521089749181235e-08;2.220446049250313e-16;4.128252786648607e-06;4.128252786426562e-06;-1.9182210847557937e-10;6.360604866039793e-08;-1.627445371012374e-10;2.1329042811532548e-07;-6.837082642625777e-05;-3.7876128056725977e-06;-3.7876128035760124e-06;8.671416434381166e-08;-0.001998622206041141
2.200115442276001;0.0007501128370510206;-0.0005869483297633895;7.937490050965483e-05;0.0007237158298685363;0.001061848056445395;0.0007610152831085769;2.220446049250313e-16;2.220446049250313e-16;7.567240042459195e-06;2.220446049250313e-16;2.220446049250313e-16;2.220446049250313e-16;2.220446049250313e-16;-2.905426787869021e-15;2.220446049250313e-16;2.220446049250313e-16;2.220446049250313e-16;2.220446049250313e-16;-9.590765156438858e-06;-9.590765157199427e-06;6.696410352741678e-09;-0.0004405440763065336;2.220446049250313e-16;2.4045112107519048e-08;2.220446049250313e-16;3.3624876963258e-06;3.362487696103755e-06;-1.5624030624153736e-10;5.180752417169824e-08;-1.3255644262231468e-10;1.7372638676510827e-07;-5.568846544185211e-05;-3.0850343028003663e-06;-3.085034301092685e-06;7.062922882156174e-08;-0.0016278902782092964
2.2200028896331787;0.0007087905665221805;-0.0005954958337103339;7.083843598005284e-05;0.0007685709962200921;0.0009947123604008659;0.0007651229858133084;2.220446049250313e-16;2.220446049250313e-16;6.163564309833277e-06;2.220446049250313e-16;2.220446049250313e-16;2.220446049250313e-16;2.220446049250313e-16;-2.3664882776367418e-15;2.220446049250313e-16;2.220446049250313e-16;2.220446049250313e-16;2.220446049250313e-16;-8.793111360133172e-05;7.230763727630891e-05;5.454268084872801e-09;-0.0006525291868835077;2.220446049250313e-16;1.9584894093524933e-08;2.220446049250313e-16;2.738767244226059e-06;2.738767244004014e-06;-1.2725870593564615e-10;4.219755223487428e-08;-1.079680509936417e-10;1.4150122781009796e-07;3.703467656949083e-05;-3.988006637060994e-06;-3.988006635670079e-06;5.752794830784218e-08;-0.0013259268059157107
2.2401487827301025;0.000670340806988547;-0.0005974889970985817;6.35432683164924e-05;0.0007965565534989058;0.0009328728980200967;0.0007625126044282055;2.220446049250313e-16;2.220446049250313e-16;5.0202616526361415e-06;2.220446049250313e-16;2.220446049250313e-16;2.220446049250313e-16;2.220446049250313e-16;-1.927519492686861e-15;2.220446049250313e-16;2.220446049250313e-16;2.220446049250313e-16;2.220446049250313e-16;-7.162044159774471e-05;5.8895022484286586e-05;4.442535444304426e-09;-0.0010956007726684847;2.220446049250313e-16;1.5952018644764138e-08;2.220446049250313e-16;2.230743037737995e-06;2.2307430375159505e-06;-1.0365301135149586e-10;3.437017003000656e-08;-8.794065233463986e-11;1.1525363443399856e-07;3.016497553257884e-05;-3.248256330927662e-06;-3.2482563297947513e-06;4.6856873446414365e-08;-0.002661680261566768
2.26004695892334;0.0006365524687433087;-0.0005918013637885415;5.793006667258785e-05;0.0008072065699359268;0.0008791730260746181;0.0007515629266120726;2.220446049250313e-16;2.220446049250313e-16;4.0890344927074634e-06;2.220446049250313e-16;2.220446049250313e-16;2.220446049250313e-16;2.220446049250313e-16;-1.5699766737902776e-15;2.220446049250313e-16;2.220446049250313e-16;2.220446049250313e-16;2.220446049250313e-16;-5.833529730912305e-05;4.797036390734195e-05;3.6184728852324813e-09;-0.0014450543502935985;2.220446049250313e-16;1.2993018886276915e-08;2.220446049250313e-16;2.395197359326841e-06;2.395197359104796e-06;-8.442602557711431e-11;2.7994718303003024e-08;-7.162821095564126e-11;9.387480558170699e-08;2.4569561102382542e-05;4.3964158720968377e-05;4.396415872189115e-05;3.816521627756353e-08;-0.0039026848908280186
2.280381202697754;0.0006080792357237121;-0.0005779010625495375;5.417439577846208e-05;0.000803130189515196;0.0008343074652300699;0.0007309582220833495;2.220446049250313e-16;2.220446049250313e-16;3.330544150775809e-06;2.220446049250313e-16;2.220446049250313e-16;2.220446049250313e-16;2.220446049250313e-16;-1.278755813156392e-15;2.220446049250313e-16;2.220446049250313e-16;2.220446049250313e-16;2.220446049250313e-16;-4.75144642538889e-05;3.9072161217304434e-05;2.9472687804773877e-09;-0.0011770057999038249;2.220446049250313e-16;1.0582895089240588e-08;2.220446049250313e-16;1.950903219175801e-06;1.950903218953756e-06;-6.876552549521947e-11;2.2801873024785356e-08;-5.834162549968827e-11;7.646161586383523e-08;-6.677357064937571e-05;8.073751229833539e-07;8.073751237349499e-07;3.1085807190677234e-08;-0.0016935547820134506
2.30013108253479;0.0005883456152060932;-0.0005569400821714474;5.2786601562617854e-05;0.0007865079272979955;0.000803367103843773;0.0007020548737717702;2.220446049250313e-16;2.220446049250313e-16;2.7127490267078384e-06;2.220446049250313e-16;2.220446049250313e-16;2.220446049250313e-16;2.220446049250313e-16;-1.0415546020397132e-15;2.220446049250313e-16;2.220446049250313e-16;2.220446049250313e-16;2.220446049250313e-16;-3.870082810019408e-05;3.1824519512502054e-05;2.40056884212871e-09;-0.0009586785803079145;2.220446049250313e-16;8.619834193280764e-09;2.220446049250313e-16;1.5890228651844029e-06;1.5890228649623585e-06;-5.60099503003906e-11;1.857226809039407e-08;-4.751961860465545e-11;6.227846400619291e-08;-0.00014393473237389148;6.576120837644603e-07;6.576120843766399e-07;2.5319584243101544e-08;0.012067075725191164
2.3201215267181396;0.000577182838228341;-0.0005286333308171687;5.376613737810643e-05;0.0007575856877265348;0.0007860273094863774;0.0006643686697162559;2.220446049250313e-16;2.220446049250313e-16;2.209551036934951e-06;2.220446049250313e-16;2.220446049250313e-16;2.220446049250313e-16;2.220446049250313e-16;-8.483527330776092e-16;2.220446049250313e-16;2.220446049250313e-16;2.220446049250313e-16;2.220446049250313e-16;-3.15220663677837e-05;2.592127004617987e-05;1.9552783254690976e-09;-0.0007808496954019228;2.220446049250313e-16;7.02090882439089e-09;2.220446049250313e-16;1.2942690551061969e-06;1.2942690548841525e-06;-4.56204545818575e-11;1.5127228436301533e-08;-3.870502635110814e-11;5.0726198173444155e-08;4.2255124081793656e-05;-3.8111184971165033e-07;-3.811118492130262e-07;2.0622959613407727e-08;0.011270261912205846
2.3399763107299805;0.0005741880634363482;-0.0004956548014358923;5.6757172766499266e-05;0.0007184619943287118;0.0007816538998684452;0.0006215749561884889;2.220446049250313e-16;2.220446049250313e-16;1.7996931292774982e-06;2.220446049250313e-16;2.220446049250313e-16;2.220446049250313e-16;2.220446049250313e-16;-6.909886032962941e-16;2.220446049250313e-16;2.220446049250313e-16;2.220446049250313e-16;2.220446049250313e-16;-2.5674920069474617e-05;2.111303646055129e-05;1.592586416584114e-09;-0.0006360069572154622;2.220446049250313e-16;5.718574118146532e-09;2.220446049250313e-16;2.2493604819336854e-06;2.2493604817116408e-06;-3.715814538476407e-11;1.2321222106545324e-08;-3.152548586939227e-11;4.131680545100883e-08;3.441706265914644e-05;-3.1041798353919977e-07;-3.104179831330673e-07;1.6797529498618178e-08;0.011185827218665428
2.360161304473877;0.0005783010259358878;-0.00046115706481320864;6.123969986844891e-05;0.0006709767799504707;0.0007885268845977286;0.0005781277094857721;2.220446049250313e-16;2.220446049250313e-16;1.4658613018785798e-06;2.220446049250313e-16;2.220446049250313e-16;2.220446049250313e-16;2.220446049250313e-16;-5.628145360636021e-16;2.220446049250313e-16;2.220446049250313e-16;2.220446049250313e-16;2.220446049250313e-16;-2.0912382864837506e-05;1.7196700153596897e-05;1.2971715899728644e-09;-0.0005180316416954767;2.220446049250313e-16;4.657814360318587e-09;2.220446049250313e-16;1.8321181710585918e-06;1.8321181708365482e-06;-3.026554165429898e-11;1.003571241341933e-08;-2.567770527490668e-11;3.365279626988076e-08;-6.0689470979313405e-05;-2.5283738770507534e-07;-2.5283738737427784e-07;1.3681692761183868e-08;0.010754276859581923
2.38022518157959;0.0005883526825287033;-0.00042919417093918835;6.657281186233909e-05;0.0006178446528850408;0.0008048507371419272;0.0005396868845994532;2.220446049250313e-16;2.220446049250313e-16;1.1939531920132395e-06;2.220446049250313e-16;2.220446049250313e-16;2.220446049250313e-16;2.220446049250313e-16;-4.584159572146542e-16;2.220446049250313e-16;2.220446049250313e-16;2.220446049250313e-16;2.220446049250313e-16;-1.703326654580305e-05;1.400681975448063e-05;1.056554367355335e-09;-0.0004219400098587262;2.220446049250313e-16;3.79381890781924e-09;2.220446049250313e-16;1.492271701086386e-06;1.4922717008643411e-06;-2.465147283706185e-11;8.174150483932628e-09;-2.0914651432069452e-11;2.7410412891794563e-08;-4.943195342184437e-05;-6.547458332555243e-07;-6.547458329860877e-07;1.1143824264564012e-08;-0.005085716698698328
